/* XPM */
static char *_88ac372078f440b8cad0c927da0773cvoDbRLfi3P5zY7lO[] = {
/* columns rows colors chars-per-pixel */
"512 512 256 2 ",
"   c #16150B",
".  c #1A160C",
"X  c #1C1A0D",
"o  c #181605",
"O  c #1D1C12",
"+  c #1B1812",
"@  c #100E03",
"#  c #211E0D",
"$  c #221D05",
"%  c #221E13",
"&  c #231E18",
"*  c #1D230A",
"=  c #1F2113",
"-  c #1D3510",
";  c #24230D",
":  c #29250D",
">  c #2B2B0E",
",  c #25290A",
"<  c #29360C",
"1  c #252215",
"2  c #2A2515",
"3  c #262A14",
"4  c #2C2A15",
"5  c #262419",
"6  c #2A261A",
"7  c #262A1A",
"8  c #2D2A1B",
"9  c #312D15",
"0  c #322D1C",
"q  c #352B1C",
"w  c #2C3314",
"e  c #2C3B14",
"r  c #2D321B",
"t  c #2D3B1A",
"y  c #243617",
"u  c #333315",
"i  c #333B15",
"p  c #34321D",
"a  c #39351D",
"s  c #353B1C",
"d  c #3B3A1D",
"f  c #3A3716",
"g  c #32330D",
"h  c #2E2C21",
"j  c #2B2721",
"k  c #322E21",
"l  c #372E24",
"z  c #2E3121",
"x  c #2C3724",
"c  c #353322",
"v  c #3A3523",
"b  c #363923",
"n  c #3C3B24",
"m  c #363328",
"M  c #3B3529",
"N  c #3D3B29",
"B  c #363929",
"V  c #3E3C31",
"C  c #231E22",
"Z  c #413C1E",
"A  c #42371B",
"S  c #423D24",
"D  c #423D2A",
"F  c #443A25",
"G  c #433E31",
"H  c #34490C",
"J  c #36550C",
"K  c #2A4316",
"L  c #334314",
"P  c #344B14",
"I  c #35431B",
"U  c #3B441C",
"Y  c #3C4B1C",
"T  c #384917",
"R  c #3A5415",
"E  c #3C5B15",
"W  c #3C531B",
"Q  c #3D5B1B",
"!  c #365415",
"~  c #2C4709",
"^  c #3D6416",
"/  c #39640D",
"(  c #3D4223",
")  c #3D4B22",
"_  c #3E412A",
"`  c #394524",
"'  c #3D5422",
"]  c #354129",
"[  c #43431D",
"{  c #424C1D",
"}  c #49461C",
"|  c #42531D",
" . c #435C1C",
".. c #475919",
"X. c #495711",
"o. c #44631C",
"O. c #476A1B",
"+. c #49741C",
"@. c #537119",
"#. c #444225",
"$. c #494525",
"%. c #434B24",
"&. c #4B4A25",
"*. c #44432B",
"=. c #4A452B",
"-. c #454A2B",
";. c #4C4A2C",
":. c #524C26",
">. c #524D2D",
",. c #544A2A",
"<. c #435323",
"1. c #4B5325",
"2. c #445B23",
"3. c #4B5C25",
"4. c #45532A",
"5. c #4C532B",
"6. c #4B5B2B",
"7. c #465B2A",
"8. c #54522D",
"9. c #5A542D",
"0. c #535C2C",
"q. c #585929",
"w. c #454431",
"e. c #4A4632",
"r. c #464931",
"t. c #4C4B32",
"y. c #4D4A39",
"u. c #524D32",
"i. c #524E3A",
"p. c #594F33",
"a. c #4E5232",
"s. c #4C5934",
"d. c #545233",
"f. c #5A5533",
"g. c #555B33",
"h. c #5C5A34",
"j. c #55533A",
"k. c #5A553A",
"l. c #5C5A3B",
"z. c #56593A",
"x. c #615A2D",
"c. c #635C35",
"v. c #635D3B",
"b. c #655B37",
"n. c #456323",
"m. c #4B6424",
"M. c #4C6C23",
"N. c #4C632B",
"B. c #4D6B2A",
"V. c #466825",
"C. c #53642C",
"Z. c #536C2B",
"A. c #576929",
"S. c #4C7224",
"D. c #4D7627",
"F. c #527325",
"G. c #54732B",
"H. c #547B2B",
"J. c #5A7C2D",
"K. c #587728",
"L. c #4D6532",
"P. c #546333",
"I. c #5B6334",
"U. c #546B32",
"Y. c #5B6C33",
"T. c #5A663A",
"R. c #557332",
"E. c #5B7433",
"W. c #5B7C33",
"Q. c #5A7838",
"!. c #4F7431",
"~. c #65792A",
"^. c #646234",
"/. c #65623C",
"(. c #6A643C",
"). c #6D6A3D",
"_. c #666837",
"`. c #736B3C",
"'. c #647938",
"]. c #6D6F32",
"[. c #657A1A",
"{. c #5D5B42",
"}. c #595642",
"|. c #544E42",
" X c #625E42",
".X c #645E47",
"XX c #5E6A42",
"oX c #656243",
"OX c #6B6543",
"+X c #6D6A44",
"@X c #65634A",
"#X c #6A654A",
"$X c #6D6A4B",
"%X c #656A45",
"&X c #736B44",
"*X c #736D4B",
"=X c #776C44",
"-X c #687745",
";X c #75724C",
":X c #7A734C",
">X c #787445",
",X c #726E52",
"<X c #797554",
"1X c #6C6C52",
"2X c #7C7D62",
"3X c #827C56",
"4X c #81794A",
"5X c #847E61",
"6X c #6A861C",
"7X c #5B832C",
"8X c #58872A",
"9X c #5C942C",
"0X c #5C8333",
"qX c #5D8B33",
"wX c #5B8437",
"eX c #5E9433",
"rX c #4E8125",
"tX c #66872A",
"yX c #66942C",
"uX c #628434",
"iX c #638C34",
"pX c #63843B",
"aX c #648B3B",
"sX c #6B8939",
"dX c #758938",
"fX c #649334",
"gX c #65933A",
"hX c #6A943B",
"jX c #699938",
"kX c #759838",
"lX c #759029",
"zX c #6BA33B",
"xX c #75A43C",
"cX c #7CB53A",
"vX c #59841B",
"bX c #6A8944",
"nX c #758948",
"mX c #6C9643",
"MX c #749947",
"NX c #779353",
"BX c #76A746",
"VX c #7AB349",
"CX c #7CA753",
"ZX c #73A948",
"AX c #889635",
"SX c #89A433",
"DX c #88835A",
"FX c #8C954B",
"GX c #85B657",
"HX c #87AB4F",
"JX c #8F8965",
"KX c #98AD64",
"LX c #8CC858",
"PX c #95D065",
"IX c #A4CA76",
"UX c #B4C884",
/* pixels */
"*X*X*X*X*X$X#X#X#X$X*X*X;X,X*X*X#X@X{.k.k.{.@X$X Xk.=.Z f f Z S =.e.e.e.e.*.n n p c v n v v n n n n N N n n M M D D M M M M c 8 5 0 2 d j.l.l.;.#.#.S n n n _ #.#.#.#.*.#.#.#.#.#.#.#.#.#.$.&.&.8.8.>.:.:.>.>.>.>.>.;.;.;.;.;.;.=.=.*.#.#.#.S S S n n n n n n n v a a v *.;.;.;.>.>.>.8.8.>.;.;.=.=.*.D n n n n v v n v n n N N N c 8 2 2 2 2 8 8 c *.y.j.y.*.b B B b b b b B B n m c 0 0 0 k c c c 0 8 8 8 8 8 5 5 5 5 8 5 5 5 j j 6 6 6 6 8 h h h 8 0 m N B z 5 5 5 5 5 5 5 7 7 5 1 5 6 8 7 1 3 3 3 4 r a #.-.*.-.r.*.m 3 5 8 4 4 3 3 3 4 4 u a a n #.*.=.=.t.#.*.=.t.t.n p p a a c c c c n n c c c c c c c c n n n n n n n n v p 8 0 c v c c c c v v v c p 0 8 8 8 8 8 8 8 8 0 8 1 5 v N M N D *.=.=.=.=.=.=.t.=.-.-.-.-.;.;.-.=.=.=.;.;.=.=.t.=.*.#.*.-.=.=.#.n #.n N n 4 : p m D *.D D *.*.#.#.#.#.#.#.#.#.=.;.u.;.a 9 a v c c c c c c c c 0 0 k k k k k k k k k h k k k k 8 8 0 c D *.D S D *.D D D n 8 2 5 5 8 8 8 6 6 6 h h k c m m m m M M M v v p p n $.;.f.v./././././.(.OX(./.v././././.(.v.v.h.k.f.v.c.c.c.c.c.v.v.v.v.v.l.h.h.h.h.h.h.h.h.h.h.h.h.",
"*X*X*X*X$X+X#XoX+X$X$X$X$XOXv.v.t.=.*.S #.=.t.d.l.d.;.#.d a f a u p 9 9 p a c v n v c c p 0 a v v v n N N N M v N N M M M M k 8 5 0 2 d j.v.l.;.#.#.S n n n _ #.#.#.*.#.#.*.#.#.=.$.#.#.$.&.;.&.>.>.:.&.&.>.>.>.>.>.;.;.;.;.;.;.;.$.*.#.#.#.S S S n n n n n n n v a a v *.;.;.;.>.>.>.>.>.>.;.;.=.=.*.D n n n n n n n n v v M n c m p 2 2 8 8 1 n N t.y.y.w.n b B B b B b b B B n B c 0 0 0 k c c c 0 8 8 8 8 8 5 5 5 5 8 8 6 5 8 8 6 6 6 6 8 h k 8 8 c N M r 7 5 5 5 5 5 5 5 1 5 6 8 6 1 1 1 3 4 r b _ *.*.*._ *.r.w.N 6 = 1 r 4 w p a n #.*.*.=.=.-.=.=.=.=.=.#.*.=.;.t.#.p p a a c c c c n n c c c v c c c n n n n n n n n n v 0 8 8 c v c c c c v v v c 0 0 8 8 8 8 8 8 8 8 0 8 1 5 v N N N D *.=.=.=.=.=.=.t.=.-.-.-.-.;.;.=.=.=.=.=.=.;.;.t.t.=.=.;.t.=.=.#.( #.n N n 4 : 8 p n *.*.*.*.*.#.#.#.#.#.$.$.$.#.;.d.u.n 9 q a c c c c c c c c k k k k k k k k k k k k k k k k h 8 0 c D D D S D *.D D D n 8 2 5 5 8 8 8 8 6 6 8 8 h k k m c c c c c p a a n t.@XOX#X+X+X+X#XOXOX/./.(.+X+XOX/.(.(.OX(.v.v.v.v.v.c.c.c.c.v.v.v.v.v.v.v.v.v.v.v.l.l.h.h.h.k.f.f.",
",X*X$X#XoX Xv.v.l.l.l.k.d.>.;.$.S S n d n S #.$.=.=.;.=.$.S Z d a p u 9 9 p a a n a a a p 4 4 9 c c v N N N M v v M M M M M k 6 5 0 2 S k.l.v.;.#.#.S S n n #.#.#.*.*.*.#.*.#.#.=.=.=.=.&.;.;.>.;.&.&.&.&.;.>.>.>.>.;.;.>.>.;.;.;.$.*.#.#.#.S S #.S n n n n n n v a a a *.;.;.;.;.>.>.>.>.>.;.;.=.*.*.N n n n n n n n v v v v v c c 8 8 2 2 8 p *.t.i.y.w.n n b B B B B B B B B n B m c 0 0 k c c c 0 8 8 8 5 5 5 5 5 5 5 6 6 6 8 8 6 5 6 8 h h k h c M M z 1 1 1 1 5 5 7 7 5 1 6 6 1 1 1 3 z m _ _ *.-.r.-.*.*.-.r._ r * X 7 c a a #.=.t.d.d.d.d.d.a.;.;.=.#.#.#.-.-.;.;.#.p a a a a a a c b n c a v b c a n n n n n n n n n n v 0 2 8 c v c c c c v v v c 0 0 8 8 8 8 8 8 8 8 0 8 1 2 v N N N S *.=.=.=.=.=.=.t.=.-.-.-.-.=.;.=.=.=.=.=.t.t.t.=.=.;.t.a.t.=.*.#._ *.n N N 8 1 1 8 c *.=.w.=.*.$.$.#.$.$.$.$.$.#.;.d.u.S a q 0 c c c c c c c c c c k k k k k k c c c c k k k k 8 8 8 a N D D S D D D D D n 8 2 5 8 8 8 6 6 6 6 5 5 8 h h h h h 8 6 8 0 8 p n =.;.;.u.k.v.OX$X*X*X*X*X+X+XOXOXOX(.+X+X+X#XoXOX+X(./././././.v.v.v.v.v.v.v.v.v.v.l.l.l.l.l.h.h.k.",
"#XoXl.d.;.#.S Z #.#.#.#.S Z d f d d a d d n S S S S ;.>.u.>.;.$.=.$.=.#.S n n a n a a n n 4 2 2 8 8 c c v v v v c M M M M M c 8 5 0 4 #.l.v./.8.#.#.#.S n _ #.#.*.*.*.*.*.*.#.#.=.=.=.=.;.;.>.8.>.:.&.&.&.;.;.;.>.>.;.;.>.>.;.;.;.=.*.#.#.#.S S #.S n n n n n n v a 9 a D ;.;.;.;.;.>.>.>.;.;.;.*.*.D n n n n n v v n v v v c c c 8 6 2 1 1 c w.w.t.t.e.N n v n B B B B b b B B n B m c 0 0 k c c c k 8 8 8 8 5 5 5 5 5 5 6 6 6 8 5 5 5 8 8 h h 8 c M M 8 1 1 3 1 1 5 1 7 6 6 2 3 1 1 3 p N w.w.e.r.*.*._ *.-.r.-.*.B 3 = 5 z B *.#.=.a.t.t.;.=.a.;.;.;.=.-.-.#.#.-.-.=.;.#.a a a a a a a a b n a b b a a n n n a a n n b n n n v 0 2 8 c v c c c c v v v c 0 8 8 8 8 8 8 8 8 8 0 8 1 2 m M N N n #.*.=.=.=.=.=.t.=.-.-.-.-.=.;.t.t.=.=.=.t.t.t.*.*.-.=.;.=.*.#.#.*.*._ *.N p 1 1 2 p n *.w.=.*.$.$.$.$.$.$.$.$.#.;.d.u.D a k 0 c c c c c c c c c c k k k k k k k k k c k k k k 8 8 8 a n D D S D D D D D n 8 2 5 5 5 5 6 6 6 6 1 5 8 h h h 8 6 8 5 8 9 2 9 n S a f f Z #.;.u.d.d.l.#X+X$XOXoX/.(.(.OXOXOXOX+X&X+XOX(.(.(.(./.v.v.v.h.h.h.h.h.h.h.h.h.l.l.k.k.k.",
"=.$.#.S S Z S S d d d d d d d d d v v v d n d d S $.;.u.u.>.>.;.u.d.d.j.j.d.d.t.=.=.=.t.e.n 4 : 2 2 2 2 8 8 k c c v M M M M c h 5 8 9 =.l.l./.8.#.#.S S n #.#.#.*.*.*.*.*.*.*.*.#.#.#.#.&.;.>.>.8.>.>.>.:.&.&.&.>.>.>.>.>.>.;.;.;.=.*.#.#.#.#.#.#.S n n n n n n v a 9 a S $.;.;.;.>.>.>.>.;.;.;.*.*.N n n n v n v v n v v c c p 8 8 2 1 1 m *.w.*.*.*.N N M n N B B B B B B n n M B m c 0 0 k c c c k 0 8 8 8 5 5 5 5 5 5 6 6 6 8 5 5 5 6 8 8 k h m M 8 1 O 1 7 1 1 1 1 1 3 3 3 3 4 p N w.t.r.w.-.-.*.*.*.*.-.*.r._ m 7 7 z B B -.=.;.;.=.-.#.#.=.&.-.-.-.-.&.&.#.#.#.=.;.#.n d s s a a v v a a n a a a a a a n a a a a a a a n v 8 2 8 c v c c c c v v v c 0 8 8 8 8 8 8 8 8 8 0 8 1 2 m M N N n S *.=.=.=.e.t.e.=.-.-.-.-.-.;.t.;.=.=.=.;.t.t.*.*.*.*.*.*.#.#.#.-.*._ *.D c 1 1 1 4 p n *.*.*.*.#.#.#.#.#.#.#.$.=.u.t.n p c p c c c c c c k k k k k k k k k k 0 0 k k k k k k 8 8 8 0 n D S S D D S S D n 8 2 5 5 6 6 6 6 6 6 5 5 8 h h h 6 5 k 8 8 2 2 a *.*.$.$.S S Z d d d u f Z ;.l.oX+X+X(.(.OX(.oXoXoXOX+X(.(.(.(./.v.v.h.h.h.h.h.h.h.l.l.k.k.f.d.d.u.u.",
"*.*.S S S S S S n n n n n d d n S S S S n n n d S $.;.u.>.>.>.>.>.d.d.j.k.l.l.{.l.l.{.{.k.t.n 4 2 1 1 ; ; 1 2 8 0 c c c c M c 8 5 8 9 t.l.T./.8.#.#.S D *.#.#.#.*.*.*.*.*.*.*.=.#.#.#.#.&.;.>.8.9.9.8.8.8.>.>.>.>.>.>.>.>.>.;.;.;.=.*.#.#.#.#.#.#.S n n n n n n v q 9 a S $.;.;.;.;.>.>.;.;.;.;.#.n n n n v v v v v n v v c 0 0 6 1 1 6 M w.w.N D N n n N N N N B B B B B B n n M m m c 0 0 k c k c k k 0 8 8 5 5 5 6 5 5 6 6 6 6 5 5 5 8 8 h h c c 8 1 O 1 7 1 3 3 1 1 1 3 3 4 B _ r.t.e.r.*.*.*.-.*.*.-.*.-.r.y._ x 7 z x x x *.#.#.#.#.#.-.-.&.&.-.-.%.%.&.&.#.#.#.;.d.=.n d a a a a v v a a n a a a a a n n a a a a a a n n c 8 2 8 c v v v c v v v v c 0 8 8 8 8 8 8 8 8 8 8 8 1 2 m M N N n S *.=.=.=.=.e.e.=.-.-.-.-.;.;.;.=.=.-.-.=.;.t.=.*.*.#.*.*.*.*.*.-.*._ *.*.n 1 1 3 2 8 p c n n #.#.#.#.#.#.#.#.=.=.t.=.v 0 p p p p c c k k k k k k k h h 8 8 8 8 8 h h k k k k 8 8 8 0 v D D S S D n S D n 8 2 5 5 6 6 6 6 6 6 5 6 8 h h h 6 5 h 6 2 2 4 v n n $.$.$.$.$.#.#.#.Z d f f Z >.l.OX+X&X&X&X+XoX(.(.+X+X&X+X(.v.v.v.k.k.k.h.l.l.l.l.k.k.d.u.;.=.*.*.",
"v v n n n n v v n n v v v v a a v v v v v n n d Z #.>.u.u.u.>.d.;.;.;.>.u.d.d.k.l. X#X#X#X Xt.a 0 0 8 2 1 1 1 1 2 6 8 8 8 k 8 5 5 8 0 u.oXT./.8.#.#.#.D *.#.#.#.*.*.*.*.*.*.=.=.*.*.#.=.;.>.8.8.f.f.f.f.9.8.8.>.>.>.;.;.;.;.;.;.;.=.*.*.#.#.*.#.#.S n n n n n n v q 9 q n $.=.$.;.;.;.;.;.;.;.=.S n n n v v v v c v v v v a 0 8 1 1 6 M w.w.N N *.N M N N *.n n b b B B B B n n M m c k 0 0 k c k k c c 0 8 8 5 5 5 5 5 6 6 6 6 5 6 6 6 6 8 k k h 8 1 1 1 7 7 1 2 3 3 2 4 p b N r.r.t.t.=.*.*.-.-.-.*.*.-.-.r.r._ B r 7 z x x z _ #.#.#.#.#.-.-.-.-.-.-.#.#.#.#.#.#.*.;.d.=.n n a a n n v n c a n n n n n n n n n n n n n n n n c 8 2 8 c v v v m v v v v c 0 8 8 8 8 8 8 8 8 8 8 6 1 2 m M N n n N *.=.=.=.e.e.e.e.-.-.-.-.;.;.=.=.*.*.*.-.=.t.=.-.*.*.*.*.*.*.*.t.*.( *._ N ; 1 2 4 8 8 4 p p n d S #.#.#.#.*.=.=.e.*.a 9 0 k c c c k k k k k k 8 8 8 8 8 8 8 8 8 8 8 h k k k h 8 8 0 v S D D n D n n D n 8 2 5 5 5 5 6 6 6 6 6 8 8 8 6 6 5 5 5 5 1 2 v *.*.n =.=.=.$.$.$.$.$.>.>.>.$.[ Z $.&.v./.OX+XOXOX/././.).+XOXv.k.k.k.k.k.k.k.k.k.k.d.u.u.;.=.*.D S n ",
"n n n n n v a a S n n n n n n n v v v v n n S S S $.u.f.f.d.d.d.d.d.d.d.d.d.d.d.;.k.#X$X;X*Xk.S n N v c 8 2 2 1 % 1 1 % 1 5 5 % 5 8 a d.oXT./.8.#.#.#.D *.#.#.#.*.*.*.*.$.=.=.=.=.$.=.=.>.8.d.f.f.f.h.h.h.f.f.8.>.>.;.;.;.;.;.;.;.=.*.*.#.#.*.*.#.S n n n n n n v q 8 9 n *.=.$.;.;.;.;.;.;.;.=.S n n n v v v v v v v n v a 0 8 . 6 N w.D N *.N *.*.*.*.*.N n c B b B B B B n n M m c k 0 0 k c 0 k c c k 0 8 5 5 5 6 6 6 6 6 6 5 6 6 6 6 8 k k 5 1 1 5 8 5 1 3 3 3 3 w b *.t.j.r.-.*.*.-.=.-.-.*.*.*.-.-.-.*._ ] z 7 7 z x x x _ #.#.#.#.#.#.#.#.#.#.#.#.#.#.#.#.#.=.t.j.t.n n n n n n n n c c n n n n n n n n n n n n n n n n c 8 2 8 c v v v m v v v c c 0 8 8 8 8 8 8 8 8 8 8 6 1 2 c N M n n D *.=.=.=.e.e.e.e.-.-.-.-.=.;.=.=.*.#.*.*.=.t.-.*.#.*.*.*.*.#.*.t.*._ *.*.N 1 ; 2 8 9 4 3 3 4 a a d S #.#.=.=.$.=.e.*.c 0 0 8 c c k k k 0 k k 8 8 8 8 8 6 6 5 6 8 8 8 h h k k k 8 5 8 v n D D n D n n D n 0 2 5 5 5 5 5 6 6 6 6 6 5 5 5 5 5 5 5 5 1 2 *.j.k.j.f.d.>.;.=.$.$.$.;.&.;.>.>.&.$.Z $.:.9.h.v.v.h.h.8.h./.c.>.$.$.;.l.l.k.d.u.>.;.;.=.=.*.D D D S n ",
"n n n n v v v v v v v v v n n n n n n S S S S S Z ;.d.d.k.d.>.8.f.d.d.d.f.k.f.d.>.d.l.oX*X<Xv.S n N N N M M M M 8 8 1 % X X % 1 0 8 q k.@X/.+Xh.#.*.*.*.=.*.*.#.*.*.*.*.*.*.#.#.=.=.=.;.d.k.k.f.f.f.h.h.h.h.f.f.>.>.>.;.;.;.;.;.;.$.*.#.#.#.*.S S S S n n n n n n c 9 9 a #.=.;.;.;.=.;.;.$.S Z n n n n n n n n v N v c n a 1 X 6 M w.*.N N *.w.*.*.*.*.N N n b c b b N N N M B B M m 8 8 8 8 c c c k 0 0 0 8 8 5 5 5 5 5 5 5 5 6 6 5 8 6 6 6 6 6 1 1 1 7 1 1 1 3 4 p #.j.z.j.t.t.-.-.-.;.;.-.-.r.-.-.-.-.-._ _ B x 7 7 z z z x *.#.#.#.*.#.*.#.#.#.#.#.#.#.#.#.$.*.*.u.{.j.D a v v v v v v v v c a c c c c c a n n n n v c n D v 8 1 4 c n n n v v c p 0 8 8 8 c c c k 0 8 8 8 8 6 1 5 v D M N n n *.=.e.e.=.=.=.=.r.r.-.-.;.;.d.=.*.*.=.t.t.t.*.*.*.*.*.*.-.-.;.;.t.r.*.*.N 4 ; 2 a v n n n n u u u p d #.*.*.e.=.e.*.c 0 k h 8 8 0 k k k k k 8 8 5 5 5 6 5 5 5 5 5 8 h h h h k 8 5 8 c n D D S n n n D n p 8 5 5 5 5 6 6 6 6 5 5 5 5 6 6 6 6 1 1 2 4 v e.j.k. XoXv.k.d.f.>.&.&.&.&.&.&.&.:.>.} [ [ $.>.8.f.h.9.h.h.&.d f S $.;.;.;.=.$.*.=.t.n n n n v n n v ",
"n n n n n n v v v v v v n n n n n n n S S S S S S >.d.f.k.d.8.8.d.8.d.d.f.f.d.8.;.>.k.v.#X*Xl.n n n n N N N N N c c 8 5 % % 1 1 8 8 a k.@X/.$Xh.#.#.S *.*.*.#.#.*.*.*.*.*.$.*.#.=.=.=.;.d.k.k.f.f.h.h.h.h.h.f.f.>.>.>.;.;.;.;.;.;.=.*.#.#.#.#.S S S S n n n n n n c 9 9 v S =.;.;.=.=.;.=.$.S Z n n n n n n n n n a c v 8 X X 8 c N w.*.N N *.w.*.*.*.*.N N n b c b b _ N N M B B M m 8 8 8 8 c c c k k k 0 8 5 5 8 8 8 5 5 5 5 6 5 5 6 8 6 6 6 1 6 6 1 1 6 6 1 3 a ;.d.a.t.t.d.;.;.-.-.;.;.;.-.-.-.*.-.-.r._ ] r r 7 7 z x x r _ S n S #.#.#.*.#.#.#.#.#.#.#.#.#.#.*.u.l.d.n a v v v v v v v c v v v v v v v v c c c c v c c c c 2 ; 2 0 c p p 0 0 0 0 0 0 0 0 8 8 8 8 8 8 8 8 8 6 1 2 m M N N n n *.=.e.e.=.=.=.=.r.-.-.-.;.;.t.=.*.-.=.t.t.=.-.-.*.*.*.*.*.*.;.;.a.-.-.*.N 4 ; 8 n *.e.t.j.j.*.#.a u u p n *.*.*.=.*.v k k 8 0 0 8 0 k k k k 8 8 5 5 5 6 5 5 5 5 5 5 h h h h k 8 5 8 c n D D S n n n D n 0 2 5 5 5 5 6 6 6 6 5 5 5 5 6 6 6 6 5 5 2 4 a *.t.t.d.v./.v.h.h.h.h.f.f.8.&.$.$.$.&.>.>.&.$.#.[ [ [ $.&.&.$.Z S *.e.*.$.=.*.S n a a a a a v v v n n ",
"n n n n n n n v v v v n n n n n n n D S S S S S S >.k.k.k.f.8.d.8.8.d.d.d.d.>.>.;.;.>.f.v.OXk.d v v n N N N M M M M c k 8 5 5 5 8 2 n {.@X/.$Xh.$.*.*.=.-.=.*.#.*.*.*.*.*.*.*.*.=.=.=.;.8.d.k.f.h.h.h.h.h.h.h.f.>.>.;.;.;.;.>.;.;.=.*.#.#.#.#.S S S S n n n n n v c 9 9 a S =.=.$.$.$.$.$.#.S n n n n n n n v n v c c p # o 1 N G w.w.N M N *.*.*.*.*.D N n n b b B N _ _ N M B n n m 8 8 8 8 c c c c c c k 8 8 5 5 8 8 8 6 5 5 6 6 6 5 8 8 6 6 6 6 2 2 1 3 8 c *.=.d.d.a.t.t.d.a.a.;.;.5.5.;.-.-.-.-.-.r.r.N c b c r = 3 x B b *.*.*.*.#.*.*.*.#.#.#.#.#.#.#.#.#.#.*.d.l.d.#.a a a c c c a a a n n n n n n n n a a c c c v v c p 2 1 2 8 0 0 8 0 0 0 p c c c c 0 k 8 8 8 8 8 8 8 6 1 1 m M M n n n *.=.e.e.e.e.=.=.-.-.-.-.t.t.-.-.-.=.=.=.=.=.*.*.*.=.=.t.t.t.;.;.a.;.-.r._ r ; p *.r.t.t.j.l.l.j.=.d u 4 u a a n D N c 0 k 8 8 8 8 0 k k k k 8 8 5 5 5 5 6 5 5 5 5 6 6 h h h h 8 5 5 q n S D n n v n n n 0 2 5 5 5 5 6 6 6 6 5 5 5 5 6 6 6 6 5 5 5 2 p n *.#.;.f./.(./././././././.c.9.>.&.&.;.>.>.>.;.&.&.&.#.$.$.=.=.e.w.w.D n c a p 9 8 4 9 0 0 a c v n n ",
"n n n n n v v v n n n n n n n n n S S D D S S S $.d.k.k.f.f.d.f.>.>.d.d.d.d.>.;.;.=.;.>.f. Xf.n n v n N N N N N N M M c k 8 5 5 8 2 S  X@XoX$Xd.*.*.*.=.=.=.-.-.*.*.*.*.#.#.#.#.=.=.=.;.>.d.k.f.h.h.c.c.c.h.h.h.>.>.;.;.;.;.>.>.>.=.*.#.#.#.*.#.#.#.S n n n n n c k 9 9 a n *.=.$.$.$.$.$.#.S n n n n n n n v v v n a ; # 8 N w.e.w.N m n N D N N N N N N n n b b B N _ _ N M M M M c 8 8 8 8 c c c c c c k 8 5 5 5 8 8 8 6 5 5 6 6 6 6 8 8 6 6 8 2 3 3 3 4 N t.z.a.t.t.a.d.a.t.a.a.5.5.5.5.;.-.-._ _ -.r._ B r 3 = * * * * * 3 n n S #.*.#.#.#.#.#.#.#.#.#.#.#.d #.#.;.j.;.d p a a a a a a a a a a v v v v a a a v v a a v v a 2 1 1 2 8 0 0 0 0 0 0 p c c p 0 0 k 8 8 8 8 8 8 6 1 # 1 c N N N n n *.=.e.e.e.e.=.=.-.-.r.-.t.t.-.-.-.=.=.=.-.*.*.-.=.;.t.a.d.d.;.;.a.t.-.r.*.p ; c *.r.*.*.-.e.j.j.j.t.#.a u 4 p p v m 8 8 8 8 8 8 8 8 h h k k 8 8 5 5 5 5 6 6 5 5 5 5 6 6 h h 8 6 5 5 0 v n n v v v v n v 0 2 5 5 5 5 6 6 6 6 5 5 5 5 6 6 6 6 5 5 5 2 0 n S S #.&.f.v.OX+X+X+XOX/./.OX&X+Xh.>.$.$.;.;.>.>.;.>.;.;.;.;.=.n k 8 8 4 2 2 8 0 0 9 a a c c v v v n ",
"v v v v v v v v v n n n n n n n n N N D S S S S $.d.k.k.f.f.8.f.>.>.d.f.d.>.;.;.;.;.=.;.d.v.f.S n N N v v v v v m v M m c k 8 5 5 1 n {.#X$XoX;.d n n n n _ n d n n n n #.#.#.#.*.=.=.=.>.d.f.h.h.c.c.c.c.h.h.f.>.>.;.&.;.>.>.>.u.=.*.#.#.#.*.#.#.#.D n n n n n v k 9 9 9 n *.$.$.$.$.$.$.#.S n n n n n n n n v v v 1 # c e.t.y.w.N c c c M N N N N N N N n n b b b N _ _ _ N M M M c 6 6 6 8 c c k 0 k c 0 8 5 5 5 6 6 8 8 6 6 6 6 j 6 8 6 6 6 2 2 2 1 r _ t.a.a.a.t.a.a.a.a.a.a.a.;.;.;.;.;.-.-._ _ _ w._ c 4 * ; r n _ p > > a a d d S #.#.#.#.#.#.#.#.#.#.#.$.&.&.8.k.d.#.S Z Z S S n n n n d d d d d d d d d n d a d S u ; o X # 1 6 8 0 0 0 0 0 0 0 0 8 2 8 8 6 6 5 2 1 1 2 1 # 1 c D M N n N *.w.e.e.e.e.e.e.-.-.r.r.r.r.=.=.*.*.=.=.=.=.t.t.;.;.=.=.=.-.-.-.a.t.-.t.*.p 1 b r.e.*.*.*.=.=.e.t.j.j.t.#.a p p p 0 1 1 8 8 6 5 8 8 8 8 h h 8 8 5 5 5 6 6 6 5 5 5 5 6 6 6 6 h 5 5 5 0 c v n v v v v n v 0 2 5 5 5 5 6 6 6 6 6 6 6 6 6 6 6 6 1 5 2 4 a n *.*.S #.$.>.k./.*X<X*XOXv.v.OX*X:X<X<X,X@Xv.l.l.k.d.d.f.d.=.n 8 & & 5 1 5 8 0 k 0 8 c c c c v v v n ",
"v v v v v v v v n n n n n n n n M N N D S S S S =.f.k.k.f.f.8.f.>.>.d.d.>.>.;.=.>.;.=.=.u.l.k.#.n v v v c c c c c c c c c k 8 5 5 1 v k.$X;X/.#.a p p a n a a s n n n n d d d d *.*.=.=.;.8.f.h.h.c.c.c.h.h.f.f.;.>.&.;.>.>.>.d.u.=.*.#.#.#.*.*.#.#.D n n n n n c k 9 9 9 a S $.#.$.$.$.$.S S S n n n n n n v v v 1 o p i.j.y.|.w.M p p c m n N n M M M n n c c B b N _ _ _ N M N M c 6 6 6 8 c c 0 8 8 0 0 8 5 5 5 6 6 8 8 6 6 j j j j 8 8 6 6 1 1 3 a =.j.j.t.t.;.-.-.t.a.a.d.a.;.;.;.;.;.-.%.-._ _ _ _ B r 4 3 a r.j.{.oXoXl.d.d.;.=.=.=.;.8.d.8.d.8.d.8.d.d.f.f.f.h./.h.d.d.d.d.j.j.d.d.d.d.;.;.;.;.;.;.;.;.;.;.$.#.>.d.f o o # 2 8 0 m M n v v c v v m 0 8 6 6 6 1 1 1 1 1 5 1 # 1 m D N N n n *.w.e.e.e.e.e.e.-.-.r.r.r.r.;.=.*.=.t.d.d.t.=.=.=.=.*.*.*.#.-.-.-.-.-.t.*.p 3 n r.t.=.*.*.-.=.=.-.t.d.d.t.-.n c c 8 1 1 8 8 5 5 8 8 8 8 8 8 8 8 6 5 5 5 6 6 5 5 5 5 6 6 6 6 8 5 5 2 8 q v v v a a v v v 9 2 5 5 5 5 6 6 5 5 6 6 6 6 6 6 6 6 5 5 2 2 0 N *.*.#.#.#.#.#.>.oX<X<X<X*X*X*X<XDXJXJX<X#Xl.k.j.d.u.u.f.j.e.k 5 6 j h h h 8 h 8 8 8 0 0 0 a c v n n ",
"n n n n n n n n n n n n n n n n M N n D S S S S ;.f.k.d.f.d.8.d.>.d.d.u.>.=.=.=.>.;.$.$.u.l.k.*.v v m c c c c c k 0 k k c k 8 5 5 1 a d.,X<Xh.d s p a a n n a s n n n n d d d d #.*.=.=.;.>.d.h.h.h.h.h.h.f.9.9.&.&.&.;.>.>.>.d.d.t.*.#.#.#.*.*.S S D n n n n n c k 8 4 9 a S *.#.$.;.$.*.S S n n n n n n n n n 0 X 2 y.{.j.y.i.G v p c c c m n n n n n n b c p B b N _ _ _ N N N M c 6 6 6 8 m c 0 6 5 6 8 8 5 5 5 6 6 5 5 6 6 j j j j 6 8 6 6 2 3 a e.j.a.t.t.a.r.*.#.-.a.a.d.;.;.-.-.-.-.#.( -.-._ ` B r r 4 -.t.t.;.;.d.l.k.T.l.k.g.j.g.h.h.d.8.d.8.d.d.d.d.f.f.8.f.h.f.8.f.d.d.d.d.d.d.d.d.k.k.k.k.k.k.k.k.h.l.d.8.l./.$., ; 8 v v N D w.w.D D D w.w.w.D N v m m m c c c 0 8 6 1 2 m N N N n N *.w.e.e.e.e.e.e.-.-.-.-.r.e.;.*.-.t.l.{.l.j.=.=.=.-.*.*.*.*.#.%.-.-.-.r.*.p 3 B r.t.*.*.#.*.e.e.r.e.=.=.t.t.*.N N v 6 5 8 6 5 5 5 5 6 8 8 8 6 8 j 6 5 5 6 6 5 5 5 5 5 5 6 6 8 5 5 1 8 9 a v a a a a v v 8 2 5 5 5 5 5 5 5 5 6 6 6 6 6 6 6 6 5 5 2 2 9 n *.*.$.$.$.#.Z Z >.v.<X<X<X3X3X:XoXk.u.*.a u u u u u d $.p.e.k & & j j j h 6 6 8 k c c c a c v v v n ",
"S S S S S S S S n n n n n n n S n n n S S S S S ;.f.k.d.d.8.8.8.u.d.d.>.;.$.$.;.;.=.$.$.>.k.k.S c c c c c c c c k k k k k k 8 5 5 1 9 t.<X<Xh.d s a a n n n n n n n n n n n n d #.#.=.&.;.>.d.h.h.h.h.h.h.f.9.9.:.&.&.;.>.>.8.d.d.;.*.#.#.#.*.*.S S D n n n n n k 0 8 4 9 a S *.*.$.=.=.*.S n n n n n n n n n n ; ; *..X}.j.}.e.D v c c c c c v n n n n n b c p b b N _ _ _ N N N M c 6 5 5 8 c c 0 5 1 5 5 5 8 5 5 5 5 5 5 5 6 j j j 8 8 8 6 6 ; a e.j.a.a.t.t.t.-.-.-.;.t.t.a.;.-.-.-.-.#.( ( -.r._ ( c r w r z.a.a.;.=.#.#.&.&.;.8.d.h.h.j.d.d.8.d.8.d.d.d.8.9.8.8.8.f.8.8.f.f.f.f.f.f.f.f.f.d.d.d.d.d.8.d.d.f.v.h.8.l./.d.d 3 c N D N D w.*.*.D *.e.y.y.e.w.t.t.w.w.w.w.*.*.0 8 1 6 m M M n n n *.=.e.e.e.e.e.e.r.r.r.r.e.e.=.*.=.j.oX$XoXl.d.t.;.;.=.=.-.*.#.%.-.-.-.e.*.p ; a *.r.-.*.*.*.*.=.=.=.=.=.=.e.e.w.w.N k 8 8 5 5 5 5 5 6 6 8 8 6 8 h 6 5 5 6 6 5 5 5 5 5 5 6 6 6 6 5 1 2 8 q v a a a a v c 8 2 5 5 5 5 5 5 5 5 6 6 6 6 6 6 6 6 8 8 2 2 9 a S S #.#.$.$.$.S #.$.oX,X<X;Xl.Z f f u p p a a a a p u $.k.i.N 5 % & % 1 8 8 0 0 a v n n n n d d d a ",
"v.v.oXoX#X$X$X$Xl.d.=.Z a d S S n n n n n S S S u.u.u.u.u.u.u.d.k.k.k.u.;.$.$.$.=.$.$.$.$.;.;.*.k k k k 0 0 8 0 8 8 k k k k 8 6 % 5 2 a >.d.S 4 v c c a a c a b c c p p N n n *.=.=.=.#.#.&.;.8.8.h.v.c.h.h.8.&.&.&.&.>.8.f.f.h.k.d.$.S #.#.S #.#.S S n S n n v 8 8 8 8 9 a n D *.$.=.=.*.#.S S n a v v a n n 9 : e..X.X}.}.i.*.v c c c c c c m m n M M m c r r b N _ *.*._ _ N N M k 8 6 8 8 h 6 5 6 5 6 5 5 5 5 5 5 5 5 8 8 h 8 8 6 8 8 8 8 2 p _ t.t.r.a.a.a.t.-.-.-.-.-.;.t.t.-.-.) _ _ _ _ _ r.B r r t w s a.d.z.;.#.( ( #.#.#.$.&.;.>.u.8.u.d.d.h.d.k.f.h.f.9.f.9.9.9.f.f.f.f.9.9.9.9.8.8.8.8.d.f.k.f.k.k.8.h.l.v.k.d.l.d.a n D *.*.*.*.*.D D *.*.=.=.e.e.=.=.=.e.e.e.e.t.*.0 % 1 c G D N n S *.=.e.e.e.e.t.t.r.r.r.r.r.r.=.=.d.v. Xh.d.d.>.f.f.>.;.=.=.&.d.a.5.;.;.t.=.*.n n -.t.t.r.e.-.;.=.-.*.=.=.=.-.=.t.t.w.N 8 5 6 8 6 6 6 6 6 6 5 5 5 6 6 6 6 6 6 6 5 5 5 5 6 6 6 6 5 5 5 6 5 6 8 c 9 9 9 c c 8 2 5 5 6 5 5 5 5 5 5 5 5 j 6 j h h k 0 8 2 9 d S S $.$.$.$.$.$.$.$.f.<X<Xu.9 f Z d v n v a p 9 9 9 S $.=.$.S a a a a f f a f Z S S $.=.>.u.u.>.=.$.",
"+X+XOX(.oX/.v.v.v.v.p.=.#.Z Z S S S S S S S S S d.d.d.d.u.u.d.k.k.d.u.=.$.*.*.*.*.#.#.#.#.$.=.D 0 k k 0 k 0 0 0 8 8 j j 8 6 5 & 6 1 2 : g s n a p c p 0 0 p p p n c p 8 N n n #.;.=.=.&.&.&.&.;.8.f.h.v.l.k.8.&.&.&.>.>.8.f.f.k.k.d.$.#.#.#.S *.#.S S S S n n v 9 0 9 9 9 a n D *.=.=.=.*.S S S D S n v v a 9 4 e.k.{.j.i.j.u.D c c c p p c c c c m B B c c c c b n _ *.*.*.N N N M k 8 6 8 h h 8 8 h 6 6 6 5 5 1 5 5 8 8 8 5 5 8 6 5 5 5 2 8 8 b _ r.r.r.t.a.r.-.-.-.-.-.-.-.r.a.-.-._ _ _ _ _ r.] x x r r r ( a.a.a.-.%.( ( ( #.$.$.#.#.#.#.#.>.;.;.k.f.u.>.d.h.9.8.8.9.9.f.f.h.h.h.h.f.f.9.9.h.k.f.f.d.8.>.>.>.d.h.k.d.>.k.u.a n S #.#.#.*.*.*.*.*.*.$.$.=.=.=.$.$.=.=.e.e.e.*.q % 1 c D D M n #.*.*.*.=.e.e.w.w.w.r.w.r.w.w.e.=.u.l.l.f.>.>.f.c.v.h.f.f.d.8.d.d.d.;.;.;.;.#.s s #.t.t.-.=.*.#.#.#.#.*.=.-.*.*.=.e.e.*.8 1 8 8 6 6 6 6 6 6 5 5 5 6 6 6 6 6 6 6 6 6 6 5 6 6 j 6 5 5 5 6 6 6 h 0 9 8 8 c 0 8 5 5 5 5 5 5 5 5 5 5 7 j 5 6 6 h k 0 0 q a S $.=.$.$.$.$.$.=.$.$.$.>. Xv.S > g 9 > 4 9 9 a a a d S #.=.u.u.>.;.>.u.9.9.9.9.f.f.x.c.v.v.oXOXOXOXOXOX",
"OXOX(./.v.v.v.v.oXv.v.l.u.>.$.S S S S S S S S S d.d.u.u.u.d.k.{.t.=.D n D *.=.=.t.e.e.=.*.=.*.n 8 8 8 8 8 8 8 8 8 h h 8 6 5 5 & 5 1 2 > , , u 4 c c c c c n n N n p 8 8 n n n _ ;.;.;.;.;.&.&.&.8.8.f.l.h.d.>.&.&.;.>.8.f.f.f.f.k.d.$.#.#.#.S #.#.S S n S n n v q 0 9 9 9 9 v n *.*.=.$.*.S S S n D S v a 4 9 S {.{.}.j.j.j.=.v a p 0 0 0 0 p c p c c m c c c b b N _ *.*.*._ N N B k 8 5 8 h h 8 8 j h j 6 6 6 k h 6 5 5 5 5 8 1 2 2 1 1 2 8 a _ *.=.-.-.t.t.-.-.-.-.-.-.-.-.-.a.-.-._ _ -.-._ _ x z x r 4 b r.a.a.;.-.#.%.#.#.=.=.=.$.$.$.$.$.#.u f >.>.Z f $.f.>.&.&.>.>.>.8.f.f.f.f.f.k.k.h.h.h.f.8.8.>.;.;.;.8.d.j.>.;.u.$.a n S *.*.*.*.*.*.*.*.$.$.=.=.=.$.$.=.=.=.=.e.e.*.a 1 2 c N M M n n *.*.*.=.=.t.*.=.=.=.e.t.t.t.k.d.d.h.h.h.f.f.b.(.+X(.(.OX/./.l.h.d.;.&.&.#.#.u w d ;.;.-.=.t.-.#.#.#.*.-.-.*.*.-.=.t.w.c 1 6 6 6 6 6 6 6 6 6 5 5 6 6 6 6 6 6 j 6 6 6 6 h h h 6 5 5 5 6 5 6 8 k 8 8 8 k k 8 5 5 5 5 5 j j 5 5 5 7 7 7 6 6 h k N *.t.j.l. Xv.l.k.k.f.d.d.d.u.>.>.d.u.$.f f f f 9 a d S S $.;.>.k.l.v.v.v.v. XoX(.(.+X+X&X+X+X+X+X+X+X+X&X&X&X&X",
"v.v.v.v.v.v.v.v.v.v. X Xv.l.f.u.S S S S Z S S d d.d.d.d.t.=.S n N n v v n D *.w.*.N N n v n n p 8 8 8 8 8 8 8 5 8 8 8 6 5 5 5 5 % 1 2 9 d d p p N N N n N N N _ n 8 2 c p n _ #.d.d.j.d.;.&.&.&.>.>.8.h.f.>.&.&.;.>.8.f.f.f.f.d.k.d.$.#.#.#.S #.#.S S n S n v v q q 9 9 9 9 a n D *.$.*.#.S S S v S S a 4 : v {.{.{.}.j.u.=.n a p 0 0 0 8 0 p p 8 p c c c m B n b N _ *.*._ _ N N B k 8 5 8 8 h 6 j j j j 6 6 5 5 5 5 5 5 8 8 0 8 9 0 9 9 p n S w.*.*.*.-.r.-.-.-.-.-.-.-.-.-.-.-.-._ _ _ -.-.r.] 7 z x 3 r r.j.j.a.-.#.*.-.-.#.#.#.=.;.;.>.d.d.;.f a l.v.#.a ;.h.>.$.$.;.&.$.&.>.>.>.8.8.d.f.f.8.8.8.>.>.>.8.d.>.8.d.j.>.;.;.#.a n S *.*.#.#.*.*.*.*.$.$.$.=.=.$.$.$.$.=.=.=.e.*.a 1 2 c N N N n n *.=.=.$.$.=.;.;.u.d.k.k.l.l. Xl.d.f.h.v.(.(.(.(.`.+X+X*X;X;X+X+X/.f.8.8.&.#., , f ;.>.=.=.d.;.=.-.*.*.=.=.=.*.*.=.t.t.m 5 5 6 6 6 6 6 6 6 6 5 5 6 6 6 6 6 6 h h 8 h h h h h 6 5 5 5 5 5 6 8 0 8 5 6 0 k 8 5 5 5 5 5 j 5 5 5 5 7 7 7 5 5 8 0 i.}..X#X*X*X*X+X+XOXoX/.v.v.v.v.h.h.h.d.>.>.d.k.@X#X$X$X$X*X*X*X$X$X+X+XOXoXOX+X(.(.+X&X&X+X+X+X(.+X+X&X&X+X(.v.",
"v.v.v.v.v.v.l.l.v.v.v.v. X Xv.v.h.h.l.f.k.f.f.f.d.u.=.#.n p 4 4 c b m c c b n N B c m B m n M c 8 8 8 8 8 6 6 5 5 8 8 8 8 8 6 5 5 8 # 9 l. X=.=.w.w.N n v a p p p 8 4 *.8 *.*.*.t.j.l.k.8.&.&.&.>.&.>.8.8.&.$.$.>.8.f.f.h.f.f.8.k.d.$.S #.S S #.D S S n S S n v 0 0 9 9 4 9 a n D *.*.*.S S S S n S S 9 # 9 i.@X.X}.i.t.D a a v p 0 0 0 0 0 0 p p p r c m n M N b ( _ *.*.*._ N N B 0 6 5 5 6 8 6 6 6 6 8 8 8 8 0 8 2 2 2 8 0 q n D =.=.*.*.e.a.e.=.*.*.e.t.-.-.-.-.-.-.-.-.-.-.*.*._ _ *.-.-.w.m h z 8 3 b j.}.a.r.*.( *.*.*.*.#.#.#.=.=.=.;.;.;.u u l.v.#.u #.oXh.>.;.8.>.&.>.>.>.>.>.>.>.>.>.>.;.;.;.8.d.d.h.d.j.j.k.d.;.;.#.a n S *.*.S S S *.*.*.$.$.$.$.$.$.$.$.$.$.$.=.=.*.a 2 2 c n N N S #.*.$.$.$.;.u.k.k.h.l.v./././.h.h.f.x.v.(.&X&X`.`.(.(.(.&X>X;X:X:X:X;X*X&X(.c.[ [ 8.#XoXk.d.k.j.d.;.*.*.*.=.t.*.*.*.t.t.M 5 1 6 6 6 6 6 6 6 6 6 6 6 6 6 6 6 6 j h h h h h h h 5 5 1 5 5 5 5 6 h 6 5 5 8 k 8 8 6 6 6 6 j j 5 5 5 6 6 6 5 5 8 0 e.t.p.d.k.h.h.f.f.f.h.f.h.h.h.h.v.c.v.v.v.c.v.oX+X+X*X*X+X+X&X&X*X*X&X+XOX+X+X&X(.(.(.&X&X&X+X+X+X&X&X&X+X(.v.v.",
"v.v.v.c.v.h.l.l.l.l.l.l.v.v.v.v.v.v.v.v.v.v.l.l.d.;.d 9 > 4 p a a c c c p p c b n B c c r p r 2 2 2 4 4 4 4 8 8 2 2 9 8 8 2 % % O 5 2 ;.<X<X{.t.w.*.N v a p 8 8 4 8 c j.p *.*.*.;.j.l.l.g.8.&.;.>.&.&.>.&.&.&.&.8.8.f.f.k.f.f.f.j.d.$.S S S S #.D S S n S S n v q 0 0 8 4 9 a v D D *.*.S S n n n S n 4 4 u.#X}.k.t.*.S n a a v a c p 0 0 p c c c c c c B n M N b ( _ *.r.*._ N N B 0 6 2 5 6 5 5 8 8 8 8 8 8 8 2 2 2 4 9 v *.e.e.t.u.u.t.t.u.j.t.-.*.=.t.e.-.-.-.=.;.;.t.;.r.-.-.*.*.*.-.-.*._ h z z 7 7 _ }.z.t.-._ *.*.*.*.*.#.#.#.#.=.=.=.=.>.f f l. X;.d #.oX/.f.>.8.8.;.>.8.8.8.8.8.8.8.8.5.;.8.8.8.d.d.j.j.k.j.k.j.u.;.d a n #.*.*.S S S *.*.*.*.*.$.$.$.$.$.$.$.*.$.*.*.D a 3 2 p n N D #.#.$.$.;.d.l.v.v.v.v.v.v.v.b.b.f.c.(.&X&X=X=X=X=X=X`.(.(.&X&X&X&X&X+X+X+X*X*X+X/.v.oX#Xv.d.j.k.oXoXz.t.=.*.*.=.*.*.*.e.t.N 8 1 6 6 6 6 6 6 6 6 6 6 6 6 6 6 5 5 6 6 6 h 8 j 6 6 5 5 % 5 5 5 5 6 8 5 5 5 8 h 8 8 6 6 6 6 5 5 5 5 5 6 6 6 5 5 8 9 e.t.u.>.>.8.9.8.9.9.f.f.c.v.v.v.(.v.c.v./.v.v.v.+X+X&X&X&X&X*X*X&X&X+X(.(.+X+X+X(.&X&X&X&X&X&X+XOX(.v.v.b.c.c.c.",
"l.l.l.v.v.v.v.v.h.h.d.d.d.k.h.h.c.c.b.b.l.l.l.l.l.d.$.S d d d a n c a p p p a a 8 4 4 2 1 2 4 ; ; ; : 2 4 4 9 9 v v n n v 9 2 # X 1 *.1XDX<XoX=._ N N v c a p p 2 9 t.{.c n *.#.=.;.j.l.l.h.8.8.8.8.>.&.&.:.>.>.9.f.f.f.f.f.9.f.j.d.$.S S S S #.S S S n S S n v a k 0 9 4 9 a v D D D D S n n S n n a v t.@X.Xt.=.S n n n v v v v v v a c c c v n c c c B N N n b _ _ *.w.*._ N _ B p 6 2 2 2 2 8 2 9 9 9 9 9 9 4 9 n $.u.d.k.k.>.>.u.t.;.;.u.t.t.=.=.t.t.e.=.t.t.t.t.t.a.t.t.t.e.t.t.t.t.=.n B r m 8 1 b y.j.j.-.*.*.-.-.*._ *.*.*.=.=.=.;.;.;.;.d d k. Xd.S S l.oXl.>.d.d.>.>.8.8.8.d.d.d.d.d.8.8.8.d.d.d.d.d.j.j.j.k.j.u.=.s a n *.*.*.S S S *.*.*.*.*.*.$.$.D D *.*.*.S D D S 9 3 4 a n D *.$.;.>.d.h.v./.OX(.(.v.v.v.c.c.c.b.+X:X:X:X4X>X=X=X=X`.(.(.(.&X&X:X;X+X(./.OX#XoXoXv.v.l.>.=.u.k.oXoXl.d.=.*.*.-.-.=.*.=.t.w.h 1 6 6 6 6 6 6 6 6 6 6 6 6 6 5 5 5 5 5 6 6 6 6 5 5 5 5 % 5 5 % 5 6 8 5 5 5 6 h h 8 6 6 5 5 5 5 5 5 5 6 6 5 5 5 8 9 D =.u.d.8.8.q.8.>.>.>.8.9.d.f.f.c.v.v.v.v.(.(./.+X+X+X+X+X+X&X&X&X&X+X).).).).+X&X&X+X+X+X(.(.(.v.v.v.c.h.h.b.c.",
"v.l.v.v.v.v.v.v.d.d.>.>.>.d.d.d.f.f.f.h.h.l.l.l.v.l.k.d.u.>.;.$.#.n p 9 9 9 9 4 4 4 p n *.u.j.p.=.;.u.u.f.k.l.{..X.X.X.Xl.u.D n 8 5 }.2X#XoXoX*.N N n c a p 9 r 3 r }.@XN p =._ *.=.d.k.oX/.h.8.9.9.8.&.&.>.9.8.h.f.f.f.f.f.f.f.j.d.$.Z S S S #.S S S n S n n v v c q 9 4 4 9 a D D *.D S n n n *.n n u.#X@Xe.S D S n n v a a a n v v v c v v v N n c c B N N B N _ _ *.r.*._ _ _ n 9 2 2 2 3 4 9 9 9 9 9 9 9 9 u.d.l.l.l.k.>.>.d.d.;.;.;.;.;.;.;.=.=.d.d.t.=.t.t.u.d.d.d.a.a.t.d.j.d.a.t.=.N c p m 3 1 _ j.j.a.*.#.*.-.-._ _ *.-.=.=.=.=.=.=.=.;.#.S d.l.k.#.Z k.#Xv.d.k.l.d.d.k.d.d.d.d.8.>.>.8.8.d.d.j.d.d.d.j.j.d.j.d.;.#.u a n #.*.*.S S S *.*.*.*.*.*.*.*.*.*.*.*.S S D D n 9 2 4 p n *.*.>.f.v.(.(./.v.c.v.v.v.v.v.b.v.v.(.&X:X:X=X=X=X=X`.`.(.(.(.=X&X&X;X*X*X@Xv.k.;.#.S S $.$.S n *.=.a.a.t.=.=.*.*.*.*.=.*.*.e.w.c 1 5 6 6 6 6 6 6 6 6 6 6 6 5 5 5 5 % 5 5 5 6 6 5 5 5 5 1 5 5 % 5 6 6 5 1 5 6 h h 8 6 8 5 5 5 5 5 5 5 5 6 6 5 5 8 9 9 S =.>.8.8.:.&.:.:.&.$.&.$.$.} >.c.(.v.v./.+X&X&X&X&X+XOX(.(.(.+X+X+X+X&X&X&X&X*X&X+XOXoXv.v.v.b.v.v.v.v.b.b.b.",
"l.h.h.l.v.v.v.v.k.d.d.d.d.d.d.d.l.l.l.l.l.l.h.h.v.v.v.v.v.v.v.v.oXl.d.$.Z Z #.=.l.l.l.l.l.l.l.l.u.u.f.k.v.v. X X X.X#XOX.X.X Xi.M 8 .X<Xv.oX}.*.N N v a v c 8 4 4 j.$X@Xe.a n n n *.;.j.k.l././.h.f.8.>.&.>.9.h.h.h.f.f.f.h.h.h.u.;.$.#.S S S n *.*.S n v n S n D M c 0 8 8 9 a n D D n v n S n D S =.}.}.=.n S v a a a a a v v n n n n v v v n N n c b n N N N N _ *.=.=.*.n n a 9 : : 4 p a a S $.;.u.f.k.l.l.d.d.d.8.>.>.>.>.;.;.;.;.;.$.$.#.#.#.$.$.$.$.$.$.$.$.$.=.;.;.;.t.t.t.t.t.u.d.j.j.e.r.-.-.t.t.;.;.#.#.#.( ( _ *.-.#.#.-.=.=.=.;.d.k.$.a ;.l.j.;.d >.oXoXj.j.k.j.j.j.j.j.j.d.d.d.d.d.d.d.d.j.j.j.j.d.j.d.d.d.;.#.s #.#.#.#.#.#.*.D *.*.*.*.*.*.*.*.*.*.*.D D D S S a p 9 9 n d.@X$X+X(.(.(.(.v.c.c.(.(././././././.+X&X&X*X=X=X=X`.`.`.=X=X>X:X;X$XOXl.t.n 9 : ; # 4 2 4 2 2 2 2 8 n a n n *.=.=.*.;.-.=.-.e.t.v % 5 6 6 6 5 6 8 h 6 6 6 6 6 6 6 6 6 6 6 6 5 5 5 5 5 5 5 5 5 5 5 5 j 6 5 % 5 8 h 8 8 8 5 5 5 2 5 5 8 6 5 5 5 8 8 8 9 a $.d.>.;.:.&.:.>.>.>.>.>.>.>.$.&.d.v.v.OX&X*X&X&X&X&X&X&X+X+X&X&X&X&X&X&X&X*X<X*Xv.b.b.b.b.h.v.v.v.v.b.l.l.l.",
"h.h.k.k.h.h.k.d.d.d.u.u.d.d.>.>.f.f.f.f.f.f.k.k.v.c.v.c.c.c.v.v.v./.v.h.f.8.>.>.h.h.h.h.v.v.oXoXv.v. X X X X X Xl.b.v.b.k.b.k.e.8 1 {.,Xv.oX}.N b B c a v a 8 4 n }.#X{.-.a n n *.*.=.;.d.h.l./.c.h.f.8.8.8.f.h.h.h.f.f.f.h.f.f.>.;.#.#.S S S n D *.S n v n n n N N v q 9 9 9 a n D D n v n S n n n D e.e.D n v v a a a v v v v n n n n v v v v n n c c B n n n _ _ *._ #.#.#.S n *.;.d.u.;.;.;.v. XoX Xv.l.h.h.f.d.8.8.>.>.:.:.>.;.&.&.>.>.>.;.>.;.>.>.>.;.=.$.$.=.;.;.;.;.>.;.u.u.t.;.t.;.=.=.e.t.a.j.k.k.j.d.#.%.#.#._ ( _ _ #.#.-.-.-.=.;.;.k.=.d =.l.k.;.d ;.@XoXj.j.j.j.j.j.j.j.d.d.d.d.d.j.d.d.d.j.j.j.j.j.j.d.8.d.;.#.a #.#.#.#.#.#.D D *.*.*.*.*.*.*.*.*.*.*.D D D S S a S *.;.k.#X,X;X(.(.(.(.+X(.(.OX(./././.v.v.v.c.c./.(.(.(.(.(.(.(.`.&X&X*X+Xf.;.S v a 9 4 2 8 8 8 8 8 8 8 6 8 p n a n #.=.e.-.*.-.*.-.=.=.w.M 5 5 6 6 6 5 6 8 h 6 6 6 6 6 6 6 6 6 6 6 6 6 5 5 5 5 5 5 5 5 5 5 5 j 6 5 5 6 h h 5 5 5 2 5 8 8 8 8 5 8 8 8 8 8 8 8 4 p *.u.>.>.8.8.>.>.>.>.>.>.>.>.8.>.>.d.v.+X+X+X&X&X*X&X&X&X&X+X+X&X&X&X&X>X>X:X&XoXv.v.v.v.v.b.v.v.v.v.v.v.v.v.",
"l.l.f.f.u.u.>.>.>.>.>.>.8.>.>.>.u.u.u.u.d.f.k.f.v.v.v.v.v.b.v.v.b.v.v.c.c.f.f.f.f.c.c.v.v.(.(.(.OXOXOXoX X X X Xl.v.#X#X Xv.p.D 1 X j.,Xv.@X{.*.r c c a c p 8 4 *.{.{.j.*.a n N *.*.=.=.;.8.d.h./.c.h.f.f.h.h.h.h.f.f.f.h.h.9.8.;.=.#.#.S S n d S S D n v n n n v M c c 9 8 9 9 n D D n v n S n a n n v v n n a a v v v v v v v n n n n n n n n v c c c n n n n *.#.n n #.#.=.;.j.k.l.h.d.k.v.oXoXoXoXv.v.f.f.9.f.d.d.>.>.>.>.>.>.>.&.>.8.f.h.h.h.k.h.f.9.>.:.&.$.$.$.$.;.;.;.;.;.;.;.;.;.;.$.=.=.=.=.;.d.8.;.=.;.;.;.;.t.-.*._ _ #.*.-.-.-.=.t.d.t.n *.l.l.t.#.#. XoXk.d.j.j.j.d.d.d.d.d.u.d.>.d.d.j.d.j.j.j.j.d.j.d.8.t.;.#.a #.#.#.#.#.#.#.#.#.#.*.*.*.*.*.*.D D D D S S S S $.u.l. X@X#X#X#X&X=X&X&X&X&X&X+Xv.v.v.l.l.h.k.k.>.8.8.9.f.b.(.&X&X;X4X:Xv.&.f 9 9 p a c c c m m c h k k h 8 h c c a n *.-.e.=.*.*.#.-.*.*.w.N h 5 6 6 6 6 6 h h 6 6 6 6 6 6 6 6 6 6 6 6 6 6 6 6 5 5 5 5 5 5 5 5 6 5 O O 5 h k 6 1 2 2 2 2 4 4 2 1 5 5 8 8 8 6 8 4 9 S ;.>.>.d.8.9.9.9.8.8.8.8.9.d.d.f.f.h.v.(.OX*X*X*X*X&X&X&X+X+X&X&X*X*X*X&X&XoXv.b.b.v.v.v.b.b.b.v.v.v.v.v.v.",
"l.l.l.f.u.>.>.>.>.>.>.>.>.>.>.>.>.u.d.f.l.v.v.v.v.v.v.v.v.b.b.v.v.b.c.f.f.f.c.c.c.c.v.v.(.(.(.(. X Xv.v.b.k.k.f. Xv.v.k.,.$.F q % X i.$X XoX{.*.r c c a a 8 2 r =.k.d.*.*.n a n n D *.=.=.;.;.8.v.h.h.h.h.c.c.h.h.f.9.f.h.f.8.>.$.$.#.#.S S d a n S D n v n n n c c c c 0 9 8 8 n D D n v v S n v n n a a n n a a v v n n n n n n n n n n n n n v v c n n N *.*._ #.#.*.;.u.j.k.v.h.f.f.h.v./.(.v.v.v.v.c.c.h.h.9.d.d.8.>.>.>.>.>.>.>.8.h.v.v./.v.v.v.c.h.9.8.>.&.&.;.>.>.>.>.>.>.8.8.d.d.d.k.k.j.d.a.;.8.8.8.5.8.d.d.d.a.t.*.N n #.#.*.*.*.=.=.t.d.#.#.l.{.t.*.d k.oXk.8.d.j.d.t.t.t.t.;.;.;.;.d.d.d.d.d.d.j.j.d.d.d.;.t.;.#.a *.#.#.#.#.#.#.#.*.#.*.*.*.*.*.*.D D S S S S S S $.u.l.v.oX#X$X$X&X&X+X+X+X(././.h.h.k.k.d.d.d.d.$.&.&.>.8.c.&X<X3X*X(.8.d g u p v v v v c c c c c k k c h h h m n n n *.=.=.=.*.*.*.=.*.*.=.N 8 5 6 6 6 5 6 h h 6 6 6 6 6 6 6 6 h h h 6 6 6 6 6 5 5 5 5 5 5 5 5 5 5 % % 5 h k 8 1 1 2 2 4 4 4 4 1 1 1 1 2 8 8 0 4 4 d ;.>.;.>.>.8.8.8.8.8.8.9.9.8.f.h.c.h.h.v.v.+X+X&X&X*X*X&X&X+X&X&X&X&X&X&X+X&XoXv.h.h.b.v.v.b.l.l.l.l.l.l.l.",
"l.l.f.p.u.u.>.>.>.>.>.>.>.8.9.9.h.c.v.v.v.OX+X&Xv.v.v.v.v./././.v.v.v.v.v.c.c.f.v.c.v.v.v.(.oX+Xv.l.l.p.u.=.=.=.S v S n a d v a 1 O i.#Xl.oX{.=.r c c a p 2 2 p ;.j.t.#.*.N p c n S *.*.$.&.&.&.9.9.9.h.c.v.c.h.h.f.9.f.h.f.>.&.#.#.#.#.S n a p a n D n n n n v q k v c k 0 8 8 v n S n v n n n v n n a a v v a a v v n S S n n n n n n n n n n n n n N N D *.*.#.$.u.j.l.l.l.h.c.h.9.c.(.(.(.b.^.b.c.c.b.b.b.b.x.f.f.9.9.>.>.>.>.>.8.h.v.(.(.(.(.(.(.(.b.c.9.9.f.f.f.f.f.h.h.h.h.h.h.h.l.h.l.l.k.j.d.d.j.j.k.k.j.j.j.j.d.w.N c n ( #.*.*.*.*.-.=.d.#.a d.{.t.=.s d.oXl.a.;.d.d.;.;.;.;.;.;.;.;.d.d.d.d.d.d.d.d.d.d.a.;.t.=.#.a D D #.#.#.#.#.#.S S #.#.*.*.#.#.D D D D S S S S $.;.u.>.>.d.d.f.f.h.h.h.h.f.f.d.d.d.d.8.d.>.>.>.$.&.&.;.;.f.+X<X3Xk.a g > 4 p b c c c c p p p c c 8 h z h 8 h m n n N n N *.=.=.*.-.=.=.=.e.n 1 5 6 6 6 6 6 h h 6 6 6 6 6 6 6 6 h h h h 6 6 6 6 5 5 5 5 5 5 5 5 5 5 5 1 5 8 8 8 0 a v n S S S S n n v 0 8 2 2 2 4 2 a ;.u.>.>.>.>.>.>.8.>.>.>.8.f.9.9.9.h.c.c.h.v.v.(.&X&X&X*X*X+X(.`.`.&X&X&X&X*X&X(.v.v.v.v.v.b.b.b.b.h.h.f.f.",
"l.f.u.u.u.u.>.>.8.8.>.8.9.f.c.v.v.v.(.(.+X&X&X&X&X&X+X+X(./.v.v.k.k.k.k.h.k.d.d.l.v.v.oXv.v.k.f.=.e.=.*.D S S n a a v v p a v k 5 1 i.#Xl.oXl.=.c m v c 9 3 4 N j.g.d.*.=.*.p p n D *.*.#.#.&.&.:.>.8.h.c.c.c.h.h.9.9.h.h.f.:.} #.#.S S S n a 9 9 v D S n n n c 0 0 k c k 0 8 8 v n S v v n n n v a v v v a a a a v n S S S S n n n n n n n n n n n N *.N N N D u.f.l.v.v.v.h.h.9.9.9.9.9.x.x.c.c.x.c.c.(.(.(.^.b.b.c.c.f.9.9.9.8.9.f.v.v.(.(./././.(.(.(.c.c.c.b.c.c.v.v.v.v.v.c.c.v.v.v.v.v.v.l.k.k.k.h.h.j.d.j.j.d.t.w.N c p a n ( #.*.*.*.*.*.a.#.p t.{.u.=.s =. XoXd.;.;.;.;.;.;.;.;.;.a.a.d.d.d.d.d.d.d.d.a.a.;.;.t.=.#.a D D #.#.#.#.S D S S *.*.#.*.S D D D D D S S S S $.;.>.;.;.5.8.5.=.;.;.;.5.5.;.;.;.;.;.;.;.;.;.;.=.=.=.=.#.;.l.,X$X#.> 9 p a a a n n c c c c v n r 8 8 r 8 8 8 c n n n n n n *.*.*.#.=.=.=.e.n 1 5 6 6 6 5 6 h h h h h h 6 6 h h h h h 6 6 6 6 6 5 5 5 5 5 5 5 5 5 5 1 X X 1 0 c *.=.t.u.d.d.d.d.d.u.t.e.*.n a p 9 4 a ;.d.8.8.8.8.8.8.8.8.8.9.9.c.h.9.8.9.9.h.c.f.x.v.(.&X&X*X&X&X&X&X&X&X=X&X=X&X&X&X&X&X&X&X&Xv.v.v.v.c.c.c.f.",
"v.k.u.>.u.f.d.>.8.d.d.h.c.v.(.(.(.(.(.(.(.(.(.v.&X&X+XOX/.v.h.l.d.>.$.$.;.u.k.k.k.l.l.k.d.;.#.S v v v n n v n v v a v c 0 c M N 5 1 i.@X XoXk.*.c B v c 9 3 p =.k.d.a.=.=.*.c c n D *.*.$.&.&.&.&.:.9.h.c.h.h.h.h.9.9.h.h.f.&.[ S S S S S n p 9 9 a D S n n v v 8 k k k 0 0 8 8 v n n v v v n n d v n n n v v a a v n S D S S S n n n n n n n n c n N *.*.*.=.=.l.v.v.v.v.c.c.9.9.h.x.x.x.x.^.^._._._.`.`.`.`.`.(.(.(.(.b.c.c.c.h.h.h.c.v.v.v.v.b.v.(.(.(.c.c.c.b.b.b.b.c.c.v.v.v.v.c.c.h.h.f.f.k.d.d.u.u.;.=.=.#.n n n p 8 8 4 a d _ *.#.#.#.#.#.t.*.u *.{.a.*.s #.l.oXd.-.;.t.t.t.t.t.t.t.t.a.d.d.d.d.d.d.d.d.t.a.t.;.t.;.#.a D #.#.#.#.D D D S S S S S S S D D D D D S S S S #.$.=.=.;.;.&.%.;.t.t.t.;.;.;.=.;.;.;.;.=.=.&.&.-.-.-.-.#.#.d.oX#X#.u a a p n N a a a p a a c v p p r p r 4 8 c n n n n n n n #.n #.-.-.=.e.*.8 5 6 6 6 5 6 8 h h h h h 6 8 8 h 6 6 6 6 6 6 5 6 5 5 5 5 5 5 5 5 5 1 % O 1 c *.t.i.j.k.l.v.v.l.l.k.k.k.k.k.j.d.u.*.a n t.d.8.8.8.9.9.9.9.9.h.f.9.h.c.h.9.:.:.9.c.9.9.x.b.(.`.&X=X=X=X&X=X=X=X=X=X=X=X&X&X&X&X&X&X&X&X+X+X+X(.(.(.",
"oXv.p.u.h.l.f.8.>.d.f.c.(.(.(.(.&X&X(.(.v.v.h.h.k.k.k.k.k.k.k.k.j.u.=.=.d.l.oX@Xl.d.=.S a a n n n N N n v v v v c c M N c c c c 1 % y.#XoXoXj.n v n n v p 3 a t.d.-.;.*.*.*.n c v N =.t.;.=.&.} $.:.9.h.c.h.h.h.h.9.9.h.h.f.&.Z S S S S S n p 4 4 v D D n n v v 9 0 k k 0 8 8 8 v n n v v v n n n S D n n S n v a v n S D D S S n n n n n n n n 9 a n =.e.t.j.j.v.v.h.h.f.h.h.c.&X`.).`.`.`.>X>X`.`.`.`.`.`.`.`.`.`.`.(.(.(.v.v.v.v.h.h.c.v.v.v.v.b.^.^.^.b.c.c./././././././.oXk.k.d.;.$.S d d p 4 3 : : > 3 3 4 8 8 4 6 6 8 c c n _ *.*._ *.*.#.=.*.u #.l.d.*.s n j.@Xj.*.=.;.t.t.t.t.t.d.a.a.d.d.a.d.d.d.d.d.t.t.t.t.t.=.#.a D D #.#.#.S D D S S S S S S S S D D D D S S #.#.;.;.;.;.;.5.;.%.=.;.;.;.;.;.=.=.5.;.;.=.&.-.#.#.*.*.*.-.#.#.d.@X$XS 4 p p p N N a p a a a n n n p p p p p 8 p c n n N n n a a n s n #.#.*.=.=.n 2 5 2 5 5 5 8 8 8 h h h j j j j 6 6 6 6 6 6 5 5 5 5 5 5 5 5 5 1 % 1 8 c w.j.{.{..X@X#X,X;X<X:X;X*X$X#X.X{.k.k.k.k.$.$.u.8.>.>.8.h.h.c.c.c.c.c.c.c.h.9.9.9.9.9.8.>.9.9.b.(.(.`.`.&X&X=X&X&X&X=X=X&X=X&X`.`.&X=X&X=X&X&X&X&X=X=X=X",
"(.b.f.9.9.9.9.d.9.c.(.(.(.(.(.(.$Xf.>.=.#.#.n n v n n n n #.#.*.t.u.u.d.l.@X@Xl.a u p n S S n n v v v v v v v v v v v v v v v c 1 1 e.oXoXoX;.n n w.c 4 4 4 -.l.t.t.-.-.-.*.B r c N *.t.d.d.8.8.9.9.9.h.c.c.c.h.h.f.f.h.k.8.$.Z *.D D D N n p 2 2 9 v n n n v v c q q q 0 0 0 9 0 c M n v v v n N n N n n n n n S n S D S n d v n n v v n v n $.u.j.k.l.k.l. XoXv././.oXOXOX+X+X&X+X(.).=X=X`.).>X`.`.`.`.`.`.`.`.`.`.(.v.c.c.c.c.c.c.v.v.v.v.v.v.c.c.h.h.c.v./.l.{.{.l.j.a.e.*.c c p 8 8 8 8 8 8 8 h 8 h z z r r r z z h 8 8 7 c c n N *.e.=.=.r._ #.p p j.l.a.n a =.{.k.*.*.d.;.;.;.;.t.;.;.;.;.a.d.d.d.j.j.d.d.d.;.;.;.=.S a n n S S #.#.#.#.S S S S S S S #.S S S S S S S S =.;.;.=.&.#.-.&.:.8.h.h.h.h./.oX;X<X<X<XoXj.=.#.=.-.*.*.*.*.d.oX1X=.p p b n N n n a a n n n v v 0 9 0 p p 0 k c a a n n n n a p u s #.u.d.d.d.d.a a p p 9 4 2 1 5 5 5 6 j j j j & 5 8 5 5 5 5 1 1 1 1 1 1 1 5 5 ; # 9 }.,X#X{..X#X#X#X#X$X$X$X1X1X<X<X1Xi.=.e.k.u.S Z $.>.d.>.>.9.c.v.v.c.f.f.c.f.f.9.9.9.9.9.9.:.8.9.f.c.b.(.&X&X&X&X+X&X&X&X&X&X&X&X&X=X=X=X=X=X=X=X=X=X`.`.(.",
"v.c.9.9.9.f.h.h./.(.(.(.^.`.>X=Xl.*.S n n n c c v v n n n _ *.*.S #.#.#.;.k.k.f.d p p v D D M M M M M n v v v v c c v v v v v c % 1 =.oXoXoX;.n N N c 4 4 s >.k.t.t.r.-.-.*.N r c n *.t.u.d.8.8.9.9.h.h.h.h.h.h.h.9.f.h.h.d.$.d D D D D n a 8 2 2 9 v n n n v c c q q q 0 0 0 9 9 k n M v c v n N N n n n n n n n n S D S n d v n n v v n n S =.k.l. X#XoX Xl.l.h.h.l.v.v././.(.(.(.(.(.(.&X=X>X`.`.`.`.`.`.`.`.].].`.(.c.v.v.v.v.v.v.v.v.v.v.v.v.v.v.l.k.k.d.d.-.*._ B c r 8 8 m z z h h h h h h h h h 8 8 7 7 7 8 h z z z h 8 c c c n n _ *.*.=.*.*.p w t. Xj.#.s *.l.k.=.#.;.;.;.;.;.;.;.;.;.;.d.d.d.d.j.j.d.t.;.;.;.>.;.$.S *.*.*.*.#.S S S S S S #.F F $.$.S #.$.$.>.>.>.>.f.8.&.$.&.d.oX;X;X;X>X>X;X;X;X<X;X*X#XoXl.d.d.t.*.=.*.*.*.*.a.oX$X=.p p b N n n n n n n n v v v 0 0 0 c c 0 k c a a n a a d d a =.d.j.k.k.h.l.l.d.#.s u p p 4 2 8 8 h h j j j 6 5 8 k 6 5 6 5 5 1 1 1 1 1 1 5 5 ; ; p u.j.=.S D D D D *.D *.D D *.e.u.=.n a S *.#.Z f S >.>.>.>.9.f.v.c.c.f.f.f.c.f.f.9.9.8.d.9.:.>.8.9.9.9.c.b.&X&X&X&X&X&X&X&X&X&X&X&X=X=X&X`.`.=X=X=X=X=X`.`.",
"(.v.c.c.b.v.v.c.+X(.b.x.c.>XDX4X;.a 9 9 9 p 9 p c v v n n _ #.*.#.#.#.#.;.d.l. X*.a 9 v D n n M M M v v v v v v c c c c v v v c # X =.oXoXoX;.n N m p 4 4 =.k.d.;.t.t.-.r.*.N p c v D e.u.d.8.8.9.h.h.h.h.h.9.q.h.h.h.h.h.>.#.d D D D N v 0 2 1 2 9 c n n n c c c q q q 0 0 9 9 9 q c n n c c v n n n n n n n n v v n D S n d v n n v v S S S t.;.*.#.#.#.S Z #.[ #.[ [ [ [ [ [ [ } } :.h./.(.(.).`.=X`.`.`.`.].].`.(.c.8.>.d.d.k.k.k.k.k.k.l.l.;.=.=.*.#.d p p p r r 4 4 6 3 3 8 8 8 8 h h z z z z h h z z z z 8 8 8 8 z z z c c c a p a c n n *.=.=.a 4 *. Xj.#.p S j.l.t.#.=.;.;.;.;.;.;.;.;.;.a.d.d.d.j.j.d.t.;.=.=.;.;.#.S n n S S S S S S Z S #.$.=.;.>.>.oX(.+X&X=X>X:X:X>X;X;X*X&X*X;X;X;X>X;X;X*X&X;X;XOXl.;.*.#.*.#.*.*.=.*.*.*.#.a.oX$X=.p p n n n n b b B B n n n n c 0 k c c h k c n d a u u d ;.h.l.l.h.h.f.h././.oX/.l.d.=.S v a 1 1 5 h j j j 5 h k k h 5 5 5 % 6 6 5 5 5 5 5 1 # 4 v *.*.v a v a v a a q 9 9 9 a v v a a p a d d d Z S ;.>.8.>.9.f.c.h.f.f.f.f.9.8.>.:.:.:.>.>.&.:.:.&.&.&.&.:.9.x.v.(.+X&X&X&X&X`.&X`.`.&X=X=X`.`.=X=X=X=X=X`.",
"&X+X(.(.(.+X+X+X(.v.9.:.9.:XJX3X$.p 9 9 9 a 0 a a a a n n _ #.#.S #.#.#.#.>.l.@Xu.d 9 v D n v M M M v v v v v v c c c v v v v v X X =.@XoXoX;.n n a p 3 a z.l.d.-.t.t.r.r.=.N c c c N =.;.>.8.8.9.9.h.h.h.h.h.9.h.h.h.h.k.>.#.d D D N v 9 2 1 1 2 8 a n n n c c c q q q 0 0 0 9 8 0 v v v v v c n n n n n n n n v v v D S S v v n n v n S S *.t.d.$.d d d Z #.;.>.>.;.&.&.$.$.$.} } &.9./.(.c.9.h.(.`.=X>X>X`.`.`.>X(.>.#.d d d S S n n n n n n 3 2 4 8 9 r 8 4 4 4 8 r r r r r 7 4 4 8 r r z x x x m B B B N _ B c 4 3 3 4 r c a c c a p a a n n *.-.*.w a j.j.*.p a t.l.d.=.#.;.;.;.;.;.;.;.;.;.a.d.d.d.j.j.d.d.;.=.=.;.;.#.S #.*.*.#.S S S S S $.;.d.v.oX*X*X=X=X=X>X>X>X>X>X>X>X>X&X&X&X&X;X;X*X*X;X;X*Xv.d.&.#.s p a n n n _ *.*.*.*.#.;.oX$X=.p p n n n n B B B B B B n n c 0 k c c h k c =.#.s f #.h.$X$XOX/./.h.h././.+X+X$X$X$XoXl.t.S a 8 1 X X % 5 8 1 5 8 5 5 5 5 5 5 5 5 5 5 1 1 1 1 9 n S v a a v a a a a a q q 9 a p p u 9 u a a a Z #.$.&.8.d.>.8.9.h.h.f.9.9.9.:.:.&.} &.} &.&.&.&.&.} } Z Z } :.>.x.(.&X&X*X&X&X=X=X=X=X=X=X=X=X=X=X=X=X=X=X`.",
"+X+X+X&X+XOXoXv.d.>.&.} :.>XJX4X;.a p p p c a v a a a v n *.*.#.S S S S S $.k.@Xk.S 9 a D n c M M M v v v v v v c c c v v n n v X X =.oXoX@X;.n c p 8 4 *.oXk.d.-.r.t.-.r.r.*.n c c n *.$.>.8.8.9.9.9.h.h.h.h.h.f.f.f.f.d.;.#.d D M v 0 2 1 1 2 2 8 a v n n v a c a q q 0 0 9 9 8 0 k v v v v c v v n n n n n n v v n S D S n n n n v n S S *.t.k.$.S #.#.#.&.8.8.8.8.8.>.>.>.>.8.f.v.+X;X+Xc.:.[ &.9.c.+X=X4XDXDX4X(.$.u 4 > 3 2 2 5 6 6 8 8 8 c z z z z r 8 r z 8 4 7 7 8 r c r r z c c b B B B B N _ _ _ r.r.*.N b r 4 3 4 r p c n n c c a n n N *.=.a p t.{.t.n p =.k.j.=.*.=.=.=.=.=.=.=.=.;.a.d.d.j.j.d.t.d.;.=.=.;.;.$.#.d S #.#.$.$.$.>.v./.(.&X;X:X4X3X4X4X4X4X>X`.>X>X=X`.=X=X=X>X>X>X&X*X;X+Xh.;.Z a a a a a a n n a n _ *.*.*.#.;.l.$X*.p p n n N n b b B B B B n n p 0 k c k 8 k c #.[ #.5.oX;X*X/./.h.f.9.9.h.c.^./././.(.+XOXv.l.k.>.S p > : 2 2 0 c p 6 1 1 1 ; ; ; 1 1 1 1 1 1 2 9 a 9 4 2 4 2 4 4 4 4 9 9 9 p p a a a a d S #.>.d.l.h.v.v.(./.b.(.(.(.(.(.b.(.b.c.c.x.c.c.c.b.b.b.b.c.c.x.c.b.x.b.(.&X&X&X&X&X&X&X=X=X&X&X&X&X&X=X=X=X&X&X&X&X",
"oXoXv.v.h.d.;.$.$.$.} } } &XJX:Xu.n a a a c a c a p a v n *.*.*.$.$.$.$.#.$.d. X X$.a a n v c M M M v v v v v v c v v n n n n N X X =.oXoXoX=.a p p 4 a j.oXk.d.-.r.t.t.t.-.*.n p a v n *.;.8.8.8.9.9.h.h.h.h.h.f.f.f.d.>.$.S n n m k 5 1 1 2 2 2 8 0 v n n v a c c q q 0 0 9 9 2 9 q v v v c v v v v n n n n n v v S D *.S S S n n v v S S S t.l.u.$.#.#.#.&.8.d.d.d.8.d.8.8.8.8.h.OX+X#Xh.>.[ Z #.#.;.8.h.&XJXDXDXv.d 4 2 2 2 k k k h h 8 8 8 8 8 h h z z z z z z z z z c m b N N N _ _ _ _ _ _ _ _ _ _ _ _ _ w.*._ b s r 4 4 p p c c n v n n n a c n a 4 r.#Xk.*.p n d.j.=.=.=.=.=.=.=.=.=.=.=.a.d.d.j.j.d.;.t.=.$.$.;.;.$.#.#.$.>.8.f.c.v.+X<X:X:X:X:X>X>X>X4X>X>X`.>X>X`.>X4X>X=X`.`.`.`.).<X;X#Xd.Z f s S d n n n v a a a n n #.*.*.#.=.l.@X*.p p n N N n b b B B B B n n c 8 p p p 8 p c #.8./.#X$X%XOX/.h.h.9.8.8.9.9.9.c.^._._./././.OX/./.v.l.d.;.#.d t.t.=.n 9 4 : ; o o $ ; : : 4 4 a a a p a n n a a a n n S S *.*.$.=.;.;.;.>.d.k.k.h.v.c.c.v.v./.b.b.b.b.b.c.c.b.b.b.c.c.c.c.b.b.v.(.(.v.v.v.(.(.(.&X&X&X&X&X&X&X&X&X&X&X&X&X&X&X(.(.(.(.+X+X&X&X",
"v.p.$.Z Z Z #.#.$.$.$.&.} (.JX:Xu.n a a a c p c a p a v *.=.=.*.$.$.$.$.$.#.>.k.@Xu.v p v v c M M v M v v v v v v v n n n n n N % # w.@X{.oX$.a p 4 4 *. XoXk.a.-.r.t.t.;.e.=.*.p p c n *.=.8.d.8.9.f.h.h.h.f.f.f.f.d.>.$.#.S n c k 6 2 2 2 2 2 2 2 0 v N N v c c a q q 0 0 0 9 2 8 0 c v v v c v v v v n n n n n n S *.=.D D D n n v v S n S =.{.d.$.S Z #.;.f.k.k.j.d.d.d.d.d.l.v./.h.>.#.Z d #.#.S #.#.Z 8.<XDX3Xk.9 2 8 8 8 8 8 8 8 8 8 8 8 4 8 z c m m x z B B N _ w._ _ _ *.*.r.r.r.r.*._ _ _ _ _ _ _ _ _ *.*.-.*._ n a p 2 2 8 p a c n n n p p n c p N @X@Xt.p a t.u.=.=.=.=.=.=.=.=.=.=.=.a.d.j.j.j.d.;.;.=.=.;.d.k.k.k.+X&X&X>X&X=X>X:X=X>X>X>X=X=X=X`.`.`.`.`.`.`.`.`.4X`.b.x.c.(.&X<X*Xv.#.f a Z S d p a n n v c v v a n #.*.*.#.=.k.@X*.p p n N N n n n v n n n n n p 9 0 p 0 8 0 c =.l.oXoXl.h.l.l.h.f.8.8.f.h.h.c.c.h.h.h././.^.h././.(.+X+X/./.c.f.k.k.>.;.$.;.$.$.$.$.;.>.>.>.>.>.>.;.=.;.d.d.d.d.d.d.d.d.d.j.j.d.d.d.8.8.f.h.h.l.h.h.c.h.h.c.b.c.b.b.b.b.b.b.b.b.b.b.x.x.c.b.b.b.v.(.v.v.(.+X&X&X&X&X&X&X&X&X&X&X&X&X+X+X(.(.(.8.>.>.>.>.>.u.d.",
"A f 9 u f S $.;.=.=.>.>.} b.JX:Xu.n a a a c p c c p p n *.=.=.*.;.;.;.;.;.$.;.d.@Xd.n p a v M M M M v v v v v v v v n n n n n N % 1 w.@Xl.oX*.p p , 4 d.oX Xl.t.-.r.t.t.t.-.=.*.p p c n #.=.d.d.9.f.f.h.h.f.9.9.f.f.d.;.*.S S n 8 5 2 2 6 6 2 1 2 2 0 c N N v c c a q q 0 0 9 9 2 8 0 k v v v c v v v v n n n n n n S =.=.*.D *.n n v v n v n $.j.u.$.S d #.>.k.>.>.u.d.d.d.k.k.oXl.d.$.#.Z #.#.#.#.n *.#.u &.:XDX<Xu.: 1 8 8 8 0 8 8 8 8 8 8 8 4 z M w.y.y.y.y.w.w.w.w.w.*.w.*.w.r.r.r.r.w._ _ _ _ _ _ _ _ _ _ *.-.r.r.-.-.*._ 1 1 : 2 8 a c c n c c c n p p }.,Xj.a p =.t.=.=.=.=.=.=.=.=.=.=.=.a.d.j.j.j.d.;.;.;.d.l.$X<X<X<X:X4X4X4X>X>X>X4X>X>X>X>X>X>X`.`.`.`.`.`.`.>X>X>X`.(.v.v.v.c.c.h.$.$.#.S d d a a n n n n n c a p a n #.*.*.#.=.k.@X*.p a n N N n v v v n n n v n p 9 p p p 8 0 c *.#.n n #.#.#.s s u u f Z [ $.&.>.8.d.8.d.f.h./.h././.(.).).(.(.c.v.v.c.c./.(.+X&X&X&X+X+X+X(.(./.v.f.8.8.8.8.&.8.8.8.8.8.8.>.>.8.8.>.>.8.8.f.f.c.f.9.f.h.9.f.c.c.c.x.x.x.c.c.c.b.c.c.x.x.c.c.b.v.v.(.(.(.+X&X&X*X*X*X&X&X*X>X:X*X+XoXv.f.>.&.$.#.Z d a f u u u ",
"> 9 Z $.;.;.;.$.;.$.[ &.&.v.3X*X>.n v v a a p c p c p v =.e.-.e.u.u.u.>.>.;.;.;.k.k.=.a a v c M n v v v v v v n n D n n v n n n 1 % w.@XoXd.a 4 4 9 ;.@XoXoXl.d.-.r.t.a.a.a.t.e.9 2 0 n n #.;.j.8.8.f.f.f.h.h.h.>.=.#.#.S n 0 2 1 1 1 1 1 5 5 2 8 8 k c v M v c 0 0 0 0 0 0 0 0 8 8 9 q v v v k v v v v n n n n n n S =.e.=.*.D n n n n n n n n j.k.$.d #.#.$.k.d.;.;.d.k.l.l.l.#.#.#.Z ( U #.#.=.N _ n #.d d oXDX<X=.# 8 6 8 h 8 8 8 8 8 8 6 6 1 4 N y.j.y.y.y.r.*._ _ r.r.r._ r.r.r.r.w.*._ _ _ _ _ _ _ _ *.w._ _ *.*.*.*.*.=.N n a 8 2 1 1 1 8 0 c v n c c p t.e.*.v D u.i.*.=.=.=.=.=.=.=.=.;.d.d.z.j.a.;.=.=.;.d.l.@X#X$X*X>X:X:X:X>X>X>X4X>X4X4X>X>X`.`.`.`.`.4X=X=X:X;X;X&XoXf.$.f f =.>.$.#.#.S S S n n n n n n v c a p a n #.*.*.*.=.;.{.#.p a n N N n n c c c m B c p 9 9 p p p p a a c a a p p u u u u u u 4 > , , , 9 9 9 9 9 a d S ;.>.f.h.h.c.v./.b.(.(.(.(.(.(.(.c.(.(.(.(.(.(.(.(./.c.9.8.:.:.:.8.8.9.9.9.9.9.9.8.8.8.8.8.8.>.:.>.8.8.8.8.8.9.f.h.9.9.9.9.9.9.9.c.9.:.:.:.9.(.&X+X+X+X+X+X&X*X&X;X*X*X+XOXv.h.8.$.#.#.#.#.Z #.#.#.n a p p p p p ",
"Z S $.=.;.;.;.=.=.&.#.&.&.v.3X*Xu.n n v v v a v p a p v =.e.=.e.u.u.u.>.>.>.>.>.k.k.=.v a a c M n v v v v v v v n D N n v n n v % 1 w.{.j.*.a u > d k.oXoXl.l.=.-.t.t.a.a.a.t.e.a 4 9 n n #.=.d.d.f.f.k.k.f.d.d.$.$.*.S n p 8 2 1 1 1 5 5 5 5 5 k 0 k c v M c c 0 0 0 0 0 0 0 0 8 8 9 q c v v k c v v v n n n n n n S =.e.=.D D n n n n n n n n u.k.>.#.#.#.$.d.;.u.j.k.l.k.j.;.#.#.#.d n n #._ *.N _ _ #.d d /.DX<Xe.# 8 8 h h 8 8 8 8 8 8 8 6 6 r N r.y._ N _ *.-.-.t.t.r.*._ w.r.r.r.r.r.w.*._ _ _ _ _ _ _ _ _ _ *.*.*.*.*.*.w.w.*.N n c p 8 1 2 2 6 8 p c v c n n a *.j.j.e.=.=.=.=.=.=.=.=.;.a.j.j.d.u.=.=.=.#.#.=.$.#.#.#.:.:.9.h.c.c.(.`.`.>X>X>X>X>X>X4X`.>X>X=X;X<X*XOX Xu.S 9 9 S =.=.$.*.#.S S S n n n n n n v c a p a n #.*.#.*.=.;.l.#.p a n n N n c r z c B B m c 8 8 8 p p a c c p a c n c a a p a a a p p p u p 2 2 2 # # # # : : g f Z [ $.&.:.c.(.(.).(.(.(.(.(.(.(.).(.(.(.^.(.(.(.(.(.b.c.c.h.h.h.h.h.h.h.9.9.q.9.9.9.9.f.f.9.8.>.:.:.>.8.8.h.h.h.x.c.c.c.c.c.h.9.:.:.:.9.c.oXOX*X*X*X*X*X+Xk.>.$.[ Z [ Z Z #.#.n n d a d n n a a p p p a c ",
">.>.>.;.;.=.=.;.=.&.$.;.>.h.:X&Xu.S n n v v c v p a p v =.e.=.e.;.t.;.u.>.u.u.u.k.k.e.v a a c c v v v v v v v v n D S n n n n n 1 5 w.{.j.#.u > u d.oXoXl.j.a.-.-.t.t.a.a.a.t.t.n p 8 c n #.=.=.d.f.k.k.d.8.;.=.#.#.D v 8 2 5 1 1 5 5 5 8 8 8 0 k k k c m v c c 0 0 0 0 0 0 0 0 8 8 8 q c v v c c c c v n n n n n n S =.=.=.D S n n n n n n n n $.j.d.$.S S $.d.d.d.k.l.k.d.=.#.#.#.n n n n n _ *.N *._ *.n d h.DX<Xe.; 8 h h h 8 8 k 0 k 8 8 6 h m N w.V B z x N -.a.j.a.-._ _ _ _ *.*.*.*.*._ _ _ _ _ _ _ _ _ *.*._ _ _ _ _ _ *.*.*.*.*.N n v p 8 2 1 1 3 8 a p c a 9 c e.t.e.e.e.e.e.=.=.=.=.;.a.d.d.d.;.=.=.;.;.;.d.d.u.>.u.&.&.>.&.&.&.:.:.c.).&X`.`.=X`.(.=X>X>X:X*Xv.u.$.S v p 9 9 S =.=.*.*.D n D S n n n n n n n c a a a n #.*.#.*.=.;.l.#.p a n n n B B m c z z r h 8 c c z 8 8 4 6 4 p p p a a a p p p u u p a a a a D D n a 9 9 9 9 g f Z $.$.&.:.8.c.^.(.(.(.(.(.^.(.^.c.^.(.(.(.(.(.(.+X&X&X&X`.(.(.(.(.(.(.(.b.^.c.c.b.b.^.^././.OX/.h.f.h.v.v./.v.^./.^././././.c.c.h.h.9.8.8.8.oXoX Xl.d.$.Z f Z Z Z Z S Z d f n n n a a a a b p p p p b n N _ ",
">.>.;.;.=.=.;.;.#.=.&.>.>.h.+XOXu.S n n n n v n p a p v =.e.=.e.;.t.;.;.u.u.u.u.k.k.t.n v a c c v c v v v v v v n n n v v n n c 5 5 G }.j.n 4 > *.l.$X/.h.;.*.=.-.;.t.a.a.a.t.t.=.a 4 p n n *.*.>.u.d.d.d.;.*.#.n n v 8 1 % & 5 5 5 5 5 8 k k k c c c c m m c k q q q 0 0 0 0 0 8 8 9 9 k v v c c c c v v n n n n n S *.=.*.S S n n n n n n n n S u.k.;.Z #.>.l.j.j.j.d.t.*.#.#.n n n n n n N N _ N *.*.*.( d 8.<X<Xt.; 8 h h h 8 8 k k k 8 8 8 c m N V M m h 4 r n -.a.a.r.-.*.( _ _ _ *._ _ _ r.-.*._ _ _ *.*._ _ _ _ _ _ ( ( *.*.-.-.=.t.t.t.t.t.*.n 8 3 1 1 p c a 4 4 n *.*.e.e.e.e.=.e.e.e.=.;.d.d.t.;.=.=.#.#.*.;.u.>.u.d.=.;.;.;.>.>.>.8.h././.h.9.c.b.b.&X&X*X<X Xd 9 9 9 9 c c a n w.e.=.*.D D D S n n n n n n n c a a a n #.*.#.*.=.;.j.#.p a n n N B B m c z 8 z z c 8 8 r r p r p p 4 4 4 p a n *.=.d.d.d.k.k.l.v. X.X{.}.j.k.d.d.f.k.h.v.v.h.9.h.h.q.9.h.c.c.c.c.h.:.} } &.9.c.b.^.^.b.v.v.(.(.(.(.(.(.(.(.(.(.(.(.).).).).).(.(._.(././././.v.v.h././.v.v.c.h.h.h.c.c.c.c.v././.v.d.;.#.d u u u a d d d S S S S n n n n n b b b b p p a b N _ *.r.",
";.;.;.;.;.;.=.=.$.=.;.8.8.8.v./.u.S n n n n v n 0 p p v =.t.e.t.;.;.;.;.u.u.u.u.k.k.u.S v a k c v c v v v v v v v n n v v n v c 8 1 M e.b > 4 n k.oXoXh.8.=.*.-.e.=.t.a.a.d.d.d.t.c 4 p c n #.*.$.$.=.;.=.*.S n n c 8 5 % % 5 j j 6 6 6 8 k k c m c c c c c k k q q q q 0 0 0 0 8 8 8 9 q c v c c c c v v n v n n n n D *.D S S n n n n n n n n d ;.l.k.;.;.f.v.k.j.t.*.#.#.#.*.n n N N N N N N _ N *.*.*.( d &.<X<Xi.; 6 8 8 8 8 8 0 0 8 8 8 6 8 c B B B m z 8 3 r _ -.a.a.t.r.-.-.r.-.-.-.-.-.t.r.*.*.-.t.a.d.t.a.a.a.d.z.z.z.l.l.T.T.oXoX%X#X#X%XoXz.;.d w , 3 9 a 9 8 a n n w.w.=.e.e.e.t.t.=.;.5.5.;.=.=.=.#.#.*.;.u.>.>.d.t.d.d.a.>.;.;.8.l.oXoXh.9.h.h.h.(.+X&X:Xv.a 4 9 a 0 0 0 c *.e.=.=.*.N N *.*.S n n n n n n v a a a N #.*.#.*.-.;.d.n p a n n N n c p 8 8 p 8 9 8 8 8 8 p p p a a n d Z S $.u.k.l.l.l.l.v.v.v.v.v.oXoXv.oX/.(.oX(.OX+X(.(.c.h.9.9.9.f.f.h.c.v.v.h.Z g g f $.>.8.8.h.h.9.f.f.f.h.h.h.h.c.c././.(.(.(.(.(._.^.^././.v./.$X+X$X#XoXoXv.v.v.v.v.l.l.h.v.v.v.oXoXv.h.u.u s d n S S n n d a s a a a n S n n n n n n a n n n n n *.-.e.t.",
";.>.>.5.;.;.=.=.=.=.&.8.8.:.9./.u.S n n n n v n 0 p p v =.t.e.t.;.t.;.>.>.u.u.u.j.k.u.D n v k c c c v v v v v v v n n v v n v v 5 1 k 9 o * ( oXoX#Xv.&.&.;.=.-.e.;.t.a.a.d.d.d.d.n 2 8 p n *.#.S #.*.*.#.n n c c 8 5 % & 5 j j j h 6 6 8 k k c c c k c c m k k c c q q 0 0 9 0 9 8 8 8 0 c v v a a c c v v v v n n v S D S S S n n n n n n n n a *.l.@Xk.d.l.oXd.t.*.#.n n #.#.n n N N N N N N _ _ _ _ #.( [ [ ;X;Xj.; 5 k 8 8 8 8 0 0 8 8 8 6 8 p m m B B m z 3 4 p _ r.a.t.t.a.a.d.d.d.d.a.a.d.a.a.a.d.z. XoX$X1X1X1X,X,X<X;X%X;X;X;X;X;X;X;X$X$X1X$X%Xg.#.u 8 p a 8 4 p v n *.*.*.=.e.e.t.t.=.;.;.;.=.=.=.=.#.#.=.;.u.u.u.d.=.t.t.t.;.;.d.d.;.k.#X#X/.l.h.8.h.(.+X+Xk.*.v q 0 p c c a n =.*.*.*.N N *.*.S n n n n n n v a a a N *.*.#.#.-.;.d.n p a n n N n 0 p a v N n n p u u a n S $.;.;.u.d.f.k.l.l.l.l.v.v.v.v.v.v.v./.c.c.c.b.b././././.c.c.c.c.b.b.v././././.OX+X$X$X>.f , g Z &.8.f.f.9.9.8.8.>.>.:.9.f.h.c./.(.(.+X).(.^.c.b.(.).+X;X*X$Xv.l.h.v.oXv.v.v.v. X X X Xf.d.u.u.u.=.Z f #._ n n a a a p a n n n n n n n n n n n n n n d #.#.#.*.*.=.=.;.",
";.>.;.;.;.;.;.=.;.;.;.8.8.&.:./.>.n n n v n v n 9 p p n =.t.t.t.u.u.>.>.>.>.>.u.d.k.i.*.n v k c v v v c a v v v v n v v v v v v 5 % 1 X o n {.1X#XoXf.&.&.;.t.e.t.;.t.;.a.d.d.d.j.n 4 2 p c _ *.D D S n n a 9 8 5 5 5 5 j j h h j h 6 6 6 h k c k k k c c c c k c c q q 0 0 9 9 9 8 2 8 0 k v v a a c v v v v v S v v S D S S S n n n n n n n n d S d. Xk.d.l.v.;.$.#.S _ _ _ n N N N _ _ _ N N _ _ _ _ n U [ Z *X;Xk.; 6 k 5 8 8 8 8 8 8 8 4 4 4 r c p c B b r 4 r p _ -.t.t.r.a.d.z.z.g.z.g.g.z.z.z.z.z.z.l.T.1X1X1X,X;X;X;X<X&X&X&X&X&X&X%X+X%X%X+X;X;X%X8.#.n n c 8 2 8 a n v n n D *.=.e.e.-.=.;.;.=.*.*.*.=.$.=.;.>.;.;.;.t.d.d.d.a.a.d.d.u.j.oX#Xl.h.l.h.8./.+Xv.;.$.n v 8 p n n a n *.*.*.*.*.*.*.*.S n n n n n n a a p a N *.*.#.#.-.;.t.a p a n n N n p u a $.k. X Xv.k.h.l.l.l.h.v.v.h.h.v.v.(.(.v.v.v.b.b.^.b.b.b.b.^.^.b.b.c.c.c.c.h.9.>.8.v.oXOXOXoXv.v.v.oX#X$X$Xh.Z : g $.d.v.oXh.h.9.8.:.&.&.&.h.c.v./.(.+X+X+X).).(.(.(.).+X+X/.h.&.d u u a d d d d d S S #.#.S d a u u a d S n n n n n b a a a n n n n b n n n n S #.#.#.S S #.#.#.#.$.=.=.=.",
"&.&.&.=.=.;.;.;.;.;.;.;.8.&.:./.;.n v n v v m n 0 p p n =.t.t.t.u.u.u.>.>.;.;.;.d.k.d.*.n v q c v v v c a v v v v v n v v v v v 8 X o o p %X<XoX$Xl.8.;.;.=.=.t.=.=.;.;.a.d.d.d.j.n 4 2 8 a N *.*.*.N n a 8 2 1 % 1 5 j h h m m k h 6 6 6 h k k k k k c c M c c c c c q 0 0 9 9 9 8 2 8 0 k v v c a a c v v v v S v v S D S S n n n n n n n n n S a $.d.;.;.k.l.=.*.n n n #.n n N N _ _ _ _ N N _ _ _ n d U [ f $X,Xk.: 2 k 5 8 8 8 8 8 8 8 4 6 4 c c r c b b r 4 r B _ -.r.-.-.-.;.5.a.a.a.a.a.a.a.a.a.5.;.-.%.a.a.z.z.T.oX%X%X-X+X+X).).+X+X;X%X%X%X;X;X%X8.[ a n v a 9 p p a p a v n D *.e.e.-.=.=.=.=.*.*.*.#.#.$.;.t.t.u.d.d.j.j.d.d.;.u.d.d.h.#X$X/.h.h.f.8.c.*Xv.;.*.D e.n a p p c *.=.*.*.*.*.*.*.*.S S n n n n n a a p b n *.*.#.#.-.;.;.a u a n n n n a 9 p S k.#X*X*X$X+X+XOX/.v.v.c.(.(.(.(.(.v.b.b.c.c.c.c.c.c.c.c.^.^.c.c.c.c.c.h.:.} Z $.>.l.v.v.8.>.$.$.>.d.h.l.$.g , f >.v./.OX/.c.9.&.$.&.&.:././././.(.OX+X+X_.(.+X&X&X+X/.v.f u 9 9 u u u u u p p p p p p a p a n n a a n *.*._ n b a a a a a b n b b c n n S #.*.*.$.*.$.#.#.#.#.#.$.$.$.$.",
"=.=.=.=.;.;.;.;.;.;.;.;.;.;.d.l.=.n v n m c c m c 0 p a =.=.=.=.u.u.u.u.u.u.>.>.;.k.j.=.n n n v c k k k c c c k c v v v n n v 0 1 1 o 9 *X<X:X+X/.l.d.;.=.;.;.;.;.;.;.;.;.8.8.d.t.*.a 4 p n *.D N m 8 1 1 1 1 1 8 8 k k k k k k k k h h h k k c k c c c c c c k 8 9 v v 0 0 q 2 8 9 8 1 8 k c c c c c c c c c a v v v v v v v c c c a a a p p p a n u.d.#.#.h.l.=.*.n _ _ _ n N N N N N _ _ _ _ _ _ *.#.#.#.U U oX<XoX4 1 6 8 h k k h 8 8 8 6 6 z B m 8 z B b c r r b _ -.r.r.-.r.-.-.-.-.-.-.-.-.-.-.-.-.-.-.-.-.-.-.-.-.-.;.;.oX%X$X-X$X$X$X1X$X$X$X$X$XoXj.=.a *.*.n 8 4 p n a p a a c n D e.e.e.=.=.=.=.*.*.*.*.=.;.;.;.d.d.d.d.d.d.d.5.8.d.d.h.l.l./.l.f.f.h.v.OXf.#.#.D D *.*.a 8 0 D *.*.*.*.*.D N N D D D D n n n a a a p d #.#.#.#.#.#.t.d u a n n S n v p 9 v *.e.t.;.#X<X<XOXh././.(.>X=X&X:X>X=X`.`.(.(.(.^.^.^.^.^.c.(.(./.^.^./.c.8.} f f &.f.v.v.&.;.;.=.#.d f f > g d >.h.h.f.h.c.c.c.h.9.9.9.9.h.c.f.h.+X+X/.oX*Xl.l.#X#Xd.a 4 9 a c p u u u u a c c c v v v n c c c p a c n n n n a a a c c v v c c c c n N _ *.#.#.#.#.#.#.#.#.#.#.#.#.#.$.=.",
"=.=.=.=.=.;.;.;.;.5.;.;.;.;.d.{.u.S v n v v M M c 0 p a =.=.=.=.t.t.u.u.u.u.;.>.>.f.j.=.n v n v v k k k c c c q c v v v v n v 0 1 1 X a <X<X:X).h.h.8.;.;.;.;.;.8.5.5.;.;.8.d.d.d.=.n 4 2 8 v M k 8 1 % % 1 5 5 8 8 k k k k k k k k h h k k k c k c c c c c k k 9 a c c v c 0 8 8 8 8 2 8 k c c c c c c c c c c v v c c c c c c c a a a p p p p a n u.d.#.#.k.l.=.*.N _ _ _ N N N N N N _ _ _ _ _ #.*.#.#.#.U d oX<X X9 1 6 8 h k k h h 8 8 8 8 z B m 8 z B b c r r a _ -.r.r.r.r.-.r.r.r.r.-.-.-.-.-.-.-.-.-.-.-.-.-.-.-.-.-.;.z.l.T.%X%X%X%X%XoXoX%X%XoXl.d.=.n #.=._ a 4 4 p a a c v c c v n *.*.=.-.e.r.=.*.*.#.*.;.;.a.d.;.d.d.d.d.8.5.8.d.d.h.h.h././.h.h.l.v.OXf.#.#.D D =.*.a 9 0 D *.*.*.*.*.D N N N D D D n n n v a a a n *.*.=.=.=.=.d.n u a n n n n n c p c D e.e.=.=.l.$X/.8.c.+X&X=X=X=X:X>X=X`.`.(.(.).(.(.(.(.(.(.).).(.^.(.(.(.h.9.8.9.v.+X*X;XoXoXoXl.k.d.;.;.8.f.h././.h.h.h.h.v.OX+X(./.c.c.c.b./.v.v./.#X#X@X#.9 u n a 9 8 k c v a p p u u n c n n n n n n n n n c c c v n a a p p p p p p n n n b v b v b n d d s d d d ( #.#.#.#.#.#.$.=.",
"=.=.=.=.=.=.=.=.;.;.;.;.;.;.d.{.u.n a c m m M M c 0 0 a =.=.=.=.;.;.;.>.>.;.;.;.;.d.j.=.n v v v v c c k c q a a q v v v c v c 0 1 1 # S 3X<X;X+Xf.f.d.>.;.;.;.;.d.d.t.;.;.t.d.d.a.a.r.n 2 1 6 h 5 1 % % 1 6 h k 8 k k k k k k k k k k k k k c c k c c c c c c k 0 c 0 c D v 8 8 8 8 8 8 8 k c c c c c c c c c c c c c c p 0 0 0 a a q q 0 0 0 0 a v t.d.*.*.k.l.=.*.N _ _ n N N n N N N N _ _ _ _ #.*.#.#.#.U d oX<X{.8 2 8 k k k k h h 8 8 8 8 z B m 8 z b m c r p b _ -.r.r.r.r.r.r.r.-.-.-.-.-.-.-.-.-.-.-.-.-.-.-.-.-.;.t.;.-.;.5.a.d.d.a.5.a.d.g.z.d.;.#.n n n *.=.*.a 4 3 p a n c a a a a n n *.=.=.=.=.*._ n #.=.;.a.d.t.d.d.d.d.;.;.5.d.h.h.d.d././.l.l.l.v.OXf.#.*.*.*.=.*.c 0 k D *.*.*.*.D D n n N N D N N n n v c a n #.=.*.=.;.;.=.d.S p a n n n v N v c a n =.e.=.#.;.8.>.&.(.:X;X=X`.=X>X>X`.`.`.`.`.`.`.).).).).).`.`.`.).`.&X`.&X&X+X&X;X;X;X;X#X@X@X@X#X#XoX/.oX/./.h.8.8.8.8.8.h./.(././.c./././.OX/.f.l.#XOX;.a : 4 p a 9 9 c v v c a a s s p a c c v n n n c c a a a a c a a p p p u u p p a p u p p n *.=.d d d #.#.#.#.#.#.#.#.#.#.#.*.=.",
"=.=.=.=.=.=.=.=.=.;.=.=.=.=.;.l.u.n 9 p c c c c k 0 0 a =.=.=.=.=.;.;.;.;.;.;.=.;.d.j.=.S v v v v c c k c q a a q c v c v v k 0 1 1 ; #.3X:X;X+Xf.k.k.d.;.;.;.d.d.d.d.;.t.t.u.d.d.a.e.n 8 1 5 5 1 1 5 5 h k c c k k k k k k k k k k k k k k c c k c c c c c c k 0 0 0 n D n 8 2 8 8 8 8 8 k k c c c c c c c c c c p p p 0 0 0 0 q q q 0 0 0 0 0 a a e.d.*.=.j.z.-._ N n _ N n N n n N N N _ _ _ _ #.*.#.#.#.U d l.,X{.9 2 8 k k k k h h 8 8 8 8 z m c 8 z m c c r p b _ -.r.r.r.-.r.-.-.-.-.-.-.-.-.-.-.-.-.-.-.-.-.-.-.-.-.t.;.#.( ( ( %.%.#.( ( %.-.-.#.U d s #.n _ e.t.*.p w a v n c p a c v c c n n N n _ N n n _ -.e.a.j.a.d.d.d.d.5.;.5.d.k.k.d.d.l.T.l./.l.v.+Xf.#.#.*.=.w.=.n p 0 D *.*.*.*.D N n n n N D N N n n v c a n _ =.*.=.=.=.-.t.n a n v v n n N v p p v *.=.=.*.;.;.Z g 8.;X;X=X=X`.`.`.`.`.`.`.`.`.`.`.`.).).`.`.`.).).).).).&X+X+X&X&X&X+X/.*X$X$X#X#X#XoX/.h.>.&.$.$.&.&.8.>.f.l.c.h.h.c./.OX(./.h.d.d.k.u.d a p a v a a n m M v c a a s s a a a a a p u u p p a s d d n n n a a a p p p s d d d n $.u.l.oXk.j.k.oX#X#X{.j.#.#.#.#.#.#.$.=.",
"=.=.=.=.=.=.=.=.$.;.$.$.$.$.;.k.j.n 0 a c v M c 0 8 0 a =.=.;.=.=.;.;.;.;.;.;.=.;.u.j.t.D v v v v v c k k q q q q c c v v v q 8 5 % # n <X&X&X+Xh.h.d.;.$.=.;.d.d.d.d.d.j.d.j.j.j.e.n 8 5 5 5 5 1 5 k c m m c c k k k k k k k k k k k k k k c c k c c c c c c k 0 8 k D D N k 1 0 8 8 8 8 0 k c c c c c c c c c c c c c p p p p 0 0 p p p p p p a p =.j.;.;.k.j.*._ N N n n n N n n n N n n _ _ _ *.*.#.#.#.U d k.1X{.9 8 8 k k h h h h h 8 8 8 z m c 8 z c z c p p b N *.r.t.r.-.-.-.-.-.-.-.-.-.-.-.-.-.-.-.-.-.-.-.-.-.-.-.-.%.( ( ( #.-.-.%.( %.;.-.#.( d d #.n N e.j.e.n n n n n n a a n n c c a a a c v n n n n *.=.t.j.u.d.d.d.d.u.;.d.d.k.l.l.g.h.h.h.l.l./.+Xh.#.*.*.=.e.e.n a 0 N *.*.*.*.D N n n n n N n n n n v v c c N *.*.*.-.-.*.*.n a n c m n M n c p p c _ e.d.;.;.-.f , $.v.v.).`.`.`.`.`.).).).).).).).).).).)._.(.(.).).&X&X&X+X(.(.(./.v.f.d.d.k.k.l.l.oXoXl.;.#.&.8.8.;.>.;.d.l.v.c.h.f.f././.h.>.>.;.S Z a n *.S n a v D m v c a a S #.#.$.#.$.#.#.#.#.#.#.#.$.;.;.;.;.;.;.;.;.=.=.=.;.;.>.d.d.h.v.v.oXoXf.j.k.l. X@X Xl.=.*.#.#.*.*.*.-.",
"&.&.$.$.$.$.=.=.$.$.#.#.#.#.=.d.t.n 9 p c c c k 0 8 0 a =.=.;.=.=.;.;.;.;.;.;.=.;.u.d.t.D v v v v v c c q q q q q v v c v c k 0 5 1 # p ;XOX&X+Xh.f.>.;.$.$.;.d.t.d.j.j.j.j.j.j.*.c 2 1 5 5 % % 5 8 c M M c k 8 k k k k k k k k k k k k k k c m k k c c c c c k 0 9 n D D n c 8 0 8 8 8 8 0 k c c c c c c c c c c c c c c c c c p p p a c c c c a 9 *.j.t.t.k.j.*._ N N N n n N n N n N N n n _ _ _ *.#.#.#.( n d.$X}.8 8 8 k h h h h h h 8 8 8 z c z 8 z z z c c c b N *.t.t.t.-.-.-.-.-.-.-.-.-.-.-.-.-.-.-.-.-.-.-.-.-.-.-.-.-.-.%.#.#.#.#.#.%.-.;.;.#.#.#.#.n n n *.e.e.=.=.*.=.e.e.*.a n n n v a p 9 9 p a v v n N n *.t.i.d.d.d.d.;.;.;.d.h.l.l.h.g.8.8.h.v.oX*Xh.#.#.*.=.e.=.n p 8 N D *.*.D N N n n n n N n n n n v v c b N *.*.*.*.*.*.n p p n m c m v c c p 8 a _ e.d.t.;.=.#.d >.8.&.^.(.`.=X>X=X`._.).).).).).).).).).).+X&X*X+XOX(.9.>.$.} #.[ d u $ : 9 a #.u.k.oX$Xl.>.;.;.&.&.&.$.d.v.+X#Xc.>.$.8.k.8.;.$.d u a n #.*.*.S n v v c c c v *.j.oXOX/./././././././././.OX+X+X(./.v.v.l.h.h.h.f.f.h.f.f.f.f.f.f.f.k.u.k. X Xk.u.$.#.$.*.#.#.#.*.*.*.",
"$.$.$.$.$.$.=.=.$.$.#.#.#.#.$.d.*.a 8 0 8 8 8 8 h 8 0 a =.=.=.=.;.;.;.;.;.;.;.;.;.>.u.t.D v v v v v c c k k k q k c c c v v c 0 5 5 1 9 *XOX*X+Xh.f.u.;.;.;.d.d.t.d.j.j.t.=.*.n 2 1 1 5 5 & O O 5 0 c M m c k k c k k h 8 h k k m k k k k k m m k c c c c k k k 9 k M D c c c v 0 8 8 8 8 0 k k c c c c p a a a c c c c c c c c a a c c c c c c a 4 *.j.d.d.j.d.*._ N N N n b N n n N N N n n n _ *.*.#._ _ ( n t.@X}.8 6 8 h 8 h h h h h 8 8 8 z c 8 8 z z z c b b b N *.t.t.t.r.-.-.-.*.*.*.*.*.*.*.#.#.( #.( *.*.*.*.-.-.-.-.-.-.;.-.-.#.( ( -.-.-.-.#.#.#.( n n n n #.*.=.=.*.=.j..Xl.#.a n n n v a p 9 9 9 p a v v 0 v w.t.d.d.d.d.t.;.t.d.j.k.l.k.h.d.;.8./.#X;Xl.$.S D *.=.=.n 0 8 v N D *.D N n n n n n n n n n n v v c c N _ _ _ _ *._ b r p n m k k c k p 9 p a n e.d.=.d.d.d.&.;.8.8.h.^.).`.=X>X>X&X&X&X+X+X&X&X&X&X;X+X#XOXv.d.$.S f u u u u 9 9 > : : 4 u a #.$.;.oXoXl.;.#.#.&.&.d.h.oX*X$X/.8.$.$.$.;.;.#.f u d n D S n n N v 0 c c c n =.{.;X<X<X:X:X>X&X+X(.(.(.(.+X&X+X(.^.c.h.h.9.9.8.8.8.9.9.8.>.:.:.>.f.h.$X@Xk.$.d a a a S *.=.=.#.#.#.*.",
"$.$.$.$.$.$.$.$.$.=.$.#.#.#.=.d.*.c 0 c k 8 8 k h 8 0 a =.=.;.=.;.;.;.;.;.;.;.;.;.>.u.u.*.v v v c c c c k k q q c c c c c M c k 5 5 1 4 *XOX;X+Xl.k.d.d.k.j.k.j.j.j.j.t.=.a 3 ; ; 1 1 5 1 O O 5 8 k c c c c c m c k k 8 8 8 k k m k k k k c m m k c c c c k c k 8 M D v c k c D 0 8 8 8 0 8 0 c c c c c p a a a 0 0 0 0 p p p 0 a a c c c m v v a 4 D j.d.d.j.d.*._ N N n b b N n n N N N n n n _ *.*.*._ _ ( N t.@X}.8 6 8 h 8 h h h h h 8 8 8 z z 8 8 z z z c b b b N *.t.t.t.r.-.-.-.*.*.*.*.( ( ( ( ( ( ( ( ( ( #.*.*.*.-.-.#.-.a.a.a.-.*.#.=.-.-.*.#.#.#.n n n n n n n *.*.n *.}.,X$Xt.n n n n n v a p 9 8 8 9 c p 2 0 D t.u.d.d.d.t.;.t.d.d.k.k.k.l.d.;.;.oX+X;Xv.$.S D *.=.=.n 9 6 v n S *.D N n n n n n n n n n n v v c r m N N n N N N c r c M c 8 8 8 8 8 p p a n =.t.d.d.=.;.;.8.8.8.h.x.^.(.).:X:X:X&X&X&X&X*X*X*X*X#Xl.>.$.S u 9 9 p p p p 9 9 9 9 9 4 9 p n #.$.=.u.oX$Xl.;.;.;.=.j.k.k.v.v.h.>.$.[ d #.;.S f Z S n D *.*.*.*.n 0 M m p p n d./.OX(.).(.(.(.(.(.(.(.`.&X>X>X&X).(.^.^.x.h.h.9.9.h.h.f.f.f.v.v.oX+Xd.$.a u u a a u a #.u.t.*.n S #.",
"k.k.d.u.;.=.$.$.#.#.Z Z Z #.>.d.D c 8 8 k k 8 8 8 8 8 a =.t.=.;.u.t.;.;.;.;.;.>.$.;.d.j.e.n v v M M c c k k k k v M M n v c 0 5 % j 2 : #X;X&X(.oX@X@X@X@XoXl.l.t.t.*.c 8 3 1 ; 4 m m 7 O O O j 5 k c G m M c c k k k k k k k k k k k c c m m m c c c m c 8 8 8 D c k 0 k k k 8 k 8 5 8 8 8 k c c q 0 0 q c c a c c v v v v c q c c c c v c v v a a v u.k.u.d.d.#._ n n n n n n n n n N n n _ _ *.*.*._ _ N _ _ t.{.t.8 8 h 8 h h h h 8 8 8 8 8 h z z c z c z x b b b _ *.r.r.r.-.-.*._ *.*.*.( s -.a.a.t.-.*.-.-.*.( ( s n ( -.-.-.-.-.-.-.*.#.*.#.#.( n n n ( n n n n _ _ ( ( n u *.#X,Xl.=.=.=.*.n n a a a p a p 8 2 2 1 c e.t.d.d.d.d.;.;.d.a.d.d.d.j.g.d.=.;.oX<XOX;.S D D =.D n c 8 c n D n n n n n n n n n n n n n n n n 4 r 8 r n N n N b p p p c 8 8 8 c a c c a n =.j.a.;.;.;.;.&.=.8.9.^.`.>X>X:X:X<X:X;X;X<X<X/.>.$.S n a a n S n v v v c c c 0 8 6 3 3 4 9 a n *.*.=.d.oX#XoXk.k.k.j.;.#.&.j.h.j.l.&.d =.=.n n n n n n *._ N n c c M c v a a >.h.8./.).`.(.(.(.`.(.`.(.).=X=X`.(.).).&X`.(.^.(.(.(.c.c./.#X$XoXd.#.a a a a a a a a #.$.t.u.d.d.u.u.",
"j.d.d.u.;.;.;.$.#.#.#.S #.#.;.>.*.v 8 8 k k 8 8 8 8 8 a =.t.=.;.;.;.;.;.>.;.;.;.=.;.u.u.e.n v v c c c v v c c c c c k 0 0 q 0 8 & j 8 : @X*X+X*X+X$X#X@X{.j.;.*.n v 8 2 : 1 2 8 c N M 7 O O O 5 5 h k M c M c c k k k k k k k k k k k c c c m m c c c M c h 8 k M c k 0 k k k 8 k 8 5 5 5 8 k c c q 0 0 q c c q c v v v c v c q c c c c v c v v q a a t.k.d.d.d.#._ n n N N n n n n n N n n _ _ *.*._ _ _ _ _ _ t.j.w.8 8 h h h h h h 8 8 8 8 8 h h z r z z z x b b b _ *.r.r.r.-.*._ _ *.-.-.*.*.a.z.a.a.a.t.a.a.a.a.-.*.( #.*.-.-.-.-.-.-.#._ #.#.#.( n n n n n n n n n _ ( ( n u #.oX,Xl.=.;.t.=.#.n a a a c c a 8 2 2 1 8 D t.t.=.=.t.;.;.a.a.d.d.d.d.d.5.;.&./.:X+X;.S D D =.S n a 8 p n S n n n n n n n n n n n n n n n n 2 8 r c N n n n r 4 2 8 8 8 8 k v v v c a v *.d.t.t.;.;.;.-.=.8.9.c.&X:X&X/.9.8.&.h.OX$Xv.>.#.Z D n v v n n n v v v c c c k h 8 4 4 4 p n S *.*.#.=.l.@X@Xl.j.d.;.=.#.#.u.k.k.j.;.#.;.*.a n n n n n n n n c c c M v n a d d./.h.9.c.).).(.).`.`.`.(.`.=X=X`.&X=X:X:X>X`.).&X>X:X<X;X+Xv.>.#.d u a p a a a n S #.$.;.u.u.p.p.p.p.",
"d.d.d.u.>.;.;.;.u.>.;.;.;.>.>.>.*.v 0 8 k k 8 8 8 0 8 c =.t.=.;.;.;.>.u.u.;.;.;.;.;.u.u.e.D v c M m c c c c c c k k 0 8 8 k k 8 & 6 k 2  X*X*X:XoXv.l.u.=.S a a 4 4 3 1 3 p n N N w.V 7 O O 1 5 8 h 8 k c M c c c k k k k k k c m k k k c m m m c c c M c k 0 c v v k k k k 0 8 k 8 5 5 5 8 k c c q 0 0 q c c q v v v v c v c k c c c c k k k k q 9 q *.j.d.d.t.*._ n n N N n n b n n N N n _ _ _ _ _ *.*.*.*._ r._ c 6 8 k k 8 h h h 8 8 8 8 8 h h 8 z z z z r b b b ( *.r.r.-.*._ _ *.-.-.-.*.( a.j.a.a.t.;.a.a.a.a.a.;.-.*.( *.*.-.-.-.*.*._ *.#._ _ n n n n n n n n n n #.#.#.s S l.,Xl.=.;.d.t.=.#.a a a v c c 0 2 1 1 5 0 e.e.*.*.=.t.=.t.a.d.j.d.d.a.;.;.#.h.;X+Xu.*.D D *.n v p 8 0 n n n n n n n n n n n n n n n n n n 2 r p p n a p p 3 , 3 8 c v N N N n n v a c *.t.a.t.;.;.-.-.-.5.8.h.+X<X&X8.Z f [ f.v.k.$.Z d d S n v v n S n v c c c c c k k 0 8 4 8 p n *.*.*.*.-.d.{.oXz.;.#.#.*.#.n *.k. Xj.j.;.=.#.p n N D N N n a p a c v M N D a d d.OXc.:.h.(.).(.(.(.(.(.(.).&X&X=X>X:X>X>X>X&X;X<XDXJX;XoX;.d u u u a a s d S #.$.;.>.>.>.>.u.u.u.d.d.",
"d.d.d.u.>.>.>.>.k.k.j.k.k.k.d.u.*.v 0 8 k 8 8 h h k 8 c =.t.=.;.;.;.>.u.>.>.;.;.;.;.u.j.i.w.n v M m c k k 0 8 8 8 0 k k k c k 8 & 5 8 4  X*X;XOX>.;.#.S a a p p 3 4 p a n *.=.w.*.w.M 8 O O O 7 c k 8 8 c M c c c k k k k k k c m k k k c m m m m c c M c k c m v k k k k k 0 8 k 8 5 1 5 8 k k c q 0 0 q c c q v c v v v v v c v c c c k k k k k 9 9 S t.d.d.t.*._ n n n n n n n n N N N n _ _ ( _ _ *.*.*.*._ _ c 8 4 6 h c 8 h h h h 8 8 8 8 z z z z z z r r b b b ( *.-.-.*.*._ *.*.-.-.*.( ( t.a.t.-.-.-.;.-.-.t.t.-.-.*.*.*.*.*.*.*.*._ _ #._ _ _ n n n n n n n n n n n #.#.d d d.$Xv.=.;.;.d.d.;.#.n a a c c p 8 2 1 1 1 *.-.=.*.=.t.=.;.a.d.j.d.;.;.;.=.#.f.+X+Xd.*.D D *.n a 9 6 8 n n n n n n n n n n n n n n n n n n 4 p p p n a d ( n a a n w.e.w.e.D N n n c c n e.a.t.t.;.-.*.-.;.8.9.OX<X;X9.Z Z k.l.d.#.d d n d S n n v n n n n c c c c c c c c p 9 p a n *.=.=.e.-.t.j.j.d.*.#.#.#.#.n n d. Xl.{.j.=.n p n N N N n c a a c v v c v n a a d.+X/.c./.(./.c.h.9.9.h.c.(.&X;X&X+X(.f./.&X;X<X;X$XoX$.d 9 9 p n n d S #.$.>.d.d.d.d.u.u.u.>.u.u.d.f.",
"d.d.u.u.u.>.>.>.d.d.d.d.f.d.>.;.*.v 0 0 k k h k h k 8 c *.t.=.;.u.u.;.;.;.;.>.>.;.>.j.{.{.i.D v c c k 0 8 8 5 5 8 k c m M M k 8 5 & 5 4  X;X:X&.Z d d v v a p a 4 p n _ *.=.*.*.w.N c 8 1 X + h M m 8 8 M M c c c c k k k k c c k m c m m m m m m c c m c k c v k k k k k k 0 8 k 8 5 & & 8 k k c q q q q c c q v v v n n v c c v c c c c c k k c 9 0 v =.d.d.;.*._ n n n N n n n n n N N N _ _ ( ( _ *.w.*._ N c 6 6 8 5 8 k h h h h h 8 8 8 8 c c c c z z z r b b b ( *.*.*.*.*.*.*.*.-.-.*._ *.a.a.-.-.-.-.a.-.-.*.*.*.*.*.*.( _ _ _ _ _ _ _ _ _ n n n n n n n n n n n n n d #.d s 5.$X/.&.&.8.8.8.>.;.$.S n v v a 0 8 8 1 # c *.e.e.t.t.=.=.t.d.d.t.=.=.=.-.#.8.+X+Xk.*.S S D n a 8 5 8 n n n n n n n n n n n n n n n n n n p a #.*.d.j.k.l.l.k.d.d.j.t.=.D D N n n v v n =.t.t.t.t.-.#.-.;.;.8./.:X<Xl.$.;.l.u.$.d n S n v n n n n n n n N v v c c c c c c p p p c n *.*.=.=.=.e.j.d.t.=.*.*.*.*._ n -.l.@X@X{.=.p p n N n B B B b n n v n m v n a f d.+X(.&X(.c.f.8.>.:.:.8.:.:.9./.;X:X<Xk.l.oXoXv.u.S a 4 9 u a a S *.$.>.>.f.k.l.h.k.d.d.d.u.>.>.>.d.d.",
"u.u.u.u.u.u.u.u.u.u.u.u.u.;.$.#.S c 0 k k k k k h k 8 c *.t.e.;.u.u.;.;.;.>.>.u.u.;.u.{.{.i.D c 0 0 0 8 8 0 0 0 k c M M M M c 0 5 & 1 2 .X*X/.g d a a p p p p a n _ *.*.=.*.*.*._ c 8 h 8 O O h M m 8 5 M M c c c c k k k k c c k k c m m m m m c c c c c k c M q k 0 0 k k 0 0 0 8 5 & & 8 k k c q q 0 q c c a c v c n N N M M M n M c c c c k q 9 a a D d.d.t.#._ n n N N n n n n n N N n _ _ _ _ _ *.*.*.B c 8 7 8 8 5 7 h h h h h h 8 8 8 8 m m c c c z x r b b b ( _ *.*.*.*.*.*.-.-.-.( _ -.a.a.-.-.-.-.a.-.-.( _ _ _ ( ( _ _ _ _ _ _ ( ( _ _ n n n n n n n n n n n n d d #.d f ;.oX/.;.#.f.8.>.>.>.;.$.$.S v a v 0 0 5 % 8 #.e.e.t.t.=.=.=.t.t.-.*.-.-.#.#.>./.+Xk.#.n D S v a 8 5 8 v n n n n n n n n n n n n n n n N n #.;.k.@X$X;X;X,X;X#Xl.k.d.t.*.S N n n n v v n =.t.t.t.t.-.#.-.;.;.>.f.*X;Xv.$.$.d.=.S v n n n n n n n n n n n D n n v c c c c c c p p c n D *.*.*.=.t.j.d.t.*.*.=.*.*.*.n _ a.oX@X@X=.8 8 c M c c c b B n n n v M N D v a >.+X&X&Xv.8.:.>.:.&.&.>.&.$.>.v.&X+XoXk.u.t.*.S a u 9 p 9 9 p d *.u.k.v.l.l.l.h.h.h.h.d.d.u.>.>.>.>.>.",
">.>.>.u.d.d.f.f.d.d.d.d.>.$.#.S v a 0 c c k k k h k 8 c *.t.e.t.u.u.>.;.;.>.>.>.u.;.t.j.j.t.n 0 0 0 0 0 k c M M m M M M M c k 8 5 & 5 ;  XOX[ g f a 9 4 9 p n S =.=.-.=.=.*.*.*.N p 8 c h O O 8 m c 8 5 M M m M c c c k k c c c c c c c m m m m c k k c c k c M q q k 0 0 k k k 0 8 5 % & 8 k k c q 0 0 q c c q q c v n N D D D D D M M c c v c q a v p S d.d.d.*._ N n n n n n n n n N N _ _ _ _ _ _ *.*.N c 6 8 8 8 8 6 8 h h h h h 8 8 8 8 8 m m m m m m m c c b b N _ *.*._ _ *.*.-.-.-.*._ -.a.a.-.-.-.-.a.;.-.( ( ( ( ( ( _ _ _ ( N N N N _ N N N n n n n n n n n n n d U #.s i ;./.oX8.[ f.8.8.>.;.;.;.=.=.n v n c 0 8 % 4 n =.=.=.t.=.=.*.=.*.#.#.*.*.#.#.;.v.+Xk.#.D D S v a 8 5 0 n n n n n n n n n n n n n n n N N n $.d.oX$X<X;X*X;X;XOXf.>.;.$.S S n n v v v c n *.t.t.t.=.-.#.-.-.>.>.8.oX;XoX>.u.u.=.n n n n n N n n N n v v N *.N N M m c c c c c p p c n N *.*.=.=.e.d.a.e.*.#.*.*._ *._ n *.j.@X#Xt.4 4 r m c c c c B n n v v M v n v a ;.(.*Xv.f.;.;.>.&.&.&.>.&.$.&.h.OX+X@X*.N c c a p p a 9 9 a S t.k.l.f.v.v.h.h.f.f.h.h.d.8.8.>.>.>.>.>.",
">.>.>.>.d.d.k.k.f.f.f.u.=.#.S S a p 0 c m c k k h k 8 c *.t.e.;.;.;.>.u.u.>.;.;.d.;.$.t.u.*.a 2 0 q k c c M D G c M M M m c 8 & 5 & 8 X .Xv.: u 9 9 9 p v S =.e.=.=.*.=.*.*._ *.b c z c z 5 O 6 k h 6 1 M M v M c c c k k c c c c c c c c c m M c k k k k k c M k k 0 0 0 0 k k 8 0 5 % % 8 k k c p 0 0 q c c q 0 q v n D D D D D D D M n v v v k a v 9 n p.d.d.#._ n n N n n n n n n N N _ _ _ *._ _ _ *.N r 1 4 r 8 4 8 8 h 8 h h h 8 8 8 8 8 m m m m m c m c c b B N _ *.*._ _ _ _ -.-.-.*.( -.d.a.-.-.-.-.a.-.*.( ( ( _ ( ( _ _ ( N n N N N _ N N n n n n n n n n n n n n d *.s u =./.oXd.[ 8.8.9.d.>.;.$.=.u.n a n v 0 2 # 4 n #._ =.t.=.*.*.*.#.#.#.*.*.#.#.$.h.#Xk.*.D =.S v a 8 2 9 n n n n n n n n n n n n n n N N N n n =.k.oX+X#X$X+X<XoXd.#.S S S S N n v v c a n n t.t.t.;.-.#.*.=.d.>.>.v.;X$Xl. X$.D n n D D N v n n N n v v N *.D N M v c c c c c p p c n N *.*.*.#.*.=.t.=.-.=._ *._ _ *.( n *. X1Xy.8 2 4 c p c c c c m m v v N c v a u $./.*Xf.>.;.>.>.;.=.;.d.>.=.$.d.oX$X#XD m 8 8 8 8 9 a a n =.u.k.l.v.v.v.c.h.f.h.f.f.f.8.8.8.>.>.:.>.&.",
">.9.8.8.8.8.c.v.oXl.u.=.=.S n n c c c c c c c c k k 6 p w.t.e.=.;.;.8.d.8.8.;.;.j.=.#.#.*.*.a v D D n n D D M M c v M M M k 5 5 j % & 5 |.*.4 : 4 9 a S =.u.d.=.#.#.-.=.=.=.*._ p p 8 8 m k 1 O 1 8 0 v N v N v v v c c l v c c M m m c M M m k c v c c 0 v M M k k k k k k k k h 6 5 % 5 6 k k 0 p a 0 9 p 9 8 9 q v n S S D D v n S S n v v v p a 9 a $.u.p.d.-.*.N n n n n a N N n _ _ n n N _ *.*.*.n a 4 3 4 n *.0 8 8 k 8 h k h h 6 5 8 8 c m m n M c 8 p c p p N *._ b _ _ N _ *._ _ -.-.a.z.a.-.;.-.;.5.-.-.#.( d d ( ( _ _ _ n n n _ _ n N N N N N N N n n n n n n _ #.*.( u #.l./.d.%.#.8.h.h.d.8.5.;.t.d a a S a # p n S n p 9 a S *.*._ n *.-.-.-.*.#.S u.#Xd.S n D S v c p 8 p n n D D S S n n n n n n n n N N n n r a #.=.=.-.=.;.oX X=.s n #.n n n n n n n n c a =.t.t.t.t.e.-.;.;.8.d.h.+X<X,Xt.n n n n n n n n n n n n n n n n D N N N N n v c c c c c n N *.*.*.*.*.*.-.-.*.*.#.#.#.#._ ( _ _ j.$Xj.9 4 8 0 m m m c c m m n M v n n n a n u. Xd.&.$.$.$.>.u.;.u.;.;.=.;.v.;X$XD c k k 0 8 a S ;.k.h.h.v./.v.c./.h.h.c.9.8.9.9.9.8.>.8.8.>.>.8.",
"f.f.9.9.9.x.(.&X#Xl.u.w.D n a 0 c c c c c c c c c 8 6 p =.t.t.=.=.;.8.8.8.8.d.d.=.#.#.;.d.=.n #.e.*.D n n n n c v v M M c k 5 1 5 % 6 6 V c 1 : 2 p #.t.j.j.t.#.#.#.=.;.t.=.=.*.p p 8 p c k 1 O 1 8 0 v N M D n v v v c l l c c v c c c M M c k c c c k 0 c D M k k k k k k k k h 6 5 % 5 6 k k p p p 9 9 0 9 8 4 9 v n n n n n S F F S S v q 9 a 9 9 d >.f.u.u.-.*.N N n n n b N N n _ _ _ n n N *.=.n p 4 4 p n j.j.n 8 5 h 8 h h h h 6 5 6 8 c m c n n c 8 p c c p N *._ b _ _ N _ *._ _ *.-.a.g.5.-.-.-.;.5.-.-.( ( d d ( ( _ n n n n n _ n N N N N N N N n n d n n n n _ *.*.n u #.l./.j.#.#.;.8.d.8.8.5.;.;.s s a #.a ; a j.j.u.;.n u u a n n *.*._ _ *.*.#.S d.#Xd.#.n S S v c p 4 p n N S S S S n n n n N n n n N N n c 8 a *.=.=.-.=.;.l.l.=.a n #.n N n n n n n n n c =.e.t.t.t.e.-.;.;.u.d.k.$X<X$X=.n n n n n n n n n n n n n n n n D N N n n n v c c c c c n N *.*.*.#.#.*.-.-.#.#.#.#.#.#.#.( ( ( j.#Xj.p 4 0 k c m c c c m m B M m n n n c n e.l.j.;.&.&.$.;.u.=.t.;.;.=.$.l.$X$XN c 8 k 0 8 n ;.u.h.c.c.c.^.c.^./.c.h.h.h.h.h.h.h.f.f.f.9.8.8.9.",
"x.9.9.c.b.b.+X*X@Xk.t.*.S c 0 8 c c c c c c c c c 6 6 p *.t.a.;.j.8.;.;.8.d.d.;.#.#.t.{.l.*.n *.e.*.D n n v v v c c c c k 8 5 5 & % 6 5 8 6 ; ; D =.u.d.j.d.=.#.#.-.;.;.t.=.-.=.c p 8 c c c 6 O 1 8 0 M N N D n v v v v l l c M n v v M n v c k k k c k 0 c D M 8 k k k k k k k h 6 5 % 5 h h k k c c 0 0 p 0 8 9 q v M D D D D D S S D D n v v v 9 9 S d.k.>.;.=.*._ N n n N b N N _ _ *._ _ _ n *.*.n 4 4 a *.{.1X{.n 8 1 8 8 h h h 8 6 6 6 8 c m m n n c p p c c b _ *._ b _ _ N _ *._ _ *.-.a.z.;.%.-.-.;.a.-.-.( ( ( ( ( ( _ n n n n n n n N N N N N N N N n d s s n n n _ *.n u #.k.l.d.#.#.-.;.8.8.;.8.8.;.s p a S a ; a }.j.j.j.j.=.n p 4 #.=.n _ _ _ *.#.#.d.@Xd.*.S S n n c p 4 0 n N S S S S S S S S D N n n n n c a 8 a *.=.=.=.=.;.d.z.t.n n #.n D n n n n n n v c *.e.t.t.t.e.*.=.;.>.8.d.oX<X#X#.n n n n n n n n n n n n n n n n D N N n n v v c c c p c n N *.*._ _ n #.#.-.#.#.#.#.#.#.#.#.( ( d.@X}.a 2 0 c c m c c c m m m n n n n v c v *.j.k.>.;.;.$.;.;.$.$.$.;.$.#.d.OX#Xn c k k 0 0 D j.k./././.(./.^./.c.v.h.h.v.(./.v.v.c.c.c.h.f.9.f.",
"(.b.v.&X>X&X&X&Xk.;.D n v c 0 0 c c c c c c c c c 5 6 p c w.j.d.d.d.d.d.8.;.#.#.=.d.l.#Xl.a p n n N M v v v c m k k 8 8 6 5 5 5 & & % 5 5 2 # 4 k.k.d.u.u.t.=.#.-.=.;.a.t.t.e.-.n r p c 0 k h % 1 8 0 M D N *.D v v v v l c c M n n M M n c c k c k c k 0 v M M 0 k j j k k k k h 6 5 5 5 h h k k c c 0 0 p 0 8 0 c n D D D D D S D D F v v n D 9 9 a S j.k.u.>.-.*._ _ _ _ N N N N n _ *.*.*._ N N n p 4 a t.{.<X<X}.8 6 6 h 8 h h h 8 6 5 6 8 m v m n n c p p c c b _ *._ b _ _ N ( *._ _ *.*.a.z.-.%.%.%.a.;.-.%.( ( ( ( n ( n n n n n n N n N N N N N n n n d s s s n n n _ #.n u ( j.l.d.#.#.#.&.5.8.8.8.j.;.s s a *.a ; a e.;.t.d.}.{.j.=.4 a n *.*.*._ n #.#.d.#Xj.$.S S n n v p 4 9 n n n S S S D *.*.*.D N n n n n c p 8 a *.=.=.=.;.;.;.d.t.#._ #.n D n n n n n n v c *.-.e.t.t.=.*.=.;.;.>.8./.;XoX#.n n n n n n n n n n n n n n n n N N N n v v v c c c p c n N *.*.n n n #.#.#.#.#.#.#.#.#.#.#.#.( t.oX}.a 2 0 c k c c c c c m m n n n n v c c N =.d.>.;.=.$.=.$.*.*.$.;.$.#.>.v. Xa 0 k k 0 0 D j.v.OX+X+X;X+X^.v.(.(.h.f.(.*X*X*Xv.v.v././.v.v.(.",
"4X:X*X4X3X&X(.v.;.S v c v c c c c c c c c c c m k 6 8 8 p N j.j.d.d.d.=.#.#.=.d.j.{.oX@Xt.4 4 p c c M v m c k k 5 5 5 5 5 5 5 5 & 5 % 8 6 1 ; =.k.j.p.d.u.t.=.$.=.;.;.a.t.t.t.e.N p p c 8 c c 1 1 8 k M D D *.D v v v v c c M M M M M M v v k k c c c k 0 k M c 8 j j j j j j j h 6 5 5 6 h h h k c c 0 0 0 0 8 9 q c N N N D D v D D v v n n q 2 v D D u.k.f.d.=.*.*._ _ _ n N N n _ _ _ _ _ _ N n p p n t.{.1X2X,Xy.1 6 8 h 8 8 h h 8 5 5 8 8 m M v n N c p p p c b _ _ N b _ _ b N *._ _ *.#.d.d.-.%.#.-.a.;.-.-.( ( n n n n n n n n n n n N N N n n n b b b n n a a n n n n n a 4 d j.k.8.#.#.#.#.;.d.8.d.j.d.d a n *.a # p n =.t.e.=.d.{.@Xd.u u *.#.n #.n #.S j.#Xk.=.n n n n v p 2 8 v n S S S S D *.*.*.D N n n n c p p 8 a *.=.=.=.;.;.-.a.t.#.n *.D D n n n v n c c c n =.=.t.t.=.*.-.;.;.;.;.h.$XoX#.n n n n n n n n n n n n n n n n N N n n v v v v m c c c n N *.*.n n n #.#.#.#.#.#.#.#.#.#.#.#.#.=.{.{.n 4 9 c p c c c c c c m B v v v n v c n *.;.;.$.$.$.$.$.$.#.*.$.$.#.;.k.l.9 8 0 c 0 8 v t.>.k.f.c.+X/.&.} h././.OX;X<X+X/.v.v.v./.OXOX+X$X",
"4X3X3XJXJX<Xv.>.$.S a a c c c c c c c c c c m m c k 0 8 8 n w.t.;.$.#.n #.u.l.oXl.{..Xj.n 2 3 2 0 k c c k 0 5 & % % % % % % 5 5 % 5 5 8 7 ; 1 {.}.j.p.u.u.;.*.$.=.;.;.5.t.t.t.t.*.p c c 0 c c 1 % 6 8 M D D *.D v v v v c c M M M M N M c c k k c c c k 0 k v c 8 j j j j j j j h 6 % 5 6 h h 8 k c c 0 0 p 0 8 0 c n D D D D D D D D D D D l 2 v w.e.D =.u.u.;.=.-.*.*._ _ _ _ n n _ _ _ _ N N p c n e.j.{.{.{.@X@Xt.1 6 8 8 8 8 8 8 8 5 5 8 8 v M n n M c 8 p p c b _ _ N b _ _ n N _ _ _ *.#.d.a.-.%.#.-.a.-.-.-.( ( n n n n _ n n n n n n N n N n n b b b b n a a a n n n n n a 4 s d.j.5.#.$.#.#.;.8.d.8.8.d.n a n D a # 9 *.*.=.t.=.=.u.l.@Xa.a u a n n #.S S d.,X{.=.v v n n v a 2 4 v n D S D D *.*.*.*.N n n n n c p p 8 c *.e.e.=.=.;.-.;.=.#.n _ D N M n n v n v c c n =.-.e.t.=.*.*.=.;.=.&.d.$XoX*.n n n n n n n n n n n n n n n n n n n n v v v v m c c c v N *.*.*.n n #.#.#.#.#.#.#.#.#.#.#.#.#.$.l.{.*.4 8 c p c c z c c c c m v m v n n v v n #.$.#.#.$.$.*.$.#.*.$.#.#.$.>.d.9 8 8 k 0 2 a D =.>.>.h.&Xv.[ f &.&.$.$.8.f.8.>.8.8.d.h.v.v./.oX",
"+X*X<XJXJXDX&Xd.$.n a a c c k k c c c c c m m m m m c 9 p v n _ #.n #.t.l..X{.j.j.}.}.*.4 3 2 1 5 8 k k j 5 % % % % % % & & 1 1 O 5 5 5 1 X p @X.Xk.u.u.;.$.*.*.=.;.;.;.t.t.t.t.*.c c c k c c 5 % 5 8 M D D *.*.n v c v c M M M M N D M c k k k c c c k 0 k v c 8 8 8 8 j j 8 8 h 6 % 5 6 k h 8 k c c 0 0 k 0 8 k m M D G G G w.G w.w.G D c k 0 y.i.w.S *.t.t.=.e.r.*.*.*._ _ *._ _ _ _ N N b b p n t.}.{.}.t.*.j.{.t.2 8 8 8 8 8 8 8 8 5 5 8 8 v M n M n c 8 p p c b _ _ N b _ ( b N _ _ _ _ ( d.a.-.-.*.-.t.*.-.*._ ( n n n n _ _ n n n n n n n n n n b a a a a a b b c n n n n a > s d.j.;.[ =.#.#.=.;.d.;.=.u.d a n *.a ; p =.#.#.=.t.t.=.=.k.oXt.p a #.d #.S d u.<X@X=.c v N n v a 2 8 m N D #.D D *.*.*.*.n n n n n v a p 8 c *.e.e.=.=.=.=.=.=.#.N _ D n M M n n n v c c n *.-.e.t.-.#.*.$.;.=.#.;.oXoXt.n n n n n n n n n n n n n n n n n n n n v c v v m c c c v N *.*.*.#.#.#.#.*.#.#.#.*.#.#.#.#.#.#.$.j.{.e.8 4 a a p p p p p c c m m c v N N n v n S #.#.#.#.#.S *.*.*.#.#.$.$.;.u.a 8 5 k 8 5 0 S *.;.;.h.+Xc.Z f >.$.#.#.$.$.;.$.$.$.$.>.>.>.>.d.",
">.>.f.&X3X<X*Xv.#.n a p c c k c c c c c m m m m M M c p n v p p n *.d.l.k.j.j.}.j.}.}.v # 2 2 # % 5 6 6 6 & % % % % & & 1 & & 1 % O 5 1 X ; n {.{.d.u.u.;.$.$.$.=.=.;.;.t.t.t.t.*.n c p c c c 8 % 5 8 v N D *.*.n v c v c M M M M D D M c k k k c k c k 0 k M M 8 8 8 8 8 8 8 8 h 6 % 5 6 k h 6 k c c 0 0 k k 8 0 c M M N N D D D D D D k % 5 M |.y.n v e.i.u.t.e.r.w.*.*.*.*.*._ _ _ n N b a p N t.j.}.j.=.#.n j.{.w.1 0 c h 8 8 8 8 8 5 5 8 8 M M n M N c 8 p p c b _ *.N b _ ( b N _ _ _ _ _ a.t.-.-.*.-.t.*.-.*._ ( n n n n n n n n n n n n n n n b b a a a a a b a c n n n n a > p t.j.;.S *.=.#.#.;.;.=.#.t.a a n *.c 1 c =.=.#.#.*.t.t.=.t.d.{.l.#.a #.n S a u.<X#X=.a v n n v a 2 8 c n *.*.*.D *.*.D D n n v n n n c p 8 c *.e.e.=.=.=.=.=.=.n n _ N n M M n n n n b c n *.=.e.t.=.#.*.#.;.;.#.=.T.oXd.n n n n n n n n n n n n n n n n n n n n v c v v m c c c n N *.*.*.#.#.#.*.*.#.#.*.*.#.#.#.#.#.#.*.d.l.e.9 2 a a p p p p p c c c m c v N N M v n S #.#.Z #.#.S #.$.*.#.#.$.$.;.;.v 8 5 8 8 6 q D $.>.>.h.*Xv.[ Z d.$.#.$.#.$.$.$.;.$.$.;.>.&.;.;.",
"$.&.;.&.9.;X<X/.*.v a c v c k k c c c c c c c c M N M n c c c p =.a.j.}.{.{.}.y.j.w.c 2 ; ; 1 1 % & 5 5 5 & O O & 1 1 1 % O O O O O 5 1 1 ; n {.j.u.;.;.;.=.$.=.#.=.;.=.=.t.t.e.n n N M m c k k 1 1 5 0 v N D D D D F n M c M M N D D M c k k k k c c 8 1 c D k 8 8 j k k j 8 8 6 5 % 6 h h h 8 k k c c k h 6 5 1 1 1 5 8 k h 8 8 k 8 % .   5 M k 8 8 6 9 *.j.j.*.*.-.t.r.*._ *.*._ _ N b n N _ e.t.e.-.*.n n n a.j.N 8 8 6 8 8 8 8 6 5 1 5 8 c M N w.N c 8 8 p c r b w.*.p r N a N _ _ _ _ _ *.*.;.;.*.*.-.r.*.*.*._ _ n b N N n N n n n n n n n N n a a p p p r a b s c n n n a p 4 a d.j.;.#.-.-.#.#.#.#.#.#.*.n a a *.n 2 p S #.#.#.*.=.=.=.*.=.d.l.d.n u p S v n S n a a n c n n p 2 1 8 n *.*.*.*.*.*.S n n n v n n c a p 4 c =.t.t.e.=.=.=.=.=.*.*.n n n M M n n c m c c a n =.=.=.*.#.#.=.*.#.=.=.h.oXd.n n b n n c n n v v n n n n n n v v n N v c c v c c p c c N *.*.*.*.#.#.#.#.#.#.*.*.*.*.#.#.#.#.;.;.j.d.p : 4 a 8 0 p 0 p c c p p v n N N m m *.k.v.;.d n d S S S S $.$.;.=.$.*.9 c k 8 8 5 8 v *.>.>.f.#XoX#.#.l.#.#.#.Z #.$.$.$.$.$.$.=.=.=.=.",
"$.$.;.&.8.+X<XoX$.v a c M c k k k c c c c c c c M M M n M N b p w.j.{.{.}.}.y.w.n c 2 1 % 1 1 5 5 5 & & & & % % 5 1 & % % 1 5 5 5 5 8 8 1 ; a }.j.u.;.;.;.=.$.$.#.=.;.=.;.t.t.=.n n N N v c k k 1 1 5 0 v N D D D D F n M n M M N D N M c k k k k c c 8 2 c M k 8 j k k k k j 8 6 5 % 6 h h h h h k k k k 8 5 5 5 5 8 8 8 8 8 8 5 5 1 . . . 1 8 8 5 5 1 8 N t.y._ _ -.t.r.*._ *.*._ N b n n *.*.t.e.e.=.*.n n n e.j.N 2 6 6 6 8 8 8 5 5 1 5 8 c M N *.N c 8 8 p c p B *._ p p N b N _ _ _ n _ *.*.-.-.*.*.t.t.*.*.=.-.*._ N N N N N n n n n n n n n n a a p p p p a p p a n N n c p 4 a u.k.;.#.-.#.#.#.#.#.#.#.#.n n n *.n 5 9 S #.#.#.*.=.=.=.*.=.t.d.d.=.d u 9 p p 9 4 4 9 9 c v n p 2 1 8 m *.*.*.*.*.*.S S n n v n n c p p 2 a *.e.e.=.=.=.=.=.-.*.*.n n n M M n n c c c c a n =.=.=.*.#.#.=.*.#.=.=.g.oXd.n n n n n c v n v v n n n n n n v v n N n c c v c c p c c N *.*.*.*.#.#.#.#.#.*.*.*.*.*.#.#.#.#.t.t.j.j.=.9 3 p 8 0 0 8 8 c c c p v v n M m n =.k.v.;.Z S n S S S S *.=.;.$.$.#.p c k k 8 5 2 a #.u.>.d.oXoX#.$.v.#.#.#.Z #.$.$.$.$.$.$.=.=.=.=.",
"$.#.=.&.&.oX<X#X$.v 0 c m k k k k c c c c c m c M M v M N *.N p D e.y.t.*.M c 0 2 1 1 1 1 1 5 5 5 5 5 & & & & & % % 1 1 5 5 8 h k h h 8 1 * r j.j.u.;.;.;.$.$.$.=.=.=.=.t.t.e.*.n n N N M c k k 5 1 2 8 c N D D D D F n M M M M M M M v c c c c q v c 8 5 c M c k k k k k k k j 6 5 % 6 h h h 8 8 h k k h 8 5 5 5 8 h h 8 8 8 h 6 1 X   O % 1 1 5 1 1 1 1 c w.t.n _ *.e.r.*._ _ _ _ N _ *.r.e.e.t.e.*.*.#._ n n =.t.m 2 2 1 6 6 8 8 6 5 1 5 8 m M N *.N c 8 8 p p b N N b p b N b N _ *._ _ _ *._ -.-.*.*.t.t.-.=.=.=.*._ _ _ _ N N n n n n n n n n n a a p p r a p r r a n N n c a 4 p t.l.d.#.#.#.#.#.#.#.#.#.n n n n N c 1 8 S #.#.#.#.=.=.=.$.;.;.;.u.d.$.a 9 p p 9 8 8 9 9 c m m 0 5 1 8 c D #.*.D *.D S n n n v v v c p p 2 p N =.=.=.=.=.=.=.=.*.*.N n n n n n n n v c c a N *.-.-.*.#.#.*.*.#.=.=.d. Xd.n n v n n v b n v v n n n n n n v v n N n c c v c c p c c N *.*.*.*.#.#.#.#.#.*.*.*.*.*.#.#.#.#.;.d.j.k.j.*.9 9 9 9 8 4 4 0 c c c v m v M m M w.k.v.;.S S S S S S S #.$.;.$.$.*.c m c k k 5 2 9 S u.>.>.v. X$.$.v.$.#.#.S #.#.#.$.$.$.$.=.=.=.=.",
"#.#.;.;.#.l.;X$X=.v 0 c m k k k k c c c c c m m m M M n N *.N n n v c 8 1 1 1 1 1 1 1 1 5 5 5 5 5 5 5 5 1 & O O % 1 5 8 h h h h k 8 h 8 1 X 8 j.d.u.;.;.;.$.$.$.=.=.=.;.d.t.e.D n N N N N v c k 6 5 2 8 c n D D N n F n M M M M M M v v c c c c 0 v c 8 8 c D c k k k k k k k k 6 5 % 6 h h j 8 8 8 8 8 8 6 5 5 O % 5 5 5 5 8 h 5 %   O 5 j j 5 5 % 1 % 1 0 w.t.N N *.r.r.*._ _ _ *.r.t.j.j.t.e.t.=._ n n _ _ n =.t.c 1 1 1 5 5 6 6 5 5 1 5 k v M M N n p 8 9 p p N N b p p B N b N _ *._ _ _ *._ *.*.*.-.t.t.t.t.e.*._ N n n n N n n n n n n n n n n n a p p r a p r r n N N n n a 4 u t.l.d.#.#.#.#.#.#.#.#.#.n n n n N c 1 8 S #.#.#.#.=.=.=.$.;.;.$.$.;.u.;.n 8 2 9 0 4 2 8 c c c 8 5 1 8 p D S D D *.S S n n n v v c c p 8 2 p n =.e.=.=.=.=.-.=.*.N n n n n n n n n c c c a n *.=.-.*.#.#.*.*.#.=.=.d.l.j.n n m n n v b B n v n n n n n n n v n N N v c v c c p c c N *.*.*.*.#.#.#.#.#.*.*.=.*.*.*.#.#.#.=.j.j.j.j.d.*.a 9 9 4 2 2 4 8 8 m v m v M m m *.k.v.;.S S S S S S S *.$.;.;.$.#.v c c c k 8 8 8 n u.u.>.k.l.$.$.v.#.#.#.S #.#.#.$.$.$.$.=.=.;.;.",
"$.#.=.&.#.d.$X#X=.n k k c k k c c c c c m m m m m M M m n N *.*.v 0 1 1 O % 1 1 8 5 1 5 5 5 5 5 & 5 5 5 % % O O 5 5 8 h z c z z h 7 h 8 3 * p }.k.u.;.>.;.=.=.$.;.=.=.;.d.t.=.n N D D D N M c k 8 5 1 5 0 v S S n n M M M M M M v c c c c c c c q v k 2 0 N D c k k k k k k k k 5 % % 5 h h j j 8 8 8 8 8 8 5 5       X O % % O O     O 5 j j j 5 1 1 1 % 8 *.y._ N N *.r.=.*.*._ =.t.j.j.t.e.r.w.*.n n n n n n e.a.n 2 1 1 5 5 5 5 5 5 1 5 c M M N M m p 8 9 a c N N p r b N N b N *.*._ _ *.=.#.*.*.=.e.t.t.t.t.e.*.n a p p p n n a a b n n n _ _ n n a p p p p r r c n N n c n a 4 w =.l.j.#.#.*.*.*.#._ n a a n n n M 8 1 8 _ #.#.#.#.=.=.=.$.;.;.$.$.$.u.j.t.c 1 1 4 8 8 0 c c 0 8 5 5 8 8 D S S D D S n n n n v v v c p 9 2 p n *.-.e.e.e.*.*.*.*.N n n n n n n n n n c c a n _ *.=.-.#._ #.=.#.=.=.5.k.j.*.n v n n B b b n n n n n n n n n v n D D n c c c c p c c N *.*.*.*.#.#.#.#.#.*.*.=.*.*.*.#.#.#.=.d.j.d.t.j.j.=.v v a 9 2 2 1 # 0 c c v M M M N d.l.;.S S S D S S S #.$.;.;.$.#.v c k c k 8 0 9 a ;.>.;.u.k.$.=.{.*.#.#.n #.*.*.*.*.*.=.=.=.=.=.",
"=.#.=.=.#.;.l.oX=.n 0 k c k k c c c c c m m m m m M m c c n *.*.c 8 1 1 5 6 5 6 8 5 5 1 % 5 5 5 5 & & O O % 1 5 h h h h h z c m h 7 h c 4 ; a {.k.d.u.u.>.;.=.;.;.=.;.d.d.=.*.n D D D D G N m k k 5 1 2 0 v n n n n M M F M M M c c c v c c c k k c 0 1 0 D D c k k k k k k k j 5 % % 5 8 h 8 6 8 8 8 8 8 8 8 8 X X   X X X   @         O O & & 5 % % % O 5 N y.*.N n _ =.=.*.*.*.-.r.r.*.*.*.*.*.N n n n n n n t.j.n 2 2 1 5 5 5 5 5 1 1 5 c N M N n c 8 8 p a b N B p p n N B n n *.*._ _ _ *.*.*.*.*.=.=.=.=.N n p p 8 p p c a a a a b n n n n N n n a a p p p r p b N n c a n c 3 w =.k.d.$.*.=.*.*._ a p u a n n n m 6 1 p _ #.#.#.#.=.=.=.$.$.$.;.;.;.;.u.j.e.a 2 1 4 0 0 0 0 8 6 5 5 6 6 n S S S S n n n n n v v v c p 8 4 p n _ =.-.=.-._ n n n n n n n n n n n n n c c a n n *.=.=.*.#.#.=.#.=.=.;.j.z.*.n m n n B b b n n n n n n n n n v n D D n v c c c p c c N *.*.*.*.#.#.#.#.#.*.*.=.*.*.*.#.#.#.;.=.t.d.=.t.k.k.j.j.t.D v q 8 1 2 8 8 c M M M *.u.k.;.S S S S S S S S $.;.;.$.S v k k c k k k 9 p =.u.>.u.u.S ;.v.#.#.#.n #.*.*.*.*.*.=.=.=.=.=.",
">.;.;.&.#.&.d.l.e.n 8 k c c k c c c c c m m m m c m c c m N N N p 8 5 8 h 8 8 8 8 6 5 5 5 5 5 & & & % % 1 6 h h c z z h h z z c h 5 h z 4 * p {.l.k.u.u.u.>.;.;.;.;.;.d.d.$.D n D D D *.w.N M k k 8 1 1 8 c n n n n M D D M M M c c k c c c v k v c 8 % k w.D c k k k k k k j 8 5 % % 5 h h 6 6 j j 8 8 8 j h h 8 6 6 5 1 O O   O O + +   + + + O O O X   = B r.*.N b N *.w.=.w.*.*.*._ n n n n N n n n n n n _ e.a.n 2 2 1 5 5 5 5 5 1 1 6 m w.N M m c 8 8 p c N N b r p N N b n *.=.*._ N _ _ n N n n a p p p 3 1 2 2 p a c c a a a a n n n n a a a a a a a a a p p B n c p c n a 4 p =.j.d.;.t.e.=.#.a p u 4 p n N n c 2 1 c _ #.#.#.#.=.=.=.$.$.$.;.>.;.;.=.e.i.i.w.c 4 2 2 8 8 8 6 5 5 5 5 n n S S n n n n n n v v c c p 8 4 9 c N _ *.*.#.n n n n n n n n n n n n c c c c a a n *.=.e.*.( #.=.#.=.=.=.j.l.*.n m B M n b b v n n n n n n n n v n D *.N v c c c p c c N *.*.*.*.#.#.#.#.#.*.*.*.*.*.*.#.#.#.d.;.;.;.#.=.d.j..X.X}.i.*.D n c 2 2 6 0 M M M N t.k.$.d S S S S S S S $.;.;.$.S n k k k k k c 0 9 *.u.u.u.t.S t.{.*.#.*.n *.*.*.=.=.=.=.=.e.e.e.",
"u.u.;.=.$.$.;.k.e.n 8 k c c k c c c c c m m m c m c c c M D N n c 8 8 k h 8 8 k h 8 8 6 6 5 & % O O % 5 6 h c m h z c c c c z z h 5 8 z 3 X 4 }.{.k.d.d.u.>.>.>.;.;.d.j.d.=.D D *.*.*.w.w.D v k c 8 1 1 8 c n n n n M F D F M M c c k c c c c k c c 2 % v e.D k k k k k k k j 8 5 % % 5 h j 6 6 8 8 8 8 8 8 k h M M M m k 8 5 5 5 5 % O +       O   . . o X c w.w.N p b _ w.r.r.=.*._ _ _ _ N b n n n n n n n _ =.t.c 1 1 1 5 6 1 5 5 1 1 5 m w.N M m c 8 8 p c N B c r m N N c *.w.r.w._ N N N c a p 8 3 ; X X : 1 1 2 p p p 8 p a a n n n n a 4 4 4 p a a a n b c c b c p p c N a 4 p =.d.d.t.j.t.=.n a u 4 4 a n N m c 1 1 c _ #.#.#.#.=.=.=.$.$.$.$.$.$.=.;.#.k.<X<X}.a 1 2 8 8 6 6 6 5 5 5 n n D D N n n n n v v v c c p 8 2 8 p c N n N n a a a c c n v v n n n n c c c c a a n *.e.t.*.n #.=.*.=.=.-.d.l.*.n c B n n v c v n n n n n n n n n n *.*.n v c c c p c c N *.*.*.*.*.#.#.#.#.*.*.=.*.*.*.#.#.#.;.j.d.#.#.=.=.t.{.}.j.e.*.*.D N 8 8 8 8 c c c n ;.j.$.d S S S n S S S *.;.;.#.S D c 8 k k k c 0 9 D u.p.u.=.S ;.l.*.#.#.S #.*.*.*.*.=.=.=.=.e.;.",
"t.t.=.*.n n =.j.w.n c c c c k k m k h k c c c k h c m m M G N M 8 8 8 h 8 5 5 5 8 5 1 1 5 5 5 % 1 1 5 h k k c c h h k h k c c c 8 5 h 8 2 : a .Xl.k.d.d.u.>.;.;.$.u.k.k.t.S S *.D D *.D *.*.N 0 k 8 1 1 8 k c N M M M M M M M c c c c k k k k k 0 0 % % M y.D 0 m m j j j j 6 6 % % % 5 8 8 5 5 8 8 8 k 8 8 l G G G D D N N N D N M c c c c k q k v 0 2 2 2 v e.t.*.a a n #.*.t.*.*.*.*._ n n n n n N D N N n *.t.N p 1 1 1 5 5 5 5 5 5 1 1 h c m c k 8 8 8 8 h k k k k k k h h k k k k k k k k 1 1 = = = 1 1 1 = = 1 1 6 8 r p p p p p p c n n p 8 8 2 4 8 p a n n n c 9 p v N *.p 3 a =.t.d.z.y.r.n r 4 8 p p c m c 8 2 1 5 0 *.#.*.$.$.$.=.;.=.$.$.$.=.=.;.;.$.f.;XJX<Xu.p 2 0 5 8 8 5 % 5 5 c n D D N N N N c c c c c c 0 8 5 8 p c n b a a a a p a c m B n n n v c m m c c a a n N =.e.-.*.#.*.=.*.*.*.t.{.u.n a n n v n n v M n n n n b n n =.S a *.*.a a c c p p c N *.*.*.#.*.*.*.*.*.-.*.*.*.*.*.#.#.#.d.j.;.#.#.#.=.t.{..X}.w.D D D a n n v c q 0 0 9 #.;.$.Z n S S S S n n #.*.=.#.#.n c 9 0 c k k k 8 v e.j.u.$.#.$.;.$.#.S S #.#.S *.#.*.#.*.$.*.*.",
"t.t.=.*.n n =.j.e.n c 0 c c k k k h h h c c c k k c m m M V M m k h 8 k k 8 6 8 8 8 5 1 5 5 5 1 1 5 8 h k k k k c k k k h k h h h 6 h 8 6 : a oXl.k.d.d.u.>.;.;.=.d.k.j.e.S S D D D *.*.*.*.n k k k 5 1 8 k c M M M M M M M M c c c c k k k k k k 0 % & D i.w.c m m j h h j 6 & % % % 5 6 8 5 1 8 8 8 0 8 2 v G D D D D D D D D D D D D D D D D v n v q q a n e.i.=.n a n n #.=.=.=.*.*.*._ n n N N D *.*.n n *.t.N p 1 1 5 5 5 5 5 5 5 1 5 k c k h 8 5 5 5 5 8 6 6 5 5 5 5 5 5 5 5 5 5 5 5 5 5 1 1 1 1 1 1 1 1 1 5 5 7 6 6 4 8 p p p p a a c c p p 8 4 4 8 p p a c p p 9 p n *.n 8 3 a *.=.=.e.n c r r r p p p p p 8 2 1 1 2 8 *.*.$.=.$.$.=.;.$.$.$.$.$.=.;.;.$.:.(.<X;X;.p 9 2 1 5 h h h 6 1 k m N N M N M v c c c c c c k 8 5 8 p c n n a a a a a a c m m n v v c c m m c c c c n N w.e.=.*.*.=.*.*.*.*.t.{.d.n a n n v n v M v M n n n n n #.=.#.d #.#.a a c c p p c N *.*.*.*.*.*.*.*.*.-.*.*.*.*.*.#.#.#.d.j.;.#.-.&.;.d..X}.u.D S D n v v v v c q q 0 9 #.;.$.Z n S S S S n n #.*.=.#.#.n a 9 0 p k k k 8 v e.j.u.$.#.$.>.=.#.S S #.#.S #.#.$.$.$.=.=.=.",
"t.e.=.*.n n *.u.t.N c 0 k k k k h h h h k k k h c c c m M V M c k h 8 k k 0 8 8 2 1 1 % 1 1 5 % 1 1 5 6 8 h h k k k k k h h k h h 6 h p 6 1 n .Xl.k.k.d.u.>.;.;.t.j.{.j.=.S S S D *.*.*.*.*.N c k c 8 1 5 k c M M M M M M M M m c c c c k k k k k 8 % 2 G i.e.M k k k k h 6 5 % O % 1 5 6 8 5 5 8 2 8 8 8 8 v G w.D D D D D D D D D D D D D =.w.S S n S D D D e.j.e.n b n N n *.r.r.=.=.*.*.*.*.*.*.*.*.*.n n *.t.N p 1 5 5 5 5 5 1 5 5 1 5 k c 8 8 5 1 1 1 5 5 % % % % % % % % 1 1 1 1 1 1 1 1 1 1 1 5 5 5 1 1 5 5 5 7 6 6 6 6 8 p p p p p p p p 9 8 8 8 8 8 8 8 8 8 8 p c n D a 2 2 c n n a a 2 2 4 r p p p 8 8 2 1 1 1 1 2 2 n #.=.;.=.$.;.t.$.$.$.$.$.$.=.;.&.} f.*X$X$.9 v 8 2 1 5 8 k h 1 1 8 0 0 0 k k 0 c c c c c c 0 0 6 8 p c n n a a a a a a c c m n c c c c m m c c c c c N w.e.=.*.*.=.*.*.*.*.;.l.d.#.a n n v n v M n n n n n n n *.t.=.n *.#.n c c c p a v N *.*.*.*.*.*.*.*.*.*.*.*.*.*.*.*.#.#.d.j.;.#.#.=.8.j..Xu.D n D n v v a a q k q q k a #.;.$.Z S S S S S n n #.*.=.#.#.n a 9 0 p k k k 8 v *.u.u.;.$.$.>.=.#.S S S S S #.#.$.=.;.;.;.;.",
"t.w.*.*.n n *.t.y.D 0 8 h k k k h h h h h h h h c k c m N N v c c h 8 8 8 8 5 2 1 1 1 2 8 8 h 6 1 1 1 1 5 5 8 h k c k k k k k k h 6 8 p 8 3 n .Xl.k.k.d.d.u.;.;.t.k.{.u.D n S S D *.*.*.*.*.N v c m 8 1 1 k c c c c M M M M M M c c c c c k k k 9 1 # 1 D y.e.G k k k j 6 & % % O % 1 5 6 6 5 5 8 2 2 8 2 8 v D w.D D D v v v v v v v v v v D D D D D D e.e.D *.j.t.*.n n n n n =.=.=.=.=.=.=.=.=.*.*.=.*.n n *.t.N p 2 5 5 5 5 1 1 5 5 1 5 h k 8 5 5 1 1 1 5 5 5 5 5 5 5 5 1 1 1 1 & & & & 1 1 = 1 1 1 5 5 1 1 7 7 7 7 7 7 7 7 2 4 8 9 p p p 8 8 8 8 8 8 8 8 8 8 4 2 8 c n N N 8 2 2 p n a 4 3 4 4 8 r p 8 8 2 2 2 2 1 2 6 5 1 p n ;.t.;.=.=.=.$.$.$.#.$.*.=.;.;.Z >.*X$X=.9 v v c 6 1 1 8 k 6 1 1 5 2 6 8 8 8 c c c c c c 0 0 6 8 p c n n a a c a c a c c m m c c c c m m c c c c c n *.r.=.*.*.=.*.*.*.*.=.j.d.#.a n n v n v n n n n n n _ #.*.d.t.#.*.*.n n c c p a n N *.*.*.*.*.*.*.*.*.*.*.*.*.*.*.*.#.#.d.d.;.#.#.u.h.l.j.D q v D n v v 9 9 0 q q c v a *.;.$.Z S S S S n n n #.*.=.#.#.n a 9 0 c k k k 0 c D t.u.;.$.$.>.=.#.S S S S S #.#.$.;.;.>.t.t.",
"w.*.*.*.n n D =.i.*.p 8 8 8 h k h h h h h h h h c k c M V N m c k 8 5 5 2 1 1 1 4 8 0 c M M M m h 8 5 1 1 1 5 8 k k k k k k k k 8 6 8 p 6 2 *.{.k.k.k.k.d.u.;.;.t.j.j.e.S n S D D *.*.*.*.w.D N c m h 1 1 8 k k k k c c M M M M m c c c k c k k 8 1 # 1 G y.e.G k j j 5 & % O O O % 1 5 6 6 5 5 8 8 5 5 2 8 c D D D n v k q 0 0 9 9 0 0 0 q c D e.e.w.e.y.w.n v y.t.*.n n b a n *.*.*.*.*.=.=.=.*.*.*.*.*.n n *.t.N 8 2 5 8 6 5 5 1 1 5 1 5 8 h 5 5 1 1 1 5 5 5 5 5 5 5 1 1 1 1 1 1 1 1 1 1 1 1 1 & & & 1 5 5 5 6 6 6 6 8 8 8 6 1 3 6 8 h r z r 7 2 6 6 8 4 8 8 p 8 8 p n N n n 4 2 2 p p p 4 4 c r 4 4 2 2 1 1 2 8 c c 8 8 6 1 4 n t.a.t.e.=.=.=.-.*.*.*.#.*.$.>.#.u.1X1Xe.9 a N N n 0 ; 1 8 4 2 6 8 6 8 c c c c c c c c k 0 0 6 8 c c n n b a n a a a c c m m n n c c m m c c c c c n *.e.=.=.*.=.*.*.*.#.*.d.d.#.a n n v n v n n m n n n #.*.*.t.t.*.*.*.N n c c p a n N *.*.*.*.*.*.*.*.#.#.*.*.*.#.*.*.*.*.d.d.;.#.#.d.l.l.*.a 4 a D n v v 8 9 9 0 k k c v *.;.$.Z S S S S n n n #.$.=.#.#.n a 9 0 c k k k 0 q n e.u.>.;.=.>.=.#.S S S S S #.#.$.;.t.t.t.t.",
"*.*.*.*.n n n *.j.*.p 8 8 8 h h h h h h h h h k c c m M V M c c k 5 1 1 1 1 2 8 v c c M N M M M M M c 8 5 5 5 5 6 8 8 h h k c c 8 6 8 p 2 2 =.{.k.l.k.k.d.u.>.;.t.u.t.*.n v S D D *.*.*.*.w.D N c m 8 1 1 5 5 8 0 k k c c c m m m m c c c k c c 8 1 % 1 G |.y.G k 6 O O & & O   O % 1 5 6 6 5 6 8 8 8 8 8 8 k M v k q 0 9 9 0 0 9 9 9 9 9 q v c e.y.e.e.w.n 0 9 t.t.*.n n b a a n N n n _ *.*.*.*.*.*.*.*.n n *.t.N 8 1 5 8 6 5 5 1 5 5 1 5 8 5 1 1 1 1 1 1 1 1 1 1 1 1 1 1 1 1 1 1 1 1 1 1 1 1 5 1 & % 1 1 5 8 5 6 6 5 8 8 8 8 1 1 7 6 8 z z c 3 3 1 7 6 6 8 8 p 9 p c N N n p 4 2 4 4 8 p w 8 p 8 3 3 2 2 6 6 8 c M m c c 8 2 ; a =.e.t.d.d.t.*.*.*.*.#.#.*.*.;.S e..X.Xw.q q c N e.=.c 4 4 2 2 6 6 5 8 c m c c c c c c k 0 0 6 8 c n n n b a n a a a c c m m n n c c m m c c c c c n *.-.=.*.*.=.*.*.*.#.*.t.j.#.n n n v v v n n m c n N #.#.*.t.t.*.n n N n c c p c n N *.*.*.*.*.*.*.*.#.#.*.*.#.#.*.*.*.*.d.d.;.*.=.k.l.d.v 9 2 q n n v c 8 9 9 0 0 k k a *.;.$.S S S S S n n n #.*.=.$.#.n a 9 9 c k k k 0 0 v *.u.u.;.;.u.=.#.S S S S S S #.$.=.=.=.=.=.",
"*.D D D n n n D j.*.c 8 8 8 h h h h k k h h k c m M M G V m k k 0 8 5 1 1 2 p n w.D n c c c c c M M M m c 8 6 5 5 5 5 5 8 8 8 8 5 5 5 8 2 3 =.}.j.l.k.k.k.d.;.;.t.=.D S n n D D D *.*.*.D w.*.D c c 8 1 % % 1 8 5 6 0 k c c c c M m m c c c k k 1 1 % & M |.y.G 6 & O + O O     O % 5 5 6 5 5 5 8 8 8 8 8 8 k k 0 0 0 0 8 8 0 0 0 8 8 8 0 0 0 0 M D D N c 0 2 9 w.e.*.n n n a a n n n n n n n n N N *.*._ n n *.y.N 8 1 5 8 6 5 5 1 5 5 1 1 5 1 1 1 1 1 5 5 5 5 1 1 1 1 1 1 1 1 1 % 1 1 1 1 1 1 5 5 5 5 5 5 6 6 6 6 5 5 6 6 6 6 5 5 7 6 8 h z c 7 7 5 5 7 6 8 8 8 8 c M *.N p 2 2 4 4 4 4 8 p p 4 4 4 4 8 p p p c v M c c m k 2 X 2 n n *.e.t.e.*._ n n n n n n D n n e.e.N c 0 0 c w.i.e.n p 4 2 2 1 1 5 k c c c c c c c c 0 0 6 8 c v n n b a n n c a c c m m n n c c m m c c c c c n *.=.=.=.*.=.*.*.*.#.#.=.j.#.n n n n v v n n c c c n n #.#.t.t.*.n n n v m c p c n N *.*.*.*.#.#.*.*.#.#.#.#.#.#.*.*.*.*.d.d.u.;.d.l.d.n 9 0 9 9 k v c k 0 0 0 0 0 0 k q *.;.$.S S S S S n n n S *.=.*.#.n a 8 9 c k k k k 0 k D u.u.;.;.u.;.*.S S S S S n S *.=.=.=.*.*.",
"D D D D n n n n i.*.c 8 8 8 6 6 h k c k h h k c M M G w.V c 8 8 0 8 5 2 1 4 n t.}.t.D a 0 0 k k k c m M M c 8 6 h h 8 5 1 % X X 5 5 5 8 2 3 =.l.j.l.k.k.k.d.;.;.t.D n n n n D *.D *.*.D D w.w.w.c c 6 1 % X % 5 5 5 8 0 k c l c M M m m c c c k % 1 % % m y.e.M + % & % +       O % 5 5 5 5 5 6 8 8 0 8 8 8 0 k k q 0 0 8 8 8 8 8 2 1 2 8 8 8 1 % 8 0 0 9 2 1 0 *.r.*.n n n a a b b a a a a a a n n N N n N n *.y.N 8 1 5 8 6 5 8 5 5 5 1 1 5 1 5 5 5 5 5 8 8 8 8 8 8 8 6 6 6 5 8 8 8 8 8 8 8 8 5 5 8 8 8 8 8 8 2 2 6 6 5 5 5 5 6 6 7 7 8 h z c 8 6 5 1 1 7 8 8 6 8 c M *.n 8 1 2 8 8 4 4 8 8 8 4 4 r p n n m c c v c 8 k v c 2 1 6 k 8 p n N N n n n v c v n n c a 0 a v v c c c p N t.t.=.#.n 2 2 1 1 6 c v m c c c c c c 0 0 6 8 c n n n b a n b c a c c m m n n c c m m c c c c a n *.=.=.=.*.=.*.*.*.#.#.=.j.#.n n n n v v M n c c c n n _ *.t.t.*.v c v a m c p c n N *.*.*.*.#.#.*.*.#.#.#.#.#.#.*.*.*.*.d.d.d.d.k.l.t.4 4 q q 2 8 v v k k 0 0 0 0 0 0 9 *.;.$.S S S S S n n n S *.=.*.#.n a 9 0 c k k k k 0 q D u.d.u.;.u.;.*.S S S S S n S *.*.=.*.#.S ",
"*.D S n n n n n t.t.v 2 8 8 6 k h m m h h m M M m M M c 8 5 6 8 8 2 1 1 0 N e.t.i.j.y.N c 0 0 8 c c c c c c c c k M M M c 8 5 1 % X X 8 8 ; t.}.j.l.l.k.d.>.;.u.D D n n n n D D N D *.*.D D w.w.N 8 5 5 % X % 5 X % 8 0 k k c c c M M c m M c 8 % % % 5 6 6 & O & % +           % % % 1 5 5 6 8 6 6 8 8 h h h k 8 8 8 8 5 5 5 5 8 8 8 8 8 8 8 8 8 8 8 8 8 8 8 4 v w.e.N n n c c a a a a c c c c a c v n n n n _ t.n 2 1 5 5 5 6 5 5 5 5 5 8 8 8 8 8 8 8 8 8 8 8 8 8 8 8 8 8 8 8 8 8 8 8 8 8 8 8 6 1 2 2 4 a c 2 3 1 1 6 1 5 h 8 8 8 8 8 h h z z 6 7 7 7 5 5 1 1 1 2 p n n p 4 2 3 2 8 4 2 2 4 8 p c B N n n m c c c c 8 0 0 0 0 1 5 8 5 2 c a n a a c c c m m m n v p 8 6 8 k c v v n *.e.u.d.j.*.k # X 1 k m c c c c c c c c k 6 6 0 v n n n n n n n c c p c c p p c c c c c m m c p c n *.*.*.*.*.*.*.#.#.#.#.=.#.n a n n v v c c n n c a a a *.*.N v a a v n m v n n n N *.w.*.*.#.n n #.#.#.#.#.#.#.#.#.#.#.$.d.u.k.oX=.4 4 q q 0 0 2 2 2 8 0 0 8 8 8 8 0 0 d #.#.d n S n v a a n S *.$.*.*.n v 0 0 k k k k k k 0 v t.j.u.>.$.$.*.S S S S S *.*.*.*.=.=.=.=.",
"D N n n n n n n e.t.N 8 k 8 6 k M V M c c m c 8 8 h 8 5 1 1 1 1 1 ; 1 8 n *.e.e.t.j.y.D a p 0 8 c k k k k k k k k c M M M M M M k 8 1 6 1 o e.k.j.l.l.k.d.;.;.u.D D n n n n D D D D D D D w.w.w.M 7 1 6 1 X % 5 5 1 5 8 0 k k k c v v c m m k 8 % % % 5 5 5 5 % % O +           % & 1 5 6 8 k k 8 8 8 8 6 6 6 6 8 8 8 8 5 5 6 6 8 8 8 8 8 8 8 8 8 8 8 8 8 8 8 2 c =.w.N n n v v c a a a c c c c c c v n n n *.*.t.n 2 1 5 5 5 6 5 5 5 5 5 5 6 8 8 8 8 8 8 8 8 8 8 8 8 8 8 8 8 8 8 6 6 6 8 8 8 8 2 8 8 2 3 p n p 4 1 1 6 5 5 h h 5 7 7 6 8 8 8 8 6 6 7 7 5 5 1 1 6 2 8 c c p 2 1 8 8 p p 8 8 8 p p c B N n n c c c c k 8 0 0 0 0 1 1 8 5 2 p p c c c c c m m v v a 0 8 2 1 2 6 8 8 0 c n =.u.j.l.}.y.v 5 1 6 c N c c c c c c k k 6 6 0 v n n n n n n n c c p c m c a c c c c c c m c p a n _ *.*.*.*.*.*.#.#.#.#.=.#.n a n n v v c c n n a a a a *.S n v c a c n m m n n n n *.w.*.*.#.n n #.#.#.#.#.#.#.#.#.#.#.*.=.t.l.{.S > p q k k 0 8 2 2 8 8 8 8 8 8 8 0 9 n #.#.d n S n v a a n S *.$.#.#.n c 0 0 k k k k k k 9 a *.d.u.u.=.=.*.S S S S S S #.*.*.*.*.=.=.",
"D N n n n n n n w.t.D 0 8 6 h m V w.w.M 8 8 8 5 1 % O X % 5 1 1 # 1 8 n *.e.=.*.=.t.t.D a a p 8 c c c c k c c c k c c m M D w.y.w.N c 2 X o e.k.d.j.k.k.u.;.;.t.D D n n n N D D w.*.D *.w.w.D N c 7 5 8 1 X % 6 c k 5 5 5 8 0 0 c c c c c c k 8 % % % % % % & 5     + + + + . . & 1 1 5 8 h k k h h h 6 6 6 5 5 5 5 5 5 5 5 5 5 5 5 5 5 5 5 6 6 5 5 5 8 5 5 8 5 p D =.N n n n n c c c c c c c c n n v v n n _ *.e.c 2 1 5 5 5 6 5 5 5 5 5 5 5 5 6 8 8 8 8 8 8 8 8 8 8 6 6 6 8 8 6 6 6 6 6 6 5 2 p a a p w w a #.a r 2 7 5 7 h h 8 8 8 8 8 8 8 8 8 6 6 7 7 5 1 1 6 1 1 8 p 8 2 1 p p c c a a c c p c b B n c c c c c k 8 0 0 k k 5 1 6 6 2 2 : 3 4 4 4 8 p c c c c p 8 2 1 1 1 1 1 2 4 p n *.t.j.}.}.|.w.0 1 1 5 k c c c c c k 0 6 6 0 n n n n n N N n c c c c m c c c c m c c c m c p a n n #.*.*.*.#.#.#.#.#.#.*.#.n n n n v v c c b n a a n n *.n n v m c c M m m c c n n D *.*.*.n n n n #.#.#.#.*.*.*.*.#.#.*.*.t.}.j.p : a q k k k 8 8 8 8 5 8 8 8 8 6 5 1 d $.#.d n n v v c a n S *.*.#.#.n a 0 0 k k k k k c 9 9 S u.d.u.t.e.*.S n n n S S *.*.*.*.*.=.=.",
"*.*.n n n n n n t.t.*.0 6 8 k V V G V k 1 % 1 1 % O X O 1 8 0 8 8 p n *.=.=.*.S *.=.e.D v a p 0 0 k k k k k k k c c c k c v G w.y.y.G 8 X o e.j.d.d.k.d.u.;.;.;.D D S n n D D D D D w.w.w.D v c 8 8 8 8 5 O 1 5 D M k 5 1 5 0 k k c c c c c k 5 % % % % O O O %     + + + +     % % % & 1 5 5 5 6 6 6 6 6 6 6 6 5 5 5 5 5 5 5 5 5 5 5 5 5 5 6 6 5 8 5 8 5 5 5 5 8 n *.N n n n n c c n n n n c c n n v c b n n *.w.c 1 1 5 5 5 6 5 5 5 5 5 5 5 5 8 8 8 8 8 8 8 8 6 6 8 6 6 6 6 8 6 8 8 0 0 8 6 3 w i U %.%.i g [ %.s 4 1 1 5 5 h 5 7 7 7 7 7 7 7 8 8 6 7 7 5 1 1 1 1 1 2 8 6 2 2 c m c n n n v v c c b b c c c c c c k 8 0 8 0 k 5 1 8 a a p 4 4 4 4 4 4 4 4 8 8 c p 4 1 ; # X X X X # ; 1 8 a N n w.y.w.M 8 6 8 8 0 k c c k k 0 6 6 0 c n n n n N n n n c c m v n v v v m m c c m c a a c n n _ D D S S #.#.S #.#.#.n n n n v v c c c c a a n n S v v n v p c M m m c c c n N *.*._ n n n n _ #.#.#.*.*.*.*.#.#.n S =.j.e.9 : p q k k 0 8 8 5 5 8 8 6 5 5 & & # v $.$.n n n v v c v n n *.#.#.#.n a 0 0 k 8 h k k c 0 4 v u.j.u.u.e.*.S n n n S *.*.*.*.*.*.=.=.",
"D N n n n n n n e.t.w.c 8 8 m V m k 8 1 1 1 % X 1 1 1 1 8 m M M N D *.w.=.=.*.#.#.*.=.*.n a a p 0 k k k k k k k c c c 0 0 k c v w.y.e.c ; ; t.d.u.d.d.u.>.;.$.=.D D S n n D D D D *.w.w.N v 0 8 k 8 8 h 8 1 O 1 G M M 8 5 1 8 k q c c c c c h 5 % % O % & O O +   + + + + + X X O O X X X X X X O O % 1 5 6 6 h 6 6 5 5 8 8 8 8 5 5 5 5 6 6 6 6 6 6 6 6 6 8 8 8 4 c N *.n n n N n n n n n n n n n n c c b n n *.*.p 1 1 5 5 5 5 1 1 1 5 5 5 5 5 5 5 5 5 5 8 8 6 6 2 2 2 2 2 2 2 1 1 2 2 2 2 2 3 < < L 1.1.i < i 5.-.i 3 3 5 5 8 5 7 7 7 7 7 4 4 4 4 6 7 7 3 1 1 1 1 1 1 2 2 8 c n v c v b b n c c c b b c c c c c c k 8 8 8 0 k 1 1 S t.u.d.d.j.;.&.#.n a a a p p 4 3 : ; ; 1 % X X X X X # 1 8 1 2 5 5 2 2 5 8 8 0 0 k c 0 0 8 6 6 8 c n n n n n n n n c c m n n n n n n m m c c c c a a b n n S S S S S S S S n n n n n v v v c c c v b b n n n a c n M c k v n n n c c n n *._ n n n n _ #.#.#.#.#.#.*.#.*.*.n n =.t.=.9 1 8 k k 0 0 8 8 5 5 5 5 5 & 5 5 5 1 v $.$.S v v v v c c n n #.#.S n n a 8 0 k 8 h k k k k 9 v t.j.u.t.e.*.D n n n N N N n N N N N *.",
"n v a a p p a a n D N c 8 5 8 h 5 1 % % 1 1 O X 1 1 5 6 8 m D w.w.*.*.*.*.=.$.*.n #.*.*.n a p 0 0 k k 0 0 0 0 0 0 k c c c k c c M w.w.c 1 2 t.t.t.t.u.u.;.;.$.$.D D S S N D D D *.*.D N c 0 0 c m m z h 8 1 O % M M M c 8 5 8 k 0 k c c c c 8 1 % % O O O O + + + + + + + O O O % O X X X     .   + + O % 1 5 5 6 6 5 8 8 8 8 8 5 5 5 5 6 6 6 6 6 6 6 6 8 8 8 8 2 p N *.n n n n n n n n n n n n n n n n n n n n *.p 1 1 6 5 5 5 1 1 1 1 1 5 5 5 5 5 5 5 5 5 5 5 6 2 2 2 2 2 2 2 2 1 1 ; ; 1 2 > L X...A.A...H < | 1.s , , 3 = 3 1 1 3 3 7 7 7 4 8 4 7 7 3 3 3 1 1 1 1 1 1 2 p M n v c c b n c c c c c c c p c c c c 0 8 0 8 k 0 1 4 t. XoX+X$X$X+X/.l.k.u.t.t.e.=.*.n a p 9 8 k 0 8 8 2 1 1 1 1 8 8 8 8 k 0 8 1 8 8 0 0 0 0 0 8 6 6 8 c n n n n n n n n m c m n N n n n n n m c c c c p p a a n n n n n n n n n d n n n n c v v c c n n b b n n v a a M M m k c M n n c c c n N n n n n n n _ #.#.#.#.#.*.*.*.*.n *.*.=.*.p 2 8 c k 0 8 8 8 8 5 1 & & 1 6 h k k v $.$.S v v v v a c n n S S n n v p 8 8 k h h k k k c 9 a *.u.=.*.D N n n n n n c c c c c c c v ",
"a a p 9 9 9 9 9 8 a c 8 1 % % %   O 1 1 O O 1 5 1 5 6 5 8 M G w.w.*.=.=.*.*.#.#.n #.*.*.n a p 0 0 k 0 0 0 0 0 0 8 0 c c c c c c c m M 8 1 2 e.t.t.t.;.;.;.$.$.*.*.D D n N D D *.w.D n c p c m M V M c h h 5 X X k c M c k 5 8 8 0 q k c c k 8 & % % O O + + + O O O + + O % & 5 5 5 5 5 1 1 % & % % O O O O O O % % 1 5 1 1 5 5 5 5 5 5 5 6 6 6 6 6 6 6 6 8 8 8 6 p N *.N n N n n n n n n n n n n n n n n n n N N 8 1 1 6 5 5 5 1 1 1 1 1 1 1 5 1 1 1 1 1 1 5 1 1 1 1 1 1 1 1 1 1 1 1 1 2 8 0 u ..A.~.dX'.~.X.< H 3.{ < w w 3 3 3 3 3 3 7 7 7 7 4 4 4 7 3 3 3 3 6 1 1 1 1 6 c N n n c c n n c c c c c c p p c c c c k 8 0 0 0 0 2 p k.#XoXOX+X/._./.h.h.k.k.k.k.l.j.t.*.n n n M M M M c c k k 0 2 6 8 c v c 8 2 8 8 8 0 0 0 8 8 6 6 8 c n n n n n n n n m c v n N N N n n n m c c c a p p p a n n n n n n n n n a d n n n v v v c c n n b b n n a a c v M M c k M n v c c c n N n n n n n n #.#.#.#.#.#.#.#.*.*.S *.*.=.=.p 1 c M c k 8 8 8 0 0 8 8 j k k m m M v $.=.n a a a v a c v n n n d a v 0 8 8 8 8 h k k k c a a n #.n a v v v c a a p p p p p p p p p ",
"a p p 8 9 8 9 9 9 c k 5 % % 1 % O O O O O 1 5 h 5 6 6 5 8 M w.w.*.*.=.=.*.#.n a n #.=.=.n a 9 9 8 8 0 0 0 0 0 0 8 0 c c c c c k h h c 1 X 3 e.t.t.t.t.t.;.=.$.#.*.D D n N D D *.*.N v c c v M M w._ c k k 5 X . 6 k c c c 8 5 1 8 0 k k k k 8 & % % % +     + O O + + O O % 5 6 k k k k h 8 0 8 h 6 5 1 % O   .   . X X X X % % 5 5 6 5 6 6 6 6 6 6 6 6 6 8 8 8 6 0 N *.N n N N n N N N N N n b n n n n n n n n N 8 1 1 6 5 1 5 1 1 1 1 1 1 1 1 1 1 1 1 1 1 1 1 : : : : : ; ; ; w p ( -.a.z.l.T.A.F.~.dXdXsX~.o.X.'.E.2.7.4.) ` ` ` n b b b b b 4 4 4 7 3 3 7 1 k 5 1 1 5 8 m N N n c c n n n a c c c p p p c c c c k 8 0 0 0 0 4 d  X#Xv././.h.f.8.8.>.;.;.>.u.j.a.*.n a a c c M M M M G w.w.w.p 9 4 2 2 8 8 0 8 8 8 0 0 0 8 8 6 2 8 c n n n n n n n n n c n n N N N n n n m c c c a p p p a n n n n n n n n n a d n n v v v n c c n n b b n n p a c v M M c k M n n c c c n n n n n n n n #.#.#.#.#.#.#.#.*.*.*.*.D =.e.4 ; n D v k 0 0 k k k k k c m M M M v v $.=.n v a a v a c a n n n n a v 0 8 8 h h h k k k c v 9 a a p 9 9 p a a p 9 8 p p p p p p p p ",
"m c c c p 8 8 8 8 8 6 1 1 O O O X O % 5 6 8 h 8 h 8 5 6 2 p w.D w.=.*.*.*.#.#.S *.*.=.*.n p 8 8 0 k k k k k k k k k k k k k 0 k k k h 2 X 1 n i.t.i.u.=.D D D S D D D n D *.w.*.w.n v v n n *.t.t.y.M c k 8 X   1 8 8 5 2 1 % % 1 5 5 5 5 1 % O % % X   X 1 6 6 O .   . . # & 8 k k 0 8 8 0 k k k k k k 0 8 8 8 % # % # . . . .   X + X O O O O O O % % & % & % 8 2 c *.N M N N N N N N N N N b B B n n b b b b c 1 1 6 1 1 1 X O % % 1 1 1 1 1 ; 1 3 4 4 9 p p s s d [ [ { { { 0.A.Y.'.'.Q.E.Z.Z.G.K.J.uXdXhXsXsXiXuXJ.G.Z.Z.U.U.P.6.7.6.4.4.s.` w 3 1 3 1 5 5 8 j 8 j k k c v n v c n B b a p c v n c p p p c p 0 k k 0 0 0 9 : d.#XoXk.j.5.;.;.=.;.;.d.d.;.=.#.t.t.#.a 8 8 8 0 8 8 8 c *.i.}.t.e.*.n p 4 2 1 8 8 8 8 k k 8 5 8 2 8 v n n v n n n n n n n n n n n n n n n c c c p c c p 8 p n N N N n n a a n n n n n n n v v v a n n n n n n c a 9 a v v c 8 c N N c c 0 a n n n n n S S #.#.#.*.*.*.*.*.*.#.*.#.*.=.w.c 2 0 0 q k k 0 0 k c v v M M M v c c a D =.D n n v v a a v v v a a v v a 9 8 8 0 k k k k k k k 9 9 a a p p p p p 8 8 8 9 9 p p p c c ",
"z z 8 8 6 6 7 5 8 5 5 1 O O O O O % 1 5 8 h h h h 6 5 6 2 p =.D e.=.*.*.*.#.#.S *.*.=.*.n c 8 8 k k k k k k k k k k k k k k k k k k h 5 X 1 M y.t.i.i.w.*.D S S D D D D D w.w.*.*.n v v n D *.e.y.y.M c k 8 X X 5 8 8 5 5 2 1 1 1 5 5 5 1 O X . . X O O 1 8 8 8     o X & & 5 5 k k 0 0 0 k q k 0 0 0 0 0 0 8 8 8 8 8 8 6 6 1 & % O O O + X +   + X + O O O O O 1 # 8 N N M N N b b b b N N N N B B B B b b b b v 1 X 1 ; ; 1 1 1 1 1 # X X # ; 3 p S =.d.j.k.h./.^.T.I.I.I.A.A.C.A.E.E.J.K.F.F.M.Z.F.J.uXsXhXfXiXtXtX7XJ.W.E.R.G.Z.m.3.2.2.6.L.s.) t 3 1 * 1 8 5 5 6 8 0 c v n n n b b a a p p p c v n c c c c 0 0 k k 0 0 8 9 > ;.oXl.d.d.a.;.=.=.=.;.d.d.;.=.*.t.t.*.a 9 8 4 0 8 4 4 p n *.t.{.l.j.t.*.n p 8 2 2 4 2 1 1 5 8 6 2 8 a v v n N n n n n a p a n N n n n c c c c p 8 8 c 8 8 8 p M n N n n a a n n n n n n n v n v v n n v n n v c a 9 a v v c 8 c M M m c 0 p n n n n n n n S S n n #.*.*.*.*.#.*.#.N =.=.a 6 0 0 q q q 0 0 q v v v n M n v c v v D e.D n n n v a a a v v v v v v a 9 2 8 0 k k k k k k k q v n p p p p p p p p p p p p p p p p ",
"6 6 6 6 6 6 7 7 8 5 O     O 1 5 1 1 5 8 h h k k 8 6 5 6 2 c w.*.e.w.*.*.*.*.#.#.*.*.=.*.n c 8 8 k k k k k k k k k k k k k k k k k k k 5 X 1 N e.u.i.i.e.=.D S S S D D D D e.e.D D v v v D D D D e.y.M c c k % O h m c k c 0 8 8 5 5 5 1 1 X . o . X 1 5 8 k k 8     . 1 8 8 5 & k 0 0 0 8 8 8 8 0 0 0 0 k k k k 0 0 8 8 6 1 1 1 % % % % % % % % 5 5 5 5 6 5 6 6 2 1 8 N N N N _ N N b b N N N N B B n n n n N N N ; X 1 # # 1 1 2 1 1 1 2 c *.t.t.t.u.u.d.j.v.oX_._._._.Y.Y.Y.Y.A.Z.G.G.G.F.F.Z.B.M.F.G.7XiXiXiX7X7X7X7XW.W.K.G.G.G.G.Z.B.B.N.L.T.L.s.` t , * * * * : 3 4 p n n a a a s s p p a n n c c c c c p 0 0 k k 0 0 0 9 4 =.l.j.;.;.;.t.;.;.=.;.t.t.;.=.$.;.t.*.v p 9 8 0 8 4 4 4 p a n u.d.d.j.d.t.=.=.v v a 4 ; X X X 1 2 8 c v v v n v n n n a a a n N n M n m c c c 8 8 8 8 8 6 5 6 n n n n n a a n a n n n v v v n v a v v v v v v c p 0 a c v c 8 c v M c p 0 a n v v a n n n S #.n n n #.#.*.*.#.*._ N =.=.a 6 k 0 q q q 0 q v v v n n N D D M n a D e.*.n n n v v a a v v v v v v a 9 2 8 8 k k 8 0 k k 0 q n e.w.*.*.n v p 9 8 a a a a p p p p ",
"3 3 3 3 7 7 7 6 1 = X   X O 5 h 5 6 8 h k k k k 8 5 5 6 2 c w.*.=.=.*.*.*.*.#.#.*.*.=.*.n c p 8 k k k k k k k k k k k k k k k k k h k 5 X 2 n D u.i.i.e.=.*.S S n D D D w.e.e.*.n v a n D *.D N e.e.M c c k % % k M M c m c 0 0 h h h 8 8 1 % X % 1 8 8 8 k 8 1   O 6 c k 8 1 & % % % 1 1 5 8 8 5 5 6 8 8 8 0 0 8 8 6 6 1 1 & 1 % % & 1 5 5 5 6 8 8 8 8 8 8 8 8 5 2 8 M _ N N _ N B b N N N N N B B B b n n N N N 1 X 1 2 4 8 2 p v *.t.i.t.e.*.*.#.$.=.;.d.l./.I.I.I.I.Y.Y.Y.Y.Z.Z.Z.Z.Z.M.M.M.B.M.S.H.uXhXhXfXtXiXiXsXpXpXW.R.R.W.Q.Q.Q.R.U.L.L.U.T.P.7.) I s , , < w w i s s s d d d d n #.#.w.D c p p p p p 0 0 k 0 0 8 0 8 3 *.j.;.=.=.=.;.;.=.=.;.;.;.;.=.=.t.t.=.n a 9 9 8 8 4 2 4 4 4 9 u s #.=.u.d.j.j.d.t.=.*.n a 4 1 # % 1 8 m v v c v n n n v a p 9 p p p p p p p k 8 6 6 8 8 5 1 1 c c n n n n a a n n n n v n v n v a v v v c c c c a 0 a c c c 0 0 c v c 0 0 a n v v n n n S #.#.n n n #.#.#.#.#.*.n N =.=.c 6 8 0 0 q q q c n N M n D D w.w.D D 9 D e.*.S n n n v v v a a v v v v a 9 2 8 8 0 0 0 k k 0 0 q D t.y.t.e.*.N n c p p p p p p 8 9 9 ",
"8 4 6 2 2 1 1 1 X X 1 1 5 5 5 5 8 8 h k k k k k 8 5 5 4 2 c e.*.=.w.*.*.*.*.#.#.*.*.=.*.n c p 8 k k k k k k k k k k k k k k k k k 8 k 5 X 2 n N t.i.i.e.=.$.S S n N D *.e.t.e.D a a v n D *.D n e.e.M c c k % % 8 c c c c 0 8 8 k c c c k k 8 5 5 8 8 8 8 8 8 5 . % k M M k 6 5 . . # # # # # # # # # % % % & & % & & & & 1 1 1 . . . . X X % % X X # % # # % % 1 ; 3 c N N N N N N N N N N N N N N N N N N N N n 1 # 1 c w.y.*.y.t.t.e.=.=.;.;.#.#.=.;.>.8.h.h.I.Y.Y.Y.Y.Y.Y.Y.Z.A.Z.M.M.M.M.M.B.B.S.J.mXBXCXBXMXhXhXhXhXbXbXpXW.W.W.W.Q.Q.E.R.R.R.Q.E.E.Y.U.P.U.U.P.P.P.P.g.g.g.g.g.z.k.l.{..Xw.D c a p p p 8 0 0 0 0 8 8 8 8 > #.d.;.=.=.=.=.;.=.=.=.;.t.;.;.=.;.t.=.D v p p 0 8 8 8 4 4 4 4 4 9 p d #.=.t.d.d.u.u.d.j.j.u.t.5 % X % 8 c m v n v a a p 9 4 3 : 1 1 2 2 8 8 0 p p p c c 8 5 1 8 p c n n n a n a n n n n n v n n n v v c c c c v a p p c c c 0 8 k c c 8 8 a n v n n n S #.#.#.n *.*.*.*.*.#.#.*.n N *.*.p 5 8 0 0 0 0 q v N D D D D w.e.e.w.D 8 S e.*.S n S n v v v a a v v v v a 9 2 8 8 8 8 k k k 0 8 0 n e.t.t.e.*.n c p 9 4 8 4 8 9 9 9 9 ",
"p 8 8 2 1 ; X X 1 5 5 8 8 8 8 8 8 k k k k k h h 5 5 5 6 4 v e.*.w.w.=.*.*.*.#.#.*.*.=.*.n c p p k k k k k k k k k k k k k k k k k 8 k 5 X 2 n v e.t.i.e.=.=.*.D D D D w.t.t.w.n q v n D D *.D n w.w.m c c k 1 1 8 c c k c k 8 8 k k c c c k 8 8 8 8 8 5 5 8 8 5 % % 5 k M c k 8 # # % % % % # # % % % & 1 1 1 1 k k k l l c c M M m c c c c c c 8 8 0 8 0 0 8 8 2 2 8 c _ N B N N N N N ( ( N N N N N N N N N N n 2 X 1 n {.1X.X-.=.t.d.d.d.d.d.d.;.&.&.8.h.+X;XI.Y._._._._.Y.Y.A.C.C.m.C.B.B.B.Z.B.M.H.aXMXMXhXsXiXJ.H.J.W.wXpXW.J.W.W.W.W.E.R.R.R.R.R.R.Q.Q.E.U.U.U.Y.U.U.P.P.T.P.g.d.d.d.d.d.n n n c c c p 8 0 0 0 0 8 8 8 8 > S ;.;.;.=.=.=.;.=.=.=.=.;.;.;.=.;.t.t.*.n a a 0 0 0 9 9 8 4 4 4 4 9 p n #.;.d.=.t.u.d.d.j.l..Xy.c 1 % 1 1 8 p 1 ; # # ; 2 2 2 4 4 8 p a v n n *.*.*.*.w.*.m 8 2 8 c c n n n n a n n n n n v n n a v v c c c a v c p p a c c c 8 8 c c 8 8 c v n n n n S #.#.*.*.*.*.*.*.*.#.#.#.n N *.*.p 5 8 9 0 0 0 k v D w.G G w.e.e.e.D N 2 n w.*.n n S n n v v a a a v v v a 9 2 8 8 8 8 k k 0 0 8 8 a D *.D n a 9 2 : ; 2 2 2 4 4 8 9 9 ",
"*.*.N N n n m c M m k 8 8 8 8 h k k k k k h h 6 5 1 1 2 4 v e.=.=.w.=.=.*.*.*.*.*.*.=.*.N c p 0 k k k k k k k k k k k k k k k k h 8 k 8 X 2 n c w.e.u.e.e.=.$.D *.w.w.e.t.t.D v a n D D *.e.w.D w.w.c c c k 1 1 8 c c c c c 0 0 8 k k k k k h 8 8 8 5 1 5 5 8 5 % O % 5 k 0 8 8 % % 1 8 k k l l q q q k k k k k c M M M M M F F M n v c c c c a c v c c c c c c c 0 0 n w.N B N N N _ _ ( ( N N N N N N N N n n w.8 X 1 v j.@Xk.l.k.d.;.;.8.d.f.d.8.8.8.8.h.+X;X).+X+X+X)._.I.C.0.0.6.N.C.C.C.Z.Z.B.M.Z.F.J.J.H.K.+.+.S.H.J.W.J.K.K.K.K.J.F.F.F.M.F.G.G.G.R.E.E.Z.Z.Z.Z.U.U.Y.T.T.g.5.;.t.t.t.=.p c n v c p 0 8 0 0 0 0 8 8 8 8 4 #.;.;.;.;.;.;.;.=.=.=.=.;.;.;.;.=.t.t.w.n c c c c a p p 9 4 4 4 4 9 p n *.=.t.t.u.d.u.t.u.j.k.{.y.M M 0 # X ; 8 9 c n n n D *._ #.#.*.*.=.r.r.t.t.t.t.y.t.*.p 1 6 p c c v n n a a n n n n n n n n v c c c a a v c p p a a c c 8 8 c c 8 8 c v n n n n n S S S n n _ *.#.#.#.#.#.n N *.*.p 5 8 0 0 0 k k v G e.y.e.w.e.e.D c 0 1 v =.D n n n n n n v a a a v v n a 9 2 8 8 8 8 8 8 8 0 8 2 9 a D D N N N N n n N N N N D D *.*.",
"N N D D *.*.*.*.w.N M c 8 8 8 8 h k k k h 8 6 6 5 1 1 2 4 v t.=.=.w.=.=.*.$.*.*.*.=.=.*.N c p 0 k k k k k k k k k k k k k k k k h 8 k 8 X 5 n q *.e.e.e.e.=.$.D e.e.e.e.t.e.D 9 v D w.w.e.e.e.e.D *.c k c k % 1 6 k c k k 0 8 8 8 k k k k k 8 8 8 8 5 1 1 5 5 1 % % % & % % & 8 k k c M M M M M M M M M M M M M M M M M M M M M v v v v c c c c c c c k k k q q 0 9 8 c *.N B N N _ _ ( ( ( N N N N N N N N n n i.0 # 1 a *.e.n =.;.j.l.l.l.h.d.f.8.8.8.8.h.).;X;X;X;X&X/.h.8.&.0.0.0.0.0.C.P.A.C.Z.Z.M.O.@.@.+.K.K.7XiXmXmXbXpXK.F.F.@.S.S.S.F.G.W.0XH.S.S.G.G.G.Z.U.U.U.U.P.P.%.( i p a v a 8 v n n c p 8 8 8 0 0 0 8 8 8 8 4 9 #.;.;.;.;.;.d.;.=.=.=.=.;.;.;.t.=.t.t.e.n c c c c a p p 9 4 4 a a a a c n n S *.*.*.*.=.;.=.=.}.y.i.}.w.1 @ o a *.y.j.t.e.=.=.=.=.=.=.=.=.e.e.=.=.=.=.e.e.n 2 1 6 8 c c v n n n a n n n n n n n n n c c a a a v c p 0 p a c c 5 8 k c 6 8 c v n n n n n n n n n n n _ #.#.#.#.*.n N *.*.p 5 8 0 0 0 k c M G e.y.y.e.w.G M 0 2 # v *.D n n n n n n v a a a v v n c 9 2 5 8 8 8 5 5 8 8 8 2 2 4 n N N D D D *.*.*.*.*.*.*.*.*.D ",
"n n n n N D D D N D D M c 8 k m 8 8 k k k 8 6 5 % 5 k 2 2 v e.e.D =.e.t.;.=.$.=.=.=.=.S n n c 0 k k k k k k k k k k k k k k k k 8 k k 5 # 1 D n v *.i.i.e.e.=.=.e.w.w.e.i.*.9 9 v D w.e.e.*.*.*.N m c c c k 6 % 5 m M k c c 0 0 k k k 0 0 8 8 8 5 2 2 1 1 1 1 % % . O X % 8 k M M c k k 8 0 q k l l c c c c c c c c M M M M c c k a a a a a q a a a a a a q q q 9 q 8 8 n _ N N N N _ _ N N N N N N N N n n n N e.8 o # v N S *.S d [ ;.T.$X$X+XOX+XOX+X:X<X<X<X<X;X+Xc.>.:.:.:.8.8.8.1.5.0.0.I.C.A.A.A.M.O.M.F.uXhXMXMXmXhXpX0XF.H.7X0X7XD.D.D.H.aXbXwXS.O.M.Z.Z.U.Z.C.N.1.U e < > 3 2 8 p c c v c c a p p 8 8 0 0 0 8 8 8 8 4 4 n ;.;.;.;.d.u.;.;.=.=.=.=.;.;.=.t.t.t.=.N v c v c a 0 9 8 4 8 9 0 p a a c v v n n n n n n n n w.w.y.w.v 3 v t.j.j.j.k.j.j.u.t.t.t.=.=.*.*.*.*._ _ n n a a r 3 % 1 6 c n c n n n n n n n n n n n n a a n a 8 a c c p 8 0 v M m 0 8 5 8 8 8 c v v n n n S n n n n n n n #.#.#.#.#.n n *.=.p 1 8 8 0 q q k M G y.y.|.i.D 0 % % 9 2 n w.D v n S n v 9 9 n D v a n n v 9 2 8 8 8 8 8 8 8 8 8 8 4 4 v S *.D S S S S D D D D D D D D ",
"n n n n D D D D D *.w.N c 8 k c 8 8 k k h 8 6 5 1 8 k 2 2 v e.w.D w.e.t.t.=.$.$.*.=.=.D n n c 0 k k k k k k k k k k k k k k k k 8 k k 5 # % G N v D e.e.e.e.=.=.e.*.e.y.e.n 4 q N D e.t.t.e.e.e.N m c c c k 6 % 6 m M k k c 0 0 0 0 k 0 8 8 8 8 8 5 1 1 1 2 8 8 1 O X X 5 m m M m c k 0 0 0 q k k q q k q k k k c c M M M M c v a a a a a a q q a a a a q q q q 0 q 8 8 m N N N N N N N N N N N N N N N n n n n w.8 o # v D S #.#.#.[ U [ &.h./.;XDXJXJXJX3X<X3X+Xv.b.f.>.>.:.:.f.9.:.:.:.q.q.I.I.A.A.A.K.'.sXsXMXMXhXuXW.H.G.G.S.J.mXmXmXwXH.G.S.W.pXQ.F.F.G.Y.Q.T.6.Y i < < w 4 4 2 6 8 c c c m c c a p p 8 8 0 0 0 8 8 8 8 8 4 n ;.;.;.;.d.u.;.;.=.=.=.=.=.;.=.t.u.t.*.n c p v m c 0 9 8 4 9 8 8 0 p a c c c n n n n n n n a v a v p 9 4 =.@X{.{.{.l.j.d.=.$.t.e.=.*.#.n n n n n n a a a 8 2 1 1 5 c n n n n n n n n n n n n v a a c n a p p c c p 8 0 v v m k 8 5 5 6 0 c N n n n n n n S S n n n n #.*.#.#.#.n n =.w.c 5 8 8 0 0 q k c G y.e.y.G c 0 1 2 0 4 D e.*.n n S v 4 v *.t.t.*.v 9 n v 0 2 8 8 8 8 8 8 8 8 8 8 4 4 a n D D S S S S D S D S D D D D ",
"S S S n D D D D *.=.*.N a 8 8 c 8 k k k 8 5 6 5 5 8 k 2 6 n e.*.D w.t.u.t.=.*.#.*.=.=.D N v c 0 k k k k k k k k k k k k k k k k 8 k k 8 X % w.D n D D *.$.=.=.e.e.w.i.j.D 9 2 a n D w.e.e.e.w.*.v c c c m c 8 1 5 m m k 0 k 0 0 0 0 0 0 8 8 8 8 8 2 1 1 5 k v M 8 % X O k D M M c k k 0 8 8 0 0 9 9 9 9 9 9 0 0 v v n n n n M v q q q q q q q q q q a a q q q q 0 q 8 8 c M N N N N N N N N N N N N N N n n n n *.9 X # v D S S s d #.#.d d Z #.;.oX<XDX3X:X*X;X*X&XOX(.(.(.v.b.c.h.9.9.9.x.^.^.I.A.A.Y.'.nXNXMXMXaXK.F.F.H.J.0XD.J.wXaXwXH.S.V.G.G.G.Z.Y.E.Y.Y.g.-.w , , , 4 4 4 6 6 8 k c m c m c c p p 9 8 8 0 0 0 8 8 8 8 8 4 n ;.;.;.;.d.t.;.;.;.=.=.=.=.=.;.d.d.e.D a 9 9 v c a p 9 9 8 p 8 0 0 k a c c c n n n n n n a a n 9 8 3 4 4 t.#Xl.l.l.j.d.;.=.$.=.*.*.n n c p p p p p p p c p 6 1 1 5 h m n v n n n n n n n n n a p a v v c a p c c p 9 0 c v v c 8 5 1 5 8 c N n n n n n n S *.n n n n #.*.#.#.n n n *.w.c 5 6 8 0 k k k m D e.y.y.G k k k k k 9 *.j.e.n v v v 4 n e.e.*.D n a n v 0 8 8 8 8 8 8 8 8 8 8 8 4 4 9 v D *.D D S S D D D D D D D D ",
"S S S S *.*.*.*.=.e.e.D a 8 8 0 8 k k k 6 5 5 6 6 8 k 2 8 n e.*.=.e.u.u.t.$.#.S *.=.=.D N n c 0 k k k k k k k k k k k k k k k k h k k 8 X # w.w.S D D D *.=.=.e.t.t.}.i.v 4 4 v n D D *.*.*.D D v c c c M c 8 1 1 k c k 0 k 0 8 0 0 0 0 8 8 8 8 2 1 1 5 k M N M k % X O k M M m k k 0 8 8 8 8 8 9 0 9 9 9 9 0 0 v v v M M v v v a a q q q q q q q q q q q q 0 9 q 0 8 2 8 n N _ N N N N N N N N N N N N n n n n *.0 X # v D S S p s #.#.#.Z d d f #.d.v.$X#Xv.l.*X+XoX/.OXOX+X+X^.b.^.(.).`._.^.q.I.).nXNXnXsXuXJ.F.@.K.wXaXmXmXpXH.D.D.G.R.G.B.B.U.Y.-X-X-XI.&.> 3 ; ; ; 3 8 p 6 6 8 8 k c c c c c a p p 8 8 8 0 0 0 8 8 8 8 8 4 n ;.;.;.;.d.t.;.;.;.;.;.;.;.;.t.d.t.=.v 9 8 9 v c a p p p p p 9 0 p c c c c c n N N n n n v a n a p 4 4 3 n j.t.t.t.;.=.=.#.#.n n n c c a p p p p p k c c k 8 5 1 1 6 c n v c n n n n n n n n a 4 p n v c c p a a a p 9 a c v c 8 1 5 5 8 a v v v n n n S #.*.n n n n #.#.#.#.n a c N *.c 1 1 8 8 k k k c M G |.i.M 8 k M c k 9 e.}.i.D v v a 9 n D v 9 a v v n v q 8 8 8 8 8 8 8 8 8 8 8 4 4 9 v *.*.D D S n D D D D S D D D ",
"S #.#.#.*.*.*.*.=.e.e.D v 9 9 0 0 k k 0 8 5 8 8 8 0 k 2 9 D t.*.w.e.u.t.=.S S S =.=.=.D n n c 0 k k k k k k k k k k k k k k k k h k k 8 X X w.e.D D D D *.=.=.=.e.i.{.e.2 2 9 v n n D D D D D D c p k c M c 8 % % k M c c c 0 0 k 0 0 0 0 8 8 8 % 1 8 0 v N M M k % X X 5 k k k k 0 8 8 8 8 8 8 0 0 0 0 0 0 0 q q v v v M v v v v v v c q q q q 0 0 0 0 0 9 9 0 0 9 2 2 8 c N _ N N N N N N n n N N N N n n n n D 0 # # v D S S d d n S #.#.#.#.S Z d #.;.$.f g S S d d Z $.>.f.h.c._.).&X&X)._.^.`.DXFXNXpXE.Z.O.M.F.aXMXMXmXaXW.R.G.G.R.R.B.m.W 6.T.;X<X$X#.> ; 1 1 2 6 6 6 2 6 6 8 8 c c c c c p p p p p p p 0 0 0 8 0 8 8 4 4 n ;.;.;.;.t.t.;.;.;.;.;.;.;.;.t.t.=.n p 4 9 p v c c a p p p p a a c c c v v v D S S S n n n n a 4 8 4 4 ; p #.t.t.t.=.*.S d a a c c c c c c c c c c c c c k 8 5 5 1 1 8 c c c v n a a v n n n a 4 9 v v c c 9 a a a p 9 9 c M c 8 5 5 5 8 8 0 a c n n n S D D n N n n _ #.#.n n a c D w.n 6 1 8 8 8 0 0 k c M y.e.k 1 8 c c 8 9 e.}.i.D v v a a v v v a a a a n v q 9 8 8 8 8 8 8 8 8 9 9 9 9 9 n D $.D S S v S S S S S S S D ",
"#.#.#.#.*.*.$.$.=.t.t.*.v 9 9 0 0 0 8 8 8 8 j k 8 0 0 2 0 D t.w.w.w.$.D S n S S =.=.=.*.N n c 0 k k k k k k k k k k k k k k k k k k k 8 X X e.i.D D S D $.D S S D e.i.v ; 4 9 a a a a v v v v a 0 0 0 c c c 6 % % h c c m v c c k 0 0 0 0 8 8 8 1 2 q v M M c k k 1 O X & k 8 0 0 0 8 8 8 8 8 8 9 9 9 9 9 9 9 0 q q v v v v v v v v v c q q q q 9 9 0 0 9 9 9 9 9 8 6 2 2 c N N b b b b N N n n N N N N n n n n D 9 # ; v S S S a d S #.#.#.#.#.$.#.S S $.S 9 ; ; ; ; ; , > f [ &.1.8.0.q.q.I.q.>XDXJXFXnXE.Z.Z.M.F.aXMXMXaXJ.D.M.G.Q.Q.U.2.P < < < s #.*.n : o 8 5 1 5 8 h 8 5 6 6 8 0 c c c c p p p p p p p p 0 0 0 8 0 8 8 4 4 n ;.;.;.;.u.t.;.;.;.t.t.;.;.=.=.*.n a p 9 p c v v c a a a a a a a a v a n n n S S *.S S n n n p 4 4 4 2 ; 9 D u.u.t.t.*.S s p a c c c c c c c c m c c c c k 8 5 5 % 1 5 c m c v a a a v n n n n p 9 a c c a 9 a a a a 9 8 p M c 8 5 5 5 5 2 2 8 9 a v n n n n n n a n n ( n n n n n *.t.*.8 1 8 8 8 8 0 k k c G M 8 % 8 c k 8 4 *.j.t.D v v a v a v D S v a a n n c 9 8 8 8 8 8 8 8 8 9 9 9 9 p n *.*.S S S v S S S S S S S S ",
"S #.#.#.*.$.=.=.=.e.t.*.v 9 9 9 q 0 5 5 8 k k k 8 8 8 8 q w.i.e.D F d a 9 a d #.=.=.e.*.N n v p k k k k k k k k k k k k k k k k h k k 8 . X e.i.D D S D D n p 9 9 n D 4 2 4 4 a 4 2 2 4 9 9 9 4 8 8 8 k c k 5 % . 5 8 5 8 c c c q 0 0 9 8 8 2 2 9 q v n v c q k k 5 % O 1 k 8 8 8 8 8 8 8 8 8 8 8 8 8 9 9 9 9 9 q k v v v v v k c c c k k k q q 0 0 0 0 9 9 9 9 8 2 2 2 2 c N N B b b b N N n n n N n n n n n _ *.8 X 1 v S n S n n S S S S #.*.S S S #.;.$.a 9 3 3 1 3 4 u s U ( %.%.%.%.%.1.0.nXnXnXnX'.E.G.G.F.pXmXmXwXD.S.M.M.R.E.U.2.L < - e y , 3 1 1 1 8 6 6 5 5 5 5 8 c 8 8 4 9 a a a p p p 0 p 0 p p p 0 0 0 8 0 8 8 4 4 S ;.;.;.;.d.t.t.;.t.;.;.=.*.#.S d a p a a c c v m c a a a a a p p a a a a a a n n n S S n n n c 0 0 8 2 # 9 *.t.t.i.t.e.*.n a c a c c p p p p c c c p c c k 8 5 5 1 O 1 0 n n v v a a n n n n n a 4 9 c a p p c a c a 9 4 0 N M h 1 1 1 1 1 1 2 2 4 8 p a a a n a a a d n d a n a c N t.*.8 1 8 8 8 8 0 k k k c k 5 % 5 8 1 1 2 D u.e.S n v a v a v n n v v v N n v 9 8 5 8 k 8 8 8 8 8 8 9 4 9 v S S S S S S S S S S S S S S ",
"S #.#.*.*.=.=.=.=.e.t.=.n q 9 q k 8 & 5 8 k k k 8 8 8 8 q e.i.e.v p 9 4 4 9 n *.=.e.=.*.N n v p k k k k k k k k k 0 k 0 k k k k k k k 8 . . e.|.D S F D D v 4 2 ; 9 0 2 2 8 2 0 2 2 2 2 8 9 4 2 8 8 8 k c k 5 O @ O % O % 5 8 c k 0 0 9 9 8 8 2 c n N n k 0 k c c 5 % O 8 k k k 8 8 0 0 0 8 8 8 9 9 9 9 9 9 9 9 q q v a v v v k v v v c q q k 0 0 0 0 8 9 9 8 8 8 2 2 2 2 p n n B B b b n n n n n n n n n n n S *.4 o 2 n n n #.S d d S #.#.#.S S S S #.;.*.a 9 8 6 6 r a ( ) ) %.<.1.<.<.<.5.0.-X'.).'.'.E.E.G.Q.bXMXpXF.O.M.B.Q.Y.6.T < < < t e t r 4 3 1 1 h h 6 1 1 5 6 8 5 2 4 4 p a a p p p p 0 0 0 p k c 0 0 0 8 0 8 8 4 4 n ;.;.;.;.d.t.t.t.t.;.=.*.#.n a p p a v v v c v m c c c a c c a p a a a a a a n n n n n n n n 0 8 8 2 1 X 2 N t.t.i.i.t.*.a p p p p p p c c c p p p p p c c 6 1 5 1 O 1 8 m n v v a a n n v v N n 8 8 c c 9 p p p c c 8 2 0 N M k 1 % % X % 1 ; ; : 1 3 4 p a n a a a n n n a a a p n w.N 8 O 8 8 8 8 0 0 0 0 0 8 % # % X . o 2 n e.*.n n v a 9 q a a a a v v N n v 0 8 5 8 k 8 8 8 8 8 8 8 4 9 v S S S S S S S S S S S S S S ",
"#.*.$.*.=.=.=.*.=.=.=.=.*.v 0 k 8 8 1 8 c m 0 0 8 0 0 2 c e.D 2 : 2 2 9 2 a i.e.w.e.=.D v v v p k k k k k k k k 0 9 0 0 0 k k k k 8 k O X . G G M F F l 2 2 2 4 1 1 1 2 5 5 5 5 5 5 8 2 1 ; 1 2 1 & 5 k m h 1 O   X O O % & 6 h k 8 5 5 5 8 k c V M M c k 0 k c k 8 . . % k k 0 0 0 9 9 8 8 8 8 9 8 9 9 9 9 q a a v p a p a p p a a a 9 9 8 8 8 6 2 2 2 2 2 8 8 8 2 1 1 2 8 c n p p p p a a a a a a a a n n S S a 4 : 9 n S S d S #.S S S #.#.*.n d n S S S a 2 6 8 8 r b ) ) U Y { <.<.<.1.5.5.g.0.8.8.1.1.6.N.-XNXbXQ.Z. .m.Y.T.4.t < y y y y y y 7 3 1 5 6 8 6 5 5 5 5 5 5 2 4 4 8 p a a a p p c c c c c k k k c k 8 2 8 0 a > d d.d.;.;.=.a.t.t.e.*.n p r w 2 2 2 4 4 8 8 8 5 5 5 5 5 6 8 8 2 2 2 2 2 8 8 8 0 c m 8 4 6 6 1 # 1 % X X X 2 D t.j.k.u.*.d a a a a a a c c c c a p p a c a 9 8 1 1 1 1 O 5 c c n n c c c c n n N N c 1 1 p c p m c c p 8 8 6 5 5 1 % % % 2 0 c 8 4 4 4 4 4 4 4 ; 1 2 2 2 4 4 8 n a 8 5 = X O % 5 5 1 % % % % % . X X . # 1 0 0 D w.w.D n n n n v v q 9 a v v v v v c 0 8 8 8 8 8 8 8 8 8 8 8 8 4 0 n D D S S n S S S n S D D D ",
"#.*.=.*.*.e.=.*.=.=.=.e.*.c 0 k 6 5 1 8 c c 0 8 8 0 8 8 c D v 2 9 9 9 q 2 v i.t.*.e.w.D n v v c k k k k k k k 0 0 9 9 0 0 q k k k 8 8 O X . M G n c l q 9 8 2 8 8 8 8 5 5 5 5 1 5 5 5 6 2 3 2 2 5 8 k M m h 1 O = 1 % % & & 6 6 8 8 8 6 8 c c M m c k k k 8 8 8 k 8 . . % 0 8 8 0 0 9 8 8 8 8 8 9 8 9 9 9 9 q a v v p a a a a a a a q 9 9 8 8 6 6 2 2 1 1 1 1 2 6 2 1 1 1 8 p c 0 p p a c a n n n n n n D =.t.t.S a u d #.$.#.#.;.=.$.#.#.#.#.#.*.#.*.#.n n a 2 8 8 8 4 b ` ) Y Y Y { { %.%.&.5.5.;.;.$.#.#.%.<.T.XXP.P._.'._.T.T.-.t 3 y y y y y y 7 3 3 6 8 8 5 5 5 2 5 5 5 2 4 4 8 p a a a p p r c k k k k k k h 8 8 8 9 9 9 9 d >.8.;.8.;.d.r.*.N n c r 3 * X * 1 2 4 9 8 8 8 8 7 1 1 1 2 2 a a 8 2 1 2 2 6 1 1 3 3 1 1 1 1 1 1 ; ; # X 8 *.j.}.k.u.*.d d a a a a a c c c c a p p a c a 0 8 2 1 1 1 O 1 h 8 1 2 2 8 p a m m w.w.M 2 5 c c 8 c c k 8 6 1 1 1 5 5 5 5 8 8 0 c c v c v v n a n a 9 4 2 1 ; ; ; 1 1 1 1 O .   +   . . . # # % % 8 k c c D w.y.y.D w.w.D n n n n n v a a v v v v v v k 9 8 8 8 8 8 8 8 8 8 8 8 8 8 0 n D D S S n S S S S D D D D ",
"S #.*.D D w.=.*.*.=.=.e.*.c 8 k 5 & 1 k c k 0 8 0 8 2 8 k k 9 8 a a v n 9 v j.j.D w.w.D n n v v k k k k k k 0 0 0 0 0 0 0 k k 0 8 5 5 O X . c M c k 8 8 8 8 6 2 % & 1 5 8 8 8 8 8 6 1 1 4 p p p 4 r c c 8 1 = 1 1 1 1 % % % % % 1 2 2 2 0 v M D k k c c c c k k k 8 . . # 8 8 8 0 0 8 8 8 8 8 8 0 8 8 8 9 q q k v v v a p a a a v v q q 0 8 8 6 8 6 5 1 1 1 1 1 2 1 1 1 1 2 9 p 8 p p a a n n n n D *.=.t.d.k.l.l.k.j.l.v.v.l.l.k.k.d.d.>.>.;.=.t.=.=.#.a a a 8 8 8 8 4 s ( ) ) ' | <.<.1.1.5.8.;.;.=.$.#.#.( ( s.g.%.%.5.5.1.5.a.( w < y y y y y y 3 3 4 4 8 8 8 8 5 5 5 5 6 2 2 4 8 r p p p r 4 4 8 8 h h 8 8 k 8 8 8 0 0 8 4 a S u.u.u.d.=.e.n n c c r 4 ; X p c v n n n v v n n n S *.t.d.k. Xl.j.u.e.t.u.t.a 3 o ; , 3 3 2 6 1 1 1 1 # 4 *.j.{.k.d.*.a d p a a a a c c c c c c a a c a 0 8 6 5 5 1 O O 5 7 1 ; ; ; ; 2 8 c N w.m 1 2 8 8 6 8 6 6 1 1 1 % # 5 6 8 8 0 k p c c c v n n n n n w.w.*.D n p 4 2 ; X o         X 1 1 5 8 k c M D w.y.y.y.e.e.G D N D w.D n n n n n v v v v n v v v v k 8 8 8 8 8 8 8 8 8 8 8 8 8 8 0 v N D S S S S S S S S D D D ",
"S #.*.S D *.=.*.*.=.=.e.w.c 8 8 1 % 5 c k 0 0 5 0 8 8 8 0 0 9 0 a v n n q n j.j.D *.w.*.D n v c k k k k k k 0 0 0 0 0 0 k 0 0 0 6 % 1 O X . 8 c k 8 5 2 8 8 5 1 & 5 8 h 8 8 8 8 8 1 ; 4 d -.4.4.t s s r ; o * 3 X # ; 2 1 1 1 # 4 4 4 9 9 a v v q 0 c c c c m v l 8 # . # 8 k k 0 0 8 8 8 8 8 8 0 8 8 8 0 q q k v v v v p a v v v l k q 0 8 8 6 6 6 6 2 1 1 1 2 1 1 1 1 2 8 0 a n n n n *.*.*.*.=.=.=.;.u.d.l.l.l.l.v./././.(.(.v.v.v.v.v.k.k.d.u.;.t.$.n d a 9 8 8 6 8 p ( %.4.1.1.1.5.5.8.0.d.d.d.d.>.;.;.;.-.;.d.-.d d I %.g.-.s , 3 y y y y - 3 y y 4 4 8 8 5 5 5 5 5 5 6 6 2 2 8 p p p p r 4 8 8 8 k 8 8 8 k 8 8 8 8 4 4 9 a S u.d.t.=.n n a c p 3 * 1 r N w.e.e.=.*.S S n d S $.d.v.+X*X:X*X*X$X#XOXOX#X#XoXk.;.s > , > p 2 1 1 6 8 ; 2 N i.{.j.u.S u a 9 a c a a a c c c c c a a a a p 0 5 5 5 1 O O 5 8 8 8 1 ; # # % 1 c m 6 X 1 2 1 1 1 1 1 1 1 1 1 1 1 5 5 8 8 0 0 0 0 0 p p p a a a n D *.e.t.t.e.w.n a 8 6 1 1 1 6 k k k m D G e.y.G G G G M M c 0 v D D D D n v v n v v v v n v v v v k 8 2 8 8 8 8 8 8 8 8 8 8 8 8 9 c n S D S S S S S S D D D D ",
"S #.D S D *.=.$.*.$.=.=.=.c 8 5 & & 8 c k 8 8 5 0 0 9 8 9 q q v a v v v v e.j.w.D *.w.D n v c 0 k k k k k k k k 8 k k k k 0 8 8 5 O O + O + 1 6 6 5 5 5 5 5 5 1 6 6 j j 5 1 1 1 X * 3 I 4.P.P.6.6.L.s.%.< * o o , 4 p v F n n v 9 9 9 9 p p q 9 a q 9 0 0 c v M G c & # . 8 k k 0 0 8 8 9 9 8 8 0 8 8 8 0 k k k c k c c k k v v l l k k 0 8 8 5 1 1 1 1 1 1 2 2 2 2 2 4 9 a a a S n S n S #.S #.=.$.$.$.;.;.>.>.&.>.8.f.h.c.c.c.v./.oXoXv.h.d.>.$.$.;.$.S d a 9 8 8 8 8 p ( -.5.<.<.%.1.1.5.5.5.g.g.j.f.d.d.d.d.t.j.=.#.=.%.6.T.-.r , y y y y - y y y r 4 4 2 2 5 6 6 5 5 5 5 6 5 8 0 p p p p p 4 r r p p r 8 8 p 0 8 2 2 4 a S n *.u.t.*.n p u c 3 * 1 r N *.*.w.w.*.*.S S S S ;.>.f.v.(.+X+X&X(.(.(./.v./.(././.+X;X$X/.d.#.d 4 1 ; 6 4 ; 2 n y.}.u.t.S 9 a 9 c c c c c c c v c c 0 p a c a p 1 5 5 5 1 1 5 c c c c p 8 1 # X 1 1 X @ o X X . X X 1 1 1 2 6 6 1 1 5 5 8 8 0 0 p 0 p p p p p p p p p a n *.=.e.t.t.y.i.w.M m k k k k c c M D D M M M m c m c k q v D D D n v v v v a v v v v a v v k 9 2 8 8 2 8 8 8 8 8 8 8 8 6 8 a n S D S S S S S S D D D D ",
"S S S n S D =.=.*.$.=.=.=.c 5 1 & 5 k k k 8 0 8 8 0 0 8 8 k v c n a a v *.i.y.v D *.*.D v v a 9 k k k k k k k k 8 k k k k 8 8 5 1 + O + O O O & O 1 5 5 1 & 1 1 % % & & % X X X * , I 6.U.U.2.W W N.E.E.C.1.{ U #.$.;.d.k.k.k.p.v.v.l.l.f.u.=.=.=.*.D n n N M D e.G 8 % # 8 8 0 0 0 8 8 9 9 8 8 0 8 8 8 0 k k k c k k c k k c l m l k k 0 8 5 5 1 1 1 2 2 2 2 2 9 9 9 a a n S S *.#.#.#.#.#.#.#.#.#.#.#.#.$.$.$.&.>.9.h.c.^.(.^.c.v.v.l.d.>.$.S S S $.$.S S a 4 0 8 8 0 p a #.5.%.%.%.%.<.1.1.1.5.5.8.d.d.d.d.d.j.oXv.v.l.5.5.g.-.8 3 y y y y - y y r r 4 2 1 1 5 6 6 5 5 6 5 6 5 6 0 a k a 0 p 3 4 w r r r 4 4 8 w 4 4 9 d =.;.a n =.n a a u u * 3 r b N _ -.-.=.*.#._ ( #.#.#./.(.+X&X&X&X+XOX+X+X+X+XOXOX(.v.oXOX#X$X;X<X$Xl.N c 8 8 4 ; ; p t.}.t.e.n p a p c c c c c c c v c a 0 0 a c c c 1 5 1 5 5 1 5 m m c n n c p 8 6 1 1 1 X 1 1 1 1 1 1 1 1 2 6 6 6 1 5 5 6 8 8 0 0 c c a a a p p p a p p u u u a a N *.t.y.w.c 8 8 c c c k c c m M M D M m c m M c 8 q n D D n v n v v a v v v v a v v k 9 2 8 8 2 8 8 8 8 8 8 8 8 6 8 0 v D D S S S S S #.D D D D ",
"S S S v n D =.$.*.$.$.=.=.v 5 & % k c k 0 0 0 0 0 0 8 2 8 k c n n a v *.t.t.D q n D D n v c a 0 k 0 0 0 k k k k h k k c 0 8 6 5 O + O + + & O O X O 1 1 1 1 & 1 & 5 5 1 % 1 3 4 ) 4.P.Q.Q.G.O. . .M.W.'.'.'.'.Y.I.h.h.l.v. Xv.v.v.v.oX#X$X$X#X#X#X@X.X}.j.i.y.y.D m 5 & % 8 0 0 0 0 8 8 9 9 8 8 0 8 8 8 k k k l l l l l v v v v m c l k 0 9 8 2 ; 2 4 9 9 q a p a d S S S S S S S S #.#.#.#.#.#.#.#.$.#.} &.&.:.8.9.c.c.^.(.(./.h.d.>.>.$.S Z Z S S $.=.$.D S 9 q 0 0 p r w s %.4.%.%.<.1.5.5.1.%.%.%.&.;.;.;.;.d.oXv.oX/.g.6.T.-.4 * y y y y y y r r 8 4 2 1 1 6 6 6 5 5 6 5 6 2 8 0 c 0 0 q p w e e s s i i w w w < < U 8.8.-.w u s i s U s s i s ( ` ( ) -.-.) ( ( ( ( %.%.-.l.v./././.oX/.oXoXoX Xv.v.v.h.h.>.>.>.=.$.#.#.#.t.*.n v c 2 ; 2 w.y.t.*.n a a a a c c c c v c v v a 0 p p c c c 5 5 5 5 5 O 1 m v n c c c c m m M M v m M N M M 6 6 6 6 6 2 2 2 5 5 8 h h 8 8 5 p p a p a a p p p p a a a p p p 8 p c c 1 O O 5 k k k k k c m M M M M c c c M c 2 4 v D D n v n v v v v n n v a v v k 9 8 8 8 2 8 8 8 8 8 8 8 8 6 8 0 c S D S S S S S #.D D D S ",
"S S n v n D =.=.*.$.$.=.w.v 1 & % k m 0 0 k k k k 8 1 2 8 0 v n v a D i.i.D v v n D D v a a c a 0 0 0 0 h k k k h h k c 0 8 2 1 O + O + O 5   .   X X ; 1 1 2 2 2 6 0 a v _ -.s.-XbXbXbXpXuXuXuXK.J.J.J.J.'.'.'.Y.I.g.d.d.f.f.f.b.v.v. X X Xv.l.i.u.e.*.n q 8 2 k 0 & & & k k k 0 0 8 8 9 9 8 8 0 8 8 8 k k k l l l v v v v v v M c l k 0 9 2 2 4 4 9 a v S S S S #.#.$.$.#.#.#.#.#.$.$.$.$.&.&.} } $.&.:.9.9.h.h.b.(./.(.).(./.d.>.$.#.Z Z S #.=.$.;.>.t.e.D a a 0 9 p 4 > u d ;.-.%.<.4.5.1.<.{ { %.%.;.;.;.=.=.;.[ &.8.5.6.P.) 3 * w y y y y y r r 4 6 6 5 5 6 5 5 5 5 5 5 6 1 2 8 p p 8 8 w I Y ) ) ) ) ) Y L < < < <.I.6.i , , < < L %.U U 4.%.) ) %.%.) Y Y Y ' <.<.4.4.5.1.1.&.&.&.;.;.d.d.u.,.=.=.=.$.$.$.S S #.S S S =.*.*.*.w.*.c 2 2 D w.e.n a p p a c c c c v v v v v a p 0 p c c c 6 7 5 1 1 . O h v n n n n c c c w.w.D v m c 6 5 6 6 6 6 6 6 6 6 1 5 h k k 5 1 % 0 0 p p a a a a p p p p p p p p r p c 8 X o O 8 k k k k c M M D M D M c k k 0 8 1 2 v D D n n n v v v n n n v v v v k 9 8 8 8 8 8 8 8 8 8 8 8 8 5 8 0 c D D D S S S #.*.D D D S ",
"#.#.S n n D D S S *.=.=.n q 8 & k k k k 8 8 0 k 0 8 8 1 1 k N D D e.e.*.n a v D v v v v v v a a 0 0 0 0 k k k k h k 8 8 4 2 1 ; 1 1 % % # # X o ; 4 s b b d #.=.d.d.z.l.T.T.%X-XnXbXbXhXkXdXlXtXtXtXtXiXsXuXuXpX'.Y.C.0.>.>.f.b.v.v. X Xv.f.=.#.a a 9 9 9 2 2 8 8 8 8 5 & 6 k k 0 0 0 0 0 0 0 0 0 q k k k k k k k q q v v v v v n v c v c v D t.u.=.$.#.$.$.=.;.;.;.;.&.$.#.$.} } [ } &.} } &.:.:.9.c.(.`.`.+X&X+X+X+X+XOX/.l.f.$.[ Z #.#.#.$.$.=.=.t.u.u.u.u.u.S a 9 9 u u a d #.%.1.<.4.6.6.1.| | %.%.-.-.-.#.&.#.[ [ i L 2.U.Y < , , e e < - y y t 3 6 4 6 1 2 2 1 1 2 3 ; * * , w w w I a.T.Y.U.U.U.m.2.W T T P ~ W Y.E. .< H H T 3.P.C.6.3.7.<.W <.1.<.<.<.R J R B.E.Q.'.-X-XY.6.1.1.%.U #.#.S D *.D *.$.$.$.*.*.*.*.*.*.*.*.w.*.w.t.N 8 9 *.*.N n a a p p a a a c c c c v p c c c c c a c 8 8 1 = = 1 1 O 5 6 p p c c M M i.D 8 % # 1 1 1 2 2 5 6 6 6 8 8 5 h 8 1 X . # 1 1 1 2 4 p v v a p p p p p u p p p a c c 8 1 = 5 8 k k c c c c M M c k h 8 5 1 # # # q D D v v v n v v v n n n v c v c 0 2 8 8 8 8 8 8 8 8 8 8 8 5 8 8 p D *.S S S S S S $.=.=.=.",
"*.*.D S n D *.*.S $.=.=.n 0 5 & k k k k 8 8 0 k 0 8 8 8 8 c D D D D D D n v v v v v v v v v a a 0 0 0 0 k k k k k 8 6 3 3 : ; * * ; , 4 p n #.#.z.z.T.T.T.T.T.T.T.I.I.I.I.Y.'.sXsXsXsXdXlXlXAXAXlXlXdXtXtXtXuXpX'.Y.I.I.h.h.v.v. Xv.v.f.;.S f 9 p 9 9 4 2 2 2 8 0 8 8 5 & 8 k k k k k k k k k k k l l l k k l l l q c v v q q q c q a a a v D t.#X@X Xl.l.l.k.g.f.f.f.f.f.g.g.h.0.5.1.q.q.q.I.I._._.&X>X>X>X&X&X;X&XOXh.8.&.$.#.&.#.#.$.$.#.$.;.;.;.;.;.=.$.$.$.;.$.S a u 9 u u -.;.5.5.6.6.6.<.<.| <.%.%.-.&.&.;.%.{ { T | A.Q.m.W P T Y I K e e t t w 3 3 3 1 3 , , , 4 w w w I I ) ) <.7.T.Q.R.R.E.R.Z.m. .R R R  .E.sXpXF.A.A.'.pX-XE.C.3. . .Q |  .| R T R J o.@.J.pXbXbXbXpXQ.Z.2.<.%.U ( S D D D D D D *.D *.*.D *.*.D *.*.w.D w.t.D 9 9 =.*.N n a a a a a a a c c c c c c p p c a a a c h 8 5 5 1 = O O % 1 8 p c c m m M 0 1 # 1 1 1 1 1 1 1 1 1 1 1 5 % % & 1 5 8 k m 2 2 ; 1 3 4 9 p p p p p a p u u p p p c 8 5 5 7 k k k k k k c M k 8 5 % X X % 1 2 2 v w.D v c a n v v v n n n v c v c 0 2 8 8 8 8 8 8 8 8 8 8 8 5 8 8 0 D *.D S S n S S $.=.=.=.",
"$.=.=.D D *.=.*.*.$.=.*.v 0 1 & k k k 0 8 8 0 k 8 8 8 8 k M w.w.D n v v n n v a v v v v v v a a q q 0 0 k k h h c 8 4 4 4 w w < e I %.5.g.I.I.I._.Y.Y.U.Y.A.A.A.E.A.C.C.M.A.K.~.sXdXkXkXAXAXAXSXAXSXAXlXtXtX~.'.E.Y.I.^.c.v..X Xl.d.=.S a 9 4 4 9 9 2 2 2 2 8 8 0 8 8 8 5 8 k c k k k k c c c k l l l p k q c c q q a a q 9 9 8 9 9 9 9 9 9 n $.l.l.h.k.h.h.h.I.P.P.P.I.Y.Y._._.Y.C.0.A.Y._.Y._.'.'.'.>X>X>X>X&X)./.8.$.[ Z $.>.&.} $.&.>.>.>.d.v.l.l.f.u.u.>.>.f.>.$.Z d d a u #.&.5.6.6.N.3.2.2.<.<.<.%.&.$.$.&.&.{ { 1.A.'.bXpXQ.R.E.Q.E.U.N.6.L.s.) s w u u I I U ) 6.P.U.Y.U.U.U.U.U.R.R.R.R.K.R.R.K.M.n.o.o.O.F.uX~.O.X.O.J.sXpXW.m. .R J .... .Q R P W o.@.tXhXmXmXmXmXqXwXaXH. .| | U d n n S S S S D D D *.*.*.D D D D D *.D =.t.D p p e.*.n v c v c c a a a c c c c c a a a a a a a c c h 8 8 5 O O 1 8 8 8 8 4 4 8 8 8 6 1 1 1 6 2 1 1 1 1 1 1 # X X 1 1 5 5 6 k c v 0 8 2 ; ; ; ; ; 4 4 p p a p p p c a a c z 7 5 5 k c c c k 8 8 5 X X . @ @ o % 1 8 9 v *.D n v a n v v v n n n v c n c 0 2 8 8 8 8 8 8 8 8 8 8 8 5 8 8 0 n D D S d d n S *.$.=.=.",
";.;.e.*.*.w.e.=.*.$.$.S v 8 1 5 c k k 0 8 8 0 0 8 8 8 0 k D w.w.n v v v n n v a v v v v v v a a q q 0 0 k k h 8 c c b ( ( %.%.1.P.U.Y.Y.Y.Y.Y.Y.'.'.E.A.A.A.A.F.K.F.F.F.K.K.7XtXdXkXkXAXAXSXAXSXSXSXAXlX~.~.~.A.A.A.^./.c.v.v.p.S n p 9 4 4 4 9 2 2 2 2 2 2 8 0 8 8 8 8 8 8 k c k k k k k k k k k c l q q q q a a a a p 9 p 0 9 9 8 8 2 2 3 9 d d Z Z Z $.&.5.6.C.C.C.A.U.U.Y.E.Y.C.m.C.A.A.A.A.Y.Y.E.'.'.'._.^.1.&.[ f f [ >.8.:.&.:.q.f.f.h.v.&X+XoXv.v.v.v.h.h.8.>.>.k.v.d.#.#.-.&.1.3.3.2.2.2.<.<.<.%.%.$.#.[ [ { | m.'.bXbXbXsXsXsXbXbXQ.E.Q.-X-XU.7.) ) Y Y | 7.N.U.E.E.E.R.B.B.B.G.R.G.S.S.S.S.S.S.S.S.M.F.J.sXsXK.X.O.K.tXJ.@.o.E X...R  .o.m.m. .R  .m.uXMXHXMXmXmXqXrX8XmXaXo.R Y U s n n n n n S n n D D D D D D D D D D D *.e.D a p e.*.n c c n n c a a a a c c c c p p a a p p p c m 8 8 7 1 O O 8 M n c 8 2 3 6 6 8 6 1 1 1 1 1 1 X X # 1 1 6 8 8 6 h k 8 1 1 5 8 8 8 8 4 2 2 : ; ; : 3 9 p p p p p p p c z 8 5 1 k c k k 8 5 1 % % 1 5 1 % % 1 8 2 2 9 n D n v v v v v v n n n n c n c 0 2 8 8 8 8 8 8 8 8 8 8 8 5 8 8 0 v D D S n S S #.$.$.=.=.",
"t.u.e.*.*.e.=.=.*.=.*.v a 8 1 8 m k k 0 8 8 0 0 8 8 8 8 c N D D n v v v n n n v v v v v v v a a q q 0 0 k 8 8 8 c n -.a.g.g.I.Y.U.R.E.Y.Z.A.A.A.~.~.'.~.F.F.K.~.tXtXsXsXhXkXsXyXkXkXlXlXAXAXAXAXSXSXAXAXAX[.[.A.A._.+X(.h.>.*.a 4 4 3 2 2 2 8 9 8 2 2 8 8 0 q q 8 8 8 8 8 8 0 c k k 0 0 0 0 0 k q q q 9 4 8 9 a p p p 4 8 p a p 8 8 8 2 1 : 4 a d d f f d %.5.6.C.N.N.B.B.B.B.B.Z.B.m.M.M.m.M.M.M.B.M.B.B.m.3.3.| { { { 8.h.v./.h.q.h.^.^.h.h.^.&X+X(./.^.c.c.c.c.h.h.v.*X<X$Xh.8.5.1.1.1. . . .2.2.7.1.<.&.&.%.} { | 3.E.pXhXaXsXsXiXiXuXwXJ.F.G.Q.'.Q.U.3.<.| W Q n.B.B.V.n.o.n.o.E o.M.G.G.S.O.O.O.M.S.S.S.S.D.uXhXkX7X@.7XhXsXK.O.o.O.O.o.o. .O.K.E.B.Q Q  .A.uXsXwXG.!.D.^ 7XCXMXM.R T U d d d n n n n n n S S S S D D D D S S S S *.D a 8 *.D v a a c n n c p p a a c c c a a p a p p p c m h 5 1 O O 1 h M n n n a 8 8 6 8 1 X X X 1 1 1 6 6 8 0 c m m M 5 6 h 6 % O % 1 2 2 8 8 0 a c v 4 4 4 2 2 2 3 3 ; ; 1 1 5 5 1 O 8 5 1 & 1 5 8 k M G w.w.M c k k 1 ; 2 v D n a v v v v v v v v n c n c 0 8 8 8 8 8 8 8 8 8 8 6 6 8 8 8 8 c n D S S S #.$.=.=.=.=.",
"t.t.e.*.*.=.=.$.*.$.S a q 8 1 0 M c k 8 8 8 0 0 8 9 8 8 c M n n n n n n n n n n v v v v v v a a q q 0 0 0 8 8 8 p ( 4.g.P.P.I.Y.m.M.Z.Z.A.A.K.~.'.dXdXdXtXtXtXfXtXkXkXBXBXBXkXkXdXkXlXkXAXAXAXAXlXlXAXAXAXAX~.~.].).+Xv.$.a 8 3 4 6 6 2 2 2 6 6 9 9 8 8 0 0 k l 8 8 8 8 8 5 5 k 0 0 0 0 0 0 0 9 9 9 9 8 2 4 9 a p a a r r p r 4 6 6 6 6 3 3 4 a S S Z Z [ %.0.P.m.V.m.m.m.n.m.n.M.O.M.M.Z.M.M.F.S.M.M.o.o. . . .3.3.3.I.+X;X:X;X^.I.^._._.^.^.^._.^.^.^.^.I.I.h.h.^._.+X&X*X#Xv./.h.g.0.3... . .E.R.Y.Y.I.I.I.I.I.Y.E.'.sXhXhXfXhXhXhXiXiXiXuXW.G.R.Q.Q.E.m. .| R Q n.m.n.o.Q E E E E ^ +.D.F.F.+.+.S.D.S.D.F.F.D.tXhXhXtXtXtXyXtXJ.F.K.G.B.o.o.E o.Z.R.B.' ! W P E Q ! P P ~ ~ D.MXNXG.| Y U #.d d d n n n n n n n S S S S S S n S n n S n p 2 N n v a p c c n c p p a a a a a a a a a p p p c m 8 1 = O O 1 8 N N N n v a c c 8 1 1 1 1 8 c m N M M m c 0 8 8 1 % % % % 1 % % 6 8 8 8 9 c n *.v v a 8 3 : ; ; o X X X X O O   X   X % 5 k M M M G G G M k k 0 2 2 2 a D n a v v v v v v v v n c v c 0 8 8 8 8 8 8 8 8 8 8 6 6 6 6 8 8 0 n D S #.$.;.u.u.u.;.=.",
";.;.=.*.D *.*.*.S $.n 9 0 8 5 k M c k 8 8 8 0 0 8 0 8 8 c N n c n n n v v v v v v v v v v v a a q k 0 0 0 8 8 8 4 p ( 1.6.C.N.3.Z.Z.Z.M.M.A.~.~.~.~.dXtXsXiXiXiXiXkXkXkXjXfXiXtXtXyXkXkXkXlXlXtX[.[.AXAXAXAX].A.3.0.h.d.d 4 y y z r 8 8 4 6 5 5 8 0 0 0 0 k k k k 8 5 8 8 & % 8 0 0 0 0 0 0 0 9 4 8 9 4 2 4 p b *.a.j.r.-.*.b 4 6 5 6 6 1 1 2 p a f d f U %.6.C.n.o.o.n.n.O.O.O.O.O.M.F.W.0X0XuXW.H.G.M.M.m.B.M.C.C.C.Y.'.'.)._.Y.A.A.E._.Y.Y.Y.Y.Y.Y.Y.I.I.I.I.h.h.c./.v.c.v.v.OX/.I.I.A.C.m.B.G.Z.U.U.U.I.I.I.-X-XpXsXhXhXfXfXfXhXhXiXuXaXaXaX0XH.H.W.R.V. .R R E Q E R R R E ^ o.O.S.F.H.J.J.7X7X7X7XJ.J.J.J.uXiXkXhXtXtXkXhX7XtX~.J.F.m. . .E E  . .W P K K e y < - - - - - Q bXbXU.<.U s ( n n n n n n S S S S S S S S S S n n n v v v 8 : v v c c p p c n c c a a a a a a 0 0 p p p p 0 p c 8 5 O O O 1 1 M n n n c c m m c 0 0 c m M N N m c c 0 8 6 5 5 % % O % 1 5 1 1 8 8 8 8 4 8 a v n n v v p 9 8 2 1 1 X .   X O O . X % 5 k c M c k k 8 8 5 5 6 8 9 4 2 a D n a a v v v v v v v n c n c 0 8 8 8 8 8 8 8 8 8 8 6 6 6 5 8 8 9 v D #.$.;.d.k.k.p.;.=.",
";.;.=.D S D *.D S *.n 9 9 8 5 c M c 0 8 8 8 0 0 8 0 8 0 M D n v n v v v v v v a v v v v v v a c k k 0 0 0 8 8 8 3 3 u ( 5.0.3.| C.A.Z.A.A.A.A.~.~.~.~.~.sXhXiXtXiXfXhXiX7X8XH.K.tXsXsXsXtX~.K.[.[.6XAXAXAXAX].X., g &.8.( t y x z 8 8 8 8 8 8 6 8 0 0 0 8 0 k k k 8 6 8 8 % # 8 0 k k 0 0 0 0 8 8 8 9 8 4 w s ( XX1X1X-XXXT.4.` 3 1 1 1 ; X ; > u u f f f { 5.6.m.M.O.M.M.M.M.M.M.O.F.uXhXMXmXmXmXsXwXH.M.M.M.F.B.Z.Z.Z.Z.Y.Y.A.A.Z.A.E.E.A.A.Z.A.Y.Y.Y.Y.Y.Y.A.I.q.q.h.c.h.v./.^.I.I.Y.Y.Z.Z.G.G.G.G.Y.Y.Y.Y.Y.'.'.W.uXaXtX8XiXfXhXiX7X7X0XiXqXH.S.o.O.M.o.E J E E E E E o.S.F.wXaXaXhXaX0X0X0XmXhXaXuXwXwXuXiXaXiXiXtXK.7XtXtX~.tX'.F.o. . .W W ! P T K < - - y - - - y - - - P Q.Q.N.<.I i n n n n n n n S S n n n n n n n n n n n a v a 4 ; p c n c p 8 c n c c a a a a a a 0 0 0 p p p 0 p c 8 5 = O = O X 2 8 c n n n M M M M N M N M m c c c 0 8 6 1 1 1 O % & 1 1 1 5 8 2 6 8 8 2 2 3 4 a a n N N N N n c c 2 X X 1 8 8 5 5 6 8 k k k 8 k 8 8 5 5 6 8 8 8 2 2 9 D n a v v v n v v v v n v v c 0 8 8 8 8 8 5 8 5 8 5 6 5 8 5 5 6 8 v *.D =.u.k.{.l.d.u.=.",
"$.$.S S D *.=.=.*.D k 2 2 2 9 D M c 0 8 8 0 0 0 0 8 2 9 v n M n n n n n v v v v c v c v n v c k 0 0 k k 8 5 1 % 8 2 c u.l.;.#.&.1.I._.Y.C.A.A.N.E.A.W.bXbXuXH.D.qXjXfX7XH.K.J.sXsXsX'.K.F.A.A.K.[.lXAXFXFX`...< , < I I I t x x r 0 8 8 8 8 8 8 0 0 0 0 0 q k c 8 h k k 6 O   . 5 5 5 1 5 5 5 5 1 5 1 1 1 ; w s.-X-XbXbX'.E.Z.6.5.#.d d d p f [ [ &.1.1.1.1.5.0...O.V.V.M.M.M.O.O.O.G.J.sXMXMXBXhXmXaX0XH.S.M.F.F.F.M.F.Z.m.m.A.Z.Z.A.Z.Z.M.Z.Z.G.E.G.Z.C.m.3.3.C.A.C.0.3.3.0.0.Y.Y.Y.Y.Y.U.A.A.Z.Z.Z.Y.Y.Y.Y.Y.N.m.m.F.W.iXiXtXsXiXtX7XrXrX7X7X7XD.S.O.^ ^ o.S.O.^ ^ O.S.D.iXmXCXMXhX7XrXiXfXiXiXJ.K.H.H.D.W.bXwXwXH.D.F.D.K.J.@.~.'.A. .R W W 1.L , , y y - - - - - - y y y < U U.L.' Y s a n n n n n n n n n D S N n n v v a n n v c v n 0 ; 8 v v c c a a c a a p p p p p p p p c c c c p p c c z 5 1 O 1 1 1 ; ; 2 p n n n N N M v c 0 0 k m 8 1 1 1 1 1 1 % % % % % % 8 0 8 8 8 8 4 4 4 4 4 4 9 9 a v n N D D S a a N w.t.5 % 8 c 8 8 5 8 8 8 8 8 8 5 5 5 6 6 2 8 M N c c c c v c v v n n v v v a 8 2 5 5 5 5 5 5 5 5 6 6 8 k 8 k 5 8 D *.*.e.k.@X{.t.$.;.",
"$.#.S S D *.w.w.D M k 8 1 1 0 D M c 0 8 8 0 0 0 0 8 2 0 v n M n n n n n v v v v v c c v n n c k 0 k k 0 8 5 1 & 8 9 D j.j.=.$.;.;.I._.I.0.0.0.C.Y.Y.'.bXpXJ.F.J.gXgXqXH.K.uXsXsX'.'.~.Y.Y.Y.Y.~.~.AXFXFX].1.L < < e I I K t x x c 0 9 8 8 8 8 8 8 8 8 8 0 q k c k k h k 5 % X X X X O X X % 1 5 1 1 1 1 6 4 I P.nXNXNXCXNXmXpX'.-XT.f.8.8.&.:.q.1.A.Y.Y.A.0.1.3.C.K.pXaXbXaXwXH.F.M.O.M.W.hXBXHXBXBXMXhXH.F.F.O.+.+.S.S.M.M.M.Z.B.B.B.Z.Z.Z.Z.Z.M.Z.G.Z.m. . . .C.Z.A.A.A.N.C.N.Y.Y.U.E.E.Z.U.A.Z.Z.Z.Z.Z.Z.U.U.2. .o.M.J.wXwX7XiXiXtXqX7X7X7X8XiXH.O.^ O.F.7XuXD.F.D.H.7XiXmXCXmXgX8X8XqXfXiX7XJ.H.K.F.+.M.H.wXR.!.S.M.O.O.O.O.X.A.A.m. .W W Y ) e < y y y - - - - - - y y 7 3 I P.N.W Y s v D n n n n n N N n N N n n v v a a v v v c v n a 2 8 v v c c a p c a a p p p p p p p p c c c c p p c c z 8 1 O = 5 8 2 2 2 3 4 p c n v c 0 8 6 8 8 8 8 8 8 8 2 % X .   o @ o X 1 8 8 8 8 9 8 8 8 8 4 4 4 4 4 9 9 9 D e.t.e.=.t.t.t.5 % 8 k 8 8 5 8 8 8 8 8 8 5 5 5 8 8 1 6 m M c c c c v c v v v v v v v c 0 6 5 5 5 5 5 5 5 5 6 6 5 8 8 0 5 8 D *.*.=.u.d.t.*.#.;.",
"$.#.S D *.*.*.G D c 8 1 % 2 v D M k 0 8 8 0 0 0 0 8 2 0 v n M n n n n n n v v v v v c v M M c k k k k 8 5 1 1 5 8 0 w.j.u.$.=.>.>././.8.:.1.1.0.A.Y.'.'.E.Z.G.W.hXaXJ.F.'.sXpX'.Y.Y.Y.A.Y.Y._.].x.].`.x.} g e t y t I I t t x B c k 0 9 8 8 8 8 5 5 5 6 8 0 k c k h 8 h 8 1 O X X X X X X X % % 1 1 1 5 9 w U P.nXNXHXKXHXNXMXbXnX-XT.h.9.:.:.0.Y.'.nXnXbX'.C.N.bXMXCXGXHXHXCXCXMXaXF.F.0XhXBXHXHXCXBXhXK.~.~.@.@.S.S.M.M.M.Z.Z.B.B.B.B.G.Z.B.B.Z.Z.Z.m. .E  . .Z.Z.Y.Y.A.A.C.A.Y.Y.Y.E.R.Z.Z.Z.Z.Z.Z.Z.M.B.B.B.n.n.V.D.J.wX0X7X7XqXqXqXqXqXqXqX8X+.O.+.8XhXgXqX8XJ.7X7XiXhXmXMXiX8XH.7XhXhX7XD.S.F.F.O.^ M.R.G.V.m.M.A.@.o.X.E J E  .R W W Y I K y - y y - - - - - - - y y 7 3 s L.N.W Y I n D n n n n n n N N n n n v v c a a a v c c n N c 2 8 v v c c a p c a a a a a a a a a a c c c c c p c c z h 1 O O 8 c c c 4 : ; 1 8 c c p p 8 6 8 8 2 8 8 2 1 X o o . . . % 1 8 8 8 0 0 9 9 9 9 9 9 0 9 9 4 4 4 9 9 v D e.e.=.=.$.*.8 1 8 k 8 8 5 8 8 8 8 8 8 8 5 5 8 6 1 6 c M c c c c c c v v v v c v v v c 8 6 5 5 5 5 5 5 5 6 6 5 8 8 8 5 8 N *.*.=.e.=.#.S #.;.",
"#.#.#.*.*.*.D D n 0 2 1 % 8 n N m k 0 8 8 0 0 0 0 8 2 0 v M M n n n n n v v v v n v c v M M c k k k k 5 1 1 5 8 8 k e.j.=.$.>.;.8./.h.:.:.&.1.3.0.Y.'.E.A.m.A.'.pXuXK.E.'.bX'.C.0.0.0.0.I.I.I.^.q.:.A g g e t K y t t t t t m m c k k 0 8 8 8 8 8 2 2 2 8 0 k c c 0 8 0 8 1 # X X X X % 5 6 6 5 8 0 8 0 9 4 i %.'.bXFXHXHXMXnXnXnX<X;X&X&X(.^.Y.'.mXCXCXCXbX'.E.MXMXCXMXmXMXCXCXKXCXsXaXhXhXBXHXGXHXHXsX~.FXFXAXuXpXW.G.M.M.B.M.B.F.B.B.Z.Z.Z.Z.m.m.m.m. ...o.m.Z.Z.Z.M.C.C.C.A.A.Z.Z.Z.Z.B.B.B.M.M.Z.M.M.m.B.B.K.G.H.0XiXiXiXqXqXqXqXqXqXqX8X7X+.+.+.8XhXmXqXD.J.7X7X7XiXhXhXiX7XD.H.aXmXiXH.S.+.M.F.o.E G.Q.B.....A.dX'.A.X.E ! ! W W <.Y e < - - - y y - - - - - y y y y 7 3 s s.7.W Y I n D n n n n n n n N n n n v v v v v a c c c n N v 4 4 c v a c c c c a a a a a a a a a a c c c c c c c z c h 1 + O 8 c m n a 4 1 1 1 2 6 8 8 8 8 2 1 2 1 # X X X 1 1 8 8 k M D D c k 0 0 0 0 9 9 9 9 9 9 9 9 9 9 q a n D =.*.S S S *.8 1 8 k 0 8 5 h h h 8 8 8 8 5 5 8 6 1 6 c m c c c c v v v v c c c m v v c 0 8 5 5 5 5 5 5 5 5 6 5 5 5 8 6 8 v D *.e.t.=.*.#.#.$.",
"#.#.#.*.=.=.D D c 8 1 1 1 q n n c k 0 8 8 0 0 0 0 8 2 0 v n M M n n n n n n v v n v v v v n v k k h 6 5 % 1 8 0 0 v e.j.=.=.>.>.h.v.d.&.8.8.&.5.0._._.C.N.0.A.'.'.E.A.Y.-X_.0.1.5.8.8.8.8.q.9.9.:.A g > i i t y t t t t p c m M m l k k 0 8 8 8 8 2 2 2 4 q v v a 9 8 p 0 2 ; X X X 2 p v n v m c c k c c u u I | C.'.bXbXbXpXbX-X-X;X:X:X>X`.'.MXCXHXHXCXbX'.J.gXmXMXmXmXmXBXBXGXCXmXMXMXMXHXHXGXHXAXdXAXKXKXFXFXNXbXW.F.Z.B.M.W.pXQ.Z.Z.A.A.Y.0.C.A.A.A.A.Z.C.M.M.B.m.m.O.C.M.m.m.m.M.V.V.V.B.M.M.M.M.O.O.M.D.wX0XqXiXiXiX7X7XqXqXqX0XqXqX8X8X+.+.rXgXmXiXD.+.7XuXuXuXsXhXuXK.F.J.pXmXsXH.S.G.M.F.F.O.O.pXbXZ.R X.A.FXFX~.O.m.2.7.<.) I w < w - - y t y - - - - - 3 y y 7 7 3 s s.7.Y Y s a n n n n n n n n n n n n n v v v v v v v v n D v 4 4 c v a a a a c a a a a a a c c p p c c c c c c c r z h 1 . O 8 m m m n n p 2 ; X X ; 1 1 1 1 1 ; # # 2 0 n D D c l m M M M c k 0 0 0 0 9 9 9 9 4 2 2 2 4 9 9 9 S D D S v v S =.8 1 8 k h 8 8 k k k h 8 8 8 5 5 8 6 1 5 8 c c c v v c c c c c c c c c c c k 8 5 5 5 5 1 5 5 5 6 5 5 5 8 5 6 p D *.e.t.=.$.*.$.$.",
"#.#.*.$.=.D D v 0 2 2 1 8 c n v k k 0 8 0 k 0 0 0 8 2 9 v n M n n n n n v n v c n n c n n c c k 8 6 5 % 1 5 8 0 q v =.p.;.;.8.>.v.v.>.&.8.8.1.1.0.^.I.3.0.C.A.Y.'.Y.C.I.T.0.5.8.8.8.8.8.>.>.>.>.,.S a 9 w t y t t t t e p c M M c c k k k q q q q q 9 9 q p v n a 9 8 9 9 4 2 2 c N e.e.*.n n N N M M N n n s i < L 2.C.Y.E.Q.-XT.P.0.q.h._.nXMXGXGXGXBXmXiXJ.H.gXmXMXmXmXmXMXMXCXBXhXhXkXBXHXHXHXHXAXAXFXKXFXAXnXmXpXE.Z.B.B.V.pXnXnX'._._._.+X&X)._._._.Y.Y.A.m.M.M.M.M.m.m.m.m.m.m.m.M.B.M.S.M.S.M.M.O.+.S.F.0X7XqXqX8X7XK.K.D.D.H.7XqXiXgXhX8X7XqXMXmXH.@.F.K.K.K.J.'.'.E.A.A.'.nXnXQ.B.B.R.Z.F.Z.M.F.bXbXZ...X.].FXFX'.A.A.XX4.s < , , 3 w - 3 y y y - - - < 3 y y 7 7 7 3 i s.4.W U s a v n n n n n n n n n n n n v v v v a v v v n D v 4 2 c v a a a a c a a a a a a c c p p c c c c c c p 8 h 8 1 . O 5 M v c c n n c 8 1 # X X # 1 8 8 0 c N w.y.y.w.N k k k c c k 8 2 0 0 9 9 9 9 9 9 4 4 4 2 4 4 4 9 a v S n a p n *.0 1 8 k h h 8 k k k h 8 8 8 8 5 h 5 1 5 6 0 c c v v c c c c a a p p p c c k 8 8 5 5 1 1 5 5 5 5 5 5 5 6 5 2 8 n w.w.e.e.$.*.*.$.",
"$.$.=.=.w.D n v 8 8 1 1 k N M k k k 0 0 0 k 0 8 0 8 2 9 v n M n v v v v n n n n n v c M n c v k 8 5 % % 1 8 k k q v $.u.>.>.>.f.v.k.>.;.>.8.;.;.8.T.I.5.0.P.C.I.'.Y.0.0.f.8.;.8.8.>.>.>.>.,.,.>.t.D v 9 8 4 t ] t t e e a c v M c c l k p p l a v a 9 9 q p F S v 0 9 8 9 0 v N j.j.i.t.*.n n n N M M N D N b s i i I %.6.P.T.XXT.s.{ U { _.NXKXGXHXBXfXqX7X7XwXMXmXmXaXaXgXhXhXMXkXkXfXkXHXHXHXHXAXAXFXKXKXFX].@.M.M.Z.Z.Z.Z.U.'.nXnX).+X+X+X+X+X(.h.8.5.0.C.A.m.M.Z.F.M.M.M.M.M.M.M.M.Z.F.K.H.F.S.S.M.+.@.S.D.D.rX8X8X8XH.D.F.@.@.D.7XqXgXgXgXwX0XiXbXuXM.O.A.A.A.A.Y.'._.Y.A.'.-XnX'.Y.C.U.U.Z.Z.Z.M.W.bXbXF.m.o.'.FXFX'._.A.5.a , 3 r 4 1 1 3 3 3 y 3 3 - - - 3 y y 7 7 7 3 r s.<.I U s n v n n n n n n n n n n n v v v a a a v v v n *.n 9 2 a c a p p p c c c a a a a c c p p p p c c c c 0 8 8 5 O O O 1 M n v c n n n n c 8 2 1 2 c N *.e.e.y.y.t.D c 8 1 8 k k k 0 8 1 0 0 9 9 9 9 9 9 9 9 9 9 4 9 9 9 p v D *.S v n *.0 1 6 0 8 8 8 0 0 0 0 8 8 8 8 8 h 5 1 1 1 8 m c v v c c c c a a 0 0 0 0 k k 8 8 5 1 1 1 5 5 5 5 5 5 8 5 5 1 1 v e.=.=.t.;.*.*.=.",
"$.$.=.e.w.D n k 8 8 1 5 c D c k k k 0 0 0 k 0 8 0 8 2 9 v n M n v v v v n n n n M v c M n c v k 6 1 O % 5 0 k k 0 v $.u.>.$.>.c.v.d.>.;.>.;.;.;.5.T.I.5.0.P.P.P._.T.g.8.8.8.>.d.d.u.>.>.>.>.>.u.e.n 9 9 p p w w t e e e a v v n M M v l p p v v v v a 9 q a n D n c 9 4 8 a D i.u.=.n a n #.*.*.n n n N N N a r s u w s -.a.s.s.4.-.U L | '.NXKXCXBXfX7XH.7XaXmXMXmXiXH.D.H.7XtXtXtXfXtXtXHXHXHXAXlXAXFXFXFXAX[.H J  .Z.Y.Y.'.-X'.nX;X_./.l.>.>.$.#.Z d f { 1.0.Z.G.F.Z.M.M.F.G.M.M.Z.Z.K.W.W.W.H.H.S.S.S.S.S.+.+.D.8X8X8XH.H.H.H.K.J.uXuXpXwXW.aXW.E.R.C.3.m.Y._._._.).-X).).).-X>X-XY.P.Y.U.C.Z.Z.M.M.W.sXwXS.M.M.E.'.~.Y.A.3.; 1 1 p 8 1 = 1 3 3 3 3 3 3 3 - 3 y y y 7 8 7 3 r 4.%.I ( d n n n n n n n n n n n n v v a a a 9 9 a c v D *.D a 2 a c a p p p c c c a a a a c c p p p p a a c c 8 8 8 1 O O O O m M N n c a n N N c 0 0 c N e.y.y.t.*.v p 8 8 8 1 8 8 8 8 8 8 0 8 8 8 8 9 9 4 8 4 4 4 4 9 9 9 a 9 a D =.D v n =.p 1 6 8 8 0 8 0 0 0 0 8 8 8 8 8 k 5 1 1 1 8 m m v v c c c c a a 0 0 8 8 0 0 8 8 5 1 1 1 5 5 5 5 8 5 8 5 5 1 % v e.w.e.i.u.=.*.=.",
"$.=.=.*.D D k 1 8 1 % k m c M k k k 0 0 k k 0 8 0 8 8 9 c n M n n n M M M M M M n n c c c k 0 8 1 % % 5 k k k v 9 a $.u.>.>.f.h.>.;.=.$.$.$.=.=.;.g.g.0.0.0.5.5.T.P.g.5.5.8.>.>.d.u.d.u.>.>.>.>.t.*.c 9 a p w w e e t s n v v c v p p p q q q a a a q 9 9 v N D 0 q q 2 a i.{.u.a d Z S #.Z d a v c v n n c a c c c c c b N _ _ n s d L 1.nXKXCXhXiXiXK.J.hXmXmXmXhXK.F.@.@.J.tXtXtXiX7XtXFXFXAX~.lXAXAXAXAX~.m.X.J 3.-XnXnX;X-Xh.0.8.&.$.Z d d a p p p s #.1.0.m.m.B.Z.Z.Z.Z.Z.A.Z.Y.E.E.Q.Q.Q.W.F.S.@.S.S.+.+.+.8XqX8XqXqX7X7XW.W.W.W.E.E.E.E.Y.Y.I.P.6.6.g.I./._.(._.^.I.I.P._.).Y.I.0.0.0.C.A.Z.Z.K.F.0XwXH.S.F.S.F.Z.C.3.L 9 k k k h h 7 5 5 1 3 3 y y y y y y y y 7 7 7 3 r s ) ) ( n n n a v n N N n n n n v a 9 9 9 4 4 9 9 9 9 9 q a q 1 2 c n c c n n c c c a a a a a p 0 8 8 p c p 8 8 6 1 1 = O O   m n n n n n c n a c D t.y.e.e.t.N v 0 9 8 8 8 8 5 & 8 k 8 1 1 1 8 8 8 9 9 4 2 2 9 9 9 9 9 9 q q 9 9 p n S D #.=.v 5 1 8 0 0 k 0 8 8 8 0 c c 8 6 6 6 5 1 1 5 8 c c c v m c a p p 0 8 2 8 8 0 0 8 5 1 1 1 5 5 5 5 5 6 5 6 5 5 1 1 c w.=.=.u.d.=.=.",
"=.=.=.=.D v 0 8 8 1 1 c M M v k k k 0 0 k k 0 8 0 8 8 9 c n M n n n M n M M M M c c M n c 0 1 % % X O 1 8 0 k c 9 a $.u.>.d.h.f.>.;.=.$.$.$.=.=.;.g.g.5.g.0.5.5.P.g.5.5.8.8.d.u.u.u.u.u.>.>.>.>.t.=.v 9 a p w w e e i s v v c c v l q q q l v v n n a 9 9 a n n n v 9 2 a u.k.t.#.#.=.;.8.;.&.#.d n n n n a a n v v v v m m m c n n #.{ 3.nXHXMXgXJ.J.iXsXuX0XaXMXhXK.@.@.F.tXsXtXtXtX7XtXFXFXdX~.dXdX~.~.A.A...o. .W T i U %.} [ [ d d a a a a a a a p a ( ;.5.N.m.m.B.B.Z.Z.Z.A.A.Y.Y.E.E.E.Q.R.F.S.M.S.S.+.+.H.qXgXiXiXwXW.W.'.Q.E.Z.N.3.1.1.[ [ #.#.*.=.*.#.Z Z } $.&.&.8.0._._._.I.h.I.^._.Y.Y.Z.G.F.H.H.D.S.S.S.S.M.m.3.U p k k c c h 8 5 5 5 7 7 y y y y y y y 7 4 7 7 3 r a ( ( n n n n v n n n n n n v a a a 9 9 4 4 9 4 : 2 2 2 4 2 2 1 2 c n c c n c c c a a a a a a 0 0 0 0 c c 0 8 6 3 1 O O O X . c n n n n n m n n *.e.t.w.D v c p p 9 9 9 8 8 8 1 5 0 k 8 1 1 2 8 8 8 9 9 4 4 2 9 9 9 9 9 9 q q 9 9 p v S S #.=.v 6 2 8 0 0 0 0 8 8 8 k c k 8 6 6 6 5 1 1 5 8 c c c v m c a p p 0 8 8 8 8 0 0 8 5 1 1 1 5 5 5 5 6 5 5 5 5 5 1 1 8 t.*.e.t.d.=.=.",
"=.$.=.=.n 9 8 8 1 & 8 m M M c k k 0 0 0 k k 0 8 0 8 2 9 v n M n n n n n M n M n v c c c k 8 1 % # # % 8 0 k k v 9 d $.u.f.h.h.8.>.>.;.=.;.;.;.;.;.d.d.8.j.d.5.;.g.5.1.;.;.8.d.d.u.u.>.>.>.>.>.>.>.=.n p p p r w t t a c c v c c M l q q k l M v v c v 0 9 a n D n p > : a a.d.;.h.l./.%X)._.^.I.d.d.;.=.( s a n N D G G D N n v v S #.%.C.bXNXmXwXD.W.bXsXF.M.wXmXiXK.A.A.K.sXsXtXtXtX7XdXFXFXdX~.sX'.A.o... . .m.3.3.Y w , g u u u u p a a a v v c c a a n #.1.6.3.3.3.3.3.3.3.1.1.3.3.3.3.3.m.B.B.Z.S.S.+.S.S.D.0XaXuXW.Q.R.R.Q.E.P.1.U i u u 9 9 9 9 c c 0 4 : u [ >.8.f.f.f.T.T._.I.I._.).).).Y.Z.Z.S.S.S.S.S.S.M.M.M.B.m.Y p k c c c c h 8 5 7 7 7 y y y y y y 7 7 7 4 6 7 r p n ( d n n n n n n N n v a 9 a 9 4 4 4 4 2 4 q 2 4 q 9 a v q 2 4 c n c c n c a a a a a a a a p 0 c c c 0 8 6 1 1 1 O X     X 8 v M n n N n n D e.e.D v c a 8 8 9 0 0 8 8 2 2 & 8 k k 1 1 5 5 8 8 8 9 9 4 4 2 4 9 9 9 9 9 q a p 9 9 a n S *.=.N 8 2 8 0 8 8 8 8 8 0 0 c 0 8 8 6 6 5 1 1 5 8 8 c c v v c a a a 0 8 8 8 8 8 0 8 5 1 5 5 5 5 5 5 5 6 6 6 5 5 1 1 # i.*.e.t.j.=.=.",
"$.=.=.D v 2 2 8 1 1 k m D D k 0 k 0 8 0 0 k 0 8 0 8 2 0 v M N M M n n n n v c c k k k k 8 5 & % . X % 2 0 k v v 9 a $.f.l.h.9.>.>.>.;.;.;.;.;.;.;.;.;.;.d.d.;.&.5.5.&.;.;.>.d.d.>.>.>.;.>.>.>.>.>.>.S p p r r r t s b v v c c c M l k k l M l l q v a 9 9 p v n u w , < %.g.g.I.T.T._.Y.I.I.I.0.0.g.g.6.1.-.#.#.n n v v v v v n a d #.&.0.'.'.R.G.W.bXpXK.M.M.wXmXwXE.A.A.'.hXsXsXtXtX7XdXFXFX~.K.Y.C. . .n.n.7.7.7.s.4.U d d d a f d n n n n n v v c a a b _ %.5.<.<.Y Y Y %.{ 1.1.1.1.1.1.1.<.2.m.B.M.M.O.+.D.S.H.W.Q.E.U.U.P.L.s.) s 4 > > > q q q 8 8 8 k a $.>.h./././.h.h.I.T._._.).)._.I.I.0.m.Z.S.S.S.M.M.M.O.M.M.B.N.) r k k c c c k 8 5 5 7 7 7 y y y 7 7 7 7 7 6 6 6 8 p n ( S n n n n n n v v 9 9 4 2 4 4 4 4 9 v n i.e.e.e.w.w.w.D 2 4 c n c c n c a a a a a a p a p c c c 0 8 2 2 3 3 1 = X     X % c N n n n N N n D *.n c a a 0 0 a c p 8 2 1 1 % k l 0 & 1 8 2 8 8 8 9 9 4 4 4 9 9 9 9 9 q a a p 9 9 p a n *.=.D 0 2 8 8 8 8 8 8 8 0 p c 0 0 8 8 6 5 1 1 5 6 8 c c v v c a a a 8 8 8 8 8 8 8 0 5 5 5 5 5 5 5 5 5 6 6 6 5 5 1 1 X *.e.e.e.j.t.*.",
"$.=.=.v 9 2 2 1 1 8 M M M M k 0 0 8 8 8 0 0 0 8 0 8 2 0 v M D N N M n v c c c c c k 0 8 1 % % # 2 2 1 ; 2 4 a v 9 9 =.v.v.d.>.>.>.u.>.>.;.;.;.=.;.;.&.;.d.d.;.&.8.5.&.&.;.;.>.>.>.;.;.>.;.;.>.>.>.>.*.a 8 8 r t t t c v M c v l M c k k c c a q a a a 9 g f d U T T L W C.P.Y.'._.Y.Y.A.C.C.C.C.N.C.C.C.N.7.Y L , , 4 u u a f u u u f { 1.Y.E.Z.B.'.bXR.m.m.Z.pXmXW.Y.Y.Y.'.hXsXsXiX7X~.nXFXdXA.R P H L W 7.6.s.4.s.s.( s *.*.p d d S S S S S n n n v a p a n ( 4.%.) U U U U [ [ [ U U U U [ U W 2.m.V.O.O.M.G.F.G.G.Y.Y.P.s.5.` b r 3 2 2 4 9 v a q 4 9 v e.j.oX(./.v.h.v.OX*X%X;X;X%X_.Y.P.0.&.{ 3.Z.S.S.F.S.M.S.O.M.B.B.L.) w 0 0 c c c k 8 5 5 7 7 3 3 3 3 7 7 3 3 7 6 6 6 4 p n _ #.n n v n v 9 4 2 : : : 4 4 9 v D e.u.u.e.G G G D D D n 4 4 c n n n B c a a a p p p p p c c c p 0 8 2 1 8 4 6 1 O       . p N n n n N *.v n D *.D v 9 9 a v v a 4 2 2 2 % k c 8 & 1 8 8 8 8 8 9 9 9 8 4 8 8 9 9 9 p a a p p 9 9 p v #.=.*.p 8 8 8 8 8 8 8 0 p c c 0 0 8 8 5 5 1 1 5 5 5 k c c v c c a c 8 8 8 8 8 8 h k 8 5 5 5 6 6 5 5 5 5 5 6 6 5 1 1 # 8 t.e.e.j.j.*.",
"$.$.S 9 4 2 8 1 5 k M M M c 0 k 0 8 8 8 0 0 0 8 0 8 2 9 v N D D N M n c c c k q k 0 1 % % 5 k v i.e.n 9 2 4 a v 9 d u. Xv.>.>.>.>.u.>.>.;.;.=.$.=.=.$.;.d.>.$.&.8.;.&.$.$.=.=.=.>.;.;.;.;.;.>.>.>.>.$.a 8 0 r r t t b v M M v a c c l c v a v a u u i i L 1.P.I.E.E.E.E.E.Z.A.E.Z.Z.m. . .2.m.N.Z.Z.Z.Z.Z.m.W ~ , < i I U { { { L i L { 3.C.C.m.Z.E.Q.B.m.m.m.Q.MXE.Y.^.A.'.bXsXsXsXJ.~.nXFXdX..< < < < e I ` -.4.4.-.( n *.*.u a d S S S S S S n n a a p a n n ;.-.#.( ( ( #.#.#.#.( ( #.#.#.U Y  .m.V.M.V.S.K.E.Z.C.0.6.%.( s 6 1 1 1 4 0 a v d 9 9 a S u.v.#X#X+X*X&X&X*X<X3X;X;X$XT.g.a.1.%.i L | Z.S.S.D.S.M.M.O.M.B.U.L.) 4 8 9 q c v q 0 8 8 6 6 3 3 1 3 5 5 3 1 6 6 6 6 6 r p b n n v a 8 2 2 ; 2 4 q v D =.t.i.i.u.u.u.F F F D D D =.D 4 9 c n n n B c p p p p p p p p a a c 0 8 2 2 2 c r 8 5 O +     o 6 M N N N D *.v a v D D v a q q q a 0 9 4 4 8 1 k l 8 1 1 2 8 5 8 8 9 9 9 4 8 8 9 9 9 q a a a 9 p 9 9 p n #.*.*.c 8 8 8 8 0 8 8 0 c c c p 0 0 8 5 5 1 5 5 5 5 k c c v c c a c 8 8 8 8 6 8 8 k 8 8 5 5 6 6 5 5 5 5 5 6 5 5 5 1 1 X w.w.t.j.j.*.",
"=.S a 9 4 8 2 1 8 M D M c k k k 8 8 8 8 0 0 0 8 0 8 2 9 c N D D N N M v v k 0 0 8 5 & 1 k G |.{.1X#X}.e.S S D D D u. Xv.,.$.,.>.>.>.>.>.;.;.=.$.$.$.#.=.8.;.#.&.8.;.$.$.$.=.=.=.,.=.=.;.>.>.>.>.:.8.$.a 9 0 r r t t b m v v a p l l k k 9 a a ( U Y Y 2.U.'.nXbXnXbXbXpXJ.M.M.M.M.m.o.Q E Q  .o.n.M.B.M.M.M.m. .N.N.N.6.C.Y.E.'.'.P.| T { ..3.N.N.N.6.2.3.3...E.nXA.^.x.A.'.mXsXsXsXJ.~.nXFX'. .e e e e y w i s ( a a b b n n a a a S #.$.$.#.#.n d d a p p n n r.-.*.#.n S S S #.#.#.#.#.#.#.#.Y 2.n.B.V.M.K.Q.Z.3.1.5.#.s 4 1 5 5 5 8 k v v v d Z $.f./.+X&X+X/.*X3XDX3X,X$XoXk.d.=.#.d d d s < L 2.B.M.M.S.O.O.O.O.M.B.U.N.U w 4 p a c v c 0 c k 0 8 8 2 1 1 1 1 1 1 2 6 6 6 1 3 4 4 4 8 4 4 # ; 4 a n *.e.u.i.i.i.i.u.e.D n D F F D D D D S 9 9 c n n n B c p p p p p p 0 0 9 0 8 8 2 8 8 p c r 6 5 O + .     1 c n *.*.D *.a 9 9 a v n n v 9 9 9 9 9 9 4 2 5 k k 6 1 5 2 8 5 8 8 9 9 9 9 8 9 9 9 9 q a a a 9 9 9 9 9 n S D *.c 8 8 8 8 0 0 8 0 c c c 0 0 0 8 6 5 5 5 5 1 1 0 c c v c c c c 4 8 8 8 6 6 8 k 8 8 5 5 6 6 5 5 5 5 5 6 6 5 5 2 2 o v w.i.j.j.*.",
"t.n 9 4 9 2 1 1 k G D M k 8 k k 8 8 8 8 8 0 0 8 0 8 8 9 v D D D D D n c k q 0 9 # 2 0 N e.}..X#X@X#X@Xl.i.j.p.u.p..X*Xv.$.#.:.$.>.>.u.>.>.;.$.$.#.#.#.=.>.=.#.&.>.;.$.$.$.=.=.=.=.,.=.=.=.>.>.;.;.d.;.a 9 9 p r t t b c v a a p l l k 9 4 u U <.Y.U.Q.'.bXMXMXmXhXuXiXuXF.S.S.S.S.O.o.E E E E E o.o.o.^ o.O.M.M.B.B.Z.Z.G.G.G.G.E.P.N.N.C.m... .3.2.<.<.1.| | Y.nXA.^.^.Y.pXbXuXuXsXJ.~.nXFX'.T e t t t t w w 4 3 r n n c n D a a a n #.#.#.#.S d d d a a p n n -.#.#.#.S n S S D #.#.#.#.#.#.#.{ 2.m.B.B.G.Q.'.C.3.1.;.S p 4 1 8 h k k v n v f #.8.+X<X3X:X`.).*X<X3X<X#Xu.S a 9 4 3 : : 4 4 , < L 3.N.n.n.V.n.m.m.n.m.Z.P.6.I w p p c v v v k c c c 0 8 6 2 1 1 1 1 1 2 6 6 6 1 1 ; ; ; ; 2 2 9 v *.u.i.t.w.D D D D S S S S D G D D G D w.w.D 9 8 c n n n b a p p p p p 0 0 0 8 8 8 2 2 8 p c c 8 3 1 O O O   X % 6 n e.t.*.N 8 8 4 8 v D n p 9 9 9 p 9 4 ; X 8 k k 6 8 5 1 8 5 8 8 9 9 9 9 8 9 9 9 9 0 a a a 9 9 9 9 p n S S *.c 8 8 8 8 p 0 8 0 c m c 0 0 0 8 6 5 5 5 5 1 1 0 c c v c c c c 4 8 8 8 5 6 8 k 8 8 5 5 5 5 5 5 5 5 5 6 6 5 5 2 6 X 2 e.j.j.u.=.",
"9 0 9 8 8 8 2 6 w.D v 8 5 5 8 8 1 5 6 8 h h 8 8 8 0 k k c N D G D n v 9 9 9 9 9 v S ;.k.v.v.v.l.v.v.v.l.f.u.>.>. X#X+X(.h.>.&.$.$.$.$.=.=.$.$.$.#.$.$.;.;.$.$.#.;.$.$.#.$.=.=.=.=.=.=.=.>.u.u.u.a.t.$.d 9 p a p t t s b v v a a 1 # X o o w 7.Y.R.'.bXMXmXaX0XH.H.H.7X7X7X7X7X0X7XH.S.O.^ J E ^ ^ ^ ^ ^ / O.D.H.D.D.S.D.G.G.M.V.n.' ' m.Z.Z.M.M...3.6.<.) ) <.T.-XI.9.I.E.uXhXsXdXuXK.~.nXFXY.H e t t t t t t r p p c n N n n v a a n *.*.#.#.#.S S n a p a n n &.%.#.#.n n D D D D S d d [ 1.3.C.Z.m.B.B.B.Q.-X6.5.&.=.*.c 8 8 k k v D S d d Z k.+X4XDXDX3XDXJXDX1Xk.=.a 9 4 ; 4 4 4 8 8 8 8 4 e <.N.6.7.| W ' 6.4.<.<.4.4.( i r 0 0 0 c c c p p p p 0 0 8 2 2 1 1 1 3 7 7 3 1 2 1 2 2 1 2 M i..X}.u.D n S *.D D S D S S n v d v n S D D =.e.e.p 2 4 p c c m c c a c a c p 0 0 p 8 2 2 8 0 c m 8 3 1 1 5 1 O . O O X 1 c _ w.M c c c c p p c n n n a 1 ; 1 1 o m M k 8 0 8 1 1 8 8 8 9 9 9 0 9 4 9 9 9 9 9 9 p p p p 9 u p d S D c 8 8 c c 0 0 8 k c c 0 k c k 5 5 5 5 5 5 5 1 6 8 c v v a p p 0 8 8 8 8 8 0 0 k 8 8 6 5 5 5 5 5 5 5 5 8 8 5 1 2 1 X t.}.}.j.*.",
"8 8 8 8 8 8 2 2 *.N c 8 2 2 2 8 5 j h h h 6 8 8 8 5 5 0 v D D N M a 9 9 9 v S $.u.u.k.l.v./././.h.h.l.k.u.>.$.$.>.d.h.c.c.h.h.h.>.>.u.>.u.u.d.u.u.d.d.8.>.;.=.$.u.e.=.$.=.=.=.=.=.=.e.u.u.p.p.d.j.j.t.S p 9 p r b b b p 8 2 # # # . o o * < <.A.pXbXMXaX7XJ.7X7XiXuX0XwXwX0X0XwX0X7XH.S.O.^ ^ ^ D.D.S.+.+.H.iXhXiX7XD.S.V.o.o.Q ' Q n.B.Z.M.M.M.o.m.6.4.#.#.4.T.-XP.8.I.E.uXsXtXdXuXK.~.dXnXA.L e t t t t t t r 8 9 a c n n v d v v n *.=.=.=.=.#.#.#.d a p a p } [ U d a n n n D S d d U | 0.Y.Y.A.o.m.B.B.U.U.1.&.=.;.*.v p a c n D n u u #.d.h.(.&X>X>X>X4X3XJX@XN 9 2 2 8 0 8 8 8 8 8 8 8 4 e <.6.6.<.) ) %.-.) ( s ( ( b p p 0 0 0 c c c 0 c c c c 0 8 2 2 1 1 7 7 7 7 3 1 2 2 8 8 5 8 F i.i.*.v a a a v n S S S n d d a a v v n n D D *.*.0 2 2 p c c v c 0 0 p c c p 0 0 8 8 8 8 0 p c c 8 6 1 1 1 1 O O   + O O 1 h m B V G D N M n n n *.*.N v 8 1 X o m m k 8 8 1 % 1 8 8 2 8 8 9 9 9 9 9 9 9 9 p p p p p p 9 u p d S D c 8 8 0 c 0 0 8 c c c k c c k 5 5 5 5 5 5 5 5 5 8 c v v a p 0 0 0 8 8 8 8 0 k k 0 0 8 8 5 5 5 5 5 5 5 6 6 5 1 2 1 o D }.}.y.N ",
"2 2 5 5 6 6 6 8 N v c 8 5 5 8 8 5 j k j 6 6 8 h 8 5 5 9 c v c 9 9 9 p v D =.u.p.l.l.v.v.v.v.l.h.u.u.u.u.>.=.S Z >.>.>.>.>.>.d.f. X X X X X X X X@XoX Xv.v.l.l.l.k.f.u.>.=.$.$.S =.=.=.=.$.$.$.*.*.*.*.n a q p r r r 4 1 % X o o # # 2 4 w i 1.Y.nXnXpXK.S.K.uXaXaX0XG.S.O.o.^ ^ O.O.D.D.D.D.0XgXmXmXqX7X7XaXmXMXhX0XF.O.Q Q Q Q 2.2.N.U.R.Z.M.M.m.m.6.%.#.%.4.T.-X6.&.h.E.uXiXtXdXuXF.K.dXdXA.H e t t t t t r r 8 9 p c a a a a a a v n #.S d #.S #.#.n n a a p [ U d s a a v n n n U U { 3.Y.'.'.E.m.m.Z.B.m.| { } &.;.#.n d n n n n a d $.k.v.v./.c.c.(.=X>X:X<Xt.3 2 9 8 2 4 8 8 8 8 8 8 h 4 I 1.6.<.U I I ( ( s w , 4 p a p p 0 0 0 p c p 0 v v c c 0 8 2 1 7 7 7 7 7 7 3 1 8 8 8 0 5 1 0 D =.n v a a p p a a a a a a a a a a v v n n n n n 9 2 2 9 c m n c 8 0 0 0 p 0 0 0 2 8 0 c c p 0 8 p 4 1 1 1 1 = O @ + = O O O 5 7 k c m M N N *.*.t.y.|.i.M 1 X O M c 0 5 1 1 1 8 1 2 2 8 8 8 8 9 9 9 q 9 p a a a p p p u u p a n N c 8 8 0 0 8 8 c c c c c c c 8 5 5 5 5 5 5 5 5 5 8 c v v c p 0 8 8 8 8 8 8 8 0 0 0 0 8 8 8 5 5 5 5 5 5 5 6 5 1 2 1 @ c j.}.e.c ",
"5 5 5 5 6 6 6 6 c 0 8 2 2 1 5 5 5 6 j j 6 6 8 h 5 8 8 4 2 2 2 4 v n D e.u.u.u.;.k.k.l.l.l.f.>.>.;.;.>.;.=.$.S S >.=.=.=.=.=.>.u.d.d.k.k.k.k.k.k.l.k.d.u.u.u.u.u.S S S S S S S S S d d a u 9 9 4 1 2 8 2 ; # X * 7 1 * X . . # % 8 q v S #.%.0.-XbXQ.Z.B.K.pXpXpXJ.K.M.E E E J E J ^ S.H.0XqXMXCXGXCXMXhXhXmXmXgXH.D.o. .Q  .2.<.<.7.L.P.U.Z.B.M.B.m.6.%.#.%.4.T.-X1.%.0.E.uXsXiXdX'.A.K.dX'.3.i e t t t t t r r p p p a p p 9 9 9 9 p p u 9 > 4 u u u u 9 p a p d d d d n n n n a U %.<.3.Z.E.pXpX'.E.G.Z.B.m.......1.1.&.%.[ #.d d s Z >.v.oXv./.h.9.8.c.`.:X:X Xn # 2 9 8 8 2 8 8 8 8 k k h 8 ( 4.7.) s i s s s i , ; 4 p b a p p 0 0 0 p 0 8 c c c p 0 8 2 1 7 7 7 r 7 7 3 1 2 2 8 5 1 X # 2 a n D n a a a a p p a a a p p p a a a v a v c c 9 2 2 8 c n m c 8 8 0 0 0 0 8 8 2 0 c v c 0 8 8 p 8 7 1 1 = 1 1     O O O O O X o X 1 5 8 c c n n w.|.y.c X X 8 m c k 0 8 8 8 8 2 2 8 8 8 8 9 9 0 9 a a a a a a p p p u u p a n N c 6 6 0 0 8 8 c c c k c m k 5 5 5 5 5 5 5 5 5 1 6 k m v m p 0 8 8 8 8 8 8 8 8 0 0 0 0 8 8 5 1 5 5 5 5 5 6 5 5 2 1 @ 1 i.j.N 8 ",
"8 8 8 8 6 5 6 6 6 5 5 1 % % 1 1 5 5 5 5 5 5 5 5 8 2 # $ $ 2 v =.u.u.i.u.u.u.=.=.u.p.d.d.d.>.>.;.;.;.=.=.=.$.$.$.;.;.=.=.>.u.d.k.k.k.j.j.k.p.u.t.u.=.$.S S S n n : > 9 u p p a p u u 9 9 9 4 > > 4 6 8 2 1 X X X 1 = O X % 1 8 k n D D =.=.-.g.-X'.6.| A.'.'.E.G.Z.U.m. . .E E E ^ o.S.H.J.wXMXCXCXZXZXMXZXBXaXH.o.o. .W | <.<.<.Y Y ) %.6.N.B.V.m.3.1.#.#.-.1.T.%X<.[ 0.E.uXsXsXsX~.Z.K.dX'.| i e t t t r t r 4 9 0 p p p p 9 9 a p p a a p u p s p u 4 4 9 p p d d d n n n n n a #.5.C.P.U.E.'.'.'.uXJ.M.O.O.Z.C.m.....3.3.| { { %.&.8.h././.h.c.h.8.8.c.&X:X*X$.0 1 2 4 8 0 8 0 0 0 0 0 0 0 8 ( -.4.U e i s d p w 3 1 8 c n c c p 0 0 0 0 0 8 0 0 0 0 8 8 2 1 r 7 7 7 7 7 1 1 1 1 5 8 2 1 # # # 9 v n v v v v a a a a a a a a a a a a a a p p 8 4 2 2 c n c p 0 0 8 8 8 8 8 8 8 p c c c 0 0 p p 8 6 1 1 1 1 1 O O   O O 1 O X X X X # ; 1 ; ; 1 0 v p X @ X 5 c k k k k 0 0 8 8 8 8 8 0 0 0 9 p p p p a a a a p p p p 9 9 p a N k 5 5 8 8 8 8 m c 0 0 c c 0 5 5 5 5 5 5 5 1 1 1 5 8 c v c p 0 5 5 8 8 8 8 6 6 8 8 0 0 8 8 5 5 6 5 5 5 6 8 6 5 2 1 @ # e.e.c 2 ",
"8 8 8 8 6 6 6 6 6 5 5 5 5 1 1 5 j 6 & & & 1 % % # # # : 9 *.u.l.j.k.k.p.u.u.=.=.;.;.=.$.$.;.>.>.>.>.>.>.>.>.8.d.f.f.f.k.l.l.l.l..X{.}.i.e.D v a a q 9 9 9 9 9 9 > 4 u p p p u u 9 u u 9 4 4 4 4 9 2 1 2 1 1 1 1 X = 1 8 c v M D G w.e.=.$.=.g.%XP.1.6.'.-XY.m.3.C.U.C.6.C.m. .m.M.M.S.D.G.H.aXMXhXhXmXZXZXBXqXS.E E R Y Y U s s w < > w U 7.B.M.m.2.<.( #.#.%.P.Y.<.[ 0.Y.uXsXsXsXE.M.K.'.~.{ i e e t t r t 4 4 2 4 8 p a n S S n n n *.=.=.;.d.d.=.#.a p p a a a a v n n n n n d -.g.Y.Y.G.R.J.F.K.J.K.@.S.D.0XJ.K.Z.M.M.Z.C...3.0.I.I.^.^.c.h.9.9.9.9.(.:X*Xv.9 4 8 0 8 8 0 8 0 0 0 0 c c k p a I ( s r d _ N w 4 3 3 0 v v c c p 0 0 0 0 8 8 8 8 8 8 8 8 2 1 r 7 7 7 7 7 3 1 6 8 0 c k 8 2 1 ; ; 4 v D n v v a a a a a a a a 9 0 0 0 9 9 0 0 4 4 1 2 c n c p 0 0 8 8 8 8 0 0 c c c c 0 0 0 p p r 8 7 1 1 1 5 O O O O 1 1 = = 1 1 % 1 1 1 ; X X ; ; X o X % 1 5 8 0 k 0 0 k 8 8 8 8 0 0 0 0 0 p p p p p p p p p p p p 9 9 p a n 0 2 2 8 8 6 6 k 0 8 8 k c 0 5 5 5 5 5 5 5 1 5 1 5 6 c m c c 0 5 5 8 8 5 5 5 5 8 8 k k k 8 5 5 6 5 5 5 5 8 6 6 5 1 o X N n 8 2 ",
"6 6 6 6 6 6 6 6 h h 6 6 6 5 5 5 5 5 5 & & 1 1 2 2 9 S =.j.k.d.d.p.d.k.k.d.u.>.=.=.=.$.$.=.>.p.f.d.9.f.f.h.h.h.l.l.l.l.v.v.v.l.k.i.u.=.n q 9 2 4 2 2 2 2 4 2 9 9 > w p n #._ #.#.*.*.*.*.*.*.*.-.a 3 ; ; ; ; ; ; 3 4 p N *.w.e.w.e.e.e.=.#.=.j. X5.5.T.-X_.0.1.g.6.5.1._.-X'.U.Q.G.!.S.S.M.+.D.7XqXgXmXZXMXmXH.o.E R T L i w 4 4 , , : ; e ' n.V.m.2.<.#.#.#.#.6.Y.1.&.0.A.'.sXsXsXE.m.A.'.Y.{ i e e t t r t r 4 2 4 8 p v S D $.S n #.=.;.t.d.j.d.;.#.a a p a a 0 c c v v n n a d %.P.Y.E.G.G.F.M.+.F.D.8XfXgXmXjXgXiX7X0XaXiX0XE.Y.A.Y._.^.9.9.:.8.8.c.&X:Xv.S 4 2 8 8 2 8 0 8 0 0 0 0 p p p p p i p w r n *.n 2 2 1 2 0 v v c c c 0 0 0 8 8 6 8 0 0 8 8 8 5 1 7 7 7 y 7 7 1 1 8 0 c c m c 8 2 2 ; 2 a S D n n v v v a a a a p 9 0 9 q a q a a 4 4 1 1 c M c 8 0 8 2 2 2 8 c v n v c p 0 p p p 8 r z 6 5 1 1 5 O O X O 1 1 O O % O O % 1 2 2 2 1 1 1 X X 1 1 % % % & 5 1 5 8 5 5 5 6 8 8 8 8 8 0 0 0 0 0 0 9 9 p p a p 9 9 p p n 0 1 2 6 8 5 5 8 8 8 8 0 k 8 5 5 5 5 5 5 5 1 1 1 1 5 8 c c c c 8 8 k k k k 8 8 8 h k k k 8 8 5 6 5 5 5 5 8 8 6 8 1 X % m 8 1 5 ",
"5 5 5 5 6 6 6 6 5 5 5 5 1 % % % O & 5 5 1 1 8 p i.i.j.k.u.u.d.k.u.u.d.f.d.u.u.>.u.u.u.p.k.l.l.v.h.h.c.v./.v.v.l.v.v.v.v.l.d.=.S a 0 2 % % % 2 2 2 2 8 8 8 9 0 9 a n =.t.a.a.d.d.j.k.l.{. XoX@X@X@Xj.*.n d p 9 4 n _ _ *.*.=.*.=.$.D =.$.S $.d.k.#.5.T.%XT.8.0._.%.i i h.;XP.| N.B.B.B.M.M.O.S.D.qXmXZXZXmXwXM.E R T L e w 3 2 2 2 4 2 : w Y 2.V.B.2.<.#.#.#.U <.Y.1.&.0.A.'.sXuXuXZ.m.Y.'.I.{ i e e t t t t r 8 4 8 p a n S $.$.S n n #.#.n #.#.=.#.n a n n n n 0 k c v n n n d I <.C.Y.R.G.K.H.K.O.+.D.fXVXVXVXZXBXBXjXjXBXBXMXuX~.~.~.Y.0.....} :.:.h.*X;Xp.: 4 2 8 8 8 8 8 8 0 0 0 0 p p p p p r r 4 r n N a 8 2 2 2 p M M c c c 0 0 0 8 8 5 k c c 0 0 8 2 2 7 7 7 7 7 7 1 1 1 2 8 0 c c 0 2 X # 2 2 a n D D v v v a a p 9 9 9 9 a q a a a a 4 8 1 1 c M c 8 0 8 2 1 2 0 v N N v c p c c p 0 8 r z 8 5 1 1 5 5 O     O = O O 1 O X X % 1 1 1 1 1 2 1 % X X X     . % X 1 5 5 5 5 5 5 8 8 8 8 0 9 9 0 9 9 9 9 p p a a 9 4 9 p v 8 1 1 6 6 5 2 5 8 8 8 8 0 8 5 5 5 5 5 5 5 1 1 1 1 5 8 k c c c M M M M M M M M 8 8 k k k h 8 5 6 5 5 5 5 8 8 8 8 1 1 1 k 1 # 6 ",
"O       O O O   O O % % % % % % O O +     % 8 c e.i.d.u.u.d.u.>.u.u.u.>.;.#.Z f n S S $.u.k.{. XoXv./.+XOXOX#Xv.f.u.$.Z a 9 : : 2 6 6 8 8 8 8 8 8 8 8 8 0 q k q *.#.-.-.=.=.=.;.=.=.=.=.;.;.=.=.oX$X1X%XoX{.k.u.=.-.( ( ( ( #.#.#.*.*.$.=.;.t.;.>.d.l.l.d.5.h.%X-.w : oXDXT.1.U.N.B.B.B.G.F.F.W.mX0XaXmXH.M.o.Q W L e i p 8 5 6 5 8 0 8 > Y N.B.B.2.%.#.S #.#.1.I.0.h.h.A.'.sX~.~.A.m.A.Y.0.U i i i t t t r r 8 4 9 p p v D S S S n n S #.#.#.#.#.#.#.#.#.a p a k k v v a n #.%.6.6.Z.Z.G.H.W.wX7X7XrX8XzXVXVXVXZXzXjXjXBXBXBXBXMXtXuXpX'.'.'.3.A...q.(.;Xv.f > 4 8 8 8 8 8 8 8 0 0 0 0 p p 0 0 p r 8 8 8 8 8 0 2 8 6 2 0 M M c c k 8 6 2 2 6 8 c c c 0 8 8 8 5 1 7 7 7 7 7 3 1 6 8 k c c M c 0 2 1 # ; 2 a D *.D n v v v a q 9 9 9 9 q c c c 0 8 2 2 1 8 M m c 8 1 # 2 c v v v 8 8 8 0 p c c c c c c 8 8 5 1 = 1 O O O O O O X O % % % 1 1 1 1 1 1 1 1 % O % 1 O O % % % % % % % % 1 1 2 6 6 8 0 0 0 0 9 8 8 8 p p p p p p p p 0 8 8 6 8 8 8 6 8 8 8 8 8 8 8 8 5 5 5 5 5 5 1 1 5 5 5 8 h k k k M M M M M G y.y.M m m k k k h h h h h h h k m M 8 1 % # % % % % ",
"O X X O O O O O O % % 5 6 h h h 5 5 % % O 1 2 9 i.}.l.d.d.k.d.8.f.f.d.u.;.$.S Z 9 4 : : 4 a S ;.h.h.OX*X$Xv.u.#.a 9 9 4 4 2 2 % 6 6 8 8 8 8 8 8 8 8 8 0 0 k k k *.-.-.-.=.=.=.=.;.=.=.;.;.;.=.=.;.5.d.j.l.oXoXk.*._ ( U d ( #.#.S S #.*.$.=.=.=.=.;.k.k.d.5.h.oX#.4 :  X<Xl.1.P.U.U.U.N.m.2.m.Q.pXH.pXpXS.V.o.Q W L i p p 8 5 8 6 8 0 8 4 Y N.B.B.3.%.#.S S #.&.I.P.h.g.A.'.sXuXE.C...N.A.1.U u u i i t t r r 8 4 9 p a v S F S S n n S #.#.#.#.#.#.#.#.#.a a a k k v n a ( 1.6.A.U.E.W.G.H.wXgXaXgXgXjXVXVXVXVXBXxXhXtXtXhXMXBXkXiXiXiXpXbXbX'.Y.0.0._.OX8.u 9 4 8 8 8 8 8 8 8 0 0 0 0 0 0 0 0 9 p r 8 8 8 8 0 2 8 6 2 0 N D c 0 8 8 8 5 5 5 6 k 0 0 8 8 8 5 2 2 6 7 7 7 7 3 1 6 8 0 k c k 8 1 1 1 1 ; 1 2 a n *.D S v a q 9 9 q 0 q a v c c 0 8 8 8 2 8 m 0 8 2 2 2 p v n v c p 0 0 c N D D N m c c h 8 5 1 O 1 O O . O O X   O % % 1 1 1 1 1 1 1 1 O X O O 1 % % % % % 1 1 & % % % 1 1 2 2 2 8 8 8 0 0 9 9 9 0 0 9 9 9 9 9 9 0 8 8 6 8 8 8 6 8 8 8 8 8 8 8 6 5 5 5 5 5 5 1 1 1 1 1 5 6 8 8 h 6 5 5 5 5 8 k c k k k h 8 6 5 5 5 5 5 5 5 5 h c 8 5 % # % % % % ",
"X X O % % % 1 5 5 5 8 h k k k k 8 8 6 5 1 1 2 4 i..X.Xl.l.l.k.k.d.d.d.d.u.u.u.>.=.=.$.S d S $.;.>.&.>.d.>.#.a 9 : # # % 1 6 8 8 6 6 8 8 8 8 8 8 8 8 8 k k k k k =.=.=.=.=.=.=.=.=.=.=.=.=.=.=.=.#.( U #.d. X Xk.#.d s s n _ #.#.n n S #.*.=.=.=.*.$.p.d.;.;.d.l.n > ; l.<Xk.;.z.P.P.6.<.T T 6.Q.B.B.bXQ.Q o.Q Q Y L w p p 6 5 6 6 8 0 8 w Y N.B.B.3.%.#.S S #.&.g.I.l.g.A.'.uXuXE.m.| 3.3.<.d p p i i t r r r 8 4 8 p a a S S n S n n S #.#.#.#.#.#.#.#.#.n a a q q a d d %.P.Y.E.Q.wXH.D.H.aXmXMXBXBXZXCXCXBXMXMXkXtX~.K.~.MXHXBXhXiXqXwXbXbXbXE.A.A.I.f.[ > 9 4 8 8 8 8 8 8 8 0 0 0 0 0 0 0 0 9 0 0 0 0 0 0 0 5 8 8 6 0 M N c 8 8 8 8 8 8 6 5 8 8 8 5 8 5 5 8 2 2 6 7 7 7 3 1 6 8 0 c c 8 1 # 5 8 8 2 ; # 2 p D *.D S v 9 9 q a a a a c v c 0 8 8 8 2 6 8 2 1 8 p n N N M c 0 c 0 9 c D w.w.*.m c c z h 5 1 O 1 O . . X X X       O O 1 1 5 5 1 1 1 O O O O % O O O % % % 1 1 % 1 1 1 1 1 5 1 6 6 8 8 0 0 p p 9 9 9 9 8 8 9 9 0 8 8 6 8 8 8 6 8 8 8 8 8 8 8 6 5 5 5 5 1 1 5 5 % % 5 5 5 6 6 6 5 5 % % % % 5 5 6 6 6 5 5 1 % % O O % O O 1 1 5 8 5 1 % % % % % ",
"O % % % 1 5 h k c c c c c k k 8 k k k 8 6 2 2 2 t.{. Xd.;.=.#.S $.$.$.=.>.u.f.l.#X.Xl.p.;.u.p.k.>.$.$.>.;.S 9 2 4 2 2 8 8 j k k 8 8 8 8 8 8 8 8 8 8 8 k k l l c =.=.=.=.=.=.=.=.=.=.=.=.=.=.=.=.-.%.U #.=.k.k.d.#.d a a n _ #.#.#.#.*.*.=.=.=.e.$.$.u.d.;.;.d.k.a : ; k.$Xj.;.5.5.1.U i e L 6.Q.W N.nXZ.! 2.W W Y i w w 8 6 5 6 6 8 8 8 w ) m.m.N.3.%.#.S S #.-.6.I./.h.A.'.uXW.E.6.| <.1.{ d a p i i i p r r 8 4 8 p a v v S n S n n S #.#.#.#.#.#.#.#.*.#.n v 9 9 a s U <.Y.'.Q.wXwXH.S.D.W.pXmXmXgXaXhXhXsXdXFXnX].].].].nXMXCXjXiX0XR.W.wXbX'.R.C.0.1.u , 9 8 8 8 8 8 8 8 8 0 0 0 0 0 0 0 0 0 0 0 0 0 0 0 0 6 8 8 6 0 c c 0 5 8 k k k k 8 6 1 1 1 1 5 5 5 5 2 5 5 7 7 7 3 1 6 6 0 m c 8 1 % 8 k c 0 1 # # 1 a n *.*.n a q a a q 9 a c c c c 8 2 6 1 1 1 1 1 v D w.D M m p 8 8 8 8 0 v N N n c c z z h 8 5 1 = O O O O O O O       O O % 1 1 5 5 5 1 % O O O O O O O % 1 1 1 1 1 1 1 5 5 5 5 1 1 2 6 8 8 0 0 8 8 9 9 9 0 9 9 0 8 8 6 8 8 8 6 6 6 6 6 6 6 6 6 5 5 5 5 1 1 5 5 5 5 5 5 5 6 6 6 6 6 5 5 5 5 5 6 5 5 5 % % % % % O O O O X O 1 1 5 5 1 % % O O O ",
"% # % 1 5 8 M M c c c c c c k 0 0 0 8 8 8 4 2 : S j.l.u.#.S d f d d d S S $.=.;.f.d.u.d.d.f.k.f.u.;.u.k.k.*.4 # 9 0 0 k k j j j j 8 8 8 8 8 8 8 8 k k k k l m v ;.=.=.=.=.=.=.=.=.=.=.=.=.=.=.=.-.-.-.#.*.t.k.l.=.#.n n #.*._ _ ( ( *.*.=.=.=.=.=.=.u.d.>.>.d.k.s ; : d.@Xu.;.=.-.( > , w U g.T.L 6.nXC.P 3.<.<.Y i 4 8 8 6 5 6 6 6 8 6 p ' m.m.m.2.%.#.#.S #.-.1.I./.I.A.~.'.J.E.6.| <.<.Y a b p i i i p p 9 9 4 8 p a a d d n S n n S #.#.#.#.#.#.#.#.#.#.n a 9 9 a s L | Y.'.pXpXwXH.S.M.F.G.Q.W.H.H.E.K.~.'.FXFXDX4X>X=X&X'.MXhX0XD.M.V.B.-X-XR.2.<.%.u > 4 8 8 8 8 8 8 8 8 0 0 9 0 p p p 0 0 0 0 0 0 0 0 0 8 8 4 2 8 8 8 2 5 8 k c c c h 8 1 1 1 1 1 5 5 5 2 2 7 7 7 7 3 1 1 2 8 c c 6 1 1 8 0 c c 8 1 X X # 9 D w.*.N v v q 9 9 9 c c c c 0 2 2 1 % 1 1 c t.y.t.N c 0 0 8 2 2 8 8 8 8 8 8 8 8 8 r h h 5 1 1 O O O 1 5 7 5 5 5 % O O X X X % 1 1 1 1 % % % % % % % 1 1 1 1 1 1 1 5 5 5 5 5 1 1 1 1 2 6 8 8 8 8 8 8 p p p p k 8 8 6 8 8 8 6 6 6 6 6 6 6 6 6 5 5 5 5 1 1 5 5 5 5 5 5 5 & & & 5 5 5 1 % 5 5 5 1 1 1 1 % % % % % 1 1 % % % 1 5 5 5 1 % % O O O ",
"1 % % 2 0 v M D c c c c c c c 0 0 9 8 8 9 4 3 2 9 t.k.u.$.$.=.$.S S S d d d d d Z Z #.;.d.d.u.=.;.$.$.k.{.=.9 ; 8 0 k k k j j j k k k k k k 8 8 8 j k k l m M n t.=.;.;.=.=.=.=.=.=.=.=.=.=.=.=.#.-.=.=.#.=.j. Xd.=.#.n S #._ n ( ( n n n n n S =.*.t.u.>.>.k.k.s > > d.{.t.;.#.;.( , > u #.z.5.i 5.<X6.T N.7.7.U i 4 4 8 6 5 8 6 8 6 2 i <.m.m.m.2.%.#.#.n #.%.&.I./.h.0.E.'.J.Y.6.<.<.<.U b c p p i i p p 9 9 8 8 p c a a a d S n n S #.#.#.#.#.#.#.#.#.#.n a 9 9 p u i Y A.Q.'.W.W.R.G.U.U.Y.A.Y.E.E.'._.].>XJXJXJX3X(.f.8.6.bXmXH.n.2.W W m.Q.U.7.' U w 4 2 8 8 8 8 8 8 8 8 0 0 9 0 p p p p 0 0 0 0 0 0 0 0 8 8 8 2 2 2 1 1 5 8 k c c c h 6 1 1 1 1 5 5 5 5 1 3 7 7 7 7 3 1 % 1 6 0 8 2 1 1 8 k c v m 0 2 # o 1 q D *.D D n a q 9 q c v c c c 2 2 1 1 1 6 N i.y.*.c 0 8 8 8 2 8 8 4 2 1 1 2 6 3 6 8 h h 7 1 1 O O 1 5 8 8 8 h h j 5 1 1 1 % X X % % % % % & X O O O X O O O O % 1 6 8 8 5 1 1 1 1 1 1 1 2 2 8 8 8 8 8 8 p p k 8 8 6 8 8 8 6 6 6 6 6 6 6 6 6 5 5 5 5 1 1 5 5 % % % % % % % % O O O O O O O % 1 1 1 % % % % % 1 1 1 1 1 % 1 5 % % % % % O O % ",
"1 1 1 0 v D N v v v v v v m c c p p 9 9 p 9 4 3 : $.j.;.#.*.#.#.;.=.$.#.S S Z Z d f a f Z S S Z #.#.$.l..Xt.9 2 8 0 k k l k l l k k k k k k k k j k k k l M M M t.;.;.;.;.;.;.;.;.;.;.;.;.;.;.=.-.;.;.;.-.#.;.k.l.d.$.Z n n s i s s a a b n v v n n *.;.;.>.j.h.d g u d.l.;.t._ ;.#.4 9 a S t.( e %.-X7.T 6.4.4.U i 4 9 p 8 5 8 5 7 7 3 s <.m.m.m.<.%.#.#.n #.#.1.q./.0.| Z.uXW.Z.3.<.<.%.I a c p p i i p r 9 9 8 8 p c a p a d S n n S #.#.#.#.[ #.#.#.#.#.n a 9 0 a u i Y C.E.E.E.Z.Z.A.C.g.0.0.I.A.I.^.^.).:XDX3X;Xc.$.f d U Q.mXwX .<.{ L T P.Y.N.) s w 4 6 8 8 8 8 8 8 8 8 0 0 9 9 p p 9 0 0 0 0 0 8 8 8 8 8 8 8 8 2 1 ; % 5 8 k c c k 8 5 5 5 5 5 5 5 5 5 1 3 7 7 7 7 3 1 1 8 0 8 6 1 1 X 8 8 8 c c c 0 8 # # 2 0 n D D D n n v c v v c c 8 1 2 2 1 % 5 G e.N c 0 0 8 8 8 8 8 8 8 2 2 2 1 2 3 7 8 h h 5 = 1 O O 1 7 h h h 6 6 j 8 8 8 8 h 1 1 % O O O O O     X X O O X O O 1 8 c c c 8 8 5 5 2 1 1 1 1 1 2 2 2 2 6 8 8 8 c 8 8 6 8 8 8 6 6 6 6 6 2 2 5 6 5 5 5 5 1 1 5 5 5 1 & % % % O O O O O O O O O O % % % % % % % % O % 1 % O O O % O % % % % O % % ",
"1 1 2 c D w.N c v v n N N N M v c a p p a p 9 4 $ D j.=.*.*.$.$.=.=.$.$.$.$.#.#.$.$.S S S S S #.$.S #.d. X=.4 ; 2 0 k k k k k k k k k k k k k k j k k l c M M F ;.;.;.;.;.;.;.;.;.;.;.;.;.;.;.=.d.a.a.;.;.=.;.8.oXk.$.d d a s w t t s s p c c c a a n #.$.;.d.k.Z 9 u j.k.;.;.( =.*.9 a a v =.p w %.XX4.T 7.<.4.( p w p p 8 6 8 5 8 1 3 s <.3.m.m.<.%.#.#.n #.#.5.h./.8.T M.pXW.Z.3.<.<.) I p c p i i t p r 9 8 8 8 0 v a p p d n n n S #.#.#.#.d #.#.n #.#.n p 8 0 c p i Y C.E.E.U.C.3.1.&.&.&.&.&.1.:.q.:.c.&X:X+Xu.Z 9 9 v ( B.mXbX| <.5.U i 6.Y.P.<.i , 4 8 8 8 8 8 8 8 8 8 0 0 9 9 p p 0 0 0 0 0 0 8 8 8 8 8 8 8 8 6 1 1 1 5 5 8 k k 8 5 1 5 5 5 5 5 5 5 5 5 3 7 7 7 7 3 1 8 c c 8 6 1 1 X O % 1 1 2 8 8 8 2 # X % k D G D w.D M v c c c c 2 # 1 1 % X 1 M N 0 2 8 c 0 8 2 8 8 6 2 8 8 6 2 2 2 2 8 h h 5 O 5 1 = 1 7 h h h 5 5 6 8 h h c c k 8 5 O       O % % % % 1 5 1 1 % 5 k M N M m c 8 8 6 2 2 1 1 1 1 1 1 1 2 2 2 2 c 8 8 6 8 8 8 6 2 6 6 6 5 2 5 6 5 5 5 5 1 1 5 5 5 5 5 5 & % % % O O O O O O O O O O O O O O O O X X O X X X X X X X % % % % % 1 ",
"v n D D D M c v c v v n n M M M n v v v v a q 9 9 9 w.e.D D D D S S S S S S S S $.$.$.$.$.$.$.$.;.;.D =.}.i.a # 1 8 k k k 0 k l 0 k k 0 8 8 j 8 0 8 q c v q n e.;.>.>.u.>.;.;.;.#.=.;.d.l.oXk.#.;.;.d.d.h.d.8.;.l.v.k.$.d a a n s b b b x b B M N p 4 #.u.;.>.d.d a ;.j.d.d.;.#.t.n p p a 0 0 a p #.d.-.Y 7.7.7.I r 4 p a 8 2 5 6 8 5 4 s <.3.3.2.<.) ( #.#.n d d.h.f.[ < m.pX'.Z.7.<.<.%.I s s p i s a s p 8 8 6 8 q a q a a a n n n n n d d d d #.#.#.#.#.#.n 8 8 c a i Y C.E.U.U.C.6.5.;.;.;.>.;.;.8.8.8.9.:X:X/.u 9 p a n d U.bX'.| %.t.( w 1.U.C.<.i 4 8 2 8 8 8 8 8 8 8 8 0 0 p a a p p 0 p 0 8 8 8 8 p p 8 8 8 8 5 O O 5 1 5 8 5 5 5 5 8 8 8 5 5 2 5 5 8 5 5 5 5 7 6 6 5 8 c m m c c 8 1 1 1 % % O X X X X X X X 1 k M w.G G G G G M c 8 1 1 % % O 1 1 1 k 1 % 2 k 0 5 0 5 8 8 8 8 5 5 2 6 8 8 8 h k 8 O = 1 O 1 8 h k 8 6 6 6 6 8 8 0 p 8 c c 5   @   1 5 6 6 6 5 5 6 6 5 8 k c v n v v N n m p 8 2 1 ; 1 1 1 1 1 1 1 1 1 1 2 2 5 6 8 8 5 5 5 5 5 5 8 8 5 5 1 1 1 5 5 5 1 1 6 h h 1 % 5 % % O O X X . X         . . . . X X X X X X X X 1 % X % % O 1 8 ",
"y.e.w.D n v v c c v v n n M M M n v v v v v q 9 4 4 D e.D D D D D S S S S S S S S S S S S S S S =.=.D =.j.j.D 4 2 9 k k k 0 k k k 0 k k 8 8 8 8 0 8 q v a 9 n =.;.;.>.>.;.;.;.=.#.;.j.j.j.k.j.d.>.>.8.d.f.f.8.8.l.v.l.u.#.d n n p s b b c c B B v 4 3 #.u.;.>.d.d a u.j.8.8.;.=.t.n p 9 p p 0 a p S e.( U <.7.7.s r 8 p p 4 2 5 6 6 5 4 s <.3.3.7.7.%.( _ n n S d.l.8.f H Z.pXQ.N.2.<.<.-.` i r t i s a c p 8 8 6 8 a a q a a a n n n n n n n n n S #.#.#.#.#.n 8 h c a i Y C.Y.Y.U.C.6.5.;.>.>.d.;.d.u.d.>.8.&X<XOXa u a a v d U.bXQ.) #.t.N w <.N.N.<.i 4 8 2 8 8 8 8 8 8 8 8 0 0 p a a a 0 0 0 0 9 8 8 8 p p p 8 c c h 1 O = 5 5 5 8 8 8 8 8 8 5 5 1 1 5 5 5 5 5 5 5 5 5 5 5 6 0 c m c c 8 1 1 1 1 1 1 1 1 1 1 X . . X 1 k c M M M G G M k 8 1 1 1 1 1 1 1 1 8 8 5 % 1 8 k c 8 8 8 8 8 8 5 5 8 8 8 8 k k 8 O = 1 O 1 8 8 k 8 5 6 5 5 8 8 9 0 8 c c 5 . @   % 5 5 6 6 5 5 6 6 5 8 k c v v v v n n n c c p p p 1 1 1 2 2 2 2 4 8 8 8 8 8 8 5 5 5 5 5 5 5 5 8 6 5 5 1 1 1 1 1 1 1 5 h c h 5 5 5 % 1 1 1 1 % % % 1 1 1 1 & & & & % % 1 1 % O % 1 2 1 % 1 # X 2 c ",
"i.e.w.N c c v v c c c c n n M M n v v v n v a 9 4 4 n w.D D D S S S S S S S S S S S S S S S S S $.*.S D i.}.e.v 2 9 q k k k k k 0 0 0 k k k j j 0 0 k v a q n =.;.;.;.;.;.;.$.$.;.l.l.d.;.;.;.j.8.>.>.8.d.h.f.f.l./.oXk.;.S n p r p c c c c m m 0 1 2 S u.;.8.d.a n d.j.;.;.=.=.t.n 9 9 p 0 0 a 9 a n s I ' <.<.s w 8 p p 4 2 8 8 6 6 8 s %.6.3.3.6.%.( n n n #.u.k.$.g H Z.Q.R.m.2.<.%.-.` r r p p a a c p 8 8 6 8 q a a a a a n n n n n n n n n S S S #.#.n a 8 h c a i U 0.Y.Y.U.C.6.5.5.u.u.d.8.d.u.8.&.&.(.<X+Xd p a a a s N.'.Y.Y ( =.N u Y m.m.' i 4 8 8 8 8 8 8 8 8 8 8 0 0 p a a p p 0 0 0 0 0 p 8 8 8 8 8 c c h 1 O 1 1 1 5 h c c k 8 5 5 5 1 1 1 5 5 5 5 5 5 5 5 5 5 2 8 c c c c 8 2 1 1 1 1 1 1 1 1 1 % X . . X % 1 1 5 8 k k 8 1 % 1 1 1 1 1 1 1 1 6 k 6 % % 1 1 8 8 8 8 8 8 8 8 5 8 8 8 8 h k 8 O = 1 O 1 8 h k 8 5 6 5 5 5 8 8 0 0 c c 6 X @   O 5 5 6 6 5 5 6 6 5 8 k c v v v v n n n n n n N N p p p 8 8 2 2 3 0 0 8 8 8 8 5 5 5 5 5 5 5 5 5 6 1 5 5 1 1 1 1 1 1 8 m c k 8 8 6 5 5 6 8 8 8 6 5 8 8 6 8 8 5 5 5 5 5 5 5 1 1 5 5 8 1 1 1 X X 8 D ",
"D D N n c v c v c v v c n n n M n n n n n n v q 9 4 v *.D D D D S S S S S S S S S S S S S S S S D S S S =.j.i.D 8 9 q k k k k k 0 0 0 k k k k k 0 0 q v a a D =.=.;.;.;.;.;.$.$.k.oXk.;.;.;.=.d.d.>.;.>.8.h.h.h.l.v.v.k.;.#.n u p r p c c c c c 2 ; ; n d.;.8.8.a n d.d.=.;.=.;.;.n 9 9 p 0 0 a p p a w I 4.<.<.s r 4 p p 4 2 8 8 6 8 8 s Y 1.3.7.6.%.( n n #.=.u.d.f g | Y.Z.Z.m.2.<.4.-.( p w p p a a c p 8 4 6 8 q a a a a a n n n n n ( n n n n S #.#.#.n a 8 h c a u U 6.P.Y.U.C.6.5.8.d.u.d.8.d.;.>.&.&.c.<X;X#.a a q q p 7.E.C.Y ( _ n i Y 2.2.' s 4 8 8 8 8 8 8 8 8 8 8 0 0 p a a a p 0 c p 0 9 8 8 8 8 8 c m c 5 O O 5 1 5 8 c M c k 8 5 5 5 5 5 5 5 5 5 5 5 5 5 5 5 5 1 8 0 k k 0 8 2 1 1 1 1 1 1 1 1 5 1 1 % % X X X     X % % %   . % 1 1 5 5 5 1 1 . % % 1 5 1 % % 6 8 8 8 8 8 8 8 8 0 8 8 k k 8 1 = 1 O 1 8 h k 8 5 6 5 5 5 8 8 8 0 p c 8 O     % 5 5 6 6 5 5 6 6 5 6 k c v v v c p c c c n n n n N N n c p 8 4 2 8 8 8 8 8 8 8 8 5 5 5 5 5 5 5 5 1 1 5 5 1 1 1 % 8 c m c k k h 6 8 8 k k k k 8 8 8 8 8 8 8 8 5 5 5 5 5 5 5 5 5 5 0 6 1 X X X p w.",
"c n n n v v c c v v v c n n n n n n n D D D v a 9 4 v *.w.D D D S S S S S S S S S S S S S S S S D S D S D i.i.D 9 9 q k l l k k 0 0 k k k k k k 8 0 k c a v D =.=.;.;.;.;.$.$.$.j.oXk.;.;.>.;.j.k.>.&.;.8.h.h.h.h.h.l.d.$.S n 9 9 9 a a c c 8 8 1 # ; n t.;.;.=.a #.d.d.=.&.=.t.=.n 9 9 p 0 0 a a u p w I 4.4.4.s r 4 p p 8 8 8 8 8 8 8 p I %.7.<.1.%.( #.#.#.;.>.$.g g 3.A.m.B.m.<.%.%.-.( p p p p a a c p 8 4 6 8 p a a a a a n d n n n n #.#.n n #.#.*.#.n a 8 8 c a u I 5.C.Y.P.P.6.5.8.d.d.d.;.u.;.u.>.&.h.:X;X#.a v q 9 p <.Z.6.U s b b i T <.2.<.s 4 8 8 8 8 8 8 8 8 8 8 8 0 0 a a p 0 p c c 0 8 2 8 8 8 a m c 6 1 O = 5 1 5 c M M c 8 8 5 5 5 5 5 5 5 5 5 5 5 5 5 5 5 5 1 6 8 8 0 0 8 2 1 1 1 1 1 1 1 1 5 5 5 1 1 % % X   X X X X X X X % 1 5 5 5 5 1 1 o 1 O X % % % & 5 5 8 8 8 8 8 5 8 0 h h k k 7 = 1 1 O 1 8 8 k 8 5 6 5 5 5 5 8 8 8 8 0 8 1 X   % 6 5 6 6 5 5 6 6 5 5 k c v v v v a c c c c c c c n n n n n n c v 0 0 8 8 8 8 8 8 5 5 5 5 5 5 5 5 1 1 5 1 1 1 1 1 M M c h h k h 5 h k k c k k 8 6 6 6 6 5 5 5 5 5 5 5 1 1 5 5 1 1 c 8 1 X . % c w.",
"n M M n c v c v v c v v n n n n n n D D D D n a a 9 9 D e.*.D D D S S S S S S S S S S S S S S S S S D S S e.y.D q 0 0 k c c l k 0 q k k k k k k 8 0 k k a v D =.;.;.;.;.;.=.$.$.>.v.l.>.;.;.>.j.d.>.&.>.8.f.f.9.8.>.u.>.$.S S 9 9 9 q v c 0 8 1 1 ; 2 n t.;.=.#.n #.d.;.=.&.=.u.=.n 8 9 p 0 0 c a u p w U 4.4.4.s 4 4 9 p 8 8 8 8 8 8 8 w i U <.<.<.%.( #.*.*.t.$.d f { C.C.m.B.m.<.Y %.#.n p p p p a a c p 8 4 6 8 p a a a a a n d n n ( #.#.#.#.#.#.#.$.$.n p 8 8 c n u d 1.0.P.P.0.6.5.8.d.d.>.;.u.u.d.8.:.9.*X;X$.a v q 9 p Y N.6.U i p p i Y <.1.<.d 8 8 8 8 8 8 8 8 8 8 8 8 0 0 p a p 0 0 c c 0 8 8 4 4 4 8 2 1 # O 1 1 = 1 8 c M M k 8 8 8 8 8 8 8 5 5 5 5 5 5 5 5 5 5 5 1 6 8 8 8 8 2 1 1 1 1 5 5 6 8 8 5 5 5 1 1 1 1 1 1 % % % X X % % 1 1 5 5 5 5 1 1 . M M 5 1 % 1 % 1 5 5 5 8 8 8 8 0 0 h k c c h = 1 1 O 1 8 8 k 8 6 6 5 5 5 5 8 8 8 8 8 0 5 O O 1 6 5 6 6 5 5 6 6 5 5 0 c v v v c n n c c c a a p c c n n n N N N M v c c 0 8 8 5 5 5 5 5 5 5 5 5 1 1 5 1 1 1 5 8 M m h 8 8 8 6 1 h h k k k 8 6 5 6 6 6 6 5 5 5 5 1 1 1 1 1 1 1 1 c 0 1 X . 1 c D ",
"M N D M n n n N n n n n v v v v n n D D D D n v q 8 4 D e.D D D D D D D D D D D D D D D D D D D S S D S S D D D q 0 0 k c M l k 0 q k k k k k l 8 0 q q a S D =.;.;.>.>.;.=.$.$.;.l.v.k.>.>.>.d.d.>.&.>.9.f.8.>.&.$.;.;.$.#.S 9 q 9 q v l 0 1 % 1 1 2 *.u.;.-.( n #.t.;.=.&.=.u.=.n 8 8 0 0 0 c a p a p ( 4.4.4.i 4 4 9 p 8 8 8 h 8 8 8 4 w i Y <.<.%.#.*.=.*.=.#.f [ 0.I.C.N.N.3.W U U ( p p p p p a a c p 8 8 8 8 p a a a a a n d n n n #.#.#.#.#.#.*.=.=.#.p 8 9 c n p I 1.6.P.g.6.5.5.8.d.d.8.;.d.d.d.8.>.8.OX*X#.p v q 9 p Y 3.6.U p p p i Y <.1.<.( 8 8 8 8 8 8 8 8 8 8 8 8 8 0 p p p 0 0 p c a a p 8 2 3 1 2 6 1 1 1 1 O 1 6 c v M c 0 8 8 8 0 0 8 8 8 5 5 5 5 5 5 5 5 5 2 8 8 8 8 6 2 1 1 1 6 6 8 8 k k 0 8 6 2 2 2 2 5 5 5 5 1 % X O % 1 1 5 5 5 5 5 1 o w.y.G G m k 5 5 5 5 8 8 8 8 8 0 k k k c c h = 1 1 O 1 8 8 k 8 8 6 5 5 5 8 8 8 8 8 8 k 8 O X % 6 5 6 6 5 5 6 6 5 5 8 c v v v c n n n n c c c c n n n v c c v v N M v c 0 8 8 5 5 5 5 5 5 5 5 5 1 5 5 1 1 1 8 c M c 8 5 6 5 5 1 8 8 8 8 8 6 5 5 6 6 6 6 5 5 5 5 5 1 1 1 5 5 1 1 0 m k X . 1 m N ",
"N D D D n c v v n n n n v v v v n n D D *.D n v 9 4 2 S e.D D D D D D *.D D D D D S S S S S D S S D D S S S D D q 0 0 k m M l k 0 q k k k k l l 8 0 q q a S D =.;.;.>.>.;.;.=.$.#.u.l.k.d.k.k.d.>.>.&.>.f.f.8.&.#.[ =.;.$.$.S 9 q q p l k 8 & . 1 2 4 *.d.;.#.d #.#.t.=.$.&.=.t.=.n 8 8 0 0 0 c v p a a ( 4.<.4.s 8 4 9 p 8 8 8 h 8 8 8 4 > i Y 4.<.%.#.=.=.*.=.d u $.T.I.C.Z.m.2.Y I s a p 9 p p p a a c p 8 8 8 8 p a a a a a n d n n #.#.#.#.#.#.#.*.;.=.#.p 4 9 c n p d ;.0.g.g.6.5.5.8.8.d.d.;.d.d.d.d.>.8./.+X#.p v a q a Y 3.6.U p r p a ) 4.4.4._ 8 8 8 8 8 8 8 8 8 8 8 8 8 0 p p p 0 0 0 p c c a 8 3 : 2 n *.M 8 1 O O 1 2 8 c M v k 8 8 8 0 0 0 8 8 8 5 5 5 5 5 5 5 5 2 8 8 8 6 6 2 1 1 5 5 8 8 0 c c k k k 0 8 8 8 2 6 8 8 5 1 % O O 1 1 5 5 5 5 5 1 c |.y.G w.V w.G 5 5 8 8 k k k k 0 0 k k c c h = 1 1 O 1 8 8 k 8 8 8 5 5 5 8 8 8 0 8 8 c 8 O   O 6 5 6 6 5 5 6 6 5 5 8 c v v v c c c c c c c v v n v c c c p p p m c c k 0 8 8 5 5 5 5 5 5 5 1 1 5 5 5 1 1 1 h m c h 6 8 5 1 % % 6 6 6 6 6 8 8 8 5 5 5 5 5 5 5 5 5 5 1 5 6 6 5 1 8 M M 1 X 2 n N ",
"v M D D D D n v c c c c v v v v n n D D e.*.n c a 9 2 v e.w.D =.w.D D *.*.S S =.S S D D S S S S S S D D D S n v q 9 0 k c M l k k q 8 0 k l l k 0 8 0 q v D D S =.=.>.>.u.u.>.;.=.#.#.>.k.l.k.d.>.>.8.d.8.>.&.&.$.&.$.=.$.S D a 9 q q k 8 5 % # k 0 2 n t.;.$.d #.#.*.=.#.&.=.;.;.n 4 9 0 c c a v v p r U 4.4.%.p p 8 9 9 8 8 8 k 8 8 c r 4 i I <.%.-.#.*.=.*.a n a ;./._.Y.B.n.2.W L i p a c a i i p p p r 8 8 8 6 9 a a a a a n d n n ( #.#.#.#.#.#.n n n a p 8 0 a a a d %.5.5.1.%.U U d Z #.$.=.u.d.d.8.8.8.9./.u.a a a a a ) 7.<.i w p a a ( %.<.( a p 8 0 8 8 8 8 8 8 9 9 8 0 p p 9 9 9 0 0 p 0 4 1 ; 2 p t.}.i.N 8 1 O 1 1 6 k c m c 0 6 5 8 8 0 0 8 8 8 5 5 8 8 5 5 5 5 6 6 8 8 8 2 2 2 1 1 2 8 8 0 0 0 k k 0 0 0 0 8 8 8 8 6 5 5 5 1 1 1 1 1 5 5 5 6 8 M w.w.G G G D D m c k 8 8 8 8 0 0 0 8 8 h h 5 1 1 1 1 O 5 8 0 k 8 8 8 5 5 6 8 8 6 8 c 6 8 6 X O 6 5 6 5 6 6 6 6 5 5 8 0 c c n n v c v v v v v v c c c c a a a a k 0 8 8 8 8 8 8 5 5 5 5 5 1 1 1 5 5 5 1 5 8 c M h h 8 8 5 1 5 5 5 5 5 5 6 6 5 6 5 5 5 5 1 5 5 5 5 5 5 5 5 1 1 1 0 N M 0 X # v N ",
"v M D D D D n v c c c c v v v v v v n D e.w.D v a 9 2 a w.w.D *.S S S D =.=.D D D S S D D D *.=.S S D D D S n v M 9 1 8 l M k 8 c q 0 k k k k 8 0 0 0 q v D D S =.=.>.>.u.u.>.>.$.S Z #.;.;.;.>.>.d.f.f.8.;.&.$.&.&.=.=.$.S D a q q l q 6 & % % k 8 2 S u.;.$.S #.#.*.=.#.&.=.;.;.n 4 9 0 c c a a a p p d 4.5.-.a 0 9 0 0 8 8 8 k 8 8 c 8 4 u I 4.%.-.#.*.=.S a n d ;./._.U.N.2.2.' I i p c c a s i p p p r 8 8 8 8 9 a a a a a n n n n ( #.#.#.#.#.n d a d s p 8 0 a a a a #.-.5.1.%.U U d Z Z #.&.t.d.d.>.:.&.8.v.d.a a a a p Y 6.<.i w p a a ( ) ) ( c 0 0 8 8 8 8 8 8 8 9 9 0 p a p 9 9 9 0 8 c a 2 ; 3 a n w.t.w.c 8 1 O = 1 6 k c m c 0 6 6 8 8 0 0 8 8 8 5 5 5 8 5 5 5 5 5 6 8 8 8 6 2 2 1 1 2 8 8 0 0 0 k k 0 0 0 0 8 8 h 8 8 8 6 5 5 5 5 5 5 5 5 5 5 5 0 c c k k k k k k k 0 8 8 8 0 k 0 0 8 8 h h 7 1 1 1 1 O 5 8 0 k 8 8 8 5 5 6 4 8 6 8 0 6 8 5 X O 5 5 6 6 8 5 6 6 5 5 8 0 c c n n c c c c v v v v c c v c a a a a k 0 8 8 8 8 8 8 5 5 5 5 5 1 1 1 1 1 = = 5 8 c M 8 8 5 5 % % 1 5 5 5 5 5 6 6 8 8 8 5 5 5 5 5 5 5 5 5 5 5 5 5 1 1 8 N N 0 X % v N ",
"n M D D D D M c c c c c v v v v v v n D *.*.D n a 0 2 9 *.e.D D n S D =.=.w.=.D D D D D D D D D S S D D D S n v F q 1 2 k c k 0 M k 0 k k 8 6 6 0 0 0 q n D D D $.$.=.>.u.u.u.>.=.$.$.$.;.$.$.;.>.d.h.f.8.&.$.$.&.&.=.=.$.S D a q v k 9 & % & 6 l 6 1 D u.=.$.S #.#.*.=.#.&.=.;.t.a 4 9 p c c c p p 0 p n -.4.-.a 0 0 0 0 8 8 8 k 8 8 k 8 4 u U 1.%.-.#.=.=.#.a n S 8./._.C.2. .3.<.I i p c c c s i s p p r 8 8 8 8 9 a a a a a n d n n n n #.#.#.#.d a p a p u 9 q a a p a n #.-.;.;.;.&.&.&.&.$.&.;.;.;.;.&.&.8.h.u.n a v q p ( 5.<.s w p a a ( ( ( s p 0 0 8 8 8 8 8 8 8 8 8 c c a 0 9 9 9 0 9 0 4 1 2 n n n n N c 6 7 1 O X 1 6 0 c c c 0 2 2 8 8 0 0 0 8 8 5 5 8 8 5 5 5 5 6 6 8 8 8 6 2 2 1 2 2 8 8 0 0 0 0 0 0 9 0 9 9 8 k k h 8 8 8 6 6 5 5 5 5 5 5 5 1 8 k k 8 0 0 8 8 k 0 8 8 8 k k k 0 0 h 8 h h 7 = O 1 1 O 5 8 k k 8 8 5 5 5 6 8 8 6 8 0 8 8 5 O X 5 5 6 8 8 5 6 6 5 5 8 0 c c v n v v c c v v v v v v v c c c c a c k 8 8 8 8 8 8 8 5 5 5 5 5 1 1 5 1 1 1 6 h m m h 8 5 1 % % 1 5 5 5 6 6 6 5 8 8 8 5 5 5 5 5 5 5 5 5 5 5 5 5 1 1 6 N N 8 X % v N ",
"n N D D D D M c c c c c v v v v a a v D *.*.D n a a 4 8 D e.*.D S S w.=.v S =.S D D D D D D D S S S D D D D n v c q 8 8 8 k M M M k 0 k k 8 6 8 k 0 0 q n D D S $.$.=.>.u.d.u.u.>.>.>.d.d.>.=.$.>.d.f.f.8.>.&.$.&.&.=.=.$.#.D a q v k 8 # # & k k & % D i.=.$.#.#.#.*.=.#.&.=.;.=.a 4 9 p c c c p p p p n -.-.%.a 0 0 0 8 5 6 8 k 8 8 k 0 4 p U 1.%.#.#.=.=.*.a v *.k.+XY.3. . .6.<.U p p c v c s i s p p r 8 8 8 4 9 a a a a a n d n n n ( ( #.#.#.d p p p p u 9 q c c p p a n #.-.a.d.d.8.d.f.;.;.=.#.$.&.:.8.>.f.u.S v a q p ( 4.<.s w p a a ( ( I i p 0 8 8 8 8 8 8 8 8 8 8 p c 0 0 9 9 p p a 2 ; 9 *.t.*.a c c p 2 7 5 O X 1 6 0 c c c 0 2 2 8 8 0 0 0 8 8 5 8 8 8 5 5 5 5 6 6 8 8 8 8 2 2 1 2 2 8 8 0 0 0 0 0 0 0 0 9 9 0 k h h 8 8 8 8 6 5 5 5 5 5 5 5 1 8 k c k k k 8 0 0 8 8 8 8 k k k 0 0 h 8 h h 7 = O 1 1 O 5 8 k k 8 8 5 5 5 6 8 8 6 8 8 8 8 5 O X 1 5 8 8 8 8 6 6 5 5 8 0 p c v n v v v c v v v v v v v v c c c c c k 0 8 8 8 8 8 8 5 5 5 5 5 1 1 5 5 1 5 h c c c k h 6 1 % 1 5 5 6 5 6 6 8 8 8 8 8 5 5 5 5 5 5 5 5 5 5 5 5 5 1 1 5 M M 2 X % c D ",
"M N D D D D M v v v v v v v c c a a a n D *.*.D c c 4 4 v *.*.D S S n v v n D D =.=.D D D D D *.D S S D D D n v q 9 8 8 8 k M G M k 0 l k 8 6 j k 0 8 q n D D S $.$.,.,.p.p.p.d.f.>.>.>.d.>.$.#.>.>.>.d.d.9.>.&.&.:.=.=.$.#.$.a c k 0 1 . % 6 k k % # D i.=.#.#.#.#.*.=.*.&.=.;.=.a 4 9 p c c c a p p p a ( U d p q 0 0 8 5 6 8 0 6 8 k k 8 p ( ;.%.#.#.$.=.N c a =.v.$XI.<.W 2.6.<.U s a c v c p i s p p r 8 4 8 6 9 a a a a a n d n n n n n n #.#.n a p a p p 9 q v c a p a a n #.;.d.8.>.>.>.8.;.=.#.#.$.:.q.>.8.u.S v a 9 9 ( 4.%.s w p p p d U s p 0 k 0 5 8 8 8 8 8 8 8 8 0 0 9 0 0 p 0 0 8 # 2 =.j.e.n a c n c 8 8 5 1 = 1 2 p c c c 0 2 2 8 8 0 p 0 8 8 8 8 8 8 5 5 5 1 8 8 8 8 8 8 2 2 2 2 8 8 8 0 0 0 0 0 9 9 9 9 0 0 8 8 8 8 6 6 6 5 5 5 1 5 6 8 5 5 8 k k 0 k 0 8 8 0 0 8 8 0 k k k 0 0 8 8 h k 8 1 = 1 1 O 5 8 0 k 8 h 8 6 6 8 8 8 6 8 8 8 8 1 % X 1 5 8 h 8 6 6 6 5 5 8 0 p c v n c c c c v v c c v v v v c c c c c c 0 8 8 6 5 8 8 8 5 5 5 5 1 1 5 1 1 5 h c m c c k 8 1 1 1 5 5 8 8 8 6 6 6 8 8 8 8 5 5 5 5 5 6 5 5 5 8 5 5 1 1 5 w.N 1 X 1 c D ",
"N M D D D D M c v v v v v v c c v a a v D *.D D v v 9 4 a n D N D D q v e.=.S e.j.i.e.D S S D *.D S S D D D n v 2 2 2 8 8 k M D c k k l l k 8 k k 0 8 q n D D S F $.>.u.p.p.u.d.l.>.$.=.>.>.=.$.>.>.>.9.h.h.8.:.&.:.=.=.$.#.$.a q 0 1 % % & j l 8 # # n u.$.#.#.#.#.*.=.*.&.=.;.=.a 4 9 p c c c c a p p p s i u p 0 q k 0 5 5 8 0 8 0 k k 8 p ( ;.%.#.#.$.=.N c a $.k./.g.| W 7.6.<.U s a c v a a i a p p r 8 4 8 6 9 a a a a a n d d n n n n n *.#.S a a a a p 4 0 v v a p p a p n ;.d.8.;.;.>.;.;.;.=.&.$.&.:.>.8.;.S a q 9 9 U 4.%.s w p p p n s i r 0 k 0 8 8 8 8 8 8 8 8 8 8 8 9 9 0 p 8 8 # 2 N }.j.n p N c n n p 8 5 1 1 1 2 p c c c 0 2 2 8 8 0 p 0 8 8 8 8 8 8 5 1 1 1 8 8 8 9 0 8 8 2 2 2 8 8 0 0 0 0 9 9 9 9 9 0 9 0 5 6 6 6 5 5 5 5 5 5 1 5 8 8 5 5 5 k k 8 8 8 5 8 0 0 0 0 0 0 0 0 0 0 h 8 h k 8 1 = 1 1 O 5 8 0 k h h 8 6 6 8 8 8 6 8 8 8 8 1 % X % 5 8 k 8 6 6 6 5 5 8 9 p c v n c c c c v v c c n v v v v c c c c c 0 8 8 6 5 5 8 8 5 5 5 5 5 1 1 1 5 h c M M M M c h 8 8 8 8 8 8 8 8 8 8 8 8 8 8 8 5 5 5 5 5 6 5 5 8 8 5 5 1 1 8 e.N 1 X 1 c D ",
"M n M D D D n c v v v v v v v c v a a v D D D D n v q 9 9 v n n D v v u.}.=.F e.j.i.e.D n n S S D S S S D D n a 2 9 q 0 8 8 k M c c l l k k k k k 0 8 q F D D S F ,.,.p.u.u.u.p.f.>.$.$.=.=.=.=.>.>.>.d.h.h.8.>.&.:.=.=.$.$.$.a q 8 % # & 8 k k 5 . . v t.*.#.S #.#.*.$.#.&.=.;.=.a 4 9 p c v c a p p p u u w w p 0 q k 9 5 6 8 0 8 0 k k 8 p ( ;.-.#.#.=.=.N c v #.=.5.5.W W 2.6.<.U s a c v a a p a p a p 8 8 8 6 8 a a a a p n d d n n n n n #.#.#.d a a p 9 4 9 v v a a p a p #.;.d.d.>.>.8.;.;.=.=.$.$.&.&.>.>.;.S q 9 9 p d -.%.s w p 0 p n s p w 0 k k 8 8 8 8 8 8 8 8 8 8 8 9 0 0 8 2 ; ; v y.i.*.a a n c n v p 8 7 O O 1 2 p c v c 0 2 2 8 0 p p 0 8 8 8 8 8 8 5 1 1 1 8 8 8 9 0 0 8 8 2 2 8 8 0 0 0 0 0 0 9 9 9 0 9 0 5 5 6 5 6 5 6 6 8 5 5 5 8 8 5 1 8 k k 0 k 0 8 8 0 0 0 0 0 0 0 0 0 0 8 8 h k 8 1 = 1 1 O 5 8 0 k h h 8 6 6 8 8 8 6 8 8 k 8 1 5 X % 5 h k k 8 6 6 5 5 8 9 0 c v v c c c c v c c c v v v v v c c c c c k 8 8 6 5 5 8 8 8 5 5 5 5 5 % 1 7 h k c m m c c h 8 h k k h h 8 8 8 8 8 8 8 8 8 5 5 5 5 5 5 5 8 8 8 5 5 1 1 0 i.G 1 X 1 c D ",
"N n M D D D n c v v v v v v v v v a a v n D D D n v c 9 9 q v D v 4 D .Xi.v a S D D D D D S S S D S S S D D n a 2 l D M 8 & 8 M m M M l k k k k k 0 8 q n D *.S $.,.>.p.u.u.u.p.>.$.S $.$.$.$.$.>.>.>.d.f.d.9.8.&.>.=.;.$.*.*.v q 1 X # 5 k k k & . . c e.*.#.S #.*.$.$.*.=.=.;.e.a 4 0 p c c c p 9 0 p p w 4 4 0 0 k k 9 5 5 8 k 6 8 k k 8 a ( ;.=.#.#.=.=.N a n n d [ %.Y W 6.6.1.( a a c v c c a a a a p 9 8 8 8 8 a c a a a d d d n n n n n #.#.#.n n n a 9 4 0 v n a u u u s #.5.8.8.&.&.;.;.;.=.#.#.#.$.&.>.>.=.S q 9 9 p s -.-.s w p p p N a p 8 0 c k 6 8 6 8 8 8 8 8 8 0 p 0 p 0 8 ; o 9 =.i.n a N n p a v p 8 6 5 O X 1 2 p c c c 0 2 8 8 0 p p p 8 8 8 8 8 8 5 5 1 1 2 8 8 0 0 0 8 8 2 2 8 8 0 0 0 0 9 0 9 9 0 0 0 0 8 5 5 5 5 8 8 8 h 8 5 5 8 8 5 1 8 k k 0 k 0 8 8 8 8 8 0 0 0 0 0 k k h 8 k k 8 1 = 1 1 O 6 8 0 k h 8 8 6 6 8 8 8 8 8 6 k 8 1 5 . % 5 k k h 6 8 8 5 5 8 0 0 c v v c c c c v v c c v v v v v c c c c c k 8 8 8 6 5 8 8 8 5 5 5 5 5 X O 1 5 5 1 5 5 5 5 1 1 5 8 5 5 h h 8 8 8 8 8 6 8 8 5 5 5 5 5 5 8 8 8 8 5 5 1 1 k |.w.1 % 1 c D ",
"n n D D *.D n v v v v v v v v v a c v v n N D D M n c q 0 q v n a v *.*.v a n D D D D D D D D D *.D D D D *.D 8 2 D y.D 8 1 k M G M k k k k k k k k 0 k S =.$.S $.$.>.p.p.>.,.,.>.>.>.>.>.;.$.$.$.&.>.8.f.f.8.8.>.;.;.$.S *.D c ; # # 1 0 k 8 5 % O X r =.*.#.#.d S S S #.#.$.d.i.v 2 8 c v b p 9 9 0 0 9 9 9 0 q 0 0 8 8 8 8 8 8 6 8 0 8 8 a *.t.=.#.#.=.-.#.a n a d #.-.{ %.1.h.&.d p c c c c v c v c a 9 9 8 8 8 0 k a v a a a d d n ( ( d a s n n c a v v q 8 8 r s I U T T | | 3.3.3.1.1.1.=.=.$.$.$.#.$.$.u.p.i.=.v 2 8 9 n ) ) s r 9 a 9 v a 9 9 k k 8 8 7 6 8 8 8 8 8 p 0 m c z 8 * o , >.,.$.n b p 8 a 9 9 8 2 1 = = = 1 8 c c v v v a 0 0 9 r 9 8 8 8 8 8 8 6 5 5 1 1 1 8 8 9 0 9 8 8 8 8 9 0 q q q q 0 0 q q q 0 0 9 8 9 8 8 8 0 k k k 8 5 5 5 1 5 1 1 8 k 8 8 k k 8 8 8 8 8 8 8 8 8 h h k k k 8 5 1 O 1 = O O h 8 k c k 6 5 6 6 8 6 8 8 8 8 5 1 % O . 6 m k k k 8 8 8 5 2 8 c v v v a a a a c v v v n n v v v c c c c c c 0 8 2 6 8 6 6 6 5 5 5 5 5 1 O O O O 1 1 O 1 1 1 = = O % % 8 8 8 8 8 8 8 8 5 5 5 5 6 6 6 6 8 8 8 5 5 6 h c e.|.M 1 8 5 8 M ",
"n n D D D D n v a a c v v v v v a c v c n M D D M M c k 0 q c n k v D D v v D D D D D D D D D D D D D D *.w.M 1 9 D e.M k 5 8 c M m k h k k l l k k 0 q n =.=.S S $.>.9.p.>.>.>.>.>.>.>.>.>.>.>.;.&.>.8.f.f.d.8.8.;.;.=.$.=.D 0 # # # 2 8 q 6 & O O X r -.-.%.} #.$.$.#.#.#.#.t.u.c 2 0 c M b p 9 9 0 9 0 0 0 0 q 0 0 8 8 8 8 6 8 8 8 0 8 4 a *.;.=.*.*.=.-.#.p n d #.;.;.#.[ 5.h.;.a a p c c c v v v c a 9 9 8 8 8 k k a v a a a s d ( ( ( d d a n N n n n v 0 8 p ` 4.6.N.3.o.o.m.m.N.N.3.<.%.-.-.#.#.#.#.#.#.$.t.u.w.n q q a d ) ( i w w p p n v q q c k 8 7 7 6 8 8 8 8 9 0 8 8 k 8 1 ; u &.x.:.Z u r r r p p u u 4 3 = = = = 4 p c v v v a q 9 9 r 8 8 8 8 8 8 8 8 5 5 1 1 1 8 8 9 0 9 8 8 2 8 9 q q q q q 0 0 q q q 0 0 9 9 9 8 9 9 0 k k k 8 5 5 5 1 5 1 1 8 k 8 8 k k 8 8 8 8 8 8 8 8 8 h h k k k 0 5 1 % 1 = O O h 8 k c 0 8 5 6 6 8 6 8 8 8 8 5 1 % O   6 k k k k 8 h 8 5 2 8 c m v v c a c a v v v v n v v v v c c c c c c 0 8 2 8 8 6 6 6 6 5 5 5 5 1 = O O O 1 1 O 5 1 1 1 1 1 1 1 1 1 1 5 5 6 8 8 8 8 8 8 8 6 6 6 8 8 8 8 8 8 c m V y.c 1 8 8 k G ",
"n n D D D D n v q k k c c v c v a a v v n n N N M M c k k k c M c v n D n n D D D D D D n n n n D D D D *.w.c 1 c D D c c 8 & k m k h h k l m m k k 0 9 n D =.S Z S =.>.u.u.u.u.d.d.d.d.d.d.d.d.>.>.>.>.d.d.d.d.k.d.u.u.t.e.n 8 # # % 2 q q 5 & O X X p -.5.<.%.{ %.( I I I U -.t.p 1 0 M M c p 0 0 0 0 0 0 0 0 0 0 8 8 5 5 8 5 8 8 8 0 8 4 a *.;.=.*.#.=.-.#.s n #.t.k.j.#.I 8.l.;.a p p c c c v v v v a 9 9 4 8 8 0 c a a a p i a n #.#.#.Z Z S d n #.*.n a w s Y 7.U.U.Z.M.o.O.M.M.Z.Z.N.7.<.%.%.U U d ( d d S #.=.=.D n v a I Y Y i w w i u u 4 3 2 8 p 0 8 6 8 8 8 8 9 9 p 8 8 8 1 # 9 >.OX=Xx.[ i I ` ( ` s i , * * * * * * 3 p a v v a q 9 9 0 0 8 8 8 8 8 8 8 8 5 5 1 1 1 8 8 0 0 9 9 8 2 8 9 0 q k q q 0 0 q q q 0 9 8 9 9 9 9 9 0 k k k 5 5 5 5 1 1 1 1 5 8 8 8 k k 8 8 8 h h 8 h h h h h h k k 0 5 1 % 1 = O O h 8 c c 0 8 5 6 6 8 6 8 8 8 8 6 5 % %   5 k k k k 8 h 8 5 2 8 c c c c v v c v v v v v c c c c c c c c c c c 0 8 8 8 8 8 8 8 5 5 5 5 5 1 1 O O 1 1 1 1 5 5 5 5 5 5 5 5 1 % 1 1 1 5 5 5 8 8 8 8 8 8 8 8 6 6 8 8 6 8 8 8 N y.m 1 6 2 8 N ",
"n n n D D n n v q q q k c c c v k a c v n n N N M M c k k k v v v v v n n D D D n n n n n n n n n D D D =.n 9 2 D D N c k 1 % 8 8 h h k k m M M k k 8 9 v D =.D f Z S =.;.>.;.;.>.>.>.>.>.>.u.>.>.;.=.;.;.>.>.>.d.>.;.t.t.*.p 1 X % % 6 6 6 & % O X o r -.5.6.3.3.m.7.' ' Y Y <.-.4 X 5 m c 0 0 0 0 0 0 0 0 0 0 0 8 8 8 5 5 5 5 8 8 8 0 8 4 a *.t.=.*.#.=.-.#.s n =.k.@Xl.U f 8.l.;.a p a c c c v v v v a 9 9 9 4 9 0 a a a a p a n n #.#.S Z Z [ d d #.U s u i | 2.Z.E.W.J.F.@.O.O.O.M.Z.Z.N.N.1.%.L i L I I d d U ( ( d a p u L W <.W Y Y Y I L i < > 4 w 4 8 2 2 2 2 2 4 4 4 4 4 2 X $ $.oX+X).I.{ T ' ' ' ' L L < < < * * * * 4 r a c v a 9 9 9 8 8 8 8 8 8 k 8 8 8 5 5 2 1 2 8 9 0 q 0 9 8 2 8 9 q q k k q 0 q q q q 0 9 8 9 9 0 q 0 q k k k 5 5 5 5 1 1 1 1 5 8 8 k k h 8 h h h h h h h h k h h k k 0 6 5 % 1 = O O h 8 k c k 8 5 6 6 6 6 8 8 8 8 8 5 1 %   5 k k k k 8 h 8 5 2 8 c c c c v m m v v v n n c c c c c c a c v c c 0 8 8 8 8 8 8 8 8 5 5 5 6 5 1 = O 1 1 1 1 5 5 j 5 5 5 5 5 1 1 1 1 1 1 1 1 5 5 5 5 5 8 8 8 8 8 8 6 2 2 2 2 c N p 1 8 6 8 *.",
"n n n D D D n c c k k c c c c c k a v v v n N N n n v c k k c c v v v v n D D D n n n n n n n n n S D *.D q 8 k D M M M 0 1 1 1 5 6 8 k k m m M k k 8 9 v D =.D d Z S S $.$.#.#.#.#.#.#.#.#.#.#.#.S Z d S #.#.#.#.S n n n p ; o # % % 1 1 1 % % X X o w 4.6.N.B.G.W.wXwXQ.R.m.6.Y w X 1 c k 9 9 0 0 0 0 0 8 8 8 8 8 8 5 5 5 8 5 8 8 8 8 8 2 a *.=.=.*.#.=.-.#.p d =.k.#Xl.s u f.l.;.p 9 p m c c v v v v a u 9 9 4 4 9 p a a a a n N #.#.Z Z Z [ } [ U U i g i L ..o.@.K.7XtXtXtX@.+.O.O.O.Z.Z.Z.N.7.T L L Y Y %.Y U I I I s i e W 2.U.U.Z.Z.C.3.<.W U L i s u 4 8 8 8 8 4 8 8 8 4 6 1 X 2 ;./.^.q.m.o.o.n.n.' n.B.B.R.Q.E.L.) e , w p a a a a 9 0 0 0 0 0 8 h h k 8 8 8 8 5 2 2 2 8 9 0 0 0 9 8 8 8 9 0 c c a a q q k c 0 9 8 8 9 9 9 9 q q k k k 5 1 5 5 1 1 1 1 1 5 8 k k 8 8 8 h h h h h h h k h h 8 k 0 8 5 % 1 = O O h 8 k m c 8 6 6 6 6 6 8 8 8 8 8 5 1 %   % 8 k k k 8 8 8 2 2 8 c c c c m m m m m v v v c c c c c a a c v v c 0 8 8 8 8 8 8 8 8 5 5 6 6 5 1 1 1 1 5 5 5 5 5 5 5 5 5 5 5 5 5 5 5 5 5 5 5 5 5 5 5 1 1 1 1 8 8 8 8 8 8 2 2 8 c 0 2 8 2 8 D ",
"n n n D D D D M v v c c c c c c k a v v v v M M n n v c c k v c n n v v n N n D n n n n n n n n n S D *.n 9 9 D D c M c 5 1 8 & 1 5 k c m m l l k k 0 9 n D =.D S Z S S S S S n n S S d d d d d d a u u u u p p a a p a c 5 X . % % & & & & # X X X o e 7.B.R.H.0XiXgXmXbXW.B.m.W i , 2 0 0 4 8 r r 8 8 8 8 8 8 8 8 5 1 1 1 5 5 8 8 8 8 8 2 a *.e.=.*.#.=.-.#.p d #.k.@Xj.u f f.v.&.u 4 p v v v v v v v a p 9 9 4 4 9 p c a a a n n S n d Z [ %.%.<.| { L L | m.K.K.K.vXvXtXyXtXtX7X@.@.+.@.M.Z.E.Z.3. . .2.m.m.m.6.7.<.<.' Y W  .B.Q.W.pXpXpXQ.R.Z.N.<.{ L < , 4 6 6 6 4 4 2 3 X o X * ; w [ { J O.S.F.M.n.o.n.W.wXbXbXnXQ.m.Y s s a a a a a 9 0 0 0 0 8 8 k k k k 8 8 8 5 2 2 2 8 9 0 0 0 9 8 8 8 0 0 c c a a q k k c 0 9 9 8 4 9 9 9 q q k k k 5 1 1 5 1 1 1 % % 1 8 k k 8 8 8 8 h h h h h h k h h h k 0 8 8 % 1 = O O h 8 k m c 8 6 6 6 6 6 8 8 h h 8 5 1 1   O 5 k c k 8 8 8 2 2 8 c c c c m m m m m m c c c c c c c a c c v v v 0 8 2 8 8 8 8 8 8 8 8 6 6 6 1 1 1 1 5 5 5 1 1 5 5 5 5 6 5 6 8 8 8 8 8 8 8 8 8 5 5 1 1 % % 2 1 1 1 2 2 2 2 8 0 0 2 2 2 2 N ",
"n n n D D D D D N n n v c c c q q a a v v v n M n n n v v c c v M n v v n n v n n n n n n v v v D D D S a 9 v D N c c k 8 8 8 1 1 6 k m m k k k k k 0 q n =.=.S S S S S S S S n n n n a a a p p a a u u p u u 9 a a p 0 k 5 X % & & % % % X # X # * * L B.K.0X7X9X9XeXqX0XH.M.m.N.1.I w p p 4 4 w w w w 8 4 4 8 2 2 1 1 5 5 5 5 8 8 8 r 8 4 a *.e.=.*.#.=.-.#.p d #.d.l.=.g f h.l.$.9 4 a v n n v v v v a p 9 4 4 8 9 a c c n n n n n n d U %.1.3.m.m.....m.E.'.kXlXyXlXlXlXlXlXlXyXtXK.@.@.@.F.K.G.Z.M.M.M.M.B.G.Z.Z.B.B.N.n.n.o.M.D.G.J.aXmXmXmXpXE.N.<.L < , * o o o o * o o o o * , , , < T X.S.wXpXwX!.S.S.aXpXuXaXpXW.B.' ` ( ( a c c a 9 0 0 0 8 0 k k k k k 8 8 8 5 2 2 8 8 9 0 q 0 0 8 8 9 0 0 q c c q k k q q 0 9 9 2 2 4 9 9 q q 0 0 0 8 1 1 1 1 1 1 % % 1 8 k k 8 8 8 8 8 8 8 8 8 8 k h h 8 k 0 8 8 % 1 = O O h 8 k v c 8 8 6 6 6 5 8 8 0 0 8 5 1 1     5 c k h h 8 8 2 2 8 a a a c a p c c c c c c c c v v v v v a c c a 9 4 2 6 8 8 8 8 8 6 6 6 6 6 2 1 1 1 5 5 5 5 5 5 5 5 6 6 8 8 8 0 0 0 0 p 0 0 0 8 8 6 2 2 2 2 1 % # 1 1 1 1 1 2 8 5 8 6 5 N ",
"n n n D D w.*.D D N N v v c k q a a a v v v n M n n n v v c c v n D n v n v v n n n n n v v v v D D D v 9 a D D n v k 8 8 0 8 1 5 8 k m m k k k k 0 0 q S =.=.S S S S S #.#.S n S n n n a a p p n a a a a a p p p a 0 8 8 1 % 5 & & & + X X X o o * * R G.0XqX8X9XyX9XqX8XH.+.O.G.C.| i i i w g w w w w w 4 4 4 3 2 2 1 1 5 6 6 8 8 8 p 8 4 a *.=.=.*.#.=.-.#.p s U >.j.#.g U h.l.#.9 4 a n n n v v v a a p 9 8 4 8 c c c c c v c v n s s U | 3.m.Z.A.@.A.~.dXkXyXlXlXlXlXlXlXlXkXlXyXtX[.K.K.J.@.F.K.K.D.S.S.S.S.S.S.F.B.V.o.o.^ ^ O.O.+.qXmXMXmXaXJ.B.m.2.| Y %.%.#.%.-.%.%.%.U #.-.-.4.<.<.Z.O.H.aXmXbXW.S.G.wX7X8X7XW.H.n.Q 4.-.( a c v a 9 0 0 0 8 k k k k k k 8 8 8 5 2 2 8 8 9 0 q 0 0 8 8 9 0 q c c c q q q q q 0 9 8 2 2 2 9 9 q 0 0 0 0 8 1 1 1 1 1 1 % % % 8 k k 8 k 8 8 8 8 8 8 8 8 k h h 8 k 0 h 8 % 1 = O O h 8 k v c 8 8 6 6 6 2 8 8 0 8 8 8 1 1     5 c k h h 8 8 2 2 8 a a a a a a a a c c c c c v v v v v c c c c a 9 4 2 2 8 8 8 8 8 6 6 6 6 8 6 1 1 5 5 5 5 5 5 5 6 2 8 4 8 a a a p p 9 9 9 9 9 9 9 p p p p 0 8 1 ; % ; % # 1 2 0 2 6 1 1 v ",
"n n S D D =.e.e.*.*.D n v v c c a a a v v n n n v v n c v k c v n n D D n *.i.i.D D n n n n n v n D n 9 a D D k c q 8 8 k 0 5 1 & 5 8 k k k k 8 5 8 v 9 p D D S n n S S n n n n a p a a n n p p a a v a a p 9 9 a a p k 6 1 % & + + + O O X o o * - W Q.pXiXfXyXyXyXfXjXfX7XK.K.F.Z.m.| Y L L L U L e e e w w 4 8 1 1 1 5 5 6 6 5 8 8 0 p 8 p S =.*.*.#.=.*.a a &.[ #.#.a f $.l.h.d : 9 n D n v a a v a a p 9 8 8 8 h c v M n b v p u i U <.m.m.M.F.@.K.tXtXtXlX6XvX6X6X6X6XlXkXlXyXyXyXtXtXtXtXtXtXtXfXhXfXfXhXiXhXaXH.+.O.O.S.+.O.O./ O.qXMXmX7XW.J.F.o. .2.2.3.6.0.I.I.^.I.I.I.^._._.I.C.C.M.H.D.D.H.M.Q Q O.H.H.O.O.7XH.^ R 4.( ( a a n a 9 q q k 0 0 8 8 8 8 8 8 h 8 8 5 2 1 8 0 c c q 9 8 1 2 0 n D v q q c v v q 0 8 8 9 9 9 v v v v v n k 8 1 1 2 1 1 % % % % 5 0 k k 8 5 6 5 8 8 8 8 8 k k h h k 0 h h O 1 1 = O 1 c k c n c 8 8 8 2 2 6 8 8 k k 8 5 % O . % h k h 8 8 6 6 8 8 p c c c a a a a a a a a v v v c c c m v c c c 0 8 2 4 8 8 8 8 8 8 8 8 8 8 8 5 % 1 % % 5 5 1 ; 1 : 4 u S #.#.d a p p s s p p p p p p p p a a p 9 8 2 2 2 c a p p 0 8 8 4 ",
"9 9 a v S *.=.e.e.*.D n v a a q a a a a v v n n n n M n c c c v n n D D D e.t.w.D n n v n n n n n n a 9 v D N q k 9 8 c D k 1 & 1 5 5 5 8 8 8 8 k k c 9 p D D D n S S S S n n a a a a p p p p p a a v v a a a a 0 p c 0 5 1 & 5 C O +     * , < ' n.H.bXgXfXyX8XyXyXfXtXK.@.@.K.J.F.m.R H ~ H L L L e < e e w w 4 3 1 1 5 5 6 6 8 8 8 0 p 4 p S =.*.*.#.=.*.a d ;.$.#.#.a f ;.v.k.d : 9 N D n v a a a a a a 9 8 8 h k c m b a p s i i L W 2.B.Z.F.@.[.tXtXtXtX6XvXvX[.[.[.6XlXkXlXyXtXyXyXyXtXtXyXyXyXjXBXxXjXBXjXBXhXqXrXD.D.H.iXhXqX+.+.7XiX7X+.+.F.S.o.o.n.n.m.3.0.I.^.^.A.A.A.I._.^.I.A.E.pX0XS.^ o. .Q Q o.J.H.o.O.J.G.^ ! I i a a a n a 9 q q k 8 0 8 8 8 8 8 8 8 8 8 5 2 1 8 0 c c q 9 8 2 2 0 n M v q q c v v q 0 8 8 9 9 q v v v v c n k 8 1 1 2 1 % % % % % 1 8 k k 8 8 8 8 8 8 8 8 8 k k k k k 0 h h O 1 = = O 1 c k c n a 8 8 8 2 5 6 8 8 c k k 5 % % X 1 k c k 8 8 8 8 6 8 p c c c a a a a a a a a 0 c v v v c m c c c c 0 8 5 6 8 8 8 8 8 8 8 h h h 5 % O 5 k 8 0 # 2 > > d k.$X$XT.l.k.d.u.;.8.d.;.;.;.;.;.;.;.;.k.j.j.t.e.=.*.S n n n a p 9 4 4 ",
"a v n S S S D D *.D D n v v v a a a a a v v D D D D D N n v c v n n D D *.t.e.n n n v v n n n n S a 9 a n n c q 8 8 k G e.k & 1 5 1 1 1 & 5 5 6 c k k 9 9 v d v n S S #.S S n a p a a a a a n n a a a a a a a a 9 0 k 8 1 % O 1 & 5 & X o * I V.wX0XaXjXjXyX8XvX6XtX8XO.J J O.K.J.G.O.R H < < ~ < ~ L e e w w w w 3 1 1 1 5 & 6 8 8 8 0 p 4 p S =.*.*.#.=.*.a n >.&.;.#.d d >.oXj.s : 9 D D n v a a a a a q 0 h 8 h k p p a i i i L T W  .m.M.F.K.[.tXtXtXtX6X[.vX[.[.[.[.[.6XtXyXyXyXyXlXlXlXkXkXkXyXjXBXZXjXzXjXxXhXqXiXhXhXfXfXMXhX7XhXBXhX0X+.M.H.W.K.M.o.o.o.m.A.I.x.x.A.Y.I.I.c.^.^.Y.E.pXwXV.Q W W W | 2.E.H.o.o.H.S.E P e 4 p a a n a p 0 0 0 8 8 8 8 8 8 8 8 8 8 6 5 2 1 8 0 c c q 9 2 2 2 9 v n v c c c v v q 0 8 8 9 q p v v v v v v q 2 1 1 1 1 % % % % % 1 8 0 0 8 8 8 8 8 8 8 8 h k k k k k 0 h 8 % 1 = = O 1 c c c v c 8 8 8 2 2 6 8 8 c c 0 5 1 1 X 1 k c k k k 8 6 2 2 8 p p p a a a a a a a a v v v v c c v c M M m c k 0 k k 0 8 8 8 8 8 6 6 h h 5 1 8 2 1 2 4 u ;.,XDX:X+X+XOXoXv.h.f.d.8.8.k.h.h.h.h.h.f.h.l.l.l.k.l.k.l.k.t.;.=.#.#.n d a ",
"t.;.;.=.$.#.*.#.=.$.*.S n a a a a a a a v S D *.*.*.D D n v v v n D D n D t.*.a n n n v n n n n S a 9 v D v 0 9 1 q D e.G 0 1 8 5 5 5 5 6 6 5 5 k 8 8 9 9 9 9 9 : 4 9 p p u 9 4 9 p p a a p p p v v v a a a a p p a 0 6 1 % % % & 1 1 * < W R.bXmXqXeXfX9X8X8XvX@.K.@.J ~ J O.J.J.K.Z.2.R P H H < L L e e w w w 4 1 1 1 5 & & 6 5 8 8 0 p 8 p S =.#.#.*.=.#.a #.d.>.;.#.a Z d. Xd.a : 9 D D n a a a a a a q 0 h h 8 6 4 w s U { | ....O.M.F.K.K.[.6XtX6X6X6XvXvXvX[.[.tXtX[.@.@.tXyXkXkXkXxXSXHXxXxXxXxXBXBXzXzXjXzXjXqXjXBXBXhXhXjXhXMXGXGXmXH.M.M.W.bXpXM.o. .m.A.Y.^.^.^.^.^._.^.v.+X(.I.A.U.Q.V.W Y %.{ | 2.R.G.^ o.G.M.E P < , p a v n v 0 0 0 0 8 8 8 6 6 8 8 8 8 8 5 5 2 2 8 q v c q 9 2 2 8 0 c v v v v c v v q 0 8 8 9 q a v v v v v n q 2 1 1 5 1 % % % % % 1 5 8 8 8 8 8 8 8 8 8 8 h h h k k 0 0 8 8 % 1 O = O = k c c v v 0 8 8 2 2 5 8 8 c c k 8 1 1 % 1 k c c k c p 2 1 2 p c a p p p p p p a a a a a a a a a v v v c c c 0 8 8 8 8 8 8 8 h 8 6 5 8 k k 6 1 ; 4 n l.;X<X;X).+X+X).+X+X/./.h.f.f.f.8.8.8.8.9.8.8.d.j.j.j.j.j.j.j.j.j.j.d.d.d.8.8.;.",
"f.f.d.d.u.u.u.u.d.u.;.$.S d p u p a a a v S *.w.w.e.*.D n v v v n *.D n D e.D v n n v v v v n n n a a S D q 2 2 0 D G D c 8 5 8 5 6 k k l k 8 & 5 1 1 v F p 9 9 : > 9 a d a a u u 9 : 9 u > > : 4 4 3 4 9 p p 9 9 0 8 1 1 1 5 % 1 * * K B.bXmXmXMXfX9XyXyXyXyX8XK.7XK.O.X.o.M.F.O.O...| T L L L L I I i w w 4 8 4 1 1 1 5 5 5 5 5 8 8 0 p 8 p S =.#.*.*.=.#.a #.k.8.;.Z f S f.v.u.p : 9 D *.n d a a a p q 0 k h k 8 3 > g { 1.A.F.K.K.~.K.~.tX6X6X6X6X6X6X6X6XtXtXtXtXtX~.@.@.7XhXkXkXhXkXHXHXHXkXHXBXxXBXBXzXZXBXBXjXfXhXBXBXjXfXfXBXGXGXMXH.o.o.o.Z.Q.E.m.o...m.I.).=X`.).(.^.&X+X*X*Xv.&.6.Y.U.7.U U [ U U W U.B.E ^ G.B.Q T , 3 p n n S v a 0 9 8 8 8 6 6 6 8 8 5 5 5 5 2 2 2 8 q c v q 9 2 8 9 q c v v v v c v v q 0 8 8 9 q a v v v v v n q 2 1 1 2 1 % % % % % % 1 5 5 8 8 8 8 8 8 8 h h h h h 8 8 8 8 8 1 1 O = O = k c c v v a 8 8 8 2 2 8 8 c c c 8 2 1 1 1 h c c 0 c p 8 3 2 9 c v v p p p p p p p p a p p p a a a a a c a a 0 8 8 2 8 6 6 8 8 8 8 5 6 0 8 2 p $.oX<XDX:X+X+X+X).^.h.c.h.h.f.f.9.8.8.9.8.9.9.8.8.8.8.h.h.h.h.k.f.f.f.f.f.d.d.d.d.d.d.",
"k.k.k.j.d.d.d.d.d.d.u.t.$.S d d a v v v n D D w.e.w.*.D M c v v n *.D n n D D v v v v v v v n n v v v S v 9 2 0 n D D c k k 8 5 5 8 m M V m k 6 & % 8 w.i.=.D $.#.$.;.u.d.k.k.d.;.a : a #.#.#.S a a 9 4 9 9 4 3 2 4 2 X X O % X * w I V.bXMXmXzXBX9X8XyXfXfXjXjXtX7XF.o. . ...R H H H < < < < i U ( s p r 4 4 8 8 1 % 1 1 5 5 5 5 8 8 0 a 8 p S *.#.*.=.=.n a $.h.d.;.s f #.f.l.;.u : 9 =.=.S d a a a 9 0 0 0 h 0 4 > g T 3.~.~.~.tXtXtX6X6X6XtXlXtXtX6XtXyXyXfXsXsX~.@.O.O.7XMXMXhX7XtXkXHXHXkXkXHXkXjXBXBXzXBXVXHXBXhXMXBXMXjXrXfXHXGXmXG.m.o. . .n.N.o. .o.m.I._.).`.`.).(.(.&Xv.k.p.$.s %.T.P.<.U d d d U %.U.B.E Q G.B.W T , 3 c n n n v a 9 9 8 8 8 6 6 2 8 6 5 5 5 5 2 2 8 0 q v v q 9 2 8 0 q c v v v c c v v q 0 8 8 9 p v v n v v n n a 2 1 1 2 1 % % X X % % 1 1 5 5 8 8 8 8 8 8 8 8 h 8 8 8 8 8 5 5 1 1 O 5 O O k c c v n c 8 8 8 2 2 2 8 c m c 8 5 1 1 1 8 c k 8 c 8 8 4 4 9 a c c c c c c c p p p b u 4 4 w i w < p p r 4 r r r r 3 3 3 4 r r 4 3 8 8 2 D oX<X3XDX(.).+X)._.h.9.f.h.h.f.f.f.f.f.f.f.f.f.f.f.f.f.f.8.9.f.f.f.h.h.h.f.f.9.8.8.8.8.8.",
"d.d.d.d.d.d.d.d.d.d.d.u.u.;.$.$.*.*.D *.*.=.e.e.w.w.*.D n v v v n D D n D D n v v v v v v v n D a n D v 9 2 0 n M D c c c k 8 5 6 h c M M M k k 5 % 8 i.{.y.e.u.u.u.f.l.v.v. Xv.oX#.: $.#X#X$X@X.X}.u.e.*.S v p 8 c c 1 X X O o * ) U.Q.0X8X9XBXzXvXvX8XfXfXjXhXiXF.E H H H ~ ~ H H ~ < < i I ( *.N c p 8 8 8 0 8 1 % 1 1 1 1 5 5 8 8 0 p 8 p S *.#.*.=.=.n a $.v.f.&.a f $.l.k.;.u : a =.=.S a a a p 9 9 0 8 8 8 4 i [ 3.~.~.6X6X6X6X6X6XlXlXkXkXlXyXyXzXxXzXjXfXsXA.J J O.aXMXwXS.O.K.MXHXFXdXHXHXyXyXBXVXzXjXCXCXMXiXiXiX7XrXqXBXGXMXG.o.o.2.n.2.m.m. ...m.A.x.^.^.(.(.).(.(.>.f p v n u ( g.T.-.d S S Z [ %.U.Z.Q Q G.B.Q L , 3 c n n n v a 0 9 8 4 2 2 3 2 8 5 5 5 1 1 2 2 8 0 q v v q 9 2 2 0 c v v v v q c v v q 0 8 8 9 a a F F n v n n c 8 1 1 1 2 % % X X X # % 1 5 5 5 5 6 6 8 8 8 8 6 6 6 5 5 2 5 5 5 = O 5 O O h c c v n v 8 4 8 2 2 2 8 c m c 0 6 1 1 1 8 c 8 8 c 8 c *.w.=.N c p k k k c c p p r i w e ) s.P.s.4.s i w w w s ( ( ( ` s b ` s r w 8 2 9 t.;XDX;X^.^.^.^.q.q.8.f.h.f.h.h.h.h.h.h.h.h.h.h.f.h.h.f.f.d.d.d.d.d.d.d.d.h.k.f.f.d.8.8.8.",
"d.d.d.d.d.d.d.d.d.d.d.d.d.d.u.u.i.i.i.y.i.y.t.t.*.=.G D M c v c n D D n D D v v q a v v v v n D 9 n D a 2 2 v *.v n v n n k 5 8 8 h k k m m l k 8 1 8 i..Xe.=.t.=.>.>.u.f.k.k.l.$X#.: >.<X<X<X$X@X{.k.j.j.j.u.t.*.t.t.c # X % * t L.-XQ.D.+.8XxXzX8X+.qXgXiXeXgX0XO.H ~ P P H < H L T I I U #.*.*.N c 0 0 k k k 8 1 % 1 1 1 1 5 5 8 8 0 p 8 p S *.#.*.=.*.n p =./.h.&.f f ;.l.k.$.u : a =.=.S a d a p 9 9 0 8 8 8 w f | A.~.~.[.6X6X6XlXlXkXSXHXSXkXyXzXVXGXZXjXiXuXo.~ ~ F.hXpXE J J K.MXFXdXtXHXHXtX8XmXBXeX8XmXmXpXJ.K.F.S.S.hXHXBXS.E n.n.Q 2.7.C.C.3.C.Y._.>X>X*X&X(.9.} f , $ : v n p ( z.z.-.n S D S S { T.U.Q Q R.N.W L , 1 c v v n v a 0 9 8 8 2 2 2 2 8 6 5 1 1 1 2 2 8 0 q v v q 8 2 2 0 c v v n v 0 c v v q 0 8 8 9 a v F F n v n n c 9 1 1 2 1 % % X X O # % 1 5 5 5 5 6 5 6 8 6 6 5 5 5 5 1 1 1 5 1 O O 5 O O 8 c c v N n 8 4 8 2 2 2 8 c m c 0 8 1 1 % 6 c 4 4 p s -.T.%XXXa.( p c k k k c p p w w I N.NXKXIXKXKX7.<.I L T 7.L.U.U.P.s.7.7.<.I s r 2 : s h.%X/.9.9.q.q.f.h.h.f.f.h.l.l.l.l.l.l.l.f.k.k.k.k.k.k.k.f.f.f.f.k.k.k.k.k.k.k.d.d.d.d.d.",
"=.$.=.;.u.u.u.u.k.d.j.k.k.k.d.u.j.i.y.y.e.w.w.*.N D w.w.D M m c n D D D D D v v v a v v a v v v v n a 2 9 *.D 9 a v n N N k 5 8 8 j l M l l m l k 0 q u.}.y.=.=.$.=.u.k.v.f.u.l.v.[ > d.<XoXd.k.d.d.d.d.d.u.>.>.u.oX@Xd.4 ; 2 4 4.L.R.!.S.+.9XVXBX7XH.bXQ.W.qXqXS.Q ~ H L L L L [ I &.g.T.oX$.n a q 0 0 p p k 8 0 1 # % 1 1 1 1 5 8 8 k 0 4 a *.-.#.#.;.#.u s d.c.>.Z f f &.h.l.#.p : 9 #.=.*.n f f a a q 9 8 0 3 n g._.~.~.dXtXlX[.tXkXHXHXBXkXyXzXVXGXGXZXjX9X7XuXF.o.O.7XuXF.n.E o.K.MXFXtXdXHXMXF.D.MXCXqXE R 3.A.A.A.A.A.E.mXMXuXo.o. .Q m.N.C.C.C.I.)._./.l.;.S S S v 9 : ; 4 v v a a _ a.a.#.n D D v s U P.U.Q n.U.m.Y e 2 2 v v N M v k 9 9 8 8 8 8 8 8 8 8 8 8 5 5 1 1 2 0 v v v c 0 8 8 9 q v c c v v c c c q 9 8 0 v v F v v v v v n c 8 1 1 5 1 % % % % h c h % % % % % % % & & & 1 5 5 6 8 8 8 h h % 5 O . X X 8 B p N n c c r 2 4 0 6 8 c m m z 8 6 & 5 5 8 r s I N.U.Q.Q.-XE.1.I w 9 q c c c a u i B.GXIXPXPXPXPXMXQ.Z.Z.J.H.7XqXaXwXR.V. .Q Q L w w w i &.T.^.h.f.h.l.l.v.v.v.v./.T.l.l.l.l.l.l.j.j.k.k.k.k.k.k.>.8.d.k.k.k.k.k.k.k.k.d.d.d.d.d.",
"a a d n #.;.u.k.k.k.k.k.k.d.=.#.*.w.N M M M m m v N D D M M c c n D D D D D v n n v c v a v n v n v q a v n v p a v n n N k 5 8 8 j l M l l m l l 0 0 e.}.u.=.=.$.=.u.k.l.f.u.l.d.Z f l.;Xh.>.8.8.8.8.8.u.>.>.>.>.v.oXk.f 4 4 > %.6.L.B.M.S.9XBXBX7XB.R.U.G.0XqXn.W L I U U [ [ d } h.#X;X,X*.9 a q q q p p k 8 8 1 # % 1 1 1 1 5 2 8 0 0 8 a *.=.#.#.;.#.u s f.c.>.S u f >.h.h.#.p > u #.=.*.v d f p a q 9 8 8 3 a 5.I.Y.~.~.@.@.tXhXBXBXhX8X8XzXBXVXVXzXjX9XqXH.J.K.F.7XiXtXM.m.E o.K.MXFXtXdXHXkX@.S.mXMX0XE | 3.h.x.^.h.I.E.nXmXH.o. . . .N.P.P.g.T././.9.>.*.N c v n c 9 2 2 9 v n c a n e.a.( n n n a p I C.R. .n.U.m.) t 2 2 v v N n c k 0 9 0 0 0 9 9 9 8 8 8 8 5 5 2 1 2 0 v v v c 0 8 8 9 q v c c v c c c c q 9 8 0 v v F v v v v v v c 8 1 1 5 1 % % 5 5 k m 6 % O O % % % % & % % % 1 1 % 1 & & 1 1 O 1 O . X O 8 N *.N n n p 8 p 8 1 6 8 6 8 z c m & & 5 1 ; w ) L.W.0XwXwXW.R.Z.U.4.( p 4 r p u i H pXPXPXPXPXPXLXiXpXW.W.7X8X9X9XeX+.^ ^ ^ ! ! P I s i i [ g./.%X/.oXoX@X@X@XoXoX/.T.l.l.h.g.j.j.d.t.u.u.u.u.u.u.d.d.u.u.t.t.t.t.j.i.i.t.t.;.=.=.",
"> u d S $.;.u.k.l.k.d.u.;.#.S a c c k 0 8 8 8 8 c m N N M v c c v n D D D D D D n v c c v v n v n q q n D a 9 a v v n n M k 8 8 8 8 m M l l m l c 8 9 e.}.p.t.$.=.=.u.p.f.u.u.f.=.Z $.oXoX>.&.>.>.>.>.u.>.>.;.;.>.v.oXl.Z a 9 : I <.L.L.V.S.8XBXBXD.o.2.| m.J.qXQ P L Y %.%.#.[ &.8./.$X<X<X*.9 a c q q c c 0 0 h 1 % % 1 1 1 1 5 2 8 0 0 9 v *.*.#.#.=.[ g d h.v.>.S p f >.v.f.S 9 4 a $.=.D v d a a v c 0 8 8 4 p -.0.C.A.m.X.O.sXMXMXsXD.+.yXVXVXBXzX9X8XrXrXD.F.K.tXhXhX7X@.m.E ..K.MXFXtXdXHXdXO.O.pXmXH.J | 0.^.x.x.q.I._.nXuXF.o.n.2.3.C.g.g.I.OX/.8.[ Z v c c c q 8 2 2 9 a n n v a n =.-.n a v c p u I C.R. . .U.m.) e 4 2 v v N n v c 0 0 9 9 0 0 9 9 8 8 5 5 5 5 2 1 2 0 v v v c 0 8 8 9 q v v v v c c v c q 9 2 0 v v A v v v v v v k 8 1 1 5 1 % % 5 h k k 6 5 % O   X O % % % % % X O O O O O O O O O O . X 1 m _ *.*.*.n 0 0 9 2 D w.N 9 8 8 8 c 2 1 ; , w Y Z.wXwXmXCXCXMXwXH.Q.U.7.L < e I U L | bXLXPXPXPXLXVX7XpXpXuX7XtXyX9XrX/ / D.H.V.! P ) #.d i f &.T.%X8.5.a.a.a.u.a.8.f.d.d.d.d.d.d.d.;.-.S a v n *.=.$.*.S n v v v v v v v v v v n S ",
"d [ &.u.d.d.j.k.j.u.$.S n a a 0 8 8 8 8 8 6 6 6 0 c M N M v c c v n D D G D D D n v c v n n v a v v v n n a p 9 v v n n M k 8 8 8 8 l M l l m l m 0 9 w.}.p.u.$.=.=.,.u.u.u.u.u.$.Z d.#Xk.&.>.>.>.>.>.>.>.>.;.;.k./.oXl.Z d a p i %.s.P.m.O.8XVXmXS. .<.W  .H.pXn.W L Y { [ %.#.h./.oX$X;X<X$.p a c k k c 0 0 0 8 1 % % % % % 1 5 1 6 0 0 9 v *.*.#.$.$.d g [ v.h.>.n a S u.l.d.D q 4 a $.,.D v v a a v c k h k 8 4 d 5.0.3.3...'.mXmXuXF.F.iXCXGXxXyX9X8X8XK.+.K.O.@.uXkXhX7XS.o.R R Z.MXFXsXdXFXdXo.^ wXmXG.J | 0.^.^.^.h.I._.sXE.M.n.m.m.6.0.0.h.(./.f.#.f d v M v a 2 1 1 2 v v n n c p v n -.d p a p 8 u s N.E. . .U.m.Y t 4 2 v v n n v q 0 0 0 0 0 0 0 9 8 8 5 5 5 5 2 1 2 0 v v v c 0 2 8 9 q c v v c c c c c q 9 2 0 v v A v F F v v v k 8 1 1 5 1 % % % h k h 6 6 5 %       X O O % % O O O O O O + +   O . X X 1 B w.n *.D n a 4 4 a }.j.*.p p r 4 r , , , i 7.U.Q.wXBXGXPXPXGXgXJ.0XmXpXE.R.Q.-X-XQ.A.aXCXLXLXVXxXxXtXsXpXuXtXkXkXyXrX+.7XmXMXwX2.L ( n d d I %.0.T.5.5.;.;.;.t.a.d.5.5.a.d.z.z.l.l.n a a 4 8 8 p c 9 9 9 4 8 8 8 9 8 8 0 a a v S *.",
"8.8.8.d.k.k.k.d.*.S v q 9 9 0 8 8 8 8 8 8 8 8 8 0 c M M N M v v c n D D G G G D n n v n D n v q v n n v a v a a v n n n M k 8 8 8 j m M m m m l m 0 9 =.}.p.u.$.=.=.=.>.>.u.>.>.#.S k.v.>.;.>.>.>.>.>.>.>.;.;.$.d.oX#Xl.S n S S w U 4.6.n.O.8XVXjXS...6.1.m.J.pXB.W L U U #.5.8./././.oX,X<X#.9 a c c c c k k k h 1 O O % % & 1 5 1 6 k 0 9 v =.*.*.*.#.a u =.v.k.=.a p S f.l.u.S a 9 a F =.D v v a a v c k k k 8 ; w %.1.1.I.].nX'.Z.o.o.uXHXGXkX8XrX8XyX8XF.@.O. .o.7XhXfXK.M.R H H m.mXFXsXdXFXdXo.E 0XmXF.J | 0._._.^.h.h.T.Y.M.o. . .3.1.&.c./.v.f.#.d i s c M v 8 1 1 9 v N n v c a 0 c n ( s a a p 8 u s 6.Q.2. .U.m.Y t 4 2 v v n n v q 0 0 0 0 0 0 0 0 8 5 5 5 5 5 2 2 2 0 v v c k 0 2 2 8 0 c v v c c v c v q 9 2 0 v v d F F S n v v q 8 1 1 5 1 1 % % h k 8 6 6 6 1 % % O       O O % % O O O O O O + O X X X 1 M w.n n n p u > d k.{.;.s u s w > w , < T N.E.W.uXiXGXLXPXPXGXjXiXhXhXhXhXbXmXmXbXsXuXhXBXVXzXzXxXHXAXkXdXtXdXFXHXAXfXjXmXZXMXbXN.) u u d -.5.5.5.8.l.g.a.t.a.a.a.a.z.d.a.;.-.*.*._ p p 8 6 5 2 5 5 1 5 8 8 8 8 8 8 8 k v n n D =.u.",
"8.8.8.d.k.d.;.*.p 9 9 9 0 0 8 5 h 8 8 8 8 8 8 8 k c M M N M v v v v D D D D =.D v n n n D n a a n c v v v a a v v n n n M k 8 0 8 j m M m m m l l 0 0 =.}.k.p.=.=.=.=.t.=.u.>.$.#.$.k.k.;.>.>.>.;.;.;.;.;.$.$.$.;.v.#Xv.S n S D p u i Y  .M.7XBXhXM.3.I.0.C.W.wXR.7.T I U ;.h././.v.h.l.$X*X*.9 a c v c k 0 k k 8 1 O O O % & = 1 1 8 k k 0 n e.*.*.*.S u a >. Xk.#.a a *.k.l.;.S 9 9 a $.=.D v v a c v c k k k 8 : 3 s %.8._.nX-Xm.R H  .pXCXMXD.rX7XiXtX@.@.F...J X.J.hXfXK.O.P ~ H o.hXFXsXdXFXsXo.J 0XmXF.J | 0.I.^.^.q.g.I.N.m.o. . .3.8.>.+Xv.d.#.s I s w a c 9 % # 2 v D D v c a p 0 a n n a a a p p p s 6.Q.n. .U.N.Y t 4 2 n v n v v q 0 0 0 0 0 0 9 9 5 5 5 5 5 1 2 2 2 0 v v c k 0 8 2 8 0 c c c c q v c v q 9 2 0 v v d F S S S v v 0 2 & 1 5 1 1 % 5 k k 6 5 6 5 1 6 5 % O         O O O O O O O O O O O O X 1 N w.n ( d > , d  X,Xl.-.L { <.%.Y | 7.N.Q.bXbXaXiXfXZXVXGXVXVXjXjXkXxXjXjXhXgXaXaXaXhXHXGXjXrXjXGXHXFXAXdXdXFXKXHXHXBXZXZXmXpXE.5.U > 4 d j./.h.5.&.z.a.*._ ( _ ( ( ( ( ( s b b b b c c 8 8 5 5 8 8 1 5 8 8 8 8 5 5 8 k D D D D =.t.",
";.>.d.d.u.$.d p 9 9 9 0 k k k 8 k h h h 8 8 8 8 k c M M M M M m n v D D D G D D n D N v n v v n N v a v v v a n n n n n M k 8 0 8 j l M m m m l k k q =.j.i.i.=.=.=.=.e.=.>.=.S S >.l.>.;.>.$.;.$.$.$.$.#.#.S Z #.k.oXl.S v n n a 4 , e Q M.qXBXaXM.3.h.0.C.W.W.U.<.I U #.;.l.#X/.d.8.h.@X$X$.p a v v a 0 0 k k 8 1 O O & & & 1 1 1 5 h k 0 n e.=.*.*.d u f u.v.j.#.a a *.l.l.;.n p 9 f $.=.S a n a a v c 0 0 p p 2 , > f f.&X;X3.{ L ~ W E.pXF.O.H.tXiXJ.@.O.O.H P  .J.hXjXK.o.P < ~ ..dXMXdXdXFXuXo.J W.mXF.R | 3.q.q.q.q.0.g.3.3.3.3.3.1.f.v.&Xl.#.s e K K t c k 2 # # 9 N D n c p a c p p p a p a a p 9 u i 6.Q.n.Q B.N.Y s 4 2 n v n v v q 9 0 0 9 9 9 9 0 5 5 5 5 5 1 1 1 5 k c c c c 0 8 2 8 0 q c c q q v c v q 9 2 0 v v v F S S n v v 0 1 & 1 5 1 1 % % h h 5 5 5 5 5 5 5 5 % % O O . + + O O + + + + O O O O O 5 N w.n ( U , , 5.-X%X5.{ <.A.U.U.E.Q.bXbXnXNXMXhXiXeXzXBXBXxXjXjXkXBXBXzXjXfXiXiXgXhXBXGXBX8XqXZXHXkXdX~.dXFXFXFXFXAXHXBXeX0XQ.m.U u 9 9 Z l.$X/.8.&.d.;.( n b ` b s s s s b b b B B r h z h h h 8 6 5 8 8 8 8 8 8 8 v D u.u.t.$.;.u.",
">.d.d.>.$.d p 9 c q 0 0 k k k k k k h h h 8 8 8 k c M M M M c c n v D D D D D S n D N v v a v D v v a v v n v v n n n n M k 8 0 8 j l M l l m l k k q =.i.p.i.u.=.=.=.e.=.t.=.S d d.l.;.;.;.Z $.S S S S S S Z d Z >.v.f.v v v v n 4 , e W M.qXCXaXm.1.8.5.0.E.W.N.' I U ( =.h.oXl.;.8.l.#X$X$.u a v v a 0 0 k c 8 1 O O O & & & 1 1 6 k 0 0 n e.=.*.#.d 9 d u.v.d.#.p a =.l.l.$.n p 9 a $.$.S a n a a a v p 0 p p 8 , , i h.;X+XU %.U i Y N.N.Q S.H.0XJ.K.K.O.E H T  .W.hXhXJ.o.R < H 3.nXMXsXdXMX~.^ J H.mXF.R | 1.1.1.5.5.8.0.2. .| 2.1.&.f.*Xv.;.I e y y K ] c k 2 # 2 v *.e.c 0 0 c v c p 4 p p a a a 8 u i 6.Q.n.Q U.N.` s 4 4 n v n v v 9 9 9 0 9 9 9 9 0 2 5 5 5 5 1 1 1 5 k c c c c 0 8 2 8 0 q c c q q v c v q 9 8 0 v a v F S S S v v 0 2 % 1 5 1 1 % O 6 6 5 5 6 6 h O % 5 5 5 5 & % + + + O + + O O + O O O O 1 *.r.( U i i %.0.0.C.1.| A.E.Z.Z.Q.Q.Q.wXbXmXaXqXqXeXxXVXGXVXBXkXMXBXjXfX8X8X8XqXgXhXCXMXrXD.ZXGXmX@.~.[.AXFXKXFXAXkXHXgXD.H.W.2.i u 9 9 S l.$X/.8.=.;.#.a r i b b b ` b b b B B B m z h 8 5 5 7 h h h 0 0 0 k c v v =.j.{.l.d.=.$.&.",
"k.t.S v a a a 9 4 9 k k k k k k 8 8 8 8 8 8 h h k M M M m c c M v v S D G G D D =.D v c q q v D v v v v v v v v n S n n M k 8 0 8 k k M M M l k k q q *.j.p.p.=.D e.=.e.i.=.F S u.>.>.;.=.$.S Z S S S S S S S S Z $.u.$.a a c c a p > < T B.wXCXaXm.{ 8.T.P.E.Z.2.Y Y %.#.#.8./.v.;.&.f.#X#X$.9 a v v c 0 0 k c k 6 %   O 5 h h X O 1 8 0 q v D $.$.#.u 9 d >.v.d.#.p p t.l.>.=.S p 9 n =.$.D S d a v v v 9 9 p p ; 4 ; w 5.T./.;.#.s d &.3.| R S.H.F.@.S.F.O.~ < , H G.hXfXK.o.P L L <.pXMX~.sXMXJ.J E R.mXG.R | Y.).q.5.1.&.%.3.| 3.<.[ f.*XOXn s t y K K y t c k 2 # 2 n D v 4 0 c a 9 0 p p p p a v c a p i 1.E.m.2.U.7.I i 4 0 a v v v v v a a a q 0 9 9 0 0 8 5 5 5 5 1 % 2 0 v c c q 9 8 2 8 9 q v v c c q c c q 0 9 0 a a v F D D v a a 1 1 % 1 1 1 % X         . O % % % % % & 5 5 5 5 O + + + O O O O O O O X X 8 *.=.( U U Y Y Y T T P  .m.Z.F.F.J.W.R.W.wXpXwX7X7X9XBXGXLXGXBXiXiXgXqXK.+.+.+.^ +.gXMX8X^ eXCXmX+.o.[.dXAXFXFXdXkXBXBX8X+.pXG.R e 4 9 : S oX$X$Xl.#.d a a s s s b b b x x x b b b m h z z h h 7 7 8 5 4 9 a S =.u.d.l.l.k.>.;.;.&.$.",
"t.*.v a a a a 0 0 0 0 k k k k k 8 8 8 8 8 8 h h h c M M M c c c v v n D D D D D =.S c a a v n D n n v n v v v v n S n n M k 8 0 8 k k M M M l k k q 0 D i.p.p.=.D =.=.t.u.=.d F u.u.u.=.$.#.S Z S S S S S S S S Z $.u.$.a a c c a a 3 < Y B.0XCXaXm.{ 8.l.P.E.B.7.) U %.-.#.d.oXl.;.&.d.OX#X$.u a v v c 0 0 k c k 5 X . O 5 6 5 X % 5 0 k q v D *.#.S f u f &.v.8.n u p t.l.>.#.n 9 4 v $.*.S n v a v n v 0 9 p c ; r 4 w d -.5.z.;.d d #.%.Y ! B.G.F.M.Z.K.M.~ < , L G.MXhXK.o.L i L <.'.nX'.sXMXJ.J E R.mXK.R | I.+X).^.h.8.1.1.2.7.1.8.+X*Xk.d t t y y y y t c 0 1 # 8 n n q 4 0 c a 9 0 p p p p a v c a p u <.E.m.2.U.7.I t 4 0 a v n v v v a a a a 0 9 9 0 0 8 5 5 5 5 1 % 1 0 v v c q 9 8 2 2 9 q c v v c v v c q 0 0 q a a v F D D v a a 2 1 1 1 1 1 O X                 O O O O O % % O + + + + O O O % 1 O X . # 8 n *.I L Y ) <.<.| W P R E o.F.E.J.J.G.H.J.0XJ.H.H.8XfXjXBXBXhXqX0XqXqXrXD.O.^ ^ H.MXgX+.+.mXCX0Xo.o.~.AX].].].~.kXBXmXrX+.uXG.W e 4 9 4 *.#X$X#Xl.;.a a b b x b b b b b b b B b m z 8 8 7 7 h z h 8 4 p S t.j.k.k.d.k.h.f.>.&.&.&.&.",
"D v q 0 0 k q k k k k k c c q 8 8 h h h h h h h h k M M M c k k c v n D D D D D w.n 9 a v n n n n n n n v v v v n n n n M k 8 8 8 k k m M M l k k q 0 D i.i.p.=.D =.w.y.u.D v S u.u.;.=.$.#.S S S S S S S S S S Z $.u.$.a a c c c 0 2 w Y V.0XMXpXn.Y ;.l.T.E.B.<.Y U %.-.$.d.oXh.>.;.d.oX#X;.u a c c a p 0 0 0 p 6 # X 1 8 5 % 1 % 1 1 1 2 a D e.#.S d f u =.oX>.s 4 u d.v.>.#.n p 9 v $.=.D N v v n n c 0 0 p p 1 B c 4 , 4 a j.d.=.Z d d L P N.Z.B.M.Z.G.n.< w > L E.MXhXK.o.L i s <.'.nX~.sXMXJ.J E W.bXG.R T 1.I.).).+XoXg.1.3.3.5.).<XOX#.s K K K y y t p p 2 # 1 q n v 8 4 p c a 9 0 p p p p a v c a p u <.E.m.2.U.7.I u 4 9 a v n v v v a a a a q q 9 9 0 8 5 5 5 5 1 1 2 0 v v c q 9 2 2 2 8 0 q c v v c v k 0 9 0 c v a v S D S v a a 5 2 1 1 1 % O X       O O X                         + + O O O % 5 O o X 4 a v a -.%.%.<.4.<.| Y R P J E o.F.J.J.J.J.7X0X7XH.H.rX8X8X8XqXqXiXaXaXwXuXF.o.E +.aXBXrX/ rXCXMXM.R ..].FX].X.| M.mXBXjXrX+.wXB.W e 8 9 4 S .X$XoXl.;.s a b b x b b b x m B B B b c r 4 4 6 8 8 z m v *.;.d.l.v.v.l.h.f.h.f.8.;.&.#.[ ",
"c 0 0 8 0 k k 0 c c k c c c k 8 h h h h h h h h h k m M c k k k k v n S D D D D D v 4 9 n D n v n n n n v v n n n n n n M k 8 8 j k k m m m l k k 0 0 D i.p.u.=.D G =.y.y.F a D u.u.=.$.$.#.#.S #.#.S S S S S S Z $.u.$.a a c k c 0 4 w U n.H.mXwX2.U -.z.T.Y.N.<.Y U -.=.=.d.v.l.>.;.8.OX#X;.p a a a a p 0 0 0 c 9 2 ; 2 8 2 ; X X 1 3 2 8 a n =.d f f u > [ l.1.f > w ;.h.;.S S a 9 n =.$.D N n c n M c 0 0 p 1 2 w._ r , ; , S d.j.$.s i i L 3.N.m.V.Z.G.n.< w 4 L Z.mXhXK.o.L e s %.'.pXJ.sXMXJ.J E W.bXG.R Y Y &.0.I.+X$X/.6.N.6.I.:X;X8.i t K K y y y r a 0 1 # 2 c v 0 2 4 0 c a 9 0 p p p p a v v a a u <.E.m.2.C.7.I w 4 9 a v n n v v v v v a a a 9 0 0 8 5 5 5 5 1 1 % 9 v v c 0 9 2 2 2 8 9 0 c c v v v q 9 9 0 c v a v S D S v a a 6 2 1 1 % O O X     O % % O .   O O X .   .       O O O O O O % X X o # 9 a S u.k.z.5.1.<.%.Y T R R ! J J E F.0XiXuXuXuXiX7X7X7X7X8X7XqXiXaXaXaXpXbXE.m.o.W.mXaXO.^ qXCXpX! H | ].DXq.g <  .mXMXgXD.+.wXM.P w 8 4 : a k.@XoXj.=.b b b b x b b b z m b B B m z 4 4 4 r r r B *.e.k.h.h.h.h.h.h.h.h.h.k.>.$.#.d a ",
"0 0 0 0 k k k 0 k c c c k k k k h h h h h h h h k k c k k k k c k a v n S D D D D q 4 0 n D n v n n n n n n v v n n n n M 0 8 8 j k k l l l l l k q 9 D i.u.u.$.G G e.u.=.v a =.u.u.e.$.$.S S S S S S S D S S S Z $.p.=.a l c l c 0 2 w I n.H.mXW.2.U ( j.T.Y.N.' U U -.=.=.d.v.l.>.;.8.oX$Xu.a a c c q p p 0 9 a p 4 : 1 1 : * * * , w e i U %.%.U f [ f g L 1...L < < %.0.} U #.p u a $.#.n v v c n M v 0 9 p 2 4 i.t.n p 3 , 4 #.t.t.#.s i L | 3.2.N.Z.U.n.< w 4 i Z.sXhXK.o.L w i ) Y.pXK.sXMXJ.J E R.bXG.! | Y Y %.1.f.oX%XY.C.C.+X;Xh.d s t t K y y y w p 8 # # 2 v v 9 2 4 p c a 9 0 p p p p a v v a a u <.E.3. .L.<.L w 4 9 a v v v v v v v v v a a a 0 0 8 5 5 5 2 1 # % 8 c v k 0 9 2 2 2 2 8 9 q k c c k 0 8 9 0 c v a v S D S v a 0 5 2 1 1 O O O % 6 6 8 h h 6 5 5 % % % % % % % O % O O O O O O % % X o : S ;.d.l.j.d.5.&.%.Y Y W T R ! H ~ E F.uXuXuXuXsXsXuXuXuXtXuXiXsXaXpXpX'.-X-XP.2.m.bXmXG.^ S.mXNXZ.H i [ x.`.&., < <.bXmXwXD.+.0XV.P r 8 9 : 9 t..X Xu.#.b b b b b b b b m m B m c r 4 3 r 4 u a *.t.j.j.k.h.h.h.h.k.k.k.f.k.d.;.*.S a 9 ",
"0 0 k k k k 0 8 k k c c k k k k h h h h h h h h c c k k k k c c q a v v n S D D v 9 4 p n N n n M M n n n n v v n n n n M 0 8 8 j k k k l l l l k q 9 S y.u.u.$.D G e.y.D p a =.u.t.=.=.$.#.S S S S S S D D S S S =.p.=.a k c l c 0 8 4 I ' R.aXR.2.) n a.T.I.0.) U ( -.;.$.u.l.l.>.;.>.oX$Xu.a c c q q p p p 9 p p 4 : : 3 4 < i T 7.U.Q.Q.Q.'.A.m.m.A.A...X.m.3.| T L | 3.{ { -.d s #.&.$.n n v c n n v 9 9 p 9 4 d.j.t.n p 9 4 9 n t.d.#.f L { |  .m.Z.U.2.< 8 4 i m.uXiXK.o.i u i U U.Q.F.uXMXJ.J E R.bXG.! Y Y { %.{ &.l.%X_.A.Y.-X_.[ g s e t t t y y 4 4 1 % 1 9 c q 8 2 4 p c a 9 0 p p p p a v v v a u <.E.3.| N.<.e w 9 9 a v n n v v n n v v v a a a 0 8 5 5 5 2 1 # % 8 q q 0 0 9 2 2 2 2 8 8 9 0 q k 0 9 8 9 0 q a q v S S S v a 0 2 2 1 % O O O 1 h h h h h 6 5 5 5 5 5 5 5 5 5 5 5 1 1 = % 1 1 1 X ; 9 =.k.l.f.>.;.;.;.&.%.Y T T R ! ! R E O.E.pXuXuXuXsXsXpXuXpXsXsXuX'.'.'.bX-XXXP.{ L 7.-XbXV.Q R.nXbX<.e u f 9.(.} > w ) Q.bX0XS.+.H.n.L p 8 0 : 2 *. Xl.=.n b b b b c b b b B B B c r 4 4 4 p n #.;.d.j.z.j.k.k.k.d.8.8.>.>.>.>.;.*.D N v k ",
"9 0 0 k 0 0 0 8 k k k k k k k k h h h h h h h h c c k k k k c c q a a v n F D D 9 9 8 a n n n S M M n n n n v v n n n n n q 8 8 k k k k l l l l k 0 8 n e.u.t.$.D w.y.e.F 9 v =.e.e.e.=.$.#.S S S S S S D D S S S $.p.=.a k c l c 0 5 4 I ' !.pXB.2.) a t.T.I.C.%.U ( ;.;.$.>.l.h.>.;.>.oX$Xd.a c c q q p p p 9 u u 9 u a -.d.g.Q.'.pXhXsXiXsXhXkXdXlXdXdXtXtX[.K.A.A.C.Y.Y.3.3.6.Y I %.5.&.( n v v v v c 9 9 p 9 4 ;.j.k.u.#.a p 4 4 n ;.;.U f U T | m.U.U.2.< 0 4 e  .7XiXK.o.L p a U C.E.M.uXMXE.J ! K.bXZ.P T Y { { { } d.%XY.C._.+X:.f i i e t y y t y y 3 # 1 2 0 0 8 8 9 4 p c a 9 0 p p p a a v v a a u %.Y.3.| N.' e < 9 9 a v n n v v n n n v v a a a 0 8 5 5 5 5 1 # % 8 0 0 9 8 9 9 9 9 2 2 8 8 9 0 0 9 8 8 9 0 0 9 a v S S n v a q 1 1 1 % O O % 5 h h h h 6 6 5 5 & & 5 5 5 5 5 5 8 7 5 5 5 5 5 2 1 n }.@Xl.u.>.>.8.8.8.1.{ Y W R R E  .m.F.J.'.'.uXuXpXpX'.W.E.~.sX'.E.~.'.'._.I.%.s w u s.-XR.2.2.Q.bXL.I w 9 a p.x.S 9 w I m.R.!.S.O.J.m.L r 8 0 : ; S l.j.#.n b b b b c b b b B B m z 8 r c n =.t.j.z.j.d.d.d.k.d.8.>.;.&.$.$.=.=.=.D M M m k ",
"8 0 0 k 0 0 8 8 k 0 8 k k k k h h h h h h h h h k c c c c c c c q q a v v n S D 4 8 9 c v v n D D N n n n n v v n n n v v q 2 8 0 k k k l l l l l k 8 n e.u.u.D D e.y.e.v 9 v =.e.=.e.=.$.$.S S S S S S S S S S S =.p.=.v k c l l 8 5 8 s <.R.wXN.<.) a -.z.I.P.%.Y #.;.;.$.;.k.h.>.&.>.oX$Xd.a v c q 0 p a p 8 p u u f 1.).<XnXsXiXfXhXjXkXxXSXSXSXlXlXlXlX6X6XtXdXsXpXsX'.A.Y.3.Y T %.1.%.( a v v v v c p 9 p > > ;.>.k. Xd.d p a 9 4 n ;.$.d f Y W m.U.U.2.< 9 8 w <.W.uXF.m.L i a U 6.G.M.0XMXH.J R E.bXZ.P | { U [ %.[ =.T.P.C.).^.[ f a w r r y t t t y 3 X 1 9 q 9 2 8 q 2 0 c a 9 0 p p a a a a v a p u %.Y.3.| N.' e 3 8 0 c v n n v v S n n v a a a a 0 8 5 5 5 5 1 % & 8 0 8 8 8 9 9 9 9 8 2 2 2 8 9 9 8 2 8 9 0 0 9 a v S S n v a 9 1 1 1 % X O 1 5 6 5 5 1 & % % % % % & 1 5 5 5 5 8 8 7 7 7 2 4 4 k.k.{.d.$.;.f.d.f.f.8.1.<.| 2.2.Q o.B.W.'.uX'.J.uXuXuXW.G.m.m.C.'.A.I._.>X).%.< ; * 3 s XX-XL.7.7.-XXX) u 4 9 a p.8.Z 9 u w Y B.G.O.O.J.n.L r 8 2 # # v j.t.n a n b b B c b b B m c z 8 8 c *.e.k.j.j.j.j.j.d.8.;.;.;.;.$.$.*.*.e.e.w.M m m l k ",
"8 8 8 8 8 8 8 8 h h h h k k k k h h 8 h h h h h k c c m M m m c 0 0 p c c a q 0 8 p v N N n v n D D D D D D N n v D n n n k 1 % 5 8 j k k k k k k j 8 k D i.u.w.D y.y.D a a v $.t.>.,.=.=.=.=.=.$.*.S S S S S S S $.=.D a 0 0 k 0 8 8 6 p _ L.-XN.W ) s d {.g.5.1.%.( -.;.=.t.j.k.$.;.>.v.$Xk.S c c c a p 9 8 8 p < { A.dXdXsXsXfXyXyXxXSXSXSXSXSXAXlXlXlXAXlXlXlXtX~.F.O.X.J X.{ T i f #.( p p a c v v n c p 9 : 9 #.8.v.h.h.h.#.S p > w _ =.=.i U <.C.U.E.2.< p p 4 L U.bXW.m.L w u ( 4.2.O.0XmXK.! ! U.bXZ.R | { [ [ [ #.%.%.I.0.).f.s s a 4 r 8 4 7 x x 3 * X 2 c p 8 8 8 8 9 p p p 0 0 a a c c v v a a u u %.P.6.W 7.) w r 4 z c B n n a n S n d d n d a a 2 6 8 8 5 5 1 1 1 1 5 2 2 3 4 p 2 2 2 2 2 4 8 8 2 2 8 8 8 0 p a a p a =.=.*.n 2 1 1 % X X % 1 8 8 8 5 5 5 1 5 1 O & 5 j 6 6 5 5 8 8 1 X 1 #.k.oXd.d.>.>.>.>.u.d.f.9.8.8.8.0.1.| W Q m.Q.pXpXJ.F.F.K.F.M... ...0.q.).:X;Xl.n , o 3 1 3 ` z.XXL.' 7.XXT.( i p 9 n ,.8.F 9 u s ) U.G.S.O.o.2.L > 4 8 2 # 8 *.t.*.b B B b B b m m c p 9 9 a *.u.j.j.j.j.j.h.j.d.;.=.*.=.=.*.*.*.w.e.N N v c k k k k ",
"8 8 8 8 8 8 8 8 8 h h h h k k k 8 8 8 8 8 8 8 8 c c c c c c c c 0 0 p c a p 0 0 8 0 m v n v n n S S n N n n n n v n n n n c 2 2 5 8 j k k k l l k j k c G e.e.D G y.e.v q d F S >.>.,.=.=.=.=.=.$.*.S S S S S S S *.*.n q 9 0 0 9 8 8 6 0 _ s.XXN.' ) s a l.l.8.5.%.#.-.;.;.a.j.k.=.;.;.v.,Xk.n c c c a p 9 8 8 p i m.tXAXlXtXyXyXyXkXSXSXSXSXSXAXAXAXAXAXAX6X[.X.X.X.X.X.J R | T L i d #.S a a q v v v v a 0 8 1 u $.d.c.f.f.h.u.*.d p w p n ;.#.U | N.Z.Z. .< w 8 , i 6.-XR.n.P g u ( 4.2.V.7XmXH.! ! U.bXZ.R W { [ #.#.#.%.%.I.0.).f.s a p 8 9 0 8 8 z z 3 X # 6 p 0 8 8 8 4 9 p a p 0 0 p a c c a b a a u u %.P.6.W 4.%.r r 8 z c B n n a n n n d d n d a p c k 8 8 8 5 % X 1 1 2 2 ; ; > 9 4 8 8 8 9 8 8 0 2 2 2 2 8 0 c v a 9 a $.=.*.S 4 ; 1 % O X % 1 8 8 8 2 5 5 5 5 5 5 1 1 5 6 h 8 8 8 8 3 4 ( d.h.d.8.9.9.8.d.k.k.k.f.8.8.8.8.5.<.<.W W 2.M.Z.M.o.E E J J R ..3.0.I.<X,X X=.8 * = 1 7 3 7 b r.L.s.' 7.XXs.i 4 3 4 p >.>.F 9 9 u U N.R.S.^ ^  .L > 4 8 1 % 6 _ t._ b B b B b b m x c p a #.;.u.j.d.d.j.j.j.j.d.d.;.=.=.*.*.D N N N N v m c c k 0 k k ",
"8 8 8 8 8 8 8 8 8 8 h h h 8 k k 8 8 8 8 8 8 8 8 c k 0 8 0 0 0 p 0 0 p p 0 0 0 8 8 0 c v v v v n n n n n n n n n n n n n n a 2 1 8 8 8 k k k k k k k k M G w.w.G e.i.D 4 q v S S >.>.=.=.=.=.=.=.$.$.S S S S S S n S D v 9 2 8 8 2 8 0 6 8 b 4.T.7.' ( s a z.l.d.5.-.#.-.;.;.a.j.k.;.;.;. X;Xk.a v c c a 9 9 8 8 p [ '.FXAXlXtXfXyXkXSXHXSXSXSXAXAXAXlXlX6X[.[.@.J H J J H H T { L w g s *.S a a k c v v v a 9 4 1 u ;.f.c.8.9.f.k.d.=.a 4 3 p #.;.{ | m.Z.Z.W < 3 r 4 g 1.Q.Q.n.T i u d <.7.o.7XhXG.! P B.-XZ.R W Y [ #.#.#.%.%.0.g.).8.s p 9 8 8 8 h h h 6 1 o 2 8 0 8 4 8 8 2 9 0 p p 0 0 a a c c n b a a u i %.P.6.W <.) r r 8 0 c v n v v n v n n n n n a 0 k 8 5 5 5 5 5 1 5 1 ; 4 a a 9 : # 2 9 9 q 9 0 9 0 0 0 0 0 0 k 9 9 9 a =.;.=.*.9 ; 1 % % O 1 2 8 8 8 8 8 6 8 6 6 7 5 6 8 8 k 8 2 8 p n =.d.j.d.>.9.9.9.9.f.c.v.f.8.8.8.8.:.&.%.{ | | | | .. .R R P R | 1.0./.1X<X@Xt.a ; = 1 5 = 7 1 1 3 s ` ) I s.XXa.i w 4 9 a ,.,.S 9 9 s %.U.W.S.^ E Q L 4 8 6 1 X 2 D t._ b b b b b c c c c n *.d.l.l.k.d.8.d.g.g.d.d.d.;.#.n n n c c c c c 0 0 0 0 0 0 8 8 ",
"5 5 5 8 8 8 8 8 8 8 8 h h 8 8 k 8 8 8 8 8 8 8 8 c c 0 c c c p 0 p 0 0 0 0 8 8 8 8 0 c c c c c c v v n n n n n n n n n n n v 9 2 8 8 8 0 k k k k l k k M D G w.e.y.y.l 2 q v F $.>.>.=.=.=.=.=.=.$.$.#.S S S S S n S D a 8 2 8 8 2 9 0 8 2 p ) L.' Y ( s p z.l.d.5.%.-.-.;.;.t.d.z.a.>.;.oX<Xj.p v c a 0 9 8 8 8 4 #.nXFXHXkXtXfXkXAXSXHXSXSXSXAXAXlX[.@.X.X.X.X.....| { T T T I w , , a *.D q v q c c v c p 8 2 2 p $.f.c.8.9.d.l.l.j.*.p 4 4 u #.%.3.3.N.Z.| < , r 4 > Y U.Q.B.W L u d %.<.o.J.aXF.P T N.'.B.R W Y #.#.#.#.%.%.5.I.%X1.s u 2 8 8 8 h h 8 1 X o 0 8 8 2 8 8 4 2 9 0 p p 0 0 p a c b n n d a a u -.P.6.T <.( r 8 8 a v v n v v n v v n D S v a 0 8 8 8 8 5 1 1 1 1 ; 4 S f.l.d.$.S v a a p 9 a v a q 0 9 0 0 q q 9 9 a =.;.;.=.a ; 1 % % % 1 5 8 8 8 8 8 8 8 8 8 7 8 h 8 8 4 8 p n *.u.j.d.8.8.9.x.9.:.9.9.9.9.8.:.8.9.9.8.&.%.%.1.1.| { { | | | 6.5.0.T.;X,X#Xk.v 9 1 1 1 5 5 = = X X ; w e I I ) 5.( w u d S $.v.v.,.S S #.5.Y.Q.D.^ ! W L w 8 6 1 X 1 N w.N b n b b s b N _ _ =.d.k.l.k.d.d.d.8.g.h.d.j.j.;.n a p 0 8 8 0 8 8 8 8 0 k k 0 8 8 ",
"5 5 6 6 8 8 8 8 8 8 8 8 8 8 0 0 8 8 8 8 8 8 8 8 c c c m M v c 0 0 0 0 8 8 8 8 8 0 0 c c 0 0 0 0 c v v v v n n n v v v n n v 0 8 2 8 8 8 k k k k l k k c D w.e.y.e.D 8 2 v v S =.>.>.=.=.=.=.=.=.=.$.$.#.S S S S S S D a 9 8 8 8 2 8 k 5 3 w U 7.' U ( s p a.l.g.d.1.-.-.-.;.t.d.j.d.>.;.@X<Xu.9 v v a 0 p 8 8 4 4 d '.FXHXAXkXhXAXSXHXFXSXSXAXlX6X[.X.X.X.H X.{ { %.{ Y U U s s , ; : a *.n k v k c c v c 0 6 2 2 4 #.d.v.8.9.d.l.d.j.j.=.p 3 4 i U 3.C.C.Z.<.< > p 9 > L L.Q.B.2.L i i ) W o.J.aXS.! P 2.Q.B.R R Y #.#.#.#.-.%.1.I.%X;.u u 2 0 8 h k h 1 O X X c 8 2 2 2 8 8 2 8 0 p p 0 0 p a v b n n n d a u %.g.6.T ) U r 8 4 9 a v n v n n v v D D N v q 0 8 0 k 8 5 1 2 4 v S u.v.+X&XOX/.d.u.>.$.S d d d a a a a v v v a 9 9 d ;.>.>.;.v # % & % % 1 5 8 8 8 k 0 h h h h 8 8 6 2 3 u n *.u.u.d.8.8.8.h.(._.q.q.9.q.:.} :.q.q.h.h.9.8.&.&.f.0.1.{ { { 1.0.g.l.oX1X,X{.S : 2 2 1 1 O = 5 5 1 2 4 u s ( -.&.g.T.k.>.f.v. XOX*X$Xv.=.;.t.g.-XpXH.o.E ! I w 8 6 1 X 1 M =.N b N n a a n *.t.a.j.k.j.d.d.8.8.8.8.f.h.h.k.j.=.s 4 2 2 2 8 0 0 0 k c c c c k 8 8 ",
"5 5 5 6 8 8 8 8 8 8 8 8 8 8 0 0 8 8 8 8 8 8 8 8 8 8 k m N M c 0 0 8 8 8 8 8 8 8 0 0 p 0 8 8 8 8 a a a c v v v n v v v n v v a 8 2 5 8 8 j k k k l l k k F e.e.e.D q 2 q v v F >.>.>.=.=.=.=.=.=.=.=.$.#.S S S S S D D a 9 9 0 0 8 8 h 6 3 w I ' ' I s n a ;.l.T.d.5.;.-.-.t.t.a.j.d.d.>.#X,X=.9 v v a p 9 8 8 6 3 f '.FXHXAXhXyXAXFXSXAXSXSXAXlX@.X.X.{ { T U U ( ( ( ( n n a p ; ; # q D D l c k c c c a 9 2 1 2 4 Z >.h.>.>.d.f.d.d.k.j.*.a 4 > i <.C.U.C.W e w v n u i 6.Q.R.m.T f i U W Q H.aXM.! P 2.E.B.R T Y #.#.#.-.#.#.%.I.-X;.u 4 2 0 8 8 8 8 O X % 2 c 8 2 2 6 6 8 8 8 0 p p 0 0 p a v b n n n n a s %.0.6.T Y I r 8 4 u a v n v n n v v n S n v a 9 9 9 9 9 9 n e.j.#X#X$X$X&X+X(.(.(.(.(.v.h.d.;.$.a a a p p q q 9 p p S u.u.;.e.v # % & 5 5 5 6 k 0 0 0 h h 8 8 8 8 2 2 p d #.>.8.d.f.f.:.:.q.].>X].x.x.x.q.q.1.0.I.I.^.^.q.0.8.8.8.1.&.{ &.1.0.h.l.oX Xd.S 9 2 2 9 0 9 0 c v M N *.$.;.>.u.d.d.f.f.h.d.>.v.oX X X+X+Xk.=.u.d.T.-X'.R.V.E W I w 8 8 5 X 1 M *.N n n d n _ -.t.d.z.j.d.8.8.8.8.8.8.8.f.h.h.k.j.#.p 2 2 1 2 8 c c c c c c c k 0 8 8 ",
"5 5 5 6 8 8 8 8 8 8 8 8 8 8 8 0 8 8 8 8 8 8 8 8 5 2 6 0 m v c 0 8 8 8 6 6 8 8 8 0 0 0 0 8 8 8 8 8 9 9 0 a c c c n c v n v v v 0 2 2 5 5 8 k k k k k k k M e.w.M q & 2 p F S $.u.=.=.=.=.=.=.=.=.e.=.$.$.S S S S S D n a 9 9 0 8 8 8 8 6 5 w I Y Y L s ( a *.z.XXg.5.;.-.-.t.a.;.d.j.d.d.#X$X*.a v v c a 9 8 8 6 > f '.FXFXlXsXiXAXFXFXAXSXSXkXtXX.J H T [ #.d n N N N B B B c 8 ; # # 0 D D c c k c c c p 8 2 1 2 4 Z >.f.&.>.u.u.k.k.d.j.k.$.u > w T 3.P.P.<.i u v n p u <.U.R.N.T i i T T Q H.wXM.! T | U.B.R T Y #.#.#.-.#.#.%.I.-X5.w 4 2 0 8 8 8 1 X   1 c c 8 2 2 8 6 6 8 9 0 a a 0 0 p a v b n n n n n s %.g.6.T I I r 8 4 w a a n v v n v v n n v a p p 9 9 u S >.v.*X:X*X&X+X(.(.(.(.(.(.(.(.(.+X&X;X:X;X$Xv.u.S d a f a d #.u.u.;.=.v # % 5 5 5 5 8 k k h 8 8 8 8 4 4 r p d #.8.f.f.9.q.9.9.q.q._.].dXA.].].].].].'.'.'.'.Y.A.C.0.0.q.8.&.&.&.8.h.c.v.l.j.#.u > u d *.;.d.l.{.l.k.k.l.l.l.l.l.h.f.9.9.9.f.d.c.OX&XOXv.v.v.u.S S S -.C.E.G.V.Q W I r 4 8 5 O 1 M *.*.n s d #.=.a.d.d.j.d.8.8.8.8.9.8.8.f.f.j.g.j.d.#.a 9 4 2 8 p c c c v c c k 0 8 h 8 ",
"5 5 5 5 8 8 8 8 8 8 8 8 8 8 8 0 6 6 8 8 8 8 8 8 1 1 1 5 0 c 0 8 8 8 6 5 5 8 8 8 8 8 0 8 8 6 8 8 2 4 4 8 0 0 a a n c v n v v v 0 2 5 5 5 8 8 k k j k k k M e.G 0 % # 4 v v F =.=.=.=.=.=.=.=.=.=.e.=.$.$.#.S S S S S n q 8 8 8 8 8 8 h 6 6 r I U Y L i _ b *.g.oXg.8.;.-.-.t.t.;.d.j.d.d.$X$XS a v v c a 9 8 8 2 > [ nXKXFXtXtXtXFXFXFXAXkXHXkXtXo.J H L U n n N v M M m m m c 6 # # % 8 N D M c k c c c p 8 1 1 4 4 S ;.>.[ $.u.k.d.8.d.k.k.>.S g g L Y 6.U.7.i > 9 q 4 , U 6.L.L.Y i i L T E H.wXM.! T W U.B.W Y Y #.#.*.=.-.#.&.I.;Xd.4 4 4 0 8 8 7 1     5 M 0 6 2 2 8 6 6 0 9 0 a a 0 0 p a n n n n n n n a %.6.6.T I I r 8 4 w a n n n v n a v n v a p u u u f &.v.*X<X;X&X(.(.(.(.c.x.c.c.(.(.(.(.(.(.(.OX*X*X;X*X@Xp.S d n d $.d.u.=.=.a # % 5 5 6 6 8 k h h 8 8 6 4 3 4 d #.;.8.0.q.q.I.I.q.q.q.].dXdX~.@.~.dXdXdXdXnXsXbXuXG.m.3.0.0.q.h.0.8.8.h.^./.h.5.5.%.-.%.d.T.%X+XOXv.oX+X+XOXv.h.h.h.h.f.f.9.8.c.c.f.h.v.v.9.&.;.;.F 9 9 u d <.U.B.n.Q W I r 8 8 5 O 1 M =.*.n u d #.5.j.g.d.d.8.8.8.8.9.f.f.f.h.f.d.d.j.t.#.n c p 0 0 c v v c m c c 0 8 8 h h ",
"1 1 5 5 8 8 8 5 5 5 5 5 5 8 8 8 5 5 8 8 8 6 5 1 5 2 1 1 1 1 2 2 8 8 8 8 8 8 8 8 8 8 8 8 8 8 8 8 8 8 9 0 p 9 8 4 0 p p a c c v v q 0 8 8 8 8 k k k k k k 8 8 1 % o % q v D =.t.=.=.=.=.=.=.=.=.=.e.e.;.;.=.=.$.$.D S D v 0 8 8 0 5 8 h 6 5 4 t ) Y i w n _ _ a.l.T.g.z.a.t.;.;.t.d.d.8.k.#Xl.d a v v c q 9 8 8 8 4 ;.FXFXAXtXK.J.AXFXFXdXtXsXfXhXH.R L I b B n M M M M M M M c z 1 1 1 8 k M M M M M N c 8 1 1 1 8 2 u ;.>.$.$.$.u.d.d.d.d.f.f.u.f f L Y 7.7.I * , 2 ; ; 3 w I 7.N.6.Y < < P o.G.pXM.P | 6.C.m. .Y Y #.#.#.$.#.#.{ h.;Xd.4 9 0 0 c 5 O     % k M 5 5 4 4 8 8 8 8 8 9 p p p p a c v v v n n n a s U 5.3.Y I I s 4 2 4 n n n n S n S d a p u u i i i 1.+X;X>X).).).`.&X).(.h.h.c./.(.(.(.(.(.(.(.OXoXOX#X#XOX Xl.k.p.#.S #.#.$.=.v # 1 5 5 5 5 8 k 8 6 1 1 3 p U %.P.g.0.C.0.0.C.0.A.3.3.m.A.'.~.F.uXsXdX~.K.J.uXuX0XF.O.o.o.m.0.0.I.0.0.0.g.0.0.0.g.0.6.0.P.I.I.I.h.^.(.).`.(.c.9.5.6.5.1.1.8.f.f.h.8.&.} f f g g Z S F p p p s U 3.m.Q ! W I r 6 5 1 % 1 c n a w u d =.d.g.f.j.d.8.f.8.8.8.h.h.h.h.f.g.d.;.#.*.=.*.c 2 8 p c c c c c c k 8 8 8 8 ",
"1 1 5 5 8 8 8 5 5 5 5 5 5 5 8 8 5 5 8 8 8 8 5 5 2 1 1 1 1 2 2 2 6 6 8 8 8 8 8 8 8 8 8 8 8 8 8 8 8 8 9 0 p 9 8 4 8 9 9 0 p a a a k q 8 8 8 8 k k k k k k 8 8 1 % % 2 q F D =.,.=.=.=.=.=.=.=.=.=.e.e.;.;.=.$.$.*.*.S n v 0 8 8 0 8 0 h 6 1 3 t ) ) I w a n _ a.l.z.g.z.a.t.;.;.t.d.d.8.l.$Xk.a a v v c q 9 8 8 4 4 >.FXFXAXtXK.K.kXFXkXsXK.tXiXaXH.! L I b n v M M M M M M m c z 1 1 1 6 k c v M m M v 0 2 1 1 5 8 2 p ;.>.$.$.$.$.>.d.f.f.l.l.l.#.f L Y <.) s w u p 9 q a p I <.6.6.<.i < P  .S.pXM.P ' 6.N.3. .Y ) #.#.*.$.#.#.} h.;Xd.4 9 0 h h 5 O     % k M 5 5 2 2 8 8 8 8 8 9 p 0 p p a v v v v v n n n s s <.3.Y I I s 4 2 8 n S S n S S Z s u u ( a.g.g.%X-X-X+X_.^./.(.9.f.c.f.8.>.>.d.f.d.>.;.$.#.Z d #.#.S d a a a a =.d S $.$.;.$.v 4 4 5 1 % 1 1 2 8 4 4 u ( 5.T.-X%XY.Y.A.N.m.C.m...X.X.X.O.K.K.@.tXuX~.K.@.F.F.S.D.@.O.o.M.A.A.A.I.0.| | <.<.1.3.C.0.6.6.0.0.0.3.q.q.^.^.^.^.x.q.5.1.%.Y ) -.;.;.i u u g g g f f Z S v p p a u I 3.m.Q ! W ` r 7 1 1 % 1 2 p p p -.;.5.8.d.d.h.h.k.f.d.d.d.d.f.d.T./.l.;.-.;.=.*.*.c 6 8 p c c c c c c k 8 8 8 8 ",
"1 1 5 5 8 8 5 5 8 5 5 5 5 5 5 5 5 5 8 8 8 8 6 6 1 1 1 1 1 2 2 2 6 5 5 5 8 8 8 8 8 8 8 8 8 8 8 8 8 8 9 0 p 9 4 4 4 4 4 8 8 9 9 9 v q 0 8 5 8 h k k k k 8 8 8 1 1 8 8 p D =.t.=.=.=.=.=.=.=.=.=.=.=.t.;.;.=.$.$.*.*.S n a 9 8 8 0 5 8 h 5 % 1 t ` ) I w a N n t.z.z.g.z.d.t.=.;.a.d.d.8.OX,Xu.a a a v c q 0 8 8 4 > :.FXFXkXtXK.K.dXFXdX~.@.K.uXaXR.! L s b n v m M v m v M m c z 1 1 1 5 8 k c k k k 8 2 1 1 5 8 0 4 p ;.u.$.$.$.#.=.u.h.h.f.b.v.d.[ L Y Y I s s n *.D D D c i U 1.N.6.T L P Q S.wXM.P W 1.3. .W ) ) #.#.*.$.$.#.} f.*Xd.4 9 8 8 5 = O   + 1 k M 5 5 2 2 8 8 8 8 8 9 p p p p a v c c c c b b n s i %.1.Y I s p r 2 8 v S n n #.#.[ d i U T.<X<X%X1XXXg.%.U d Z S a d S S S n n n a 9 9 9 p p 9 4 4 3 3 2 1 1 1 : a s #.=.=.=.#.a w 2 ; X * ; 3 4 p #.a.l.%X%XT.U.U.N.m.m.m.B.B.O.o.S.J.7XiXhXfX7X7X7XK.@.O.@.@.O.+.O.o.O.A.Y.Y._.I.1.T T W W W | 2.2.1.3.0.0.q.q.1.1.q.q.9.9.q.q.%.U I I I s p u ; ; , > w u i f d S v p p q a L 3.m.Q R ' ` r 7 1 1 1 ; ; 3 a #.;.d.h.h./././.oXk.j.j.d.d.d.d.h.%X%Xl.#.#.;.=.*.*.c 6 8 c c c c c c c k 8 8 8 8 ",
"1 1 5 5 5 5 5 5 8 5 5 5 5 5 5 5 5 5 8 8 5 6 8 8 6 6 6 2 2 2 2 2 5 5 5 5 5 5 5 8 8 8 8 8 8 8 8 8 8 8 9 0 0 9 8 4 2 4 4 4 8 8 8 8 k 0 8 8 8 8 h k k k j j 8 6 6 1 8 q v =.t.=.=.=.=.=.=.=.,.=.=.=.=.t.;.=.=.$.$.#.*.S v a 9 8 0 0 8 h h 5 % 1 t ) ) I 4 a N N -.d.z.g.z.d.t.=.;.a.d.u.d.$X$X$.a a a a v q 0 8 8 4 > &.FXFXdXtXF.E.dXnXdX~.o.A.uXsXR.! L s b n c c v c v v v m c z 1 1 1 1 6 8 8 8 8 8 1 % # 1 8 h c 8 p =.d.$.#.$.#.$.>.h.h.d.f.h.l.&.U Y I i i b -.e.e.G N a w i Y N.P.<.P P Q M.wXV.P Y <.<.W R Y %.#.#.*.$.$.#.$.8.+Xd.4 4 6 5 O O     O 5 k c 5 5 2 2 4 8 8 8 8 9 p p p p a v c m c c b b n a s %.<.Y I t r 8 p u p s s #.8.g.1.Y U <.XX-XXXs.) ( i w , , ; ; 4 9 9 a q 0 k k 0 9 8 8 0 9 8 4 4 2 3 3 3 r p a i i U %.%.%.#.I < , , , w I %.-.T.T.h.g.0.C.C.B.m.m.M.M.B.S.M.O.O.7XhXmXBXBXBXjXiXtX7XF.@.F.F.M.S.+.O.M.A.Y.Y.Y.1.| T R W Q W W W | | 1.q.0.q.q.1.| 1.1.q.9.9.9.%.s e w w 3 ; * 4 r r p p p u u s d v p p p a d 3.m. .W ' ` r 7 1 1 # # 1 a *.d././.oX%XoX/./.l.l.j.j.j.j.d.d.d.$X$Xk.-.*.=.-.=.*.c 8 8 c c c c c c c k 8 8 8 8 ",
"1 1 5 5 8 8 5 5 8 8 5 5 5 5 5 5 5 5 6 6 5 6 h c 0 0 8 8 5 2 1 1 5 5 5 5 5 5 5 5 8 8 8 8 8 8 8 8 6 8 8 p p 8 8 2 2 4 4 4 8 8 8 8 9 9 2 8 8 8 k k k j j 6 6 6 6 6 2 q D e.u.=.=.>.=.=.=.=.=.=.=.=.=.=.=.=.=.$.$.#.*.S v 9 9 8 0 k 8 h h 5 & 2 s ) ) I 4 p N N -.a.g.g.z.d.t.-.;.a.;.u.d.#XoXS p a v c v q q 9 8 4 : } FXFXdX~.Z.E.dXnXdX~...A.'.sXQ.! L s a B c a v a a c v m c r 1 1 1 1 5 8 6 6 6 1 % O % 1 8 h c 8 p =.d.$.#.$.$.$.;.d.f.p.p.d.l.8.<.Y Y I s r $.t.w.M k 9 4 w U 6.P.7.W P Q M.W.V.P Y Y | W T Y %.#.*.*.$.$.#.#.;.oX>.4 4 5 =       + O & 8 0 5 2 2 2 4 4 8 8 8 8 0 p p p a c c c c c c a a a s U { Y I w 3 3 4 , w i L 1.Y.'.E.m.| 6.U.L.T < , , w w 4 4 4 4 a a a a a k k k 0 0 8 9 0 p p r 4 w w w e t I I L L Y { Y Y Y L < e I ) 7.P.T.Y.0.0.0.3.3.m.m.M.B.M.M.S.S.S.S.D.O.8XjXzXzXzXjXjXjXfXtXK.S.M.M.M.S.S.S.Z.Y.Y._._.1.| { | | | W | | | 1.3.q.q.q.:.1.1.1.5.0.h.c.c.d.#.u > , ; 1 3 r r p c b s p u a d v q l q p d 1.m. .W ' ` r 5 1 X X ; p *.d.k.oX/./.(.OXOX/.oX{.j.u.d.;.#.#.[  XoXl.;.-.=.-.=.*.c 6 8 c c c c c c c k 8 8 8 8 ",
"1 1 5 5 8 8 5 5 8 8 5 5 5 5 5 5 5 5 6 5 5 8 c m c c c 0 8 2 1 1 5 5 5 5 5 5 5 5 5 5 8 8 6 8 8 8 6 8 8 p p 8 8 2 4 4 4 8 8 8 8 8 4 4 2 2 8 8 k k j j j 6 6 6 6 6 6 p G u.u.=.=.>.>.>.>.>.=.>.>.>.=.=.=.=.=.$.$.#.*.S v 9 9 9 0 k 8 h j 5 5 8 b ) ) I 3 p N n ( a.z.g.l.d.t.-.;.a.>.;.f.l.u.a p a v c v q q 8 8 2 : } FXFXdX~.Z.E.dXdXdXE...A.'.pXQ.! L s a b c p a a a a v c c r 1 1 1 1 5 8 6 6 5 % O O 1 6 h h k 8 p =.k.;.$.$.$.$.$.9.f.f.f.d.k.g.0.<.) ( s 3 n #.N k k 8 4 9 i <.L.N.7.Q Q M.H.n.P Y Y Y T T Y %.#.*.*.*.$.$.#.&./.;.4 2 1 O     + + % & 5 5 8 2 2 2 4 4 8 8 8 9 0 p p 0 a v c c c c c a a s u I Y Y I w 3 w < < Y 3.C.E.pXpXsXW.K.E.R.| < * e I I L e e s ) 4.%.U s p a p 9 q q q 9 9 9 w w w i i I I I L L T T W W R R W W <.7.N.U.U.U.N.3.| | |  .m.m.M.M.D.F.S.O.O.S.H.0XD.eXjXzXzXzXzXjXjXfX7XF.M.M.M.M.M.M.Z.Y._._._._.q.| { T W W R | { { 1.1.q.8.:.&.&.&.&.5.f.l././.l.>.d 9 3 2 4 r h z z x b s t p p d p q l q p i 1.3. .W ' ` y 1 X X ; 4 n t.j.k.oXoX+X+X+XOX/.l.u.t.=.=.*.d u 4 =.k. Xd.#.=.;.*.=.n 8 8 c c c c c c c k 8 8 8 8 ",
"1 1 5 5 8 8 8 5 5 5 5 5 8 8 8 5 5 5 5 5 5 8 c M v m c c 0 8 2 1 1 1 2 5 5 5 5 5 5 5 5 5 6 6 6 6 2 4 8 p p 8 8 2 2 4 4 4 4 4 4 4 4 2 8 2 8 8 8 8 j j 8 6 6 6 8 8 l D e.e.t.,.>.>.>.>.=.=.=.=.>.>.=.e.=.=.=.$.$.S *.S a 9 8 9 k k 8 6 6 6 8 c ( _ ) I 3 8 N n _ ;.z.g.l.g.t.-.;.;.;.;.k.>.d u p a v c v k 0 8 8 4 , } FXFXdX~.Z.Y.dXdXuXF.X.M.'.pXQ.! L i s b a p a a p a v c c p 1 1 1 5 5 8 6 6 5 % % 1 6 h h h k 8 9 =.k.;.$.$.$.>.>.9.9.p.p.p.d.h.I.7.) ( r 3 > p m k k k 9 9 w Y 7.N.N.Q Q V.H.n.P Y Y Y T Y Y %.*.*.*.*.=.$.#.%.l.;.3 2 1 .     + & & & & & 8 5 2 2 8 8 8 8 8 8 p p p p a v c c c c c a a s i I Y Y I w b -.6.Z.'.bXmXmXMXhXgXaXhXaXQ.n.P P m.L.B.n.' 2.B.Q.Q.U.N.<.| { U d a v n n a a U U Y Y T P P R ! Q R W Q R Q  . .n.Z.U.R.R.B.n.R J m.m.m.M.M.M.M.S.0X0XH.+.O.S.J.gXhXBXBXjXzXZXVXVXjXiX7XS.M.S.Z.Z.A.Y.Y._._._.].).x.1.| R W W R | Y { 1.1.8.:.&.} [ U #.-.;.j.k.k.h.8.#.u 4 8 r c x x x b x t t t p a p q l p p f 1.3. .W ' ` 7 1 X 1 a _ =.u.j.l.*X+XOX/.h.>.[ d *.*.*.S n a u , u =.oXl.-.#.;.=.=.n 8 8 c c c c c c c k 8 8 8 8 ",
"1 1 5 5 8 8 8 5 5 5 5 5 8 8 8 8 5 5 5 5 1 8 c N v v m c c 8 2 2 2 1 2 2 5 5 5 5 5 5 5 5 5 6 6 6 2 4 8 p p 8 8 2 2 2 2 2 2 2 2 2 9 9 8 8 8 6 8 8 j 8 6 6 6 6 8 8 D =.e.e.=.u.>.>.>.>.,.=.=.=.>.>.=.=.=.=.=.$.$.D *.S a 9 8 0 k k 8 6 5 6 k n ( -.) ` 3 4 N n ( -.g.g.l.g.a.-.=.;.;.t.k.$.9 9 9 a v v v k 0 0 8 8 ; } 4XFXdX~.A.Y.hXsX'.O.J o.'.pXQ.W L s a n a 9 a p p a v v c p 1 1 1 5 6 6 6 6 1 % % 1 8 c k 8 h 8 9 $.k.;.$.=.>.f.h.d.,.>.p.>.8.h.T.g.%.I r 3 o 4 c m M c 9 9 g L <.L.B.Q Q V.G.n.P Y Y Y W W Y %.*.*.*.*.$.$.#.#.k.t.4 2 1   . O O 5 5 5 & % 8 5 6 6 8 4 8 8 8 8 p p p p a c a c c c a a a p i I Y L e < ` T.nXbXMXMXmXhXhXhXiXgXhXuXG.m.N.Z.B.R.wXwXH.wXmXCXHXMXbXpXE.E.C.3.0.f.f.5.{ T L T T T R R R E E E ! R E Q o.n.V.B.Z.R.R.B.n.Q E E V.G.Q.pXpXJ.M.o.F.H.F.O.O.S.W.mXCXVXVXVXVXVXVXVXkXhX7XF.D.F.G.A._._._._.].(.(.(.^.q.| | W Q R W <.1.5.5.5.&.[ f u u u d #.=.t.u.h.8.#.9 : 2 c m m x x t t t t r p a p q q p p i <.3. .W ' ` 3 1 X p w.i.d.d.j.l.;.=.$.#.#.#.[ S *.*.*.#.n n 4 ; > a {.@Xt.( -.e.=.n 8 8 c c c c c c c k 8 8 8 8 ",
"1 1 1 5 5 5 8 8 2 5 5 5 5 5 8 6 8 8 8 6 6 8 k m c c c c p 0 0 0 8 8 5 5 1 1 5 5 1 1 1 5 5 8 8 8 8 8 p p p 8 2 2 6 8 8 8 6 2 8 8 4 2 8 0 8 5 8 j 8 6 8 k k 0 q n =.$.=.=.=.=.>.>.>.>.>.>.,.=.>.>.=.=.;.=.=.$.S D *.D v 0 9 0 k 0 1 5 h k 0 a n -.-.N 6 5 c N _ *.d.g.l.z.;.-.t.t.t.t.=.a u p a a a v a k 0 8 h 8 4 [ `.FX'.K.M.K.dXsX~.A...m.E.-XQ.W e e p a a a q a a a a c 0 0 1 1 1 1 6 5 8 8 X 1 k c c k 8 0 0 9 a #.u.d.d.d.k.u.$.#.$.u.d.d.;.8.I.I.g.%.i , 3 1 4 c n v a u u i Y 1.m. .Q n.R.n.H L I Y W W Y %.#.*.*.#.#.#.#.-.k.j.4 @ X X 1 5 h k h 6 & & 1 1 5 6 8 8 6 2 9 0 a a a p a v v v v v c a a a w i Y T < H U.NXMXMXMXMXMXhXfXMXgXiXJ.G.M.M.V.M.S.D.8X7XfXmXCXCXBXmXaXaXaXuXF.o.Z.'.pXF.o.o...R H Q Q n.Z.B.n.o.E O.D.H.W.G.M.V.n.B.B.V.Q R R Q bXbXbXR.B.N.n. .R ..o.o.B.B.F.W.MXCXCXVXVXGXGXVXfXqXD.S.M.Z.Y._.].`.`.`.`.`.`.`.^.3.W W Q W | | d.d.;.#.d a s a a n s u p #.=.d./.8.Z a 9 2 8 r r t t t r p p a v a l p p p a u %.3. .! Y I t 1 7 m w.t.t.j.t.=.#.#.#.#.#.#.#.#.n N _ n N a p w : 3 n }.}.*.*.t.w.N p 8 p c c c c c c c k 8 8 6 ",
"1 5 1 5 5 5 8 8 5 5 5 5 5 5 8 6 8 8 8 6 6 8 k c c c c p p 0 9 0 8 8 5 5 1 1 5 5 1 1 1 5 5 5 8 8 8 8 0 p p 8 8 2 2 8 8 8 6 2 2 8 4 2 8 k 8 5 8 8 8 6 j l c q v S $.$.=.=.=.=.>.>.>.>.>.>.=.=.=.;.;.;.;.=.=.$.D *.=.n k 0 0 0 0 8 2 6 0 0 p a n #.*.n 7 5 z N _ ( a.d.l.z.;.-.t.t.e.i.*.4 9 9 9 a a a l q 0 8 h h 2 [ `.nX'.K.M.K.sXsX~.A...3.U.-XQ.W e r c a a a q a a a c k k k 1 1 1 1 6 5 6 6 % 2 k c c k 8 8 0 9 a S u.d.d.d.p.t.#.#.*.=.;.;.;.8.g.I.I.5.U w 3 1 2 p v v a p p s U 1.m. . .n.R.n.H L U Y W W Y { #.*.*.#.#.[ [ =.k.=.1 o 1 % 1 5 k k 8 5 1 % 1 1 5 5 8 8 8 8 0 p a a p p a a a a a v v v p u i L U L H 3.bXCXMXMXhXiX7X7X7XiXuX7XH.S.O.o.V.O.D.D.8X8XfXZXVXVXmXjXeXqXaXwXH.S.H.qXgXtX7X7X7XG.M.Z.Z.G.E.E.Z.G.W.0XqX0XH.V.^ ! Q ' n.^ Q R R  .-X-XR.m.2.3.N.N.| | ....3.m.C.E.aXgXjXjXzXBXxXjXrXD.S.S.S.G._._.>X=X`.`.`.`.`.].A.| R W W | | 1.5.=.#.n a a n n n n p 4 u n =.j.v.d.S a 9 2 8 r r t t t p p a c v v l p q p a u <.3. .! ! U t ; % 8 N *.w.-.=.*.*.#.*.*.*.*.*.*._ _ n n n n n n a p b j.j.*.*.e.w.n p 8 p c c c c c c c c 8 8 6 ",
"1 5 1 5 5 5 5 8 5 5 5 5 5 5 6 6 8 8 8 6 5 8 0 c c c c p p 0 9 0 8 8 5 5 5 1 5 5 1 1 2 5 5 5 5 2 6 8 8 0 p 8 8 8 2 8 8 8 6 2 2 8 9 2 9 k 8 5 8 8 j 6 j c n v S $.$.=.=.=.=.=.>.>.>.>.=.=.=.=.=.;.;.;.=.$.$.$.=.$.=.v 8 8 0 0 8 8 2 8 c 0 8 p d #._ b 7 1 h B N _ a.a.z.z.;.-.e.t.e.t.n 3 4 u p n a a k q 8 8 h 8 2 Z `.dX~.A.M.K.dXsXE.A.| 3.A.'.Q.W y r c a a a q a a a c k k 0 1 1 1 5 8 5 5 6 1 8 c m c k 8 8 0 9 9 S t.d.d.u.>.=.S S #.#.#.#.;.;.5.I.Y.I.&.s 2 1 1 8 c v c p p s U <.3. .Q n.G.n.L L U Y W T Y %.#.*.*.#.#.#.[ d.d.a X # 5 1 6 8 8 8 8 1 1 % % 1 5 5 8 8 8 8 0 p a a p p a a a p p c a a p u g i Y { 3.'.nXNXMXMXuXS.O.+.+.F.K.F.+.O.O.O.M.S.7X8X8X8XfXzXZXVXjXfXqXqXaXaX0XJ.H.7XqXqXfXhXhXpXwXwXQ.R.E.E.E.Q.uXgXgXqXH.^ ! J R Q ! ! ! Q W 2.N.L.6.1.<.1.6.3.<.{ { 1.3.| 1.C.G.H.H.rX8X9X8XrX+.+.S.S.B.Z.A.I._.).=X>X`.(.^.^.3.| W W W | 1.1.#.n a p a n n n n n p 4 4 p #.j.oXf.S a 9 2 0 p r t t t r p a c v v l q p p a u 4.3.2.! Y I w * X 6 n *.*.=.=.*.*.*.*.*.*.*.*.*.*.*.n n N n =.e.=.b p =.j.=.*.*.w.N p 8 p c c c c c c c k 8 8 6 ",
"1 1 1 1 5 5 5 8 5 5 5 5 5 5 6 8 5 8 8 5 5 8 0 c c p c p 0 0 0 0 0 8 8 5 5 5 5 5 5 5 5 5 5 5 1 2 5 2 8 8 8 8 8 8 2 6 8 8 2 2 2 8 9 4 0 v 0 5 6 8 j 6 j c M n D $.$.=.=.=.=.=.>.>.>.>.>.=.=.=.=.;.>.;.$.$.$.$.=.=.*.a 2 8 0 8 8 8 0 0 c 0 8 p a ( _ p 3 1 8 m N ( ;.a.z.z.=.*.e.t.t.*.a 4 4 n =.S a a q q 8 8 j 8 2 Z ].].K.Z.m.E.dXuXE.C.| | C.'.E.Y y r c a a a a a a c c k k 0 1 1 1 5 8 5 5 6 8 0 c m c k 0 8 q 9 9 S ;.u.u.u.=.$.S S S S S d =.&.5.I._.T.f.=.8 1 1 8 c v c c p s I <.3. .R o.B.2.L I U Y T T Y %.#.*.*.#.#.#.#.d.=.4 o 1 6 5 8 8 8 8 5 1 1 % O % 1 5 5 8 8 8 0 p a a p p a a a c b b p p 9 9 g i &.I.^._.].bXnXbXW.M.O.+.O.@.+.+.+.@.F.D.J.8XfXyX9X9XeXjXjXfXeX9X9X9XqXqXqX0XqXqXfXjXzXBXmXiXW.W.F.F.G.K.W.W.qXfXgX7X+.J J ! Q Q ! ! ! W W <.U U #.%.%.%.%.{ <.{ %.0.9.1.} 1.m.M.+.O.+.+.+.+.O.O.S.S.B.m.3.1.^.c.b.`.=X`.(.I.| | | 2.1.1.1.%.u p a a n n a a n n p 9 9 9 n d.oXk.S 9 9 2 0 c r t t t p p a c v v l q p p a u <.6.2.Q Y I y * X 6 n *.w.r.e.=.*.*.*.*.*.*.*.*.*.n N n *.=.t.t.t.n 4 n t.=.*.*.w.N p 8 p c c c c c c c c 8 8 6 ",
"& 1 1 1 5 5 5 5 5 5 5 5 5 5 8 8 5 5 6 5 6 8 0 c 0 0 0 p 0 0 0 0 0 0 8 5 5 5 5 5 5 5 5 5 5 5 5 2 5 2 8 8 8 8 8 8 2 4 8 8 2 2 8 8 9 2 q c k 5 6 8 j 6 8 l n v S D $.=.=.=.=.=.=.>.=.=.=.=.>.,.=.;.>.;.=.$.$.$.$.=.D a 4 8 0 8 8 k c c c 0 8 p a ( _ p 1 1 7 c b ( -.5.g.g.=.*.e.t.t.a > 4 n d.k.S p a q 0 8 6 6 6 2 d _.].A.C.C.E.dXuXK.N.1.| C.Q.E.Y w r c a a a a a a a c c k 0 1 1 1 5 8 6 6 6 k c c c c k 0 0 k 9 9 n =.>.>.>.=.$.#.#.S n n d d %.8.I.T.T.h.d.c 8 1 6 c c c c a s I { 2.W R  .B.2.L Y U Y Y T Y %.#.*.*.*.#.#.#.$.n 1 X % 5 8 0 0 8 8 2 2 1 % X O 1 1 5 8 8 8 9 p a a p p p a p c n b p 4 9 9 #.&.8.^.^.^.^.].-X'.E.Z.M.o.O.F.@.F.H.7XiXiXiXiX9XeXfXyXjXjXfX9X9X9X9X8X8X8XqXqXfXjXBXVXVXBXjX7XM.M.S.F.F.J.W.0XqXfXfXH./ J J E E Q ! W ' Y I I f f f a s d d [ ;.&.;.h.c.9.:.&.<.n.V.O.O.O.+.@.O.O.M.B.N.4.) U d.c.(.(.c.q.1...1.| <.7.5.5.%.d u p a n n a a a a a a p u 4 p #.v.h.S 9 9 2 0 p p r r r p p c c v a p q k q a p %.7.2.! W I 3 X X 1 p N *.=.=.-.*.*.*.*.*.#.*.*._ n n *.e.t.t.t.-.n 4 n r.=.*.*.w.N p 8 p c c c c c c c c 8 8 6 ",
"& 1 1 5 5 5 5 5 5 5 5 5 5 5 8 8 5 5 6 5 5 8 0 c 0 0 p p 0 0 0 0 0 k 8 8 5 5 5 5 5 5 5 5 5 5 6 6 6 8 8 8 8 8 8 8 2 4 8 4 2 2 2 8 4 2 k n k 5 6 8 8 5 6 k n v F S $.=.=.=.=.=.=.>.=.=.=.=.>.=.=.=.;.;.$.$.$.$.=.=.n a 8 9 0 0 k c c c c k 8 p a d n r 1 1 7 z N n %.;.z.d.=.*.=.e.*.4 ; 9 u.#Xl.n p a q 0 8 6 6 6 4 f ^.].A.m.m.'.dX'.Y.3.| <.C.Y.Y.Y < w p c q a q a a a c c k 0 1 1 1 5 8 6 6 6 k c c c k k 0 0 c 9 9 n $.;.>.>.=.=.#.#.( n n d s [ 5.I.I.I.g.j.*.c 6 6 0 c c c a s s Y <.W R Q n.' L Y U Y T T Y %.#.*.*.*.#.#.#.d 9 1 ; 1 5 k 0 9 8 8 8 2 1 1 X O 1 1 5 8 8 8 9 0 a a p p p a c c p r 4 u d S k.l.h.h.^._.^.I.I.Y.Y.Z.o.E o.F.7X7XiXfXfXjXfXfX9XyXzXzXZXzXzX9X9X9X8X8X8X8XqXeXjXzXVXVXzXzXjX8X/ o.@.K.K.J.0XW.0XiXgX0XO.E J ! ! Q W ' ) I i w u 9 9 u a f d Z ;.;.u.k.b.b.p.$.I <.N.S.M.O.O.@.M.M.B.N.' I t w u d $.&.:.5.| T | | <.1.%.-.#.a a a a a a a n S a n a p p 9 p d v.h.S 9 9 8 0 p r r p p p p c c v a p q k q a p ) <.W ! Y I 3 X X X 2 m *.=.=.=.*.*.*.*.#._ n n n n n =.t.t.e.=.*.n p n =.=.*.*.w.N p 8 p c c c c c c c c 8 8 6 ",
"% % & 5 5 5 5 8 5 5 5 5 8 8 8 8 5 8 6 5 5 6 0 c 0 0 0 0 c c p p k k 8 8 5 5 5 5 5 5 5 5 8 8 8 8 8 8 8 8 8 6 6 6 2 8 8 8 6 6 6 8 4 4 c M k 5 8 8 6 & 6 l n F D $.=.=.=.=.=.=.=.>.=.=.>.>.>.>.=.=.$.$.=.=.$.$.$.*.v a 8 9 c c M M v c k k 8 p a ( _ r 7 5 5 z N N #.-.d.d.=.*.=.e.n 9 u #.k.#Xl.d p q 0 8 8 6 6 5 2 a c.^.0.m.N.'.sX'.Y.3.<.<.C.Y.Y.Y < w p 0 q a q a a a c c k 0 1 1 1 5 8 6 6 6 k c k k k k k 0 c 9 9 n $.;.;.;.=.=.#.S n n S S a U &.f.T.T.d.t.t.N 8 8 0 c c a a s i U <.W R Q n.Q L Y U Y Y T Y %.#.*.*.*.#.#.d 4 : 2 2 2 8 k 8 8 4 4 4 8 2 1 X O 1 1 2 8 4 8 9 0 a p p p p a n a p 9 a *.u.k.v./.l.d.h.c.0.3.3.N.N. ...E O.J.aXiXfXjXjXjXjXfXzXxXVXLXGXVXzX9X8X8X8X8X8X8XfXzXVXZXZXzXzXZXBXfX/ O.F.J.J.0X0XW.0XpXaXpXK.M.^ Q 2.2.7.' ( i w 4 9 9 9 a v a a d $.>.p.p.k. Xf.S < I 7.B.M.O.O.O.M.B.N.' ` t 3 : ; u [ f i U | | | | <.Y s n _ n a a a a a a n S a n n p p p p u l.h.S 9 q 0 0 r p r p p p p c c c a q k k k c p ( ) W P Y I 3 X X X 1 c *.w.=.=.#.#.*.#.n n n n n n =.e.e.e.=.*.n n r a *.*.*.=.w.N p 8 0 c c c p p c c c 8 8 6 ",
"% % & 1 5 5 5 8 5 5 5 8 8 8 8 8 5 8 8 2 5 6 0 c 0 0 0 0 c c p p c k 8 8 5 5 5 5 5 5 6 8 8 h k k 8 8 8 8 6 5 2 2 5 6 8 8 6 6 6 8 8 4 c M k 5 5 8 6 & 6 l F S D =.$.=.=.=.=.=.>.>.,.>.>.>.>.>.=.=.$.$.=.;.=.$.$.*.n a 8 8 c N D N v c k 8 8 p a n n r 7 5 5 z N N _ -.d.d.;.*.e.e.a 9 =.l.k. X XS p q 0 8 8 6 6 5 2 a c.^.0.3.N.'.sX'.Y.| 1.1.P.Y.Y.U > w p 0 0 q q a a a c c k 0 1 1 1 5 8 6 6 6 k k 0 0 k k k 0 c 9 9 a *.;.;.;.$.*.#.n n n S S a d } 8.T.T.d.*.j.*.k 8 0 k p a n s s U <.W ! Q 2.W L Y Y Y Y Y %.%.*.*.*.*.#.#.p : ; 2 2 8 k k 8 4 4 4 8 4 2 1 X % 1 1 2 5 2 2 9 p p p p p p a a p a S t.l. X XoXl.d.8.8.&.%.5.N.N.2.W o.F.wXaXhXfXfXfXfXfXjXjXVXLXPXPXLXVXzX9XrXrX8X8X8XeXzXZXVXzXjX9XzXGXGXgX+.+.7XiXuXuXpXW.G.G.G.E.E.Q.Q.Q.Q.U.s.` i w 4 p a 9 p v n v d S A =.p.p.l.OXl.a : w ) m.V.M.O.m.m.m.4.` s 4 3 1 4 #.;.[ L Y { T | | %.I w r N D a a a a n n n n a S n p p p p p h.l.S 9 q 0 0 0 p p p p p a c c c a k k k k c p I ) Y P Y I 3 X X o X 8 *.=.*.*.#.#.#.n n n n n a n e.t.-.*._ n n n 4 p *.=.*.=.w.N p 8 0 c c c p p c c c 8 8 6 ",
"1 1 1 5 5 5 5 5 5 5 5 5 5 5 2 2 5 5 2 2 6 8 8 0 p p c c c c c c c k k 8 8 5 5 1 5 5 8 8 8 8 8 8 8 8 8 8 8 6 2 2 2 2 2 2 2 5 5 8 2 9 n N 1 & 8 j 6 5 5 k D =.=.=.=.=.=.=.$.$.$.$.=.>.>.>.>.>.=.=.$.;.;.=.=.=.=.*.v 9 9 v *.e.*.M c k 8 8 8 a n n n r 8 5 1 h B _ ( -.t.t.*.*.=.=.t.u.j.j.t.k. X;.p 9 0 k 6 3 6 6 8 a f._.0.3.C.'.uX'.Y.3.1.8.0.Y.I.%.4 4 c 0 a a a a q q q q k k 1 1 1 1 6 6 6 6 k 0 c c c k k 0 q a 9 a *.;.;.;.$.*.S n n n n n p d [ 5.T.5.d n n n M c 8 8 0 c a p d I Y W W W n.W L Y ) ) ) ' %.%.=.*.D =.#.9 ; ; ; ; 2 6 6 6 8 4 4 8 9 8 2 1 5 % 1 8 8 2 2 1 8 9 p p u p a n n n S ;.d.k.k.u.*.#.( d i i %.P.U.2.2.B.R.wXmXgXhXjXjXyXfXyXyXBXVXVXPXIXPXZXfX9X8X9X9X9XeXZXVXzX8XrX9XzXGXGXZXqX+.7XmXsXuXaXW.B.m.3.2.7.N.U.Q.-XP.) s e w 4 p r 9 p a a v n S F F S $.k.OX$Xk.a 4 r ` 7.n.n.O. .2.T e s r 7 5 2 3 #.a.5.) Y Y Y 7.Y I i 4 3 c w.n a a n a n n n a S n u p p p a d.k.$.9 8 0 0 c p p p p a c 0 2 0 v c k c k 8 4 w L K K I I 3 o   o X 8 n *.*.*.#.#.#.n n n n n n *.=.=.*._ _ *.*.n p p N =.=.=.w.*.c 8 a c c c c c c k k 8 6 2 ",
"1 & 1 1 5 5 5 5 5 5 5 5 5 5 2 2 5 5 2 2 6 8 8 0 0 0 0 0 0 0 0 p k k k 8 8 5 5 1 5 8 8 8 8 8 8 8 8 8 8 8 8 8 5 2 1 1 2 2 2 2 5 5 2 9 v M & & 5 8 6 5 5 k D =.=.=.=.$.=.=.$.=.$.$.$.$.=.>.>.>.=.$.#.$.$.=.$.=.=.D a 9 9 D e.t.D c k k 8 8 8 a n n N r 8 5 1 8 B N -.;.j.a.=.=.t.t.j.j.d.t.$.d. X;.p 9 h k 6 1 6 6 2 a 9.c.5.{ 3.'.'.'.A.1.1.8.h._.T.%.4 8 c 0 c a a a q q q q k k 1 1 % 1 6 6 5 6 k 0 k c c k k 0 k a 9 a #.;.;.;.=.*.#.n a a v n s d U 5.h.;.p a v v v c 8 8 k c a a a I Y ' W W 2.W L Y %.) ) W ) #.#.*.*.N u , , 4 p 4 1 8 0 0 8 4 4 8 9 8 2 1 5 1 1 8 8 2 2 2 a p 9 9 p p p p a a u u a d f 9 u d U s w i s.XXL.B.R.Q.wXqXgXhXhXBXxXjXjXyXjXHXVXLXPXPXLXBXfXfXqXrXrXeXBXmXeX+.+.8XzXVXGXVXeX+.+.7XmXsXJ.uXK.2.Y Y I I U ) ' ' I w w u r r p r r a a v a n S S F S $.f.@X$Xk.a 8 r ` <.2.m.m.2.W < , 4 6 1 1 1 2 ( a.1.) Y Y ) 1.Y s s 4 3 c w.n a n n a n n n a n a p p p a #.k.k.#.9 9 0 8 9 p p p p a c 0 2 0 v c 0 k h 5 3 w L L P T I w X   o # 2 n =.=.*.#.#.#.n n n n n n *.=.=.*._ *.*.*.n p p n *.=.=.w.D c 8 p c c c c c c 0 k 8 6 1 ",
"1 1 1 1 1 1 5 5 5 5 5 5 5 5 2 2 5 5 2 2 5 8 8 8 0 0 0 0 0 0 9 0 k k 8 8 8 5 5 2 5 8 8 8 8 8 h k 8 8 k k 8 8 8 5 1 1 1 1 5 5 5 2 2 9 v M & % 5 6 6 6 5 k D =.D =.=.$.=.=.=.=.=.=.S $.=.>.>.>.=.$.S S $.=.*.=.e.D 9 9 a =.i.t.n 8 0 k 8 8 k c n n n r 8 5 1 8 c N *.t.z.j.t.t.j.j.j.t.t.=.$.k.oX>.p 4 8 h 6 1 5 5 1 9 >.f.%.U 1.'.'.E.C.<.1.8.f.I.I.;.w 8 0 0 c p a a q a q q c c 1 # O 1 5 5 5 6 8 0 k c k k k 0 a p 9 p #.;.;.;.$.*.#.a a a a v a s d ;.j.#.4 8 q c c c k 0 k c a a a I Y <.W Q 2.W L ) ( ) Y Y ) ( #.*.*.p ; o n j.}.S 2 8 c 8 4 4 4 4 8 8 2 1 1 1 2 8 p 8 2 9 a n n n a a d S *.S a a d S Z d d I I e < e 7.-XQ.Q.Q.pXmXmXhXmXkXBXBXxXjXyXkXHXPXPXPXLXBXjXqX8XrX+.D.gXmX8X+./ +.gXVXGXZXeXD./ ^ J.mXpXG.E.B.! I t e e e w w w > , 4 r p r r 4 p p a v a d S S S S $.u. X$Xl.S 8 r ` <.2.n.m.2.T , * 1 1 % % 1 3 ( 5.1.) Y %.<.<.U i i r 1 0 w.n n n n n n n n n a a a u p S =.d.k.*.9 0 0 2 2 p p p p c c 0 1 9 c k 8 8 6 1 1 t I I P T I t *   X 1 2 c =.-.*.#.#.#._ n n n n N *.=.=.*._ *.*.*.N p p b n *.=.w.D c 8 a c c c c c k k k 8 6 1 ",
"% 1 1 1 1 1 5 5 5 5 5 5 5 5 2 2 5 5 2 2 5 8 8 8 p 0 0 0 0 0 p p 0 k 8 8 8 5 5 5 8 8 8 8 8 8 k k 8 k k k k 8 8 5 1 1 1 1 1 1 1 1 2 9 v v % % & 5 6 6 5 0 D D D =.=.$.=.=.=.=.=.=.$.=.=.>.>.>.=.$.$.$.;.;.*.=.=.n 4 9 n t.|.w.c 8 0 k h k k c n n b r 8 5 = 7 c b _ ;.d.a.=.e.j.z.t.t.=.=.;.j.oXj.p 4 8 8 4 3 5 5 1 4 =.>.U f { _.E.E.N.<.%.5.8.f.T.5.p 4 0 0 c p a a a a q q k c 1 # O 1 5 5 5 6 8 8 0 k k k 0 0 a p 9 p #.=.;.;.$.*.S a a p v a a s d -.d.( 4 4 9 q c c k k k c a a a d U ' ' W 2.W L ) ( ( Y ) Y #.#.S c ; ; u #X<X,Xt.9 8 8 1 4 4 4 8 8 8 2 1 1 5 5 8 c 0 4 a v v a u p S j.#X<X,X#X X Xl.d.8.U U L < < < P 2.Q M.J.aXMXMXmXBXBXVXBXkXjXiXfXxXLXLXGXBXfXfX8XH.O.+.qXgX7X^ / +.eXZXCXBXqXD.^ ! J D.mXwXn.B.N.P e e y y w w 3 , p 4 p r r r r r p a a v a d n S S S S >.v.+Xv.S 8 r I ) 2.n.m.2.I , * 1 1 1 1 1 3 d 5.-.) ) %.<.<.I u a p 1 8 w.n n n n n n n n n a a p p S e.=.;.d.=.a q 8 2 2 p p p p a a 0 2 8 q 0 6 6 6 1 1 t I I I T I r * o # 1 1 a *.e.*.#.#.*._ n n N n n n *.*._ n N _ *.n a p a n *.=.w.D c 8 a c c c c c k k k 8 6 1 ",
"% % 1 1 1 1 1 5 5 5 5 5 5 5 2 2 5 5 2 2 5 8 8 8 0 0 0 0 0 0 9 0 0 8 8 8 6 5 5 5 8 5 8 8 8 8 k k 0 k k k k 0 0 8 1 1 1 1 2 2 1 1 2 9 c M % % & 5 6 5 & q D *.D =.=.$.=.=.=.=.=.=.>.>.>.=.=.=.=.=.=.=.=.$.n n n a : a *.i.i.N 8 8 0 k k k c c n n a 8 8 5 O 5 c b n -.t.-.*.*.=.e.j.j.t.=.#.>./.l.p 4 6 8 6 7 5 1 1 2 $.>.d i } ].Q.E.6.%.#.&.&.5.h.d.a 8 0 0 c p a a q q q q c c 1 # % 1 5 5 5 5 8 8 0 0 k k 0 0 q 9 9 p #.$.=.;.*.*.n a a p a a a a s -.d.#.4 4 2 9 k k k k k 0 0 a p s U ) ' W 7.W i U ( ( Y ) Y %.#.a 1 X p k.;X;XoX*.9 2 2 2 4 4 4 8 8 8 2 1 1 2 6 0 v p 8 v n a 4 a =..X,X<X,X,X$X#XoXT.f.1.T P W R P ~ ~ ~ X.K.sXhXhXhXjXBXBXBXjXjXfXqXqXiXjXjXjXqXqXfXqXD.O.0XaXH.^ / +.qXZXBXmXqXD.^ ! ! ~ G.bXR.Q B.N.I e y y y y y 3 ; 9 p p p p c p c p a a v a a n S #.S S $.k.#Xv.$.9 9 s ) <.2.m.6.) w * 1 1 1 1 1 3 U ;.-.( ) %.1.-.d w p p 1 3 D n n n n n n n n n a p u a e.u.#.Z >.u.D c 8 & 1 a p 9 9 a c 0 2 2 0 0 5 6 5 5 7 t I I P I I w * X 1 2 3 p *.=.*.*.#.*.#.#.n n n n n n n n n n n *.*.n a p a n *.w.*.c 8 p c c c c c c k 0 8 6 1 ",
"% % 1 1 1 1 1 1 5 5 5 5 5 5 2 2 5 5 2 2 5 8 8 8 8 8 8 8 8 8 4 8 8 8 8 8 6 5 5 5 5 8 8 8 8 8 k k k k k k k k 0 0 5 5 5 8 5 5 5 2 2 9 M M % % & 5 6 5 & q D D D =.$.$.=.=.=.=.=.=.u.u.>.=.=.=.=.=.=.=.*.n p p 9 4 9 *.i.i.e.v 4 9 0 k h 8 h p a a r 4 7 5 O 5 z b *.-.-._ n a b N =.t.t.;.$.>.v.l.u 4 5 8 7 7 5 1 O 1 D >.n u { '.E.E.6.{ #.#.#.&.h.h.n 4 0 k c 0 a a q q q q c c 1 X O 1 5 5 5 5 8 8 8 0 k k 0 0 q q 9 p #.$.$.=.#.S d a p a c a a a s #.a.#.4 9 2 9 0 k k k 0 0 q a p s U ) ' W 7.W i U ( ( Y Y ) ( a 4 # 3 e.$X#Xh.=.n p 4 2 8 4 4 4 8 8 8 1 % 1 1 6 c v c 0 v n v a S ;.u.u.;.=.=.=.=.-.%.Y T 2.n.S.G.F.M.O.M.kXBXHXkXjXfXfXjXBXjX9XqXfXiXqX7X8X9XqXiXiXqXH.O.D.0XH.^ J O.0XmXMXmXwXH.S.Q H ~ P R.bXV.Q B.L.I e y y y y 3 * X 2 0 p p c c r p a a v v v a n n S S S #.d.OX X=.q 9 s U W 2.m.7.) w * 1 1 1 1 ; 4 U ;.-.U ( %.5.-.( p p a 1 1 N n n n n n n n n n a p u n d.t.d d u.d.D c 8 1 8 a a 9 9 9 q 0 8 2 0 8 5 5 5 5 7 t I I I L t w ; 1 6 2 3 8 n *.*.*.#.*.#.#.n n n n n n n n n n n *.*.n n p p n *.w.*.c 8 a c c c c c 0 k 0 8 6 1 ",
"% % & 1 1 1 1 1 5 5 5 5 5 5 5 2 5 5 2 2 6 8 8 0 8 8 8 8 8 8 4 8 8 8 8 8 6 5 5 5 8 8 8 8 8 k k k k k k k k k k 0 8 8 8 8 8 8 8 2 9 q M M & % & 5 6 5 & 0 D D D $.$.$.=.=.=.=.=.=.>.>.>.,.=.=.=.=.=.;.S 9 4 3 : 2 S j.}.t.*.a 4 9 8 8 8 6 8 8 4 4 4 3 5 1 O 5 c b *.-.*.n n n b n n *.=.;.>.8.l.k.f 4 5 8 7 3 5 1 X # v =.n u } ).E.Z.6.U #.#.} } h.l.S 4 0 k c p a a q q q a c c 1 # O 1 5 5 5 5 5 8 8 0 k k 0 0 q q 9 p #.$.$.$.#.n a s p a v n a p s #.t.n 4 9 8 9 0 0 k k k 8 q a p p U ) ' W 7.W i U ( ( Y Y ) s 3 # 1 N }.%X/.8.[ d a 4 2 0 8 8 8 8 8 6 1 % 1 1 2 c c c c v p a n #.#.$.$.=.e.e.=.#.U T W Q wX0X7X8XqXiXjXmXBXBXkXjXjXjXjX9XjXeX9XqXeXiXiXiXfXfXgXiX7XS.O.o.H.D.^ ! o.D.W.wX0X0XH.S.n.! ~ ~ Q -XbXQ ! L.L.K t y y y y 3 ; X 1 p c r r r 8 9 a c v n a b a n S S S S u.@XoX;.q 9 p U W 2.m.7.) 4 X 1 1 1 1 ; w U ;.-.[ [ -.;.-.#.s p p 3 1 c n n n n n n n n n a p a =.t.*.a #.d.d.D k 5 1 0 v a 9 4 4 q 0 8 2 8 8 1 & & = 5 y t I I I I r 3 8 8 2 2 8 a _ *.*.#.*.*.#._ _ n n n n n n n n n *.*.*.N p p a n w.*.c 8 p c c c c c 0 0 0 8 6 1 ",
"% % % 1 1 1 5 1 5 5 5 5 5 5 5 5 5 5 2 2 6 8 8 0 0 0 0 8 8 8 8 8 8 8 8 8 6 5 5 2 8 8 8 8 8 0 k k 0 k k k k k q 0 8 8 8 8 8 8 8 2 9 k D D & % & 5 6 5 & 0 D D D $.$.$.=.=.=.=.=.>.=.=.=.=.>.=.=.=.=.u.n 4 4 > ; 3 t..X{.e.n a 4 8 5 5 5 5 5 1 2 3 2 3 5 1 O 5 c n _ *._ n _ *._ *.#.*.#.=.=.;.k.d.p 4 5 8 6 7 5 1 X X v =.n i &.'.Y.A.1.U [ [ } } h.l.#.4 0 k c 0 a a 0 0 q q c c 1 # O 1 5 5 5 5 5 5 8 0 k k k 0 q q 9 p #.$.$.$.n n a p p a v n a p p #.t.n 3 4 9 9 8 0 h h 8 8 0 a p p I ) ' ' 7.' i ( ( ( Y ) ) w o o 2 t. Xz.k.&.S n a 3 1 8 8 8 8 8 8 6 1 % 1 # 2 c c p c v v v n *.=.t.t.t.u.t.;.%.W 2.!.wXbXrXD.rXqXjXmXBXzXjXjX9X9XzXVXVXjXeXeXeXeXqXgXhXgXfXiX0X+.J E M.R.M.E Q B.S.V.M.S.H.H.n.! P H ~ n.bXbX! Q U.s.t y y y y y 3 1 ; 1 c c r r r r p a c n n a a a n S S S S ;.@XoX;.a 9 p U Y 2.m.7.) 4 X = 1 1 1 , w U 5.&.[ ( -.;.=.*.a a p 3 1 p n n n n n a n a n a u n t.=.n a =.k.d.n 0 2 1 9 v a 9 2 4 0 0 8 2 8 6 1 O O O = y t I I I ` s r p 8 2 2 8 a n *.*.*.*.*.#.#._ _ *.*._ *.*.*.*.*._ *.=.n a p a n w.*.c 8 p c c c c p 0 0 8 8 5 1 ",
"% % 1 1 1 1 1 1 1 5 5 5 8 5 5 5 8 6 5 2 2 8 p c c p p 9 9 8 8 4 9 9 8 8 8 8 8 8 0 9 0 0 0 q k q a a p p 0 9 0 0 8 8 0 0 0 0 k 0 M D G G 5 % & 6 2 2 2 q D D D =.$.$.$.$.=.=.=.=.=.=.=.>.>.>.>.u.u.u.v 3 4 : 1 n }.}.y.*.n n c 8 8 0 k k 8 8 8 8 8 5 1 1 1 1 k N N *.n n D *.=.t.=._ n #.=.t.j.j.n 4 1 6 5 5 5 & O 1 0 n n s &._._.I.1.U [ [ &.f.l.j.*.9 0 k 0 8 0 0 0 c c c k 8 1 % % 1 5 5 5 5 8 8 8 8 8 8 0 0 c c 9 9 S $.#.S a a a a a a a n a p u n e.n 4 8 4 2 8 8 8 k 8 8 9 a v a U %.| W 7.Y s U d ( %.) w * o ; *.@Xl.j.d.#.#.*.p 2 8 2 8 8 8 8 2 1 1 1 ; 1 p n n p p c c v S e.t.t.e.t.=.;.{ | Z.H.wXeXeX8XD.8XZXLXGXZXjX9X9X9XzXVXLXVXjX9XeXjXgXgXgXgXeXgXgX0XO.^ ^ V.S.E Q n.N.2.W Q V.R.!.W Y U L < L.nXE.H W T.4.] y y y y y = O X % 5 z c r r s p c c a a a n n n n #.*.#.*.l.oX;.v 9 p s I <.7.6.) 4 * X O 1 1 2 > i ;.8.#.#.#.=.#.#.n c c 2 1 1 n n n n d d a a a a a n *.#.#.( ;.j.t.S a 1 # 4 p 9 8 2 2 1 1 1 * 1 1 = O O % ; i s U ) ) ( s p p 9 8 8 9 p v n *.*.*.*.*.*.*.*.*.*.=.=.=.=.=.*.=.=.*.*.*.n p 2 c c c c c c c c c k k k k 8 8 5 ",
"% % 1 1 1 1 1 1 1 1 5 8 8 8 h h 5 2 1 1 5 8 p c p p 0 9 8 8 4 8 8 8 8 8 8 8 8 2 8 8 8 9 0 0 0 q p p a a a a c c n n n v v v v v v c M l 5 % & & 2 2 2 q D D D =.$.$.$.$.=.=.=.=.=.=.=.>.>.>.>.;.=.=.n 4 2 3 a *.y.j.r.N b n B p c c c c c c c c k 5 5 1 1 1 h N N *.n n D *.=.t.r.*.n N =.t.j.j.n 2 1 6 6 5 5 & O O 8 n a u -.T.Y.P.1.[ Z $.>.j.d.t.n 4 9 q 0 9 0 9 0 p c c k 8 1 % % 1 5 5 5 5 6 6 6 8 8 8 0 0 k k 8 9 S $.#.#.s a a a a a a a a p p n e.n 4 4 4 2 8 8 8 k 8 8 9 q v v U Y W W <.) s s ( %.U i i , , ; *. Xj.d.t.#.*.*.p 3 4 2 8 8 8 8 5 1 1 % X 3 p n n c p a a v n =.t.t.e.e.-.%.0.Z.R.0X8XqX7XqXgXBXLXLXVXfXeXeXzXzXzXLXPXLXzXjXfXgXgXaXaXaXeXgXgX0XO.^ o.V.n.! Q 2.2.<.Y W B.R.V.W Y U i L E.nXZ.H W T.4.] y y y y 3 = O   % 5 k c r t t p c c a a a b n n n #.#.n #.l.oXt.v 0 p s I <.6.6.) w 1 X O = = 3 > i ;.5.[ d #.#.*.*.n a p 6 1 1 n n n n d s s a a a p a n #.#.#.*.u.t.n a 2 ; 4 p 9 8 2 1 1 1 1 1 1 = = O X ; 1 a I ) ) ) U s u 4 4 r 4 9 p a n *.*.*.*.*.*.*.*.*.*.n n n n *.=.*.=.*.*.*.N a 8 p c c c c c c c c k k k k 8 8 5 ",
"% % 1 1 1 1 1 1 1 1 5 8 h k k k 1 1 1 1 5 8 0 c c c c p 0 0 9 0 0 0 k 0 8 8 8 8 8 8 k 0 k c c c c c c v v v v v v v c c c c c k 0 8 8 8 5 & 5 & 1 1 1 q S D D $.$.$.$.$.=.=.=.=.=.=.=.>.>.>.>.=.*.=.n 4 : 9 *.t.w.e.*.B c n n c c c c c c c M M c 8 5 1 1 1 h M N *.n n N *.=.t.e.*._ n *.e.j.j.n 2 1 7 5 5 5 1 O X 2 a p u #.g.P.0.5.} Z &.f.j.#.*.n 4 8 0 k 0 0 9 0 0 c c k 0 1 % % 1 5 5 5 5 5 5 5 5 8 8 0 0 k k 8 8 S $.#.#.s a a a a a a a a p p n t.n 4 9 4 4 8 8 8 k 8 8 0 c v v d Y W W ' Y i d #.s w i U i 4 > *.{.d.;.#.n *.*.a 3 2 4 4 4 8 6 5 1 1 # X 3 c N n c a p a a n *.t.e.e.=.-.4.E.'.W.0X0XH.wXmXBXCXGXVXjX9XeXzXVXVXVXLXPXLXzXjXfXeXqXqXqXwXqXqX0XH.^ E o.V. .P W 2.7.Y U W Z.M.' Y Y i i Y -XnXo.~ 2.T.) t y y y y 3 = X . % 5 k p r r t r c c a a a n a n d n S a #.k.oXd.c 0 p i I ' 7.7.) w 1 O O = X 1 4 u ;.5.[ d ( #.-.=.*.c p 6 1 1 a v n n d s a d a a p p a d #.#.#.t.=.n a 4 1 8 0 8 6 2 1 1 1 1 1 1 1 1 = 1 3 4 d U ) ) ) I i w 4 w p p u w p p *.*.*.*.*.*.*.*.*.n a p p n n *.*.*.*.*.*.n n p p p p c c c m m c k k k k 8 8 5 ",
"% % % 1 1 1 1 1 1 1 5 8 h h h h 1 1 1 1 5 6 8 8 c c c c p p 0 k 8 8 8 8 8 8 8 6 8 8 h k k k k k c a c a a 0 0 0 2 2 2 2 1 1 1 1 1 1 & 1 & 5 5 & 1 1 1 q D D D $.$.=.$.$.=.=.=.=.=.=.=.=.=.=.=.$.=.=.v 4 p n *.i.*.*.N B c n N n 0 0 8 8 8 k c M c 8 5 1 O 1 h M _ *.n n D *.=.t.t.r._ N *.=.i.j.n 4 1 5 5 5 5 1 O X 1 p p u U g.P.0.5.%.[ >.k.>.a #.n 9 9 0 k k 8 8 8 0 0 p k 0 1 % % 1 5 5 5 5 5 1 5 5 8 8 0 0 k 0 6 8 n =.$.#.s a a a a a a a a p p n e.n 4 4 8 8 0 0 k k 0 8 c v v n ( ) W W <.I i U d , < 4.-.U s w *.z.=.#.a a #.*.a 3 2 4 4 2 6 6 2 1 1 X X 2 b N n n c p p a n *.=.=.e.=.4.N.Q.E.R.wXG.M.nXMXhXfXjXjXfXfXzXVXLXPXLXLXLXLXzXfX9X8X7X7XH.H.H.D.D.O.! ! Q n.m.W 7.6.) L I <.U.n.W U U e i 7.nXbXR ~ 7.T.` t y y y y 3 = X . % 5 k p r r t r c c a a a a a n d n d a d d.l.u.a 8 8 p I ) 1.4.( w 1 O O O X ; > i ;.d.-.#.#.-.t.j.e.n p 2 1 6 9 a n n d a d d a a a a a d Z d S e.w.D v 4 1 8 2 2 1 1 1 1 1 1 ; , 3 3 3 3 4 w U U Y Y I I i w w e i i p u u p *.*.*.*.*.*.*.*.*.n a r r a n *.*.*.*.*.*.*.n n 8 8 p p c c m m c k h h k 8 8 5 ",
"% O % % 1 1 1 1 1 1 5 5 6 6 5 5 5 5 5 5 1 1 5 5 % % % # # # X X 1 1 % 1 1 1 % 1 5 5 5 5 5 5 6 8 5 2 5 2 2 2 2 1 1 1 1 1 1 1 1 1 & 1 1 1 1 1 5 5 1 1 1 9 M D D =.=.$.$.=.=.=.=.=.=.=.;.;.=.=.$.$.t.n 4 9 n =.t.y.*.*.N B b B N N k 8 8 8 8 k c m k 5 1 1 % 1 h M _ *.n n n *.=.t.t.r._ N N =.t.j.N 8 1 7 5 5 5 5 % X 1 p p u d 5.P.6.&.} } 8.d.#.p #.n p 9 9 0 c 8 4 8 8 0 p c k 1 % O 1 5 5 5 5 1 1 1 5 5 8 8 0 k 0 6 4 n *.$.#.s a a a a a a a a p p n e.n 4 9 8 8 0 k k k 0 k v n n n d ) | W <.I i u > > U a.-.#.( w _ j.*.n p a n *.v 2 2 2 8 2 2 2 5 1 1 X X 8 n n n N n p 9 p a D =.=.e.;.7.E.Q.B.R.Q.Z.m.bXsXJ.7XfXjXyXjXzXZXLXLXLXLXGXVXjX9X8XD.D.D.D.D.S.O.o.^ J ! Q n.C.| 1.<.I i U 5.U.2.T I I < L L.NXQ.H ~ N.L.I t t t t r 3 1 X . X 1 k p p p r r c c a a a a a n n d d a s ;.k.t.a 8 8 r s ) <.<.( w 3 1 = O   * > u t.k.d.d.d.d.j.l.j.D p 1 1 2 4 p n d d a a d a a a a n d d n S w.D N c 2 1 5 1 1 1 1 1 1 1 1 ; , t r t r w e I U U Y Y I i i i s U s s i w u _ _ *.*.*.*.*.*.*.n b a a n n *.*.*.*.*.=.*.*.N 8 8 8 p p c m m c k h h h 8 8 5 ",
"O O % % 1 1 1 1 1 1 1 5 5 5 1 1 5 5 1 1 1 1 1 1 % % % % % # # % % % % % % % O % % 1 % 1 5 1 5 5 1 1 1 1 2 2 2 5 5 5 5 5 5 5 5 5 & 1 1 1 5 1 & 5 & 1 1 9 N D D =.=.$.=.=.=.=.=.=.=.=.;.;.=.$.$.*.*.4 4 n =.j.}.t.*.*.N b c b b B c c k k k c c c 8 1 % 1 % 1 8 M _ *.n n n *.=.t.t.-._ N N =.t.i.D 8 1 5 5 1 5 5 1 O 1 p a u d 1.g.5.%.[ $.>.=.a p #.D a 9 9 8 0 8 2 2 8 8 0 c k 1 % O 1 5 5 5 5 5 5 1 1 2 5 6 8 k 8 2 2 n *.$.$.s a a a a a a a a p p n e.n 4 4 8 0 0 k k k k c N N N n d Y W W ' Y i , , -.z.-.-.%.#.p N a.#.a p a n *.n 4 2 2 8 2 1 1 5 1 % X X 8 N n n N n p 9 p a D =.=.e.a.P.Q.R.V.Q.Q.N.1.0.3.O.H.fXjXyX9X9XeXzXzXzXzXyX9XeX9X8X+.D.D.D.D.o.^ ^ E ! E n.2.6.U U U i i ( a.6.<.Y I i < U Q.NXN.~ P L.4.I t t t r 4 7 1 X   . 1 0 0 8 p r r c c a a a n a n n d d s s =.j.;.p 8 2 p s ) <.<.( r 6 1 = X   X : u t.l.j.k.k.z.j.j.e.n p 1 1 2 3 9 p d d s a a a a p p a d d n n N N c 8 2 1 2 1 1 1 ; 1 1 1 1 , w t ] ] I s e I I U I I I L L I I U U s e w w ( _ *.*.*.*.*.*.*._ n n N n *.*.*.*.*.*.=.=.*.N 8 8 8 p p c c m c k h h h 8 8 5 ",
"O O % % 1 1 1 1 1 1 1 1 1 1 1 % 1 1 1 1 1 1 1 1 1 1 1 1 & & & 1 1 1 1 1 1 1 1 1 % 1 % 1 1 1 5 1 1 1 5 5 5 5 5 8 5 5 5 5 5 5 5 1 & 1 & & 5 5 & 5 & 1 1 9 M D D =.=.=.=.=.=.=.=.=.;.;.t.;.=.=.*.*.a : p *.e.j.}.e._ N B c c p c m c c h h 8 8 8 8 1 % O 1 O O 8 m _ _ n n n *.*.e.e.*.n N *.=.t.t.*.8 1 1 1 1 5 5 5 O 1 9 p 4 s -.5.1.[ [ &.$.S a p #.n p 9 9 8 0 8 2 2 2 8 0 c c 1 % O 1 5 5 5 5 5 5 1 1 1 1 5 5 k 8 2 2 n *.=.$.s a a a a a a a a p p n e.n 4 4 8 0 k k k k k c M M n c s U T W ' I < , ( l.z.( %.#.#.w b -.n p a a n *.n 4 3 2 8 2 1 1 5 1 O X X p N n c *.N p p p a D =.e.e.a.U.Q.B.R.Q.P.6.&.[ Y o.7XeXyXyX9X9X9X9X9X9X9X9X8X9XeX8X+.D.D.S.S.^ E E E ! Q n.2.6.i i s i i ( 5.) %.U s i e ' bXbX2.~ W P.) e e w r r 6 2 % X     1 0 0 0 p r r c a a a a n n n n d d s s =.j.t.p 6 2 r i ) 4.%.( r 4 5 = O   X 1 u a.{.z.z.j.j.t.#.p p p 1 % 1 3 4 u s d d s a s p r p s a a a p c c 8 1 1 1 1 ; ; ; ; 1 3 6 4 w e I ` ` I I I I I I L T T P L I I I I i e w w ( ( #.*.*.*.*.*.*.*.#.n _ #.*.*.*.*.*.*.=.=.*.*.8 8 8 8 p p c c c k h h k 8 8 5 ",
"O O % % % 1 1 1 1 1 1 1 1 1 1 % % % % % 1 1 1 1 1 1 1 1 & % % % 1 1 1 1 1 1 % 1 X X % # % % & 1 1 1 1 1 1 % % % 1 1 5 5 & % % % & 1 % % 5 5 & 5 1 1 1 0 M D D =.e.=.=.=.=.=.=.=.;.;.t.;.=.$.*.*.3 9 n =.e.j.j.w.N B c c p r r c k 8 8 5 5 1 1 O 1 O O 1 1 O 5 m _ _ n n n n *.e.e.*._ n *.=.t.t.*.8 1 1 1 1 5 5 5 O % 8 p 4 u %.1.%.U [ &.#.s a p n n 9 8 9 8 8 2 2 2 2 8 0 c c 1 % O 1 5 5 5 5 5 5 5 5 1 1 1 1 8 8 1 2 n *.=.$.a a a a a a a a a p p n e.n 4 9 8 0 k k k k k c v M v a i I T T <.e , s l.T.5.%.( #.#.w a -.d u n n n *.n p 3 2 6 2 1 1 5 1 O X X a N c c *.N p p p a D =.e.t.a.T.U.n.Q.Q.6.5.=.#.{ Z.qXfXeXyX9XyX9X9XzXzXzXyX9X9XeX8X+.+.D.+.O.! J ! ! ! Q 2.7.7.s u s p p b -.I ) ( s i i 7.bX-XT H 2.P.I e e y w 4 2 1 %       1 0 0 0 p r r c a a a a n n n d a d d d ;.j.t.p 2 2 r s ( -.-._ r 8 5 = O     1 4 t.{.j.j.d.t.*.u ; , 8 1 X 1 3 3 u a d d a a w r r b b a p p 2 6 6 1 * X ; ; ; ; ; ; 3 4 r p i L I U Y U I T I I L L T P P K T I I L e < < w #.( #.#.*.*.*.*.*.*.#.#.#.*.*.=.*.*.*.*.=.=.*.*.8 8 0 8 p p c c c k h k k 8 8 5 ",
"1 1 1 1 1 1 1 1 % % % % % % % % % % % % % % % % % % % % % % 1 1 1 1 2 2 8 8 8 2 2 2 2 2 2 1 1 1 % % % # X X   . O % % % % % % % O O % 5 5 % O % O % 1 8 c D *.*.e.*.=.u.u.=.*.;.=.=.t.t.;.*.n a 4 n =.t.t.=.D n p p r r r r r r 8 8 5 1 5 1 1 O 1 1 = O = 5 h z N N n n n *.*.*.*.*.N N *.*.=.t.e.4 1 7 5 5 5 1 % O O 6 a p p %.1.%.U d Z Z d a a v S v 8 8 8 8 8 8 8 8 9 0 c c 1 1 1 1 1 1 5 5 & % 1 1 1 1 1 1 6 k 6 1 4 *.;.#.*.#.s u u p a n a p p n *.n 4 3 a c c k k k k k 0 0 q p i I T W Y < #. Xz.-.( I %.( p r b _ d u p p p p 8 2 1 1 % 1 % X       X 2 a n N N N n v 8 p a n =.e.t.a.I.C.U.Q.U.<.;.>.$.6.Q.bXeX9X9X9XjXzXzXzXzXzXzXzXjXrXrX8X+.+.S.o.Q ! ! E Q Q Q <.) s u r r p b N s d d u w ) -XNXN.~ P N.<.i e w w w 4 1 1 X .   X % 8 0 8 8 r p p p a b n n n n n d d d d $.d.d.p 1 2 4 p ( ( ( r 8 6 8 5 O   @ X 4 y.@Xj.t.e.n ; ; , , 1 1 1 1 1 1 3 8 p a a p r r r 7 3 3 ; ; ; ; ; ; ; ; ; ; 3 3 4 p a a b s I L L T W W I K P L L L L H P P T L L L i < < < ( ( #.#.#.#.*.*.=.=.*.*.*.*.*.*.=.*.#.#.*.=.*.*.8 8 6 8 p c m c c c m c k 8 6 5 ",
"O O % % 1 1 1 1 1 1 1 1 1 1 1 % % % % % O % % O 1 1 1 1 5 8 k c q c v v v v v v v v v v v v c c c c k k 8 8 5 5 5 5 5 1 & & & & % % 1 5 5 5 % O   X 1 2 0 v v c S S #.*.*.S n n *.*.*.*.*.S a p a *.t.t.e.*.n n c a c c p r r r c c h 6 5 1 O O 1 1 1 O = 1 7 h N N n n n *.*.*.*._ N N *.*.=.u.e.8 ; 5 5 5 5 & % O O 6 a p p #.1.%.U d Z Z d a n a n a 2 8 0 p 8 8 8 8 0 0 c c 1 1 1 1 1 1 5 5 & & 1 1 1 1 1 % 5 8 5 1 9 *.t.=.=.#.d p u p p a n n v S =.n p 4 0 k k k k k k k 0 0 k p s U T W ) I a.l.;.( %.) U s w 4 p b p 4 4 4 4 2 2 1 1 1 O O O X         2 p n N D D n v 8 p p a *.e.e.;.g.C.U.E.L.%.t.u.=.s.Q.bXeX9X9X9XeXzXzXVXVXVXGXLXzX9X8X9XD.S.D.o.Q R ! E Q Q Q <.U s 9 p p p c n n d ( i i s.-X-X7.L W s.%.s e w w 4 3 1 X X     X 1 8 0 8 8 r p b c b n n n n n n d d d d $.d.d.p 1 2 4 p N n n r 8 8 8 5 O   @ 6 p e.j.t.n a ; ; ; : : 1 1 2 1 2 5 8 9 p a a p 4 7 3 = * * * ; , , , , 3 w w w w e t s s s s s L L L P P P P P L L L L T P P P T Y Y T L L L i U ( #.#.#.#.#.#.*.=.*.*.*.*.*.*.*.*.*.*.=.*.n n p 8 6 6 8 p m m c c c k 8 6 5 1 ",
"O O % % 1 1 1 1 8 5 5 5 1 1 1 1 1 1 1 5 5 8 8 8 c c c c c v M M N n D D D D D D D D D D D D D N D G M M M m c c k 8 8 5 5 5 5 6 8 8 h 6 h 6 5 O     X # 1 8 8 4 4 a v a a n n a n n n v a p 9 4 n *.e.e.=._ n b c c c c p p r x m m c 8 1 O O 1 O = = = = 5 5 8 N N n n n S D _ _ N n _ =._ *.j.t.8 ; 1 5 5 5 O & O O 5 p p p #.-.#.U d d Z n a n a n 9 2 8 8 8 8 8 8 9 0 0 c k 1 1 5 5 5 5 5 5 O = 1 1 1 1 % % 1 5 1 1 9 *.t.;.=.#.a p p a a a n n n *.=.n p 4 9 0 k k k k 8 8 0 q k p a U T W ) ) d.a._ ( -.( u w 4 4 4 4 3 > 3 3 1 : ; # X X X X X X O O + . # 4 v N D D n v p p p a *.=.=.-.5.6.P.U.7.) t.d.;.a.U.bXgXeXfX9XzXZXZXLXLXPXPXPXVXeX9XeX7XH.D.o.Q ! ! E Q Q ' <.s p p p p p p c b b n e I %XnXP.Y L ) s.) i w w 3 3 * X X X O O X % 8 0 8 8 r p b b n n n n n n d a s s a *.d.d.c 2 2 8 c B b b 8 8 8 8 1 +     % 6 N w.c 4 : ; ; : , 3 4 4 2 1 5 8 8 8 2 1 1 1 1 = O X * 3 4 w e e L L I U Y ) ) Y U U I I I I L L L P P P P P K L L L T W P P Y { Y Y Y Y Y U { %.#.#.#.#.#.#.*.*.*.*.*.*.*.#.*.*.*.*.*.n p u a 8 2 2 6 p c m c k h 8 6 5 1 1 ",
"% % 1 1 1 5 5 5 h 8 8 5 5 1 1 1 5 6 8 h k c c m G G M N N M M v v v v v v v v v v v v v v v v v M M M m c c k k k k 8 5 6 6 8 h k c k h h k 6 %     . o . # 1 1 1 4 a p a n n a a a p 9 9 4 4 3 a n n n N n b c p p c p p p r x m c 8 5 1 O O O O O = = = = 5 5 N N n n n n n n n b n *.r._ *.j.j.p # 1 5 5 5 O O O O 5 p p p _ -.( d d d S n a v c n 9 2 0 6 2 8 4 8 9 0 0 0 k 1 1 5 5 5 5 5 5 O = 1 1 1 % % 1 5 5 % ; 4 S =.;.#.d p u p p a a n n n S *.n 4 2 9 0 k k h h h 8 8 0 0 9 p I T W Y I ( n s ( ( e w , , 4 3 ; ; ; : ; # X o o o o X X X X O O   o X 1 a n D D n v n n a n *.=.*.*.-.6.P.T.<.( a.j.t.5.L.pXmXgXeX9XzXVXVXLXLXPXPXPXGXzXeXgXqX7XH.^ Q R ! R Q  .2.<.w p p p p p 0 p a c i e 4.-X-X| < L 4.r.` r w 4 3 * * X X X O % . % 8 0 8 8 p a c n n n n *.#.n d a s s a *.d.d.n 2 6 8 z B b b 8 8 8 8 O +       O k c 2 ; 1 3 : 3 4 a v p 2 ; 5 8 8 6 1 * X X * * X * 3 r ` ) ' ' ' ' 7.7.7.7.7.<.<.Y Y Y Y T L P P P P P P P L L i i L L T P Y Y Y Y Y Y Y Y Y %.%.%.%.%.%.%.-.*.*.*.*.*.*.*.*.-.-.*.n p p a n c 6 1 2 p c m 0 8 8 5 1 1 1 1 ",
"1 1 5 5 5 5 5 8 k h 8 5 5 1 1 1 8 8 8 8 8 8 8 8 v v v v v v v v c p 0 8 8 8 2 2 8 8 8 8 8 2 2 2 8 8 8 8 8 8 8 8 8 8 5 5 5 5 8 h k c k h h h 5 O X X X o o X ; ; 2 8 p p a a a p a p p 9 4 4 4 4 4 p p p p p r p p p c c p p p c h 5 O O O = = O O O = = O O = 5 n n n n S n n n a a n =.t.*.*.t.j.p ; 1 5 5 5 O O O O 5 0 p p ( %.( d s d n n n c n i.D 4 8 2 2 2 4 8 0 0 0 0 0 1 1 1 1 5 5 5 5 O 1 1 1 1 1 1 5 8 5 % # 2 a #.#.#.n a s a a a p n *.*.*.*.n p 8 9 0 k k h h h 8 5 8 8 2 w I W W Y e , , , < w , > , > 4 3 ; ; 3 1 1 1 X X o @ @ % O O O % O   o o # 9 v n N n v N n a n *.r.*.*.-.d.P.P.%.( a.j.t.-.6.E.pXgXfXeXzXVXZXVXLXPXPXPXLXzXeXeXqX0XH.^ E R ! R Q n.2.<.w r p c c c 0 9 9 a w I T.-XP.L < I 4.) b r 4 4 * * * = = O O O + % 5 8 8 8 p a a v n n n =.*.#.n a d s d $.d.d.n 4 8 8 k m p p 8 8 8 j O + + O 1 % 1 1 1 1 2 1 4 p a n *.n 2 * 1 7 4 3 3 * * * o o * * y ` 4.L.B.B.V.n.n.2.2.2.2.Q W W W W W W T T T P P P P P L T I L L T L T Y Y Y Y { { { %.{ %.%.%.%.%.%.-.-.*.*.*.*.*.*.*.*.-.*.n u u a *.N c 6 1 2 8 c c 8 8 5 5 1 5 5 5 ",
"5 5 5 5 8 8 8 8 h 8 8 5 1 1 1 1 6 5 5 2 2 2 2 1 c c c v v n n n c 0 0 8 6 2 2 2 2 2 2 2 2 2 2 2 2 2 2 2 2 5 5 5 5 5 1 1 5 5 6 8 6 8 h 6 5 & O   X % 1 1 1 1 1 1 1 1 2 8 9 4 2 4 p p p 8 4 4 4 4 4 4 4 4 4 4 4 4 4 4 4 4 4 4 4 8 8 1 X X O = O O O O O O O O O 1 c b n n S n n n a a n *.t.=.S =.j.a ; 1 5 5 5 O O O O 1 8 p p n ( U s s a n n n p *..Xe.2 2 1 p 2 4 8 0 0 0 0 8 1 1 1 1 5 5 5 5 O 1 1 1 % 1 5 h 8 1 % 1 3 u p a #.#.S #.#.#.*.#.*.e.=.*.D n a p 8 8 0 8 h h 8 8 1 1 2 1 w i W W ) < , , , , , w u p p p p w p a c c c p 8 1 % X 1 1 % % % O +   @ # 2 4 8 0 p 9 n v p a _ r.*.*.-.a.s.s.-.( t.z.;.%.1.Y.W.0XqXeXzXVXzXZXVXLXPXLXLXzX8XeXqX0XH.V.E E ! ! Q n.2.' w p c c c p q 9 8 p i <.XXY.Y i i %.4.` r 4 2 3 * * = 3 = = O O + % 6 8 8 8 p a p c n n _ e.e.*.n n d d d =.j.d.N 8 8 8 h c r r 8 8 8 5 O + O j k 8 1 1 1 1 4 4 n n n *.w.*.a 3 X * 3 3 - * * * @ @ * < I 7.U.-XQ.Q.K.S.V.o.Q E Q Q Q R Q R R Q W W W R R R R W 6.0.d.d.8.5.1.<.| | | | | <.<.<.%.) %.) %.%.%.%.-.*.*.*.*.*.*.*.*.#.n p u p #.t.=.n 8 1 2 8 8 8 6 5 5 5 6 6 8 8 ",
"8 8 8 8 5 5 5 5 8 8 5 1 1 1 1 1 5 2 2 6 6 2 2 6 8 0 p c c c c c c 8 8 6 6 6 8 6 5 2 5 2 6 6 5 5 2 2 2 2 2 2 2 2 2 2 1 1 1 1 5 5 1 5 6 5 & +     % 5 8 8 8 p p 8 4 4 8 p p 8 8 8 8 p p p 8 4 8 8 p p p p p r r r 4 4 4 4 4 4 4 4 h 5 O X O O O O = = O O + O = 1 p a n n *.*.n n n b b _ e.=.D *.j.c 1 3 1 % & O O O O 1 8 p a b _ d p p n n n n p D .X*.2 8 1 8 2 2 8 0 p p 0 8 1 1 1 1 5 5 5 5 5 5 1 O O 1 h m 6 1 % 1 2 3 > > a a a d #.#.*.#.S *.*.v a p 4 8 2 5 8 5 6 6 5 5 1 1 1 1 4 i T W ) e w a d s ( -.-.-.=._ N n n n N D D N M c 8 5 1 1 1 % O O O O % 2 4 4 2 8 9 9 p 4 : 4 N =.*.*.-.-.-.a.-.( t.j.=.&.0.Y.M.O.7XeXzXVXVXZXzXVXLXLXLXjX8X9X7X0X0XS.E E ! ! E n.2.' w p m c k c a 9 8 p ` P.-Xm.L i U 4.-.b r 2 1 1 3 3 7 7 7 1 O O + % 6 h 8 8 a a a n n n =.j.d.e.#.n #.n S ;.j.j._ r 8 8 h c 8 6 8 8 8 5 + + 5 m m h 1 1 1 8 c n n n #.e.j.t.N p * - y I I K K K < < H W 2.B.W.wXW.J.H.D.M.O.o.o.o.o. .Q Q E R R W W W R R R | <.6.8.8.9.8.>.&.{ <.<.| | <.<.<.<.W W W W | | <.<.%.*.*.*.*.*.#.#.#.n s p a #.=.t.e.N 0 2 2 6 6 1 1 2 6 8 8 k k k ",
"8 8 2 2 5 2 1 1 8 5 1 % % % 1 1 6 5 6 2 2 1 1 1 1 1 2 8 8 8 8 8 8 8 5 5 5 6 8 8 5 2 5 2 5 2 5 5 2 2 2 2 2 2 1 1 2 2 2 2 1 1 1 % 1 5 6 6 %       5 8 k k p c n n *.*.*.*.*.n n a a a n n a a a a p p p p a a a b a a p p b b b c c 8 1 1 O O O O 1 = O O . X = 1 p p n n *.*.D n n N b N =.=.#.*.j.v 2 1 1 % & % O O O 1 8 8 p n _ s p p a n n n a v i.v 2 0 1 1 2 2 8 p c p 8 8 1 1 1 1 5 5 5 5 5 5 1 O O 5 k M 1 O % 6 8 3 ; ; : : > > 4 u 9 4 p n a 4 2 : ; ; 1 1 1 1 1 1 1 1 1 1 1 1 4 i T W ) s d a.l.l.l.{.XX Xj.e.*.*.n n n n N N v c 6 1 1 1 5 % O O & 5 v n n v a v n n 2 ; o ; b *.*.*.*._ ( 4.-.( t.j.=.;.f.I.3. .F.gXjXLXLXVX9XfXVXLXLXjX8X8X0X0X0XD.Q E ! ! Q n.2.) w c m c k c a p r i -.XX-X7.i f %.a.-.p 8 2 1 ; r r r 7 7 1 O O + % 6 h 8 8 a a a n n n -.j.j.a.#.S #.#.#.;.j.z._ r 8 8 8 k 8 6 8 8 8 5 + + j M M 8 X X 6 M D *.n n *.a.z.z.-.i , < W m.R.Q.Q.R.Q.R.R.Z.M.V.V.o.S.+.+.+.M.M.M.M.M.M.m.m.o. .W W T Y W W | | 3.6.g.f.k.d.d.>.;.&.%.| | | Y Y Y { | | <.' ' <.<.%.%.*.*.*.*.*.*.#.#.a p p #.=.=.=.t.N 0 2 2 2 1 ; 1 1 4 8 p p a a ",
"d.d.d.u.u.i.i.i.i.e.n 5 # # % 1 5 2 1 1 1 1 1 1 1 2 5 6 6 8 8 8 8 8 8 4 8 4 8 2 8 8 8 8 8 8 9 8 8 2 2 2 2 2 2 2 2 2 2 6 6 6 2 6 5 5 6 %   .   % k k 0 0 9 p a p $.;.u.d.u.>.>.>.;.>.d.d.d.d.>.;.;.;.;.>.;.>.>.;.;.;.;.;.;.;.d.j.t.S 4 9 c 8 8 8 k c c c c h 8 5 p c n n _ _ n #.n *.n n *.=.#.n j.N 2 1 1 % O O O 5 8 3 1 4 p b n a a a N _ N B p c c 0 6 5 5 5 1 5 8 0 k c 0 0 5 1 1 1 1 5 5 1 1 O O = 5 h j h % 1 5 8 6 2 8 a p u u p p a n n n *.=.*.a 3 1 2 2 2 2 2 2 2 2 2 5 1 1 2 p U T W 4.( a.j.d.d.t.;.;.;.=.=.*.n n n n c c n m 6 1 1 O X   O O O O 6 n S S a $.=.e.*.t.a X ; c *.*.w.*.*._ _ _ _ ;.oX#.;.v.h.%.) N.bXmXLXPXZXD.rXjXLXLXyXrXqXwXQ.Q.Q.n.! J ! o.B.7.U w c c k k c a 4 e Y P.XX6.~ < U 5.-.( p 8 2 2 3 3 3 7 8 8 7 1 O O X 1 8 0 0 v a p a #.*.t.d.j.d.;.$.#.d #.k.u.=.*.p 4 0 k h h h 8 h h 5 O % 8 m M 8 X @ = M G v n *.t.a.5.1.T < ~ o.H.wXqXgXeXeXgXgX0XH.V.n.o.n.O.O.O.+.F.F.E.E.E.A.A.Y.A.N.0.6.5.6.g.g.g.g.g.z.d.t.#.d a d n #.%.Y Y Y Y Y Y Y Y Y %.%.%.-.-.-.*.*.*.#.*.*.*.-.b a p a n *.*.a 1 1 ; ; : 4 p p u.d.d.d.d.d.8.8.",
"u.u.>.;.;.=.$.=.S v 9 1 # % 1 5 5 2 2 2 2 2 2 1 2 2 5 5 6 8 8 8 8 8 2 2 2 2 2 2 2 8 8 8 8 9 9 8 4 4 2 2 2 2 2 2 2 2 2 2 6 6 6 6 5 5 6 1   . . % k 0 0 9 0 p a p S $.;.>.u.>.>.>.>.>.d.8.8.8.8.8.>.>.>.>.;.;.;.;.;.>.d.d.d.d.k.k.l.d.n v n c c m k c c c c 0 8 5 c c n n *._ n n S *.n a *.$.#.S y.n 2 1 1 X X O 1 7 8 7 1 6 p b b a p a N N N n c c c 8 8 5 5 5 1 5 8 k k k 0 0 5 1 1 1 1 5 5 1 1 & O 1 5 j j j % % 1 5 6 8 n *.e.e.=.=.*.*.$.$.*.=.t.=.n 8 2 2 4 2 8 8 8 8 8 8 8 5 8 c N ) <.W Y i ( -.*.$.#.#.#.[ #.$.#.S a n n v n N m 1 X X % X   O O O O 5 v F $.S >.>.p.u.i.*.8 2 n *.*.*.*.*.*.*._ _ ;. X$.8. Xj.-.%.s.-XmXLXLXZX+.D.gXGXGXyXrX0XQ.R.R.Q.n.E J J ^ B.N.) w r p 0 0 a a u L 2.Y.U.<.L U 5.-.-.n p 8 2 2 2 3 3 7 8 8 7 1 O X X 1 8 0 0 c a a d #.*.;.d.d.u.;.*.n d #.j.;.=.*.a 8 0 0 h k h j h h 5 # ; 8 v N c 1 o O c M M D =.;.%.Y Y | ..F.7XiXeX9XeXjXjX9XeX8XD.V.^  .o.M.O.M.F.W.'.'.'.Y.C.0.I.C.0.I.I.g.z.a.5.-.( n d a p 9 4 4 4 9 u U U Y { { { { { %.%.%.-.-.-.-.r.*.n n n *.=._ b p p a n _ N p 3 2 4 4 9 a S ;.>.;.;.>.8.8.8.:.:.",
"#.#.S S d a a a 9 2 1 % % % 5 5 2 2 8 9 0 0 8 8 5 5 2 5 5 8 8 8 8 8 2 2 2 2 2 2 2 2 8 8 8 8 9 8 4 8 8 4 4 2 2 2 2 2 6 6 6 6 6 6 5 5 8 1 . .   & k 0 0 9 p a a a d S $.;.>.>.u.d.u.>.>.>.>.8.d.d.d.d.d.d.d.d.>.>.;.;.;.;.;.t.d.j.l.l.S 9 v c k c k k c c c 8 8 5 k c n n *.#.n n D *.n a *.*.#.#.t.c 1 # ; X X % 5 8 8 6 1 6 p b b p r p b n N n p c c 8 6 5 1 5 1 5 8 k k k 0 0 6 1 1 1 5 5 5 5 1 1 1 1 5 5 1 & O % 1 5 8 8 v *.t.t.=.=.$.$.$.$.=.;.t.=.n 9 4 4 8 8 8 8 8 8 8 8 8 8 0 m *.4.<.W Y i I #.S #.#.#.&.#.$.$.$.Z a n n n N N c ; X X % % X O % O O 5 S $.>.u.v.l.k.k.t.e.n p n *.w.*.*.*._ _ _ _ ;.l.$.k. Xd.-.-.s.Q.jXLXGXgX^ S.qXVXVX9X8X8XR.m.N.R.n.E J J Q B.N.' w w 4 8 9 p p s Y P.Y.L.<.' 5.s.%.( b p 8 4 6 6 3 7 4 8 8 7 1 O X X 1 8 8 0 c a a S *.=.t.d.d.;.;.#.n d #.j.;.*.=.a 8 0 0 h k h h k h 5 1 1 9 n N c 1 o X k N D D #.U Y <.N.Q.aXfXjXjXjXfXeXeXeXeXeX7XS.o.o.m.Z.A.A.Z.E.E.E.Y.A.I.0.q.h.h.I.I.I.5.-.) d i w 4 4 4 4 4 4 4 4 4 4 p s U ( %.%.Y ( -.-.#.( b b b b a c v n n c a p p 8 p n n c p a 4 u d #.$.;.;.;.>.>.8.8.8.8.8.8.",
"u u 9 9 9 9 9 9 9 8 5 1 & & 5 5 2 8 0 c v c c k 8 6 2 5 5 8 8 8 8 4 2 2 2 2 2 2 2 2 2 8 8 8 8 9 8 8 8 8 8 4 6 2 2 2 6 6 6 6 6 6 5 5 8 1 . . . 1 k 0 0 0 a a n n d S #.$.;.;.>.u.d.d.d.d.d.k.k.k.k.k.k.j.d.d.d.d.=.=.=.#.#.#.#.#.k. XS 2 9 q 0 k k k c c k 8 6 5 8 c n n *.#.n n n S n n *.#.#.#.=.p ; X X X % 1 8 z c 8 7 2 r c b p 4 4 r c c c p p 0 8 6 1 1 1 1 5 8 k k k 0 0 5 1 1 1 1 5 5 5 1 1 1 1 1 & O O X O 5 8 8 2 4 p n n n n n #.#.#.*.*.*.#.a p 8 8 4 4 8 8 8 8 8 8 8 6 8 c _ 4.<.W <.L U #.#.$.$.=.;.&.&.&.$.#.n S *.n p 2 1 o X 1 1 % X O % O O 5 F $.u. X,X$Xl.u.n *.N p c *.w.*.*.*.*._ _ _ ;.l.>.v.l.;.-.-.4.U.gXGXGXeX/ O.8XBXzX9X8X8XB.W 2.L.n.R J J Q B.L.7.e w w r p p s U s.U.U.7.5.g.s.-.( b p r 4 8 8 4 3 4 4 8 h 7 1 O X X 1 8 8 0 c a a #.$.;.u.d.d.;.;.#.d d #.j.;.*.=.c 8 p k k k k 8 k k 2 ; 1 9 n M 8 X o 1 p n S S u w W U.bXmXmXfXfXfXfXfXeX9X9XfXgXaXW.Z.m.3.3.......0.C.C.3.1.q.9.c.l.h.d.5.-.s s e w w w w w u 9 9 9 9 9 9 9 w r p a s s s s ( s p 4 3 * * * 2 3 3 3 : : 3 4 , : 3 p p p w p #.#.$.$.;.;.;.;.;.;.&.$.#.[ Z Z ",
"9 9 9 9 9 9 9 0 0 0 8 5 5 5 5 5 5 8 c v N n v c 8 8 2 2 8 8 8 8 8 8 2 2 2 2 2 2 2 2 2 2 2 8 8 8 8 8 9 9 9 8 8 2 2 2 6 6 6 6 5 5 5 5 8 & . . X 5 k 0 k p a n n n n #.*.#.$.#.$.=.d.j.k.k.l.k.k.j.;.;.;.;.=.$.*.#.#.#._ n n n n a k.#X=.4 a v c M 0 k a c k 8 6 5 8 a v n *.#.n n n n n #.=.#.#.#.=.p ; X X # 1 1 h c c z 4 2 4 p b r 4 2 4 8 r 4 8 0 8 8 5 1 1 1 1 5 8 h 0 0 0 0 5 1 1 1 5 5 5 5 = 1 5 5 & O O O O 1 6 8 8 2 1 3 9 9 9 9 9 u u f S S n a a p a p p p 0 0 0 0 0 k k 8 8 k N %.<.W ' i U #.#.#.#.#.#.#.$.&.;.#.S n n 8 1 ; # X 1 8 5 % X O % O O 1 $.,.u.*X<X*Xu.n a *.N p c *.w.*.*.-.*._ _ _ =.l.d./.k.=.;.-.4.N.iXGXGXqXE M.0XjXjX9X8X0Xn.L Y N. .! J J Q B.U.N.) I i i s d ) 5.T.T.s.4.a.s.-.b a s r 4 4 8 8 8 6 6 6 8 h 8 5 O X X 1 8 8 8 c p a #.=.t.u.d.d.;.;.*.n d #.j.;.*.w.c 8 c c k c h h k 0 5 ; 1 8 n M 6   o 1 p p u g < ~ n.wXmXgXeXeX9X9XeXeXeXeXeXgXgXqXH.m. .| | { { { | 1.1.{ [ &.8.f.d.;.#.d e e e e e t w w w 4 9 9 9 9 9 4 4 8 r r r r r w w p r 4 3 ; = 1 ; : ; $ ; : 3 4 3 4 4 4 4 p n =.t.;.;.;.&.&.;.;.>.#.#.S d a p u u ",
"9 9 9 9 9 9 9 9 8 8 8 5 5 5 6 5 8 0 v N N N N n k 8 5 2 8 8 8 8 8 8 2 2 2 2 2 2 2 2 2 2 2 2 8 8 4 8 9 9 9 8 2 2 2 2 6 6 6 5 6 5 8 8 k 1 . . X 5 k 0 0 a c n n S #.#.*.*.#.#.#.#.=.;.d.d.d.d.;.;.#.#.#.#.#.S n d n n n n #._ n n j.#Xt.a n N M M k k p a k 8 6 5 6 p v n *.#.n n n n S *.=.#.#.#.t.n 1 X # # % 1 8 z m m 8 7 6 r b p 4 2 4 4 4 3 8 8 8 6 5 1 1 1 1 5 6 h 0 0 0 8 5 1 1 1 5 5 5 5 O 1 5 1 & O O O 1 5 6 8 4 4 9 a a a u 9 9 g g g a u 9 9 4 9 4 4 c c c c c c c c k 8 8 8 b ) ' <.<.L ( -.#.$.=.=.#.#.;.>.;.#.a p 1 1 8 v n 0 2 1 5 1 O % & O + 1 =.>.f.*X<XOXS 9 D =.N p c N *.*.*.=.*._ _ n =.l.l. Xd.;.;.%.4.2.aXGXGXqXE S.0XjXjX8XqXW.7.e I 7. .! J J E N.L.6.7.4.( U ( %.s.P.T.s.4.%.-.) ( b s r r 4 8 6 6 8 6 6 8 8 h 8 5 1 X X 1 8 8 8 c p a #.;.t.t.d.d.d.d.=.#.d #.j.;.*.w.m 0 c c c c k k c k 2 # X 6 c B 1 @ o , 4 > , < P m.wXgXeXeXeXeXfXfXfXfXeX8X8XH.D.M.E ! P T | 1.{ } { &.&.[ f Z &.=.Z a p r w e e t t t r w w 3 4 4 4 4 4 8 8 8 4 4 4 2 2 2 2 3 3 1 ; ; 1 1 1 , , > > u u u u #.=.;.=.;.d.j.d.>.>.;.&.;.&.=.$.#.#.S d a p u u ",
"9 9 9 9 9 4 8 8 8 6 5 5 5 5 6 8 0 a n N N N N N c 8 2 2 8 0 8 8 8 8 2 2 2 2 2 2 2 2 2 2 2 2 2 9 2 4 8 9 8 4 2 2 2 2 6 2 6 6 5 5 8 8 k 1   . X 8 k 0 0 a v n S #.#.#.*.#.#.#.#.*.#.#.$.$.#.#.#.#.#.#.#.#.( n n n n n _ _ *.*._ _ ;. Xt.a v v c c k k a a 0 8 5 5 6 p c n *.#.n n n n n #.*.#.#.=.l.*.4 ; ; X X % 7 8 m B z 7 7 8 B p r r r r 4 2 8 8 8 6 5 1 1 1 1 5 5 8 0 0 0 8 5 1 1 1 5 5 5 5 O 1 1 1 % % 1 5 8 5 6 8 4 9 n =.t.;.$.#.#.S S S Z f 9 > 4 4 4 2 8 6 6 8 6 6 6 8 6 6 6 8 r I Y ' <.s d #.n S *.=.#.#.$.;.$.n 9 4 4 a w.j.i.N 5 1 8 1 % % & O . % u.,.f.$XOXu.9 9 t.*.c p n N _ *.=.r.w.*._ n =.l.v.l.u.;.;.%.4. .aXGXGX0XE !.qXjXjX9X0XW.7.e i <. .R ! ! Q n.N.7.s.g.s.s.s.g.P.T.s.-.( ` ` s p c p r r 8 6 7 7 7 6 6 8 8 h 8 5 1 X X = 8 8 8 p p n *.;.;.;.u.d.d.d.=.#.#.#.j.;.=.e.v 0 c c c c c c c z 5 X X 1 z 4 * o * w s U <.A.Q.pXgXeXeXeXeXeXjXgXqX7XD.+.^ J ! ! ! P L Y %.1.} } } :.>.$.Z d =.#.9 3 4 r r t e e e t r r p 4 9 9 9 8 8 8 2 1 1 1 3 2 3 2 2 o o ; ; : 3 3 4 d #.&.;.&.$.;.8.>.>.8.8.d.h.h.f.h.f.8.;.;.;.>.u.$.#.S d a 9 9 9 ",
"p p a a a a a q 0 8 8 5 5 5 8 8 0 c n N N N N N c 8 2 2 8 0 0 8 8 8 8 2 2 2 2 2 2 2 2 2 2 2 4 8 2 4 8 9 8 4 2 1 2 2 6 2 6 6 5 5 8 8 k 1 . . X 8 8 0 0 a n n #.*.S #.#.#.#.#.*.$.=.$.$.#.#.#.#.#.n n n n n n n n *.#._ *.*.*._ n =.l.t.v v c k 0 k k a p 0 8 5 5 6 p c n *.#.n n S S n n *.S #.u.@Xe.p 1 ; X X X 5 8 m B c 6 1 8 B c r p c c r 4 8 8 8 6 5 1 1 1 1 5 6 8 0 0 0 8 5 1 1 1 5 5 5 5 O % 1 % % % 5 8 8 6 6 4 4 p n =.u.t.;.;.;.;.>.u.;.#.d p p 9 9 4 X X X # X X X O 1 5 5 5 4 e L T I , 4 4 4 9 a n n a a d a 9 4 4 t.i.|.}.t.v 8 8 8 1 % % 1 O   % u.p.f. Xu.Z > a t.n 9 p n N N w.w.r.w.*._ n =.l.oXl.;.t.;.%.1.| aXGXGX0X! G.pXmXjXqX0XQ.1.i s ) 2.E ! ! Q 2.7.<.7.T.XXXXXXXXT.s._ ` t s b t r r r r 8 4 8 7 7 7 6 6 8 8 c h 5 1 X   1 8 8 8 p r #.=.t.;.;.;.;.t.d.;.#.#.#.k.;.=.e.v 0 c c c c c c m z 5 X X 1 8 ; * * e ) 7.E.nXbXmXgXeXeXjXzXjXeXfX8X+.^ ^ ^ ! J ! ! P L I Y %.8.&.{ &.&.&.#.Z Z ;.#.4 : 4 r r t e e w w w r p 8 8 8 8 2 1 # X o X ; ; 1 1 : ; ; : 4 p n #.*.$.;.&.&.&.:.8.8.8.f.8.8.f.h.f.8.8.8.>.>.>.;.;.;.;.j.u.t.*.n a a p ",
"n n a a p 9 9 9 9 8 2 2 1 1 5 2 2 n D D D D D D c 0 8 2 8 0 0 k c k q 9 8 2 2 2 2 1 2 2 2 8 2 2 8 4 4 2 2 2 2 2 2 2 6 6 2 2 2 2 2 8 8 & . o 1 k 8 0 c v n S #.#.#.#.#.#.#.#.#.#.#.#.#.#.#.d d s d n n #.#.#.*.*.*.*.*.*.*.*.*.*.=.d.*.a a c c k k k 0 0 0 8 8 8 1 p N n *.#.n n n n *.#.S #.;.j.{.j.c 2 8 2 1 O O 5 h c h 7 1 1 4 8 c m m c 8 8 8 8 6 5 1 1 1 5 1 5 8 8 0 0 8 8 8 1 % 1 5 5 % % O X . O 5 8 8 8 5 8 5 8 n *.*.=.;.$.$.;.u.d.k.h.v.l.d.u.k.t.a 4 4 8 8 8 2 1 X X X   . X * w L T e w , ; ; 2 4 p 4 : : > 4 4 a D y.t.i.t.*.n 8 2 0 8 5 1 % . O 8 =.f.f.v.u.f 9 #.*.n 8 8 v *.*._ *.=.t.w.*.n *.oXoXd.t.d.;.-.%.<.pXKXCXS. .B.pXCXmX8XD.B.<.i i Y 2.o.Q Q Q 7.' I ) -.g.z.s.a.-.-.b b b s p r r r r r z r h h 8 8 k 8 8 c m m 8 1 O O 1 7 8 8 8 8 n ;.d.;.=.;.u.d.d.;.#.#.;.j.d.=.u.n p c c c c c 8 z c h 1 X = 1 , w ) s.Q.bXbXpXqXqX9XjXZXZXzX9XgXwXD.^ / ! J J ! ! Y I L I ) %.&.&.&.[ } &.&.Z d d.{.9 : 4 4 r t t t w w w r r 3 2 8 r 5 X @ @ o ; 0 n a 1 ; 2 4 S t.t.=.=.d.d.8.8.f.h.h./.v.v.v.f.8.&.&.&.$.#.#.#.#.#.=.;.t.d.=.=.=.;.e.=.=.=.",
"=.=.*.S S n v v 9 8 2 2 1 1 2 2 4 n *.D D D D D v 0 2 2 8 0 c c n v v k q 9 2 2 2 2 2 2 2 8 2 2 4 4 4 2 2 2 2 2 2 2 6 6 2 2 2 2 2 8 8 & . o 1 k 8 0 a v n #.#.#.#.#.#.#.#.#.#.*.=.=.=.=.=.#.#.#.#.*.*.*.*.*.*.*.*.*.*.*.*.*.*.*.=.f.*.a a c c k 0 k 0 0 0 8 8 8 1 p N n *.#.n n n n *.#.S #.=.d.l.j.n 2 8 2 1 % X 1 8 c m c 8 1 1 3 6 8 h 8 8 8 8 8 6 5 1 1 1 5 1 5 8 8 0 0 8 8 8 1 % 1 5 1 % O O X O 1 8 8 h 8 5 8 2 8 n *.*.*.;.$.$.;.>.>.d.k.v.l.d.u.k.u.n 9 9 0 c c 0 8 1 1 .   % % * w L L e w , ; $ # 1 3 ; ; : > p n *.w.*.D e.e.*.n 8 8 0 8 5 1 % . O 8 =.p.f.b.u.f 9 #.*.n 8 8 c N *._ w.e.y.w.w._ -.@XoXd.t.a.;.;.-.<.W.KXCXM.R m.wXMXmX8XH.B.<.s s ) n.M.V.n.' 7.) L s i w s -.r.-._ B b c c p r r r r r z z z h h 8 p p c c h 8 1 % O O 1 7 8 8 r 8 n ;.d.;.;.;.t.d.d.;.*.#.;.j.d.=.u.n p a c c c z z m m 8 1 X X * < U L.-XbXaXqXeXgXZXVXVXVXVXzXjX7XH.D.^ E ! ! ! W Y I e e s ( #.&.&.&.} } &.&.U d d.l.9 : 4 4 p w t t t r 4 4 2 r b c 1 o @ o X 1 4 v n a 1 ; 1 v S =.*.#.*.=.;.$.&.;.>.8.8.8.8.&.$.$.#.[ [ d d S n n d n n n n n S #.*.=.e.t.t.",
"S S S S n n n n 9 8 2 2 1 1 1 2 9 S *.D D D D *.v 0 2 2 9 c v v N M n n v q 8 2 2 2 2 8 8 8 8 2 4 4 2 2 2 2 2 2 2 2 6 6 8 5 8 5 2 8 8 1 . . 1 k 0 0 a v n #.#.#.#.#.#.#.#.$.=.;.;.5.8.d.d.d.8.d.d.d.t.;.=.$.#.#.*.*.#.*.*.*.*.#.=.f.*.a a c c k 0 k 0 0 k 8 8 8 1 8 n n *.#.n n n n *.S S #.=.;.j.j.N 8 p 8 1 1 O O = 8 c m h 5 1 1 5 5 7 8 8 8 8 8 6 5 1 1 1 5 1 5 5 8 0 0 8 8 6 1 1 1 5 % O O X 1 5 8 k k 8 8 5 8 2 8 n *.*.$.$.#.#.$.=.;.>.f.d.8.;.;.u.u.S 4 8 k c M m c 8 8 X % & % * < L L < < , ; ; : 4 9 p s S $.u.j.j.t.a a D *.*.n 0 8 0 8 5 1 & X % 8 $.p.f.v.u.f u $.*.n 8 8 c N _ N *.*.w.*.N n *.oXoXa.;.t.;.;.-.<.K.GXCXV.H  .W.MXmXqXH.B.%.s ( 4.B.R.!.n.' 7.I < < , w n t.j.r._ c p c z c r r r z z z z z z z z r c m z 5 O O 1 1 1 1 5 8 0 0 8 a =.d.;.;.;.u.d.;.;.=.*.=.d.d.;.u.n p a c c c z c z r r ; o o * U 3.Q.MXBXZXZXzXVXLXPXLXGXZXzXfXH.D.M.^ ! ! ! ' ) U i < , u U U &.&.&.} { &.&.[ d d. Xu : 4 4 p w t t t r 4 r p N n 6 o @ o 1 8 0 c N N c 1 X 1 6 8 8 4 4 p d d s a d d d d d a #.#.#.#.*.#.#.#.#.n n a a p u u p a a d n n S S ",
"9 9 p p a a a c 9 8 2 2 1 1 1 2 8 D w.D D *.D *.v 0 2 2 0 v N N M M N D n v 0 2 2 2 8 8 8 8 8 8 4 2 2 2 2 2 2 2 2 2 6 6 5 8 8 5 5 8 8 1 .   1 0 0 0 a n n *.#.#.#.#.#.#.;.;.>.8.d.j.k.h.h.h.k.h.j.j.j.d.u.;.;.;.=.-.*.*.#.#.#.#.;.d.*.a a q k k 0 0 0 0 k 8 h 8 1 4 n n *.#.n n n n S S S #.#.=.t.a.*.p p 8 1 1 1 O X O 5 8 7 1 = 1 1 1 5 7 7 8 8 8 6 5 1 1 1 5 1 5 5 8 8 8 8 8 6 1 1 1 5 % O O % 1 h c c k 8 8 6 2 2 8 n *.*.$.#.#.#.#.#.$.>.d.8.>.$.$.;.u.$.9 2 8 k c c k 8 5 5 5 5 % * , L P e e w p a S =.t.k.l.#X$X#Xk.=.n 4 4 n *.D n 8 8 0 8 5 5 1 X % 8 D u.u.l.u.f a $.S v 9 8 p n N N n n n n c p n l.oX;.=.;.;.-.-.<.F.GXCXV.~ Q G.MXmXqX0XB.%.s ) 7.R.Q.B.n.' 7.e , w s =.z.{.j.*.B r r r r r r r r z z c c c c x c z c r 7 = O 1 5 1 1 1 1 6 8 8 8 a =.d.;.;.;.t.d.;.;.=.#.*.=.t.d.u.n p c c c c z 8 4 w < , * , < | B.pXCXGXLXLXLXPXPXPXPXLXzX9XqXD.S.^ ! ! ! ' <.U i < , , u d d } } &.} } &.&.[ d d. Xp : 4 8 r r t r r w p n n N 2 o @ % 8 c M c c n N c 1 % 1 1 1 3 3 4 p p a a a a a a a a a n n n S #.#.*.*.S S S n n p u 9 p p u u u u u u ",
"9 9 9 9 9 9 8 8 0 8 6 2 1 1 1 2 4 S *.D D *.D *.n q 2 2 9 v n D v v n N N v q 8 2 2 9 9 9 9 8 8 4 4 4 4 2 2 2 2 4 4 8 8 8 8 8 8 5 8 0 1 . . 1 c 0 p a n S *.#.#.#.#.$.;.>.8.d.f.h.h.h.h.h.h.h.h.d.d.j.k.d.d.d.d.;.=.=.=.#.#.#.#.;.d.*.9 q q k 0 0 k 0 0 k 0 h 8 1 2 c n =.#.a n n n n n n #.#.#.=.a.=.p p 9 1 1 1 O X   X X O X X X = 1 5 5 5 5 8 8 6 5 1 1 1 5 1 1 5 8 8 8 8 8 8 1 1 1 1 O O O 1 6 c m c k 8 8 8 2 2 4 S $.$.$.#.#.S #.[ [ &.8.f.>.;.=.>.l.d.v 2 6 8 k h 8 5 1 5 5 5 1 3 e I T L s s n *.e.u.j.d.d.l.@X{.=.a 9 9 9 S *.D n 9 8 0 0 8 8 5 % % 8 F >.u.l.u.f a =.n a p 4 p c b B n n n v n a n l.oX;.=.=.=.-.-.1.G.GXCXV.~ Q B.mXmXfX0XR.%.s ) 7.!.W.M.' ' ' e w ;.j. X{.a._ B c 8 8 8 z z z c c z c c c c c c x c 4 1 * = 5 8 h 5 1 % 1 6 0 0 8 p =.d.;.;.;.t.d.d.;.=.#.#.=.d.k.d.n p c c c c 8 4 b -.5.1.| | X.E F.mXGXPXPXPXLXPXPXPXPXGXjX9XqXo.^ ! ! ! ' ' ) i 4 , ; , u d f } } &.} } &.$.#.d u. Xa ; 4 8 r t t r r 4 4 a n 8 X o % k M M N p p c v 0 1 1 6 8 8 8 p a p p p a a a a a a n n a a a n n n n N n n n n n a p p u u 9 u u p p p ",
"0 9 0 0 0 0 0 0 0 8 6 2 1 1 5 2 4 n *.D D D D *.n v 9 2 8 q c M c c v M N n k 8 2 8 9 9 9 9 9 8 4 4 4 4 2 2 2 2 8 8 8 8 8 8 8 8 6 0 0 1 . . 1 c p p c n D #.#.#.#.$.&.>.d.f.f.f.h.h.h.h.h.h.f.9.8.d.d.d.k.k.k.k.d.t.;.=.$.#.#.#.$.d.*.9 q q k 0 8 0 0 0 k 0 h 8 1 1 c b =.#.a n n n n n n n #.#.*.a.=.a 9 9 1 1 = O O X X       @   X = 5 5 8 8 8 8 6 5 1 1 1 5 1 1 5 5 8 8 8 0 8 2 1 1 % O O O 5 8 c c k 8 8 8 8 2 1 4 S $.$.$.#.#.S S Z [ &.8.f.>.;.=.;.v.l.n 2 6 8 8 8 5 1 % % % 6 8 r I Y W i s a a n n n S p p d $.#.p 9 a a a S *.D n 9 8 0 0 8 8 5 % % 8 S ,.u.l.u.a a ;.v a p 8 8 p c c n n n v n a n l. X=.*.=.-.=.&.1.W.GXCXV.H  .M.aXhXfX0XR.) s ` 7.M.R.M.n.W L w -.#X%XoXd._ p 8 z 8 k k c z c c c c c c r r r r r r 3 X * 7 z c h 8 5 % % 2 8 0 9 p $.d.;.;.;.t.d.j.t.=.*.#.=.d.l.d.n p c c c c r p -.T.-X'.~.~.~.O.qXVXPXPXPXPXPXLXPXPXLXZXfX8XJ.Q ! P P Y ` s r 4 : : : : u n f [ } &.&.} #.$.#.f u..Xa ; 3 r r w t t r 3 ; 1 2 o 1 8 c c M M v 9 8 9 c 8 1 5 h 8 6 8 a c p p p p p 9 p p p a c a v n n n n n n a a a n n n a a u u 9 9 9 p p p ",
"8 8 8 8 8 0 k k k 8 6 5 1 1 5 2 4 n D D D D D D D n q 2 2 8 k n M n n N D n k 9 8 9 9 0 0 9 9 9 2 2 4 2 4 4 2 2 4 8 8 8 8 8 8 8 4 0 0 1 X . 1 c p a c n D *.*.#.$.&.>.8.f.f.f.f.h.h.h.h.h.f.9.9.8.8.8.8.d.d.f.f.j.d.d.;.;.$.#.#.=.d.S 9 9 0 k 0 8 0 0 0 0 0 h 8 1 1 p a =.#.a n n n n n n n n d *.d.t.a 8 8 1 1 = O O O X O O O   . O O 1 5 7 8 8 8 6 5 1 1 1 5 1 1 5 5 8 8 8 0 0 6 1 % O   O O 8 8 0 0 8 8 8 8 8 2 2 9 S $.$.$.$.#.S Z Z Z &.8.8.;.;.#.$.v.{.n 8 6 5 5 5 1 1 1 & 6 k c c ` Y T I b b n v v v n v p p a a 9 8 9 a p S D D n 9 0 q 0 0 8 8 & % 8 F ,.>.l.u.f f ;.a a p 8 8 8 r p v c m c c p a d.l.-.*.-.*.-.=.1.uXGXCXV.!  .o.J.gXeXwXR.) s ) 7.M.H.M.n.W < < T.1X%Xl.=.n p 8 z c c c c c c c c c c p r r r 4 4 3 = = 7 z m m c h 5 % % 2 0 0 9 p *.d.t.;.t.;.d.j.t.=.=.=.;.d.k.j.n p c c c p 8 n 1.g.3.X.@.tXkXtXBXLXPXLXLXLXPXLXLXLXzXeX8XD.O.Q ! K L e w 4 1 2 1 2 2 : 9 n s f &.&.&.} #.$.#.a u..Xv ; 3 r r y t s r 1 X X # ; 9 v v c c l k p 4 8 r 4 1 7 r B r 4 p n n b b p p r r p p a b p a b b b a a n n n d d n n n n n a a p 8 8 8 9 ",
"0 0 0 0 8 8 8 8 k 8 8 5 1 5 5 5 4 n D S D D D D D n c 8 2 1 0 c D D M N D n k 9 8 9 9 0 0 0 9 9 4 4 2 2 4 4 2 2 4 8 8 8 8 8 8 8 8 0 0 1 X . 1 c c a c n S *.*.#.$.&.>.8.f.f.h.h.h.h.h.h.h.f.9.9.f.f.8.8.d.d.8.8.k.d.d.>.;.$.$.#.=.d.S 9 0 0 k 0 8 0 0 k 0 0 8 8 1 1 p c =.*.a n n n n n n n n n -.d.t.a 8 8 1 1 1 O O X % 1 5 7 1 1 1 = 1 1 5 6 8 8 6 5 1 1 1 5 1 1 5 5 5 8 8 0 k 6 1 % X   X % 8 8 8 8 8 8 6 6 8 2 2 9 S =.$.$.#.#.Z Z Z Z $.d.k.>.;.$.$..X.Xn 2 5 2 1 1 1 1 1 h k M M p s I I e i a v n n n n v v a p a v v a a 9 n S D n q a 0 q 0 0 8 & % 8 v =.u.l.u.a d ;.a p p 8 4 8 p p c c v m v c a d.{.-.*.*.*.-.-.6.pXGXCXV.! 2. .G.aXqXwXR.) I ) 7.!.G.V.n.' < e %X%X Xd._ p 8 r m c c c c c c c c c c c r 8 4 4 6 * 1 6 z B B c h k 5 % % 2 0 0 9 u *.d.t.;.t.;.d.d.;.;.d.d.t.d.j.d.n a c c c p w d 1...X.J X.6XlXxXVXLXLXLXLXLXPXLXcXzX9X8XrX^ E ! I e < , 3 1 1 2 1 8 8 1 8 n p d %.&.&.#.#.#.#.a u.oXn ; 3 r r r t t w ; X X ; c q 0 c c k k k a p 9 r 4 1 1 p w.c 2 4 a n b a r w 4 w w w p p n n n a a a n #.d d a a a a a n #.S n a a p a a ",
"8 8 8 8 9 8 8 8 6 6 6 6 5 5 5 5 8 q n D D D D D D n v 9 4 2 2 2 D D D F n n c v 9 2 9 v v v n v 9 9 8 2 2 2 2 8 2 4 8 8 2 2 2 8 8 0 0 1 o ; 0 0 9 a n n n n #.#.$.&.8.8.f.f.h.h.h.h.h.f.f.f.8.8.f.d.8.>.>.8.d.f.d.8.;.>.>.>.;.&.=.u.=.a 9 8 8 0 8 8 8 8 8 8 8 8 6 1 1 c N n a n a n n n n n n n n t.j.n 2 8 5 1 1 % X 6 m c v v 9 c 9 1 ; 1 1 6 6 8 8 5 O 1 6 5 5 5 1 1 5 5 8 8 k 5 1 X X % 1 5 8 8 8 8 8 8 6 6 8 8 2 8 n *.#.#.$.#.Z #.S S ;.k. Xu.#.S #.k.l.*.: 2 2 2 % 2 4 9 D M k 0 8 r s I s a a n n v v d v v v a a v v v a a n S S v q 0 c k 0 8 8 1 % # q i.u.;.;.d d =.a a a p p 0 9 2 p c M B c c n N j.t.*.*.#.#.;.6.pXGXCXO.P <.6.<.Q.wXQ.B.<.( ) 6.B.G.V.2.W < w #.#X@X}.*.c r c p c c c 8 8 k c c m c k 4 2 1 = X c c c c n n n v m 8 1 1 5 8 0 p u -.d.;.a.d.d.;.d.d.a.a.a.a.a.t.d.#.p p c 8 4 w U A.~.~.tXtXyXxXcXcXLXLXLXLXVXzX9XyXzXjXrXmX0X! ' s 3 3 7 3 1 1 8 2 2 6 2 4 a n u [ ;.8.;.#.[ #.s ;.{.n : 3 3 8 r r 3 ; ; ; 4 p n v c q q k k k q q k 8 8 5 1 n l.oXd : 9 #.n n p 4 > 4 u p a d a d a d d d d d d Z Z Z d d d d a d S S S d u 9 ",
"p p 8 8 8 8 8 8 8 8 6 5 5 5 5 5 9 a n D D D D D D S v q 2 4 4 2 q v n n F n n n q 9 9 n n n n v 9 9 8 2 2 2 2 8 9 8 8 8 8 2 2 2 8 k 0 1 X 1 9 0 9 a n n n n S #.$.&.8.8.8.f.f.h.h.h.h.f.f.f.f.8.d.d.8.>.>.8.d.d.f.8.>.>.8.8.;.&.=.u.=.a 9 8 8 0 h h 8 8 8 8 8 8 5 1 1 p N n c n a a n N n n n n a e.j.n 2 8 2 1 1 # X 8 c c v v p a n a 9 ; # 1 6 6 8 5 % 5 6 5 5 5 5 5 5 5 6 6 5 1 % X X % 2 8 8 8 8 8 8 8 6 6 8 8 2 8 n *.#.#.$.[ Z #.#.S ;.k.k.t.*.S *.u.t.n # ; 2 % 2 4 a S v p 0 8 4 w I U s a a n n d d d v v v a a a v v a a n S D v q 0 c k 0 8 8 1 % % 8 e.u.u.=.d d ;.a a a p 0 0 8 8 0 c m m m m n N j.e.*.#.#.%.1.6.wXGXCXO.P <.5.4.U.Q.R.N.<.U %.m.Z.!.n. .W e < d @X@X@Xt.b r p r 8 k c m m M M M c 8 1 1 1 1 5 8 c c c c n n n c m 8 1 1 1 8 p p u #.;.=.;.a.a.a.d.d.d.d.d.a.t.;.d.#.a p k 8 u g 3.~.~.@.[.tXyXcXSXSXLXLXGXVXZXeXjXzXVXZXeXZXaXQ ) s 3 1 7 1 1 1 8 2 5 6 6 4 p d u d =.;.-.#.[ [ s ;.l.n ; 3 2 p 4 4 3 , 3 4 r p c c c p q q k k k k k 8 8 1 1 n l.oXd., g S *.n a p u u s d #.#.#.#.#.#.[ [ [ Z S S Z Z d d d d a d Z S Z d f u ",
"c a p 8 8 8 8 8 8 8 8 6 6 5 5 5 9 q n D D D D S S S n v 9 9 2 2 2 8 0 k c M D D v q v n n n n v 9 9 8 2 2 2 2 8 9 9 8 8 8 8 2 2 8 k 8 1 X 2 0 0 8 a n n n n n #.$.&.>.8.8.d.f.h.h.h.h.h.k.f.f.f.d.d.>.>.>.>.d.d.k.d.>.>.8.8.>.;.=.u.=.v 9 9 8 0 k k k k 8 h 8 8 5 1 1 p N n a n b b n n n n c c a =.i.n 8 2 1 1 1 # X 8 c c v v a n D =.D 9 # # 2 2 5 1 O 1 6 5 5 5 5 5 5 5 5 5 % % X X % 5 8 0 8 8 8 8 8 8 6 6 8 5 2 8 n *.S #.#.S S #.#.#.$.d.d.;.$.#.S n a 9 : # # 2 v D D D q 9 8 2 2 w s U s s a n n v d d v v a v a a v v a a n S D v a 9 k k 0 8 8 1 % % % D i.u.$.a d t.a a a a a p 9 8 k c c m m m n n i.e.*.#.#.%.1.3.wXGXCXo.P <.5.<.N.G.R.n.) U ) N.R.B.n.Q 2.L < u z.@X@Xj.b r 4 r p c n N N M c c 1 1 1 1 2 8 p c m c c c n n c c c 8 1 % 1 8 p p a =.d.5.;.;.;.d.d.d.d.d.d.d.d.d.d.#.a 0 k c p s A.~.@.J +.8XzXVXGXLXLXLXHXjX9X8XjXZXLXVXjXGXmXn.) r 1 1 7 1 1 1 8 2 5 6 6 2 r a u d #.#.#.d d #.s ;.l.n ; 3 4 p 3 , , 3 w r c p c c c p p 0 c k k k k 8 8 1 1 n d./.OXf : d *.n n d d #.#.#.=.=.*.#.#.#.#.#.#.#.S S S S S n S d d d S S S d d d ",
"n n p 8 8 8 8 8 8 8 8 8 8 6 8 5 9 9 v S D D D D S S S n a 9 9 9 2 8 2 8 q c D D v q v v v v v v 9 9 8 2 2 2 2 8 9 9 9 8 8 8 2 2 8 k 8 1 # 2 p p 9 a n n n n n S &.&.>.>.8.8.d.f.k.h.f.f.f.f.d.d.d.8.>.;.;.>.8.d.k.d.8.8.d.8.>.;.=.u.=.a p 9 8 0 k k k k k k 0 0 5 1 1 p N n a n a b b b c c c c a S w.c 2 2 1 1 1 # X 8 v c v c n n n =.t.*.0 1 1 1 1 % O O 1 % % % % 1 1 1 % % . . X % 1 8 k c 8 8 8 8 4 8 6 6 8 5 2 8 v S S #.#.d d #.#.#.$.d.d.u.=.#.d 4 : : : 2 9 n w.e.D a q 9 8 2 2 w s U i s a n F v d d v v a a a a v v a a v D D n a 9 k 0 0 8 8 1 & % # S i.u.#.f d ;.a a a a a p 0 8 8 8 8 z m m m c t.e.=.#.#.%.1.3.W.GXCXo.P <.4.<.n.B.Z.2.) U <.P.R.V.Q ' 7.Y e w _ {.@X}.r.b 4 r p c m m c 8 1 X 1 1 8 c v m c c m m m v n n c p c 8 1 % 1 8 c a #.;.j.d.a.;.d.l.j.d.a.;.;.t.d.d.j.*.p p m c r i C.A.O.J +.yXxXVXLXLXLXGXMXqX8XeXeXZXGXVXjXGXhX .) w * 1 5 1 1 2 8 2 5 6 6 2 4 p p s d d d d d d s =.l.n ; 2 2 8 ; , 3 r s b b b x r r r 8 0 k k k k k 8 8 5 1 n u.v./.&., f S #.#.#.#.=.=.;.;.;.=.$.&.#.#.#.#.#.#.#.#.#.S S S S S S S S S S S S ",
"n n a p 8 8 8 8 8 8 8 8 8 8 8 8 4 9 q v n D D D n S D S v p 9 q 9 8 8 8 9 k n M q a q q q a v v 9 9 8 8 2 2 8 8 9 9 9 8 8 8 8 8 k k 5 # 1 8 a p p a n n n n n S $.&.;.;.;.;.>.d.f.d.d.d.d.d.d.d.d.>.>.;.;.>.>.d.d.d.8.8.8.8.>.;.=.d.=.v p 8 0 0 k k k k k k 0 0 5 1 1 p M n a n a a a a c c c c n n v 8 2 8 1 1 1 % X 8 v c v c v n n *.t.j.w.0 1 X O O + O O O O % % % % % O X . . X 1 8 k c c 8 8 8 8 8 2 6 6 8 5 1 8 v S n n n d d #.#.#.$.d.k.u.$.S 9 : $ 4 4 v G e.D n v v a q 9 2 4 u s U u s a n S S A d v v v d a a v v a a v S D n a 9 k 0 0 8 6 5 & % . v i.p.S a a $.a a a p a a p 9 8 8 8 8 c m c p e.e.=.#.#.-.1.3.J.GXCXO.P 4.a.4.V.!.R.m.) U <.P.E.V.Q 2.L.4.s w w *.}.{.j.*.N b n c p 6 1 1 1 1 c c n n n n m c v m m c n n c c c 8 5 % 1 p n n a #.a.d.;.;.d.z.;.;.;.;.t.a.a.d.a.=.c c c 7 * , m.M.+.+.8XjXzXZXGXLXLXVXhX0XqXgX8XZXVXzXeXHXaX .) 4 X 1 5 1 6 2 8 2 6 6 2 3 4 u p a s s s s a d p =.k.n ; 2 1 2 3 4 r s t t x x r r r r 8 8 z k k k k 8 8 5 1 n >.k.h.h.f > n =.#.#.=.=.;.;.=.=.=.$.=.=.=.*.#.#.#.#.#.#.#.#.#.#.S S S S S S S S ",
"n n v a 9 9 8 8 0 0 0 8 8 8 8 8 9 9 9 q v n n n n S D S v a q q q q q q l q q q q v q 9 9 9 9 q 9 9 8 8 2 2 8 8 9 9 8 8 8 8 2 8 k k 1 X 1 0 a a p a n n n n n d $.$.&.&.$.&.;.>.8.8.8.8.8.d.8.d.>.>.;.;.;.;.>.>.d.d.8.>.>.>.;.;.=.u.e.n p 0 0 0 k k k k 8 8 8 8 5 1 5 k M n a n a a a a p a c c N a 9 2 2 8 1 1 1 % # 0 v v v a p a S D e.j.y.N # X O 1 % O O O % % % % % % O X   X % 5 k c c 0 8 8 8 8 2 2 6 6 8 5 1 2 v n n n d s d [ #.#.;.k.k.;.S a 9 9 9 v D =.w.D v q a v v a 0 8 4 u s U u p a n n n F d v v n v a a v v a a v S D n v q k 0 8 8 6 5 & % # 9 i.i.$.Z d S v a a a c c a 0 8 8 8 8 z c p 8 w.e.=.#.#.-.5.6.R.HXCXV.! 4.s.4.B.R.R.N.<.( 4.U.E.n.Q 2.L.4.U p 4 4 *.}.j.t.t.N c p 2 ; ; 1 p c m m n n n n n n m c m c n n c c c c 6 1 1 c N n a #.;.;.-.-.=.#.#.=.;.d.d.d.d.a.j.e.p 1 O o * e N.F.D.8XjXfXeXfXzXGXGXBXpXJ.J.0X8XBXVXfX8XHXbXm.%.3 o 1 5 2 6 8 8 2 6 6 2 1 3 4 p p p p a s s s p =.j.n ; 2 1 2 r p s s t r x x r r r r r r 8 k k k k 8 8 1 1 n d.d.h.v.>.> n =.*.*.=.=.=.$.*.#.*.$.=.=.=.*.#.#.S #.#.#.#.#.$.$.S S S S S S S S ",
"n n v a p p p p p 9 0 0 0 8 8 8 9 9 9 9 k v c v n n D S M v v v k l v v v k q 0 v n v 9 9 9 4 9 0 9 8 8 2 2 8 8 9 9 9 8 8 9 8 8 k k 1 X 2 c c a p a n n S n n d #.#.#.#.#.#.#.=.;.;.;.;.;.;.d.d.u.>.;.;.;.;.>.u.d.d.>.>.;.;.;.;.=.d.e.n 0 9 8 0 8 h h h 8 8 8 8 5 1 1 8 M c a n a a p p p p a c n 9 8 1 2 6 1 1 1 % # 0 n v v a p a S *.t.j.y.v % X % 8 6 6 5 1 5 5 1 % % % % % O % 1 k c c k 8 5 5 6 6 2 2 8 8 8 8 1 2 v n n n d a s d S S ;.k.u.S a u 9 S u.p.t.*.F l p v v v v p q 9 4 u s I u p a n n n S A n v n n v a v v a a a S D S v q 0 0 8 8 8 5 & % # 2 e.p.=.$.S S v a a c c c a p 8 8 8 8 8 8 8 4 *.=.=.#.#.-.5.6.R.GXCXM.! 7.s.4.L.Q.Q.B.<.) 4.T.E.n.Q 2.6.4.( p 4 ; 4 *.r.w._ n 8 6 2 1 1 6 8 p 8 8 p c c c c c m c c c n n n v c c 8 1 1 m *.D n -.d.d.=.t.=.n a d #.*.*.=.=.=.j.=.3 @ o * y ' !.J.qXqXfX9X8X8XfXBXBXaXE.o.E o.rXZXVXeX9XGXMXY.%.3 o 1 5 6 8 8 8 6 6 6 2 1 > 4 p p p p a a a a p *.j.p # 2 2 p n b b t r r t x r r r r 8 r r c k k k 8 8 1 1 n d.d.h.f.k.s p #.*.=.=.=.*.#.#.#.#.#.*.*.#.#.n a d d S S #.#.#.$.S S S S S S d d ",
"n n n a a p p p p 0 0 0 0 8 8 0 k 0 8 9 0 q k q M M F n c v c c c c v v v v v l n D n 9 9 2 4 2 0 9 8 8 2 2 8 8 9 9 9 9 8 8 8 8 k k 1 X 2 c c a p a n n n n n n #.#.#.#.S #.#.#.=.=.=.;.;.;.;.5.>.;.;.=.=.;.;.>.>.>.>.>.;.;.;.;.=.d.e.n 0 0 8 k 8 8 h h 8 8 8 8 5 1 1 8 M c a n a p p p p p p c v 8 6 2 2 2 % 1 1 % # 0 n v v a n a n =.y.j.w.8 % X 5 k m k h h 6 6 5 1 1 1 1 1 % 1 5 k M M 0 2 5 5 6 6 2 2 8 8 8 8 1 2 v n n n d s s d Z S ;.l.$.a 9 9 a =. X.XD D n M v v v a v p 0 8 4 u s I u p a a n S S S n n n n v v v v a a a S D S v q 0 0 8 8 6 5 & % . 2 w.p.>.=.S S v a a c c c c p 8 8 8 8 4 6 6 2 *.=.=.#.#.-.5.6.R.GXCXM.Y s.s.s.L.Q.Q.L.4.) 4.T.E.m.' 7.7.) s p p 1 o 4 *.B 1 8 c m M N N n p 8 0 8 8 8 6 2 1 1 c c c v n n n n m m 8 1 5 n w.*.n =.z.l.j.{.l.*.> > > > w p a n a.n o @ * t ' B.W.aXfXiXqX9XeXfXqXgXaXW.N.P ~ ~ H.BXVXeXeXGXMXE.%., o 1 6 6 8 p 8 6 8 6 2 1 : 4 p p u p s d s p p *.t.4 o 2 0 c _ ` s t r t x r r r r r 8 8 8 c k k k 6 8 1 1 n u.h.d.8.>.*.: a =.=.=.$.#.#.#.#.n n n n n a u 4 a a d d S #.#.#.S S S S S d d a ",
"d n n n d d a a 9 9 9 9 9 8 8 8 0 0 0 q k 0 k 0 k l M M M l l l c c v v c c n n n n v v q 9 9 2 8 8 8 8 8 2 2 2 q k k q 9 8 8 9 k k 2 X ; 0 a 4 p a n n n n d n #.#.#.#.#.#.#.#.#.#.#.#.#.#.#.*.u.t.;.;.=.=.$.#.;.;.;.=.=.=.=.=.=.t.e.v 8 8 8 5 8 8 h h 8 6 5 1 1 5 5 8 k v n v c a 8 8 8 p a c 0 8 6 6 5 1 1 1 1 1 # p c v c a n n D *.e.t.D 8 X @ 1 k 5 5 5 5 5 1 % % % 1 1 % 5 8 k c c c 8 2 5 5 8 8 8 8 8 8 8 8 2 4 v S n S n n d a d #.$.$.g g u Z ;.k.v. XD v v n v v v a q 9 0 q 8 u s s i a n n n n v S S S n n v a v v v a a S *.D v a 9 8 1 1 5 1 & % . 2 n u.p.=.*.=.D a 0 a a a c p c c 8 4 7 7 2 2 n =.*.#.#.#.1.6.H.GXCXS.W 7.s.4.L.Q.Q.L.) ( 4.T.U.n.W ' 7.4.s 4 8 4 ; * 1 r n t.N N N N N N N N N N n v p 8 2 1 1 2 2 8 n *.D c m m c 5 1 v w.N #.t.l.l.z.l.}.}.t.=.n p 4 ; ; ; 4 , * * ` s.U.Q.H.0XqX8XfXjXhXiXhXpXR.W L L P R 0XGXZX9XjXGXMXU.( 4 ; 1 8 8 8 2 2 8 5 1 5 2 ; ; p p p p u u u u > p p 3 ; 9 N w.b t t t t r 4 4 r r 8 8 8 0 0 k k k 0 8 8 1 1 p d.f.f.8.>.#.a a #.=.t.=.#.#.#.n n n n n a a p p p u 9 9 u p a a S S S S n n n d ",
"d d d n n d v v a 9 9 9 9 9 9 8 q k k k k k k k k k c M c l l l c c v v v c M c n v v v q q 9 9 8 8 8 8 8 8 2 2 q k q 0 8 8 8 9 k k 1 X ; 0 a 8 p a n n n n d n #.#.#.#.#.#.#.#.S n S #.#.#.#.#.$.$.=.=.=.=.*.*.;.=.=.=.=.=.;.;.e.t.=.v 9 0 k 8 8 8 8 8 6 5 5 5 1 5 5 5 6 8 p a a p p 8 8 p p c 8 8 5 6 5 1 1 1 1 & # p c v c a a n n D e.t.D 8 X @ 1 k 5 5 5 5 5 1 % % 1 1 1 1 8 8 k c c k 8 5 5 5 8 8 4 8 8 8 8 8 2 4 v S n S #.#.n n S #.n p > 9 S >.d.d.k. XD v l M v v v a q 9 q q 8 u s s u s n n n n d S S S n n v a v v n a a n D S v a 8 8 8 1 1 & & 1 # 2 v u.u.=.*.=.D a 0 a a a c p c k 8 4 7 7 2 2 v =.*.#.#.%.1.6.K.GXCXM.I 4.s.4.L.R.Q.L.) ` 4.T.N.2.' 7.7.) a w 4 1 X ; c _ *.=.N N N N N N N N N N N n c p 8 8 8 8 6 2 4 p c n c k h 5 1 v w.D n -.a.d.d.d.j.j.oXoX X{.j.=.n s ( i w I ' L.!.D.D.0XiXfXkXBXkXsXuXG.2.T i i L R iXCXzXrXjXGXbXC.( 4 ; 2 8 8 8 2 2 6 5 1 6 2 ; * p p p u u u u u : 4 4 4 p D =.*.x t t t r r r 4 r 0 0 0 0 0 0 0 k 0 0 8 8 1 1 p u.f.f.8.>.#.n a n =.t.=.#.#.n n n n n v a a a p a p p p p p a a n n n n d d d d ",
"d d d n S S S S n a 9 9 9 a 9 8 q k k k k k k k k k k l l l c c v v v v v v c v v v v a q q 9 9 8 8 8 8 2 2 8 8 q 0 0 9 8 2 8 9 k 8 1 X # 8 a 0 a c v n n n d n #.#.#.#.#.#.#.n n n n d d n a a n n #.#.#.*.*.=.=.=.=.=.=.=.=.;.e.t.*.c 9 0 k 0 8 8 6 6 5 5 5 5 5 1 1 1 1 1 2 8 p p 9 8 8 9 p c 8 5 5 5 5 1 % 1 & & # p c v c a a a n S w.e.N 8 X @ 1 h 5 5 5 5 5 1 % % 1 5 5 5 8 k c m c k 8 5 5 5 8 8 2 2 8 8 8 8 2 8 v S n S *.n n S S d u > > d d.l.l.d.d.l.D v l M v v v a q 9 q q 8 u s i i a n n d d d S S S n v a a v v n a a n D n v q 2 2 8 1 & & 5 8 # 2 v =.u.=.$.=.D a 0 a p a c p c k 8 6 7 7 2 2 v =.*.#.#.%.5.6.G.CXMXM.H ) r.-.L.Q.Q.L.%.( 4.P.N.' ' 7.4.( p r 2 # o 4 w.t.=.D n n n n n n n n N N N N N n n c m c p 4 1 1 2 p c c h 1 1 m w.D n =.j.j.j.j.j.a.j.l.oX$X$X@X{.z.a.( I ) ' n.B.^ S.qXfXhXBXBXiXJ.G.2.Y e i i L R bXCXjXrXjXCXpX3.#.9 ; 2 8 8 8 2 3 3 1 1 8 2 ; $ o o o o $ o , , , > u p S e.=.n t t t t r r 8 8 0 0 0 0 0 0 0 0 k 0 0 8 8 1 1 p u.d.8.8.>.*.n n n #.=.=.*.#.n a a a c c a a a a a a p p p a a a a a a a a a d a ",
"s s d d n S S #.S v p 9 9 9 9 9 0 0 q 0 0 0 0 0 q q k k k k l v k c v v v v v v a a q q q q 9 9 9 9 9 8 9 9 2 2 0 0 9 8 8 9 0 q k 5 1 % ; 8 a a p c n n n n d n #.#.#.#.#.#.n n n n n d a a a a s a d n #.#.#.*.*.*.=.=.=.=.=.=.e.e.D a 8 0 k 8 8 5 6 5 1 5 5 5 5 % O % 1 1 2 2 p p p 8 8 8 p c 8 5 5 5 5 & % 1 & 1 # 0 c v a a a a n S w.w.N 8 X @ 1 8 5 5 5 5 5 1 % & 5 5 5 8 k k c m c k 8 5 5 5 6 8 2 2 6 8 8 8 2 8 v D S #.n n n n a 9 : > d u.l.d.>.d.l.l.D v l M v v v a q 9 0 0 8 u s i u s n n d d d S S S n v v a v v v a a n D v q 9 1 2 5 1 1 5 8 0 % 2 q $.u.;.$.=.D a 0 a p a c p c k 8 8 7 7 2 2 c *.*.#.#.-.5.N.G.CXMXV.K I -.-.L.Q.Q.P.-.( 4.L.U.' Y ' ) s 4 3 ; X X 9 r.t.*.S n n n n n n n n n N N N N N n n M n n c 8 : : 2 8 c 8 1 2 n w.*.N e.j.l.j.j.j.j.t.a.j.j.z.{.{.oXz.#.i e K W ^ ^ D.qX8XiXBXhX@.O.m.T i u u s U 3.mXCXfXrXjXCX'.1.#.9 2 2 8 6 8 2 3 2 5 2 6 3 : 4 p u u u p u u u f d #.#.*.$.#.s t y t t t r r p 0 0 q q 0 0 0 0 k 0 0 8 6 1 1 p u.8.8.>.>.$.n n a #.*.=.*.#.a p a a a a a a a a a a a a a a a a a a a a a a a a ",
"f a d Z Z S S S S S n a 9 9 9 9 q q q q q q 0 0 0 0 0 0 9 q q q k c a a c k c c q q q q 9 9 9 9 0 0 9 9 9 9 9 9 0 0 9 9 0 q q c 8 1 1 2 1 2 p c a c n n n a a d n #.#.#.#.#.n n #.#.n n n n n n a a a n n #.#.#.#.#.#.#.#.#.*.*.=.*.n p 8 8 8 5 6 6 5 5 5 5 5 5 6 % X % 8 8 6 1 4 4 p 9 8 8 8 8 8 5 5 5 5 % % 1 1 1 # p c v a a a n n *.w.*.v 8 X @ % 8 5 5 5 5 & & 1 1 5 5 8 k c c M M c k 8 5 5 5 6 6 2 2 6 6 5 5 1 8 v D S #.n n S n 9 : 9 S l.l.d.Z Z ;.l. XD v l M v v v a p q q q 8 w s i u p n n d d d v n n v v v a a a a a v S S a 4 2 1 1 1 1 8 8 k 0 1 2 9 S ;.;.$.=.D a 0 a p a c a c c 8 8 6 7 2 2 a *.#.#.#.-.g.P.R.CXMXV.K s _ _ L.R.E.P.5.-.4.s.U.' K I I w ; 1 2 1 # 8 *.e.D n n n n n n n n n n n N N N n n n M M N N n p 4 8 6 8 6 % 1 c *.*.n e.j.j.j.j.j.j.}.j.t.e.=.t.d.j.j.( , * < K ! V.J.7XD.D.hX7XO.o.m.L i p a a #.P.MXCXeX8XmXCX'.1.#.p 2 2 8 6 6 2 3 4 8 7 5 1 4 n t.u.u.d.d.d.d.d.;.;.;.;.=.#.s w w y y t t r r p 9 9 0 0 0 0 k k k 0 8 8 8 1 1 p ;.8.8.>.>.=.#.#.a d #.*.=.#.v p p p p a c c c a a a a a a d d d n d d d d a a d ",
"d d Z S #.#.#.$.*.$.*.S a a a v n n v v v v v v q 9 q 9 9 9 9 9 q k q q q q q q q q q 9 9 9 9 9 0 0 0 0 9 9 9 9 0 9 9 0 0 0 0 9 1 % 8 k 2 1 9 c a c n n n a a d n n #.#.#._ n n #.#.#.#.n n n n n n n n n #.#.#.#.#.n n n n n n n n a 9 8 6 5 5 6 6 6 5 5 5 5 5 6 1 X % k n p ; 3 4 p p 8 4 8 8 5 5 5 5 5 % % 1 1 1 # p c v a a n n n *.*.N p 2 X @ X 5 5 5 1 5 % & 1 5 5 6 k k M M M M c k 8 5 5 5 6 2 2 2 6 6 5 5 1 8 v D S #.#.n p 4 > p u.@X Xd.$.Z Z $.d.v.D v l F v v v a p q q q 8 u i i u p n n d d d v n v v v v a a a a v S S v 9 2 2 1 1 1 5 k k k 0 8 2 2 S =.;.=.=.D a 0 a p a c a c k 8 6 6 7 2 2 p D S #.#.-.g.P.E.CXMXB.L s ( ) N.U.U.P.5.-.-.s.P.' I K y * , p n c 2 8 N w.D n n n n n n n n n n n n n n n n v M n n n N n n n 8 c 6 X # 8 c p n =.j.}.l.j.j.j.j.j.d.t.a.d.j.j.t.a * , L P Q K.W.H.^ O.0X7XO.M.3.i w p a p #.Y.NXMXqX8XgXmXY.1.#.p 2 8 5 5 6 1 3 4 8 6 1 1 p t.;.;.;.;.;.;.;.;.d.8.;.;.=.#.u , w y y t t r r 9 9 9 0 0 0 0 k k k 0 8 8 8 1 1 p ;.>.>.>.>.=.#.*.a p n #.=.*.n a a a a a c c c a a a a d d n n n S n n n n n d d ",
"9 u f Z Z Z d f =.;.t.=.=.*.=.e.=.=.=.=.=.*.*.*.S S S S S S v a q k q q q 0 0 0 q q q 9 9 9 9 9 0 0 0 0 0 9 9 9 0 0 9 9 9 8 2 1 X X 0 M 8 1 8 a a v n n n a a a n n _ _ *.n n N *.*.*.*._ _ n n *.*.*.#.#.S #.S n n n a a a a a p 9 4 4 8 5 5 5 5 6 6 6 6 8 5 5 8 6 1 % 8 N m 1 1 2 p p 8 2 2 8 5 5 5 5 5 % % 1 1 1 # p c v a a a a n S D v 8 ; X @ X 1 5 5 % 1 % 1 1 5 5 8 k c M M M M c k 8 5 5 5 2 6 2 2 5 6 5 5 1 8 v D S #.*.v 4 > a u..X#X>.$.#.$.$.#.;.f.D v l F v v v a a q q q 4 u i i u p a n d d d F v v v a a a a a v S D S 9 ; ; 2 1 1 8 8 k k 0 8 8 : 4 d =.;.$.$.D a 0 a p a c p c c 8 4 6 7 2 2 0 n n #.*.;.g.P.Q.CXMXB.L s ( ` 6.N.U.6.;.#.%.4.N.' I L e t N e.t.t.N c n D D n v v v v n c c c c c n n n n n c m n n n n *.N N k m 8 X # 6 8 p a *.t.j.l.l.j.t.a.a.d.d.j.d.t.t.=.4 ; s <.W n.W.J.S.J / 7X0XD.W.C.i > a c p d P.bXmX7XrX0XQ.6.%.$.p 2 8 5 2 5 1 2 6 8 6 1 1 p t.=.=.=.=.=.&.&.&.;.;.;.;.#.d u , w t t r r w 4 8 r 9 0 0 0 0 k k q 0 8 8 5 1 1 9 ;.>.>.>.>.=.*.*.a u a #.=.*.n n c c c c c c c c v a v n S n n n n v v v n n n n ",
"$.>.d.k.l.k.d.u.u.u.p.p.i.i.i.p.p.p.u.u.u.u.u.u.u.u.t.u.u.=.$.S q q q q 0 0 9 9 q q q 9 9 9 9 9 0 0 k 0 0 0 9 9 0 0 0 0 8 2 % . . X c D 0 ; 4 a a v n n n a a n n n n _ *.n n n *.*.*.*.*._ _ _ *.*.*.#.*.*.*.#.a a a a p p u p 3 2 1 2 2 5 5 5 5 6 6 8 8 8 8 5 8 8 1 X 6 M n 2 1 2 p p 8 2 2 6 5 1 5 5 5 % % 1 1 1 # p c v c v v v n n n p 1 X X @ X % 1 1 % % % 1 5 5 5 8 k c M M M M c k 8 5 5 5 5 2 6 6 6 6 5 5 1 8 v *.S #.n p 9 d j.@Xl.$.S #.#.#.S S ;.f.D v a F v v v a p q q q 4 u i i p a a n d d d F v v v a a a a a n D *.n 4 # # 2 # 1 8 k k 0 8 0 9 : : a $.;.=.$.S a 9 a p a c p p c 8 4 6 7 7 2 9 n S #.-.;.g.U.'.CXMXF.T I ( ( 1.m.N.7.-._ ( %.L.' I I Y 4.j.}.j.{.j.N c n D *.c c c c c c c c c c n n n n n n m M N n n N n c 6 c 8 O 1 c n n n n n #.=.d.j.d.d.d.t.t.t.t.t.t.*.; > 1.P.2.m.R.W.O.J ^ 0X0XH.W.Y.L > a v p d P.bXbXH.H.H.R.<.U $.a 4 8 8 2 2 1 2 2 6 6 2 1 p =.t.t.;.;.;.;.&.&.#.&.8.;.[ u > > r t t r w w 4 4 r r r 0 0 0 0 0 0 k 8 8 5 % 1 9 ;.>.>.;.>.;.*.=.a u p S =.=.*.n v v c c c c c a v v n S S n d a a a d d v n S S ",
"c./.(.(.+X/.h.9.>.>.>.>.>.u.u.u.u.u.u.u.u.u.u.u.p.u.u.u.>.>.,.>.D D v p 9 q q q 9 9 0 q q q 0 0 8 0 0 0 0 k k k 0 k 8 6 5 1 % % X 8 *.*.c 1 ; v n n n n n n n n #.#.D S N N n n N *.=.=.*.#.#.#.#.#.#.#.*.*.#.#.#.n n v v v a p 4 2 2 2 2 2 8 8 5 8 k k k k 8 5 8 5 1 % 1 c N c X 2 8 8 8 8 6 1 5 5 5 1 5 1 1 O X . O 8 v M c c n N M k 2 1 X . X X # % % % % % % % % 1 0 c v v D N m c c h 8 1 5 5 5 5 5 5 5 5 5 5 5 1 4 D =.d 9 u S p.l.p.$.n #.#.#.#.*.$.=.=.D F v F M l v a a q q q 8 p i i p v S n a a S *.S S S d 9 9 d S D D v 2 # # 1 2 9 9 9 0 8 9 9 9 2 4 2 4 S ;.=.$.;.S p 9 9 9 a v 0 0 8 8 8 6 6 3 4 n #.$.d.f.h.Y.W.CXCXW.R Y -.) ) <.6.4.-.n n s 7.| W <.P.T.h.d.t.j.j.*.p n =.*.n n n c c c n c c c c n v v m m M M n n n N M c 8 c 5 X 0 *.=.*.=.}.{.=.d #.=.#.#.#.#.#.=.t.u.d.a u 8.I.| P 2.Q.N. .P R B.W.H.W.P.#.u u u w I P.nXwXW.S.n.| U U =.v 2 1 2 2 2 6 8 2 2 8 2 1 p t.t.;.=.&.&.&.;.;.#.#.;.=.p 4 4 3 r t r t w y 4 r r r r r r 9 9 0 k 8 8 8 8 1 1 9 =.u.>.;.;.=.#.#.n p 8 n =.w.*.*.*.D n n n n v n S S S n d a d Z f a d Z $.u.l. X",
"/.(.(.(.(./.c.h.>.>.>.>.8.d.d.d.>.;.;.u.u.>.>.>.>.>.,.>.>.,.,.=.t.e.D n a 9 9 9 q q q q q 0 0 0 q k k 0 0 8 8 8 0 8 5 % % % & % X 0 *.D v 1 # v n n n n n n n n S S D D N N n n n D *.*.*.#.#.#.#.#.*.#.*.*.*.*.*.S n n n n v a p 9 9 4 2 5 5 8 5 6 j j k j j 8 8 5 1 % 1 c M k % 1 8 8 8 8 5 5 6 5 5 1 1 1 O O X X % 8 k k c m c k 5 % X % % % 1 1 1 1 1 1 1 1 1 1 2 0 k c n n N v c c c k 6 5 6 6 5 5 7 7 5 5 5 5 5 1 4 a S a 9 S u.p.u.$.$.#.#.#.S #.$.$.=.;.F F v F M l F a a p q q 8 p a a a v S S v v n S S S S d a a Z S D N 9 # # 2 8 2 q 0 9 9 9 9 9 9 4 4 2 4 S ;.=.$.=.n 9 9 9 a c c 0 0 0 8 8 8 6 7 6 n #.#.5.8.g.Y.W.HXCXwXQ ' 5.-.-.4.7.4.( a a s <.W | <.I.^.f.8.;.d.t.n 9 n *.D n n n c c c n m c c m v v m c c M m m n n N M 8 8 c 5 X p *.=.#.n j.$X<X,XoXj.d.[ d s #.=.d.t.=.#.5.g.3.R  .B.R.7.W L T B.W.H.J.6.U i u u w L P.bXQ.H.V.2.<.U ( *.c 2 1 2 2 2 8 8 4 2 8 8 1 0 e.t.;.=.#.#.&.&.&.#.#.;.=.p 2 8 3 r t r t w 4 4 r r r r r r 9 9 0 k 0 8 8 8 1 1 9 =.u.u.;.;.$.#.#.S c p c *.w.w.*.*.D n n n n n S a a d n S d a u f Z >.h.v.v.b.f.",
"c.(.+X+X(.h.9.>.>.>.8.8.d.d.d.f.f.u.;.;.>.u.u.u.u.>.>.>.,.>.>.=.t.u.u.e.=.n 9 9 9 9 9 9 9 9 9 0 0 0 q 9 0 9 9 9 8 1 % . O O % % # c *.D n 2 X a n n n n n n n n n n S D N n n n n N *.*.*.#.#.#.=.=.=.=.=.=.=.=.=.*.n n n n n n S n v a 0 8 8 8 5 5 5 5 6 8 8 0 8 5 1 % 1 k M k 1 1 5 8 k 8 8 5 6 5 1 1 1 % O X . X O 1 5 5 8 0 1 % X . X 5 8 8 8 8 8 8 8 8 8 8 8 8 8 0 k v v v c c c c c k 8 5 6 6 5 5 7 7 7 7 5 5 1 1 4 9 9 a S u.k.u.S S $.$.S S S *.$.$.=.;.F A v F l l F a A p p q 8 r s p p a v n n n n n S S S n n S S S D v 2 # # 8 q 9 q q q q q q 0 0 9 4 2 4 n =.=.*.=.S 9 4 9 v c 9 0 8 8 8 8 8 7 7 3 B #.#.&.&.8.Y.pXCXCXwXQ <.a.4.%.4.7.4.( n *.5.7.2.2.<.0.I.8.5.;.;.*.a 8 n *.n n n c c c c m n m m v m m m c k m c m n n M m 8 8 c 5 X p *.=.n n #.d.oX@Xk.h.l.oXg.=.#.#.*.*.#.-.h.0.{ W m.Z.N.<.Y L T m.K.F.F.| d u u u w L P.bXW.S.o. .<.U #.N c 2 1 2 2 2 8 8 8 2 8 8 2 0 w.t.=.#.#.#.#.#.&.-.#.=.*.8 2 8 3 r t r t r 4 r r r r r r r 0 9 0 k 0 8 8 8 1 1 9 =.u.u.;.;.$.#.#.S n p u n *.=.*.*.S S n n a a a a a d d d d Z Z v.v.v.v.v.(.(.(.",
"(.(./.h.9.>.>.9.>.>.>.>.d.d.d.k. Xl.u.;.>.u.f.l.l.l.h.f.d.p.>.>.=.u.u.p.u.=.S n 9 9 9 4 4 9 9 9 9 9 9 9 9 9 9 9 2 # X . O % O X 1 v D N N 2 o 9 n n n n n n n n n n n S D n n v n n S #.#.#.#.#.=.=.=.=.=.=.=.=.=.=.*.S n n n n *.*.*.n c 9 8 0 0 8 5 & & 5 8 0 8 5 5 1 1 8 c k 5 % % 5 k 8 8 8 6 5 1 1 % O X . @   O 1 5 1 1 1 . X 1 5 8 k k 8 8 8 8 8 8 0 0 8 8 8 8 9 0 q a a p 0 k c c c 8 5 6 6 5 5 7 7 7 7 1 5 1 2 4 : 9 #.k.k.u.$.S S $.$.$.S S *.$.$.=.=.S a v F v l v a A p q q 8 r s p p q p a v n S S S S S S S S S S 9 9 2 1 2 9 q v v v v q k k k q 9 9 2 2 a =.=.*.=.S a 9 9 a a 4 0 8 8 8 8 8 7 7 1 B *.#.%.%.5.Y.W.CXMXwXQ ' 5.-.%.6.s.6.5.;.k. X6.m.2.| 6.0.8.8.&.*.*.n p c N n n n c c c c m n v v v m c c 0 8 c k m n m n m 6 8 c 5 X p *.*.n n n n #.=.;.d.d.k.l.k.k.j.t.*.#.#.5.%.{ 2.N.U.2.Y I e L m.K.H.M.T i u i u i U P.'.R.S.o.Q <.%.#.n 0 2 2 2 2 2 8 8 8 2 8 8 2 0 D =.*.#.#.#.#.#.&.-.#.*.S 2 1 8 3 r r t r r 4 r r r r r r 0 8 9 0 k 0 8 8 8 1 1 9 $.u.>.;.&.$.#.#.S n a 4 p n *.*.S n n a a a d d d d f f Z $.k./.l.h.h.c.v.+X&X&X",
"v.h.9.>.>.>.8.8.>.>.>.>.>.d.d.d.v.k.>.&.;.>.d.k.l.h.h.h.f.f.f.f.p.u.u.>.>.>.u.p.S S f f 9 9 4 4 q 9 9 4 : : : : ; ; ; 1 1 1 O . 8 N D n N 4 o 4 n n n n n n n n n n n n n n n v n n n n #.#.#.*.-.-.-.-.$.*.*.*.=.=.*.#.S n n S $.=.=.D v 9 0 k k k 8 1 1 1 8 8 8 5 5 1 % 6 k c 8 1 % 5 8 8 8 8 6 5 1 1 % O X . o X 5 k c k 1 X X 5 k c k k 8 5 0 0 0 k k k k k q k q q q a c v a p k c c k 8 1 5 5 5 5 5 5 5 5 O 5 5 2 4 9 S k.@Xk.$.S S $.$.$.$.$.S S *.$.$.=.S a a v v a v a v p p q 8 r p p p 9 9 9 a v S D S S S S D S n v 4 2 1 8 9 q v l v k v v k k k k q 9 4 2 9 D =.#.*.*.n p 9 9 9 2 0 8 8 8 8 8 7 3 1 b *.#.#.{ 1.Y.W.MXmXW.' ' 4.4.5.6.P.g.d.d.k.l.6.m.2.| 6.g.0.d.#.#.;.*.c c n N n v c c c c m m n n v m c k 8 8 h 8 c c c n c 2 6 c 5 X p *.*.n n #.#.#.$.;.5.&.;.;.;.;.=.;.t.d.#.( [ 1.6.C.C.W Y I i L 2.E.J.M.L i d s a i U U.Q.R.S.o. .1.%.#.a 8 2 2 2 2 2 8 8 8 2 8 8 8 0 n *.#.#.S #.#.&.&.-.#.#.n 3 ; 8 2 4 r r r r 4 r r r r r 8 8 0 0 0 k 8 8 8 8 1 2 9 *.>.>.&.&.$.#.#.#.#.a 9 9 a *.*.#.#.S d d a f u f d $.l.+X*XoXc.h.c.(.&X*X*X&X&X",
"$.$.$.>.>.>.>.&.&.&.>.>.>.>.d.d.d.d.>.>.>.>.>.>.d.d.d.d.f.f.f.f.h.f.u.>.>.d.f.l.f.u.>.$.Z f 9 9 9 9 9 9 4 : : : 9 9 9 9 2 1 X X v D D v n 4 o 2 n n n n n n n n n n n n n n n n v v a n S #.#.*.#.-.-.&.$.*.*.*.=.=.*.*.S n S S #.$.;.*.v 9 q c k k k 8 8 2 1 1 8 5 5 1 % 5 k c k 5 1 1 5 8 8 8 6 5 1 1 1 % O X X 1 c M M M 8 1 5 k c k 8 5 8 k c c c c m m m m F F D D D D D D v c c c c k 5 1 5 5 5 5 5 5 5 5 1 5 1 2 9 n u.@Xl.u.S S S S #.$.$.$.#.S S S #.$.S a a v v p v a v a q q 8 r i p a p 9 9 9 a v S S S S S S v q 9 2 2 1 q M n v q v v v v v v c c q a 9 2 4 n =.*.*.*.S a 9 9 9 8 0 8 8 8 8 8 7 3 1 b *.#.&.%.1.U.Q.mXmXQ.2.' 4.5.5.6.P.g.8.8.>.5.6.m.2.2.C.P.5.&.#.*.d.u.n p B N B v c c c c c m m m m m c 0 8 6 8 6 8 p p c c 2 5 k 5 X p =.*.n n S S #.*.;.8.;.8.=.#.#.*.*.=.*.=.( -.5.6.C.C.T Y I i L 2.Q.wXB.L d d a a s U P.R.R.G.n.2.1.#.d p 8 2 2 8 2 2 8 8 8 2 8 0 8 8 c #.#.n d #.#.&.;.#.#.*.n 3 1 6 2 4 r r r 8 8 p r r r 8 8 0 0 0 0 k 8 8 8 8 1 2 9 *.;.;.&.&.$.#.S n n p 9 4 u a #.d d s a a a d d ;.h.+X*X+X(.(.(.v.v.(.&X*X&Xv.c.",
"$.$.$.$.$.$.$.&.$.;.;.>.>.u.d.d.>.8.f.f.d.8.d.f.f.f.f.f.f.f.f.f.d.f.f.f.f.f.d.d.k.d.>.>.=.$.S Z Z Z Z Z S Z S S *.#.S a 4 ; # # D D N v v 4 X 2 n n n n n n n n n n n v c v n n c a a a n #.#.=.=.=.=.=.=.=.=.=.=.=.=.*.S n n S S $.;.*.v 9 9 c c k k k 0 9 2 2 8 5 5 5 % 1 8 c k 8 1 % 1 5 8 6 6 5 1 1 1 1 % O X 5 c m M c 8 2 5 8 k 8 5 8 k c M M M M M M M M D G w.G D D *.=.D n c c k 0 5 1 5 5 5 5 5 5 5 5 5 5 1 1 q t. X X=.$.#.S S S $.=.$.$.#.S S S S S S a q v l a v a v a q q 8 r p u a a a q 9 9 a v n S D D n a 2 : 2 2 9 n D D c v v v v v v c v v 0 a a 4 : a =.*.=.D n n v a q 0 0 8 8 8 8 5 5 3 1 B *.=.;.&.5.U.Q.bXbXQ.2.) -.-.5.0.P.0.5.;.>.8.C.N.2.2.P.P.<.U #.=.d.d.N r b _ B c c c a c c c c c m c c 0 8 6 8 6 8 8 8 c c 2 5 k 5 X p *.*.n n S #.$.;.d.d.d.d.;.$.#.*.*.*.*.*.#.-.5.6.C.1.U U U s L <.Q.pXZ.T d d a a p I 6.U.G.G.n.2.1.U p 8 2 2 2 8 2 2 8 4 8 2 4 0 8 8 a #.#.S S #.#.&.&.#.#.$.S 2 1 6 2 4 r r r 8 8 9 p 0 8 8 8 0 9 0 0 k 8 8 8 8 1 2 9 *.;.;.$.$.#.#.S d a s u u g u d d a f f Z ;.l.oX*X&X+X&X*X&Xv.f.:.:.9.f.c.9.:.} ",
"d.d.d.>.;.$.;.>.=.;.;.>.>.u.d.d.k.h.v.v.v.v./.+X(.(./.v.c.c.x.f.f.f.f.f.f.f.f.f.$.&.>.>.u.d.d.d.u.u.u.u.u.u.d.d.k.d.$.a : # # ; w.D N v c 2 X 1 n n n n n n n n S n n a a v n n a a p a n #.#.=.=.=.;.=.=.=.=.=.$.$.=.*.n n n S S $.=.#.a 9 9 a q c c c v q 9 2 8 5 5 5 % % 8 c k k 5 % % 5 8 5 6 5 1 1 1 1 1 % o 1 8 8 5 5 2 1 5 8 k 0 8 0 0 0 M M M M N N F F D D D D D D D *.*.D v c k 8 5 1 5 5 5 5 5 5 5 5 8 5 & 1 v k.@Xk.S S S S S $.=.$.$.$.S S S S Z Z S p q v l a v a v a q q 8 r p u a n n a 9 9 9 q n S D D n 9 2 # 2 2 v D D n v n l k v v v v v v 0 v v 2 ; a *.*.=.S v n n v c c 8 8 8 8 8 5 5 5 1 B =.=.8.5.5.U.R.bXpXR.' U #.-.g.I.Y.I.8.;.>.f.P.N.2.2.N.P.<.#.-.;.d.d.n r b _ b c c c a c c m c c c c c k 8 8 8 6 6 6 8 p c 2 5 k 5 X p *.*.n a #.=.=.u.j.g.8.;.8.u.;.*.#.*.=.n n #.5.g.0.Y Y ( U s i <.Q.pXG.Y d s p p p s 7.U.R.R.n.2.<.s 4 4 2 2 2 8 8 2 8 4 8 2 4 0 0 8 9 *.#.#.S #.#.&.&.#.#.$.#.4 1 6 2 4 r r p 9 9 9 p 0 8 8 8 9 9 0 0 k 8 8 8 8 1 2 9 *.;.;.$.$.$.S S #.#.#.S s u d #.d #.>.h./.$X$X+X+X&X;X*X+X(.(.(.(.b.f.9.f.9.9.8.",
"v.v.v.l.l.l.l.l.k.k.k.k.l.k.d.>.k.f.8.f.h.v.(.(.+X(.v.v.v.v.c.x.f.h.h.h.f.9.>.:.:.>.>.8.d.d.9.d.p.p.u.>.>.>.>.>.>.d.>.$.d $ o 9 *.D N N 0 o X a n n n n n n n n n n p 3 4 n n v v v v a n *.=.=.;.;.;.;.;.;.;.;.t.=.*.#.S n n n $.$.$.*.n p 9 a 9 0 0 q k c c c N 0 5 1 % 1 8 8 k k 5 1 % 1 5 8 6 5 5 5 5 1 O X . 1 5 5 5 5 8 8 6 8 9 8 8 8 0 k M M M M D D F F D D D D D =.*.*.*.D v c c 0 5 5 5 5 5 5 5 5 5 5 5 5 % 1 n t.t.$.#.S S S S $.$.$.$.S S d S =.=.S d a 9 q q p v v v v M v a p p p v a v n n a 4 2 4 v D N q 2 2 1 8 q n D n v v v q q c c v v v v v v v 8 ; ; a e.*.n v D D D D v c 0 8 5 6 5 5 5 1 8 *.d.j.5.1.0.R.Q.E.m.W U ;.a.5.P.Y.I.g.8.d.8.6.C.2.3.Y.P.%.U =.d.p.d.D r B _ B n c c n n n m c c c c 8 8 8 8 8 6 6 8 p p 8 2 5 h 5 X 8 w.*.n n *.=.d.d.d.d.d.8.8.u.;.;.$.*.*.n n -.d.0.1.%.U i s d U Y U.wXR.L s d a p p s ' m.G.G.B.3.Y < ; 4 8 2 2 2 8 8 8 8 8 8 8 8 8 9 9 n *.#.n S #.#.;.#.#.*.=.2 1 5 6 6 8 8 8 8 q q 0 8 8 8 8 0 0 0 0 8 5 5 8 8 1 1 9 *.=.=.&.#.#.#.#.#.S $.l.$XoXh.8.d.d.l./.OX#X$X$X&X&X&X+X+X(.(.(.+XOX/.v././.(.(.",
"l.l.l.l.l.l.l.k.k.l.l.l.k.k.d.d.h.f.f.d.8.8.9.f.h.h.c.v.v.v.c.x.f.h.h.h.9.9.>.:.9.9.9.>.>.8.d.d.9.9.>.>.>.>.>.>.d.k.f.d.u.p ; 4 *.D N v 1 @ X v n n n n n n n n S a 9 4 a N N v a a a a n *.=.=.;.;.;.;.;.;.;.;.t.=.*.#.n n S #.$.$.$.*.n 9 9 a 9 0 0 0 q k a c v h 5 1 % % 8 0 8 k 8 5 % % 1 6 h 5 5 1 1 1 % X   % 5 5 5 5 8 5 6 8 9 9 8 8 0 k M M M D D D F D D D D D D D *.*.*.D n c c 8 5 5 5 5 5 5 5 5 5 5 5 5 % 2 n t.=.$.S S S S S #.$.$.S a d S $.p.u.#.n a 9 q q a v v a a v q 9 p p p n a v n S n a 9 4 9 v c 8 2 2 2 9 k n M v v k v q q c v v v v v v v v 8 1 # p w.*.n n v c p k 8 8 6 5 1 5 5 1 1 1 4 *.d.j.8.1.0.E.W.E.m.| U -.a.5.P.Y.I.g.f.d.8.C.U.3.N.Y.g.%.U ;.u.p.d.*.r b _ n n c c n n n m c c c c 8 8 8 8 8 6 6 8 p p 8 2 6 h 5 X 8 w.*.n n *.;.d.d.d.d.d.8.8.;.;.=.$.*.*.n n *.d.8.&.%.U d n #.U Y N.R.m.U i p p a p s ) U.R.G.n.2.U g > 4 8 2 2 4 8 8 8 8 8 8 8 8 8 9 8 n *.#.n S #.#.=.#.#.*.=.2 ; 5 5 8 8 8 8 9 0 q 8 0 0 8 8 8 8 8 8 5 5 5 8 5 1 1 9 *.#.=.&.#.#.#.#.#.d #.j.oXl.d.;.h.l.v././././.v.f.h.h.c.v.v././.oXOXOXoXv.v.h.h.",
"S S S S S S S S $.;.>.u.>.;.>.d.d.f.f.f.>.>.>.9.9.h.v.(.(.(.v.c.f.f.9.9.8.>.>.>.8.>.>.>.>.>.>.>.,.,.,.,.,.,.>.>.>.d.d.k.k.$.4 : N N v 8 o @ 1 N n n n n n n n n n n n n *.*.n a p a a a n *.=.=.=.;.=.;.;.;.;.;.d.;.*.#.n n #.#.$.$.$.#.n 9 9 9 9 0 0 q 0 q q q c h 8 5 % % 5 8 8 k k 8 1 % % 1 h 5 1 O % 1 % %   % 5 6 5 5 5 2 8 8 8 9 8 8 0 k M M M F D D D D D D D D D D D D D D n c c 8 5 1 5 5 5 5 5 5 5 1 5 5 % 2 n =.=.$.S S S S S S #.#.d u d =.p.k.u.#.n a 9 9 q q v v a a p q 8 8 p s v a a v D *.n a 2 2 0 8 2 % 1 8 q v n n v k k v v v v v k q q q c v v 8 # # 8 D D n v 0 2 1 1 1 1 1 1 5 5 5 1 = = 3 *.d.j.8.1.0.Y.'.E.N.W U =.a.5.P.Y.Y.I.f.d.8.C.Y.N.C.T.P.1.;.>.u.u.i.e.p p N n n c c n n n c c c c c 8 8 8 8 8 6 6 8 p p 8 1 6 h 5 X 8 w.=.n n *.;.d.d.d.d.d.5.5.;.;.=.=.*.*.n n =.d.5.{ } d d n #.U Y C.R.B.%.#.=.=.S #.%.P.U.R.G.n.| I i 4 2 2 8 8 8 8 2 2 8 8 8 8 8 8 8 8 a #.#.d d #.#.&.#.S *.=.2 ; 5 2 8 8 8 8 0 k 0 8 k 0 h 8 8 6 8 5 5 5 5 5 5 % 1 9 *.#.#.#.#.[ d d #.d #.;.d.d.>.>.;.>.f.v.oX#X+X+XoX/.v.l.f.8.>.>.>.d.h.k.>.$.#.Z ",
"p u p p a a a a d S S #.#.#.$.$.>.8.f.f.f.f.f.f.f.c./.(.v.c.c.x.9.8.>.>.:.:.>.>.$.:.:.>.>.>.&.$.>.,.,.,.>.>.>.>.>.>.$.=.u.$.9 : c c 9 # @ X a D n n n n n n n n n S =.e.*.n a p a c a a n *.*.=.=.&.;.;.;.;.;.;.d.=.*.n n n *.*.$.#.*.*.v 9 4 0 9 0 0 0 0 0 0 0 k h 8 5 % % 1 8 8 k k k 5 % X X 5 1 O O % 1 % O   X 1 6 5 5 2 2 8 8 8 8 8 9 q v M M M F D D D D D D D D D D D D D D n v c 0 5 1 5 5 5 5 5 5 5 5 5 5 1 2 v *.*.$.S S S S S S S S Z f S d.k.u.$.S S a 9 9 0 q p a p p q 9 2 4 p a a a a a n *.D v 2 2 1 % % % 8 k c M n v k q k v v v v v k q q q k c m 8 # X 2 v n v c 2 1 1 1 % 1 1 5 5 5 5 5 1 O 1 *.d.j.d.1.0.Y.'.E.Z.<.U =.;.5.g.Y.Y.T.h.d.8.C.Y.C.A.Q.I.g.h.k.u.u.i.t.c r N N n c c c v c c c c c k 8 8 8 8 8 6 6 8 p p 8 5 6 h 5 X 8 w.=.n n *.;.d.d.d.d.d.;.;.;.;.=.*.*.*.n n =.8.&.} } Z S S $.#.<.U.Q.R.g.;.u.i.j.d.-.4.N.U.B.n.| L w : 4 8 8 8 8 2 2 2 8 8 8 8 8 8 8 4 a S #.n d d [ #.#.#.*.w.2 1 5 5 8 8 8 8 8 0 0 8 c 0 8 8 5 5 5 5 1 1 1 5 5 % 1 9 #.#.#.#.[ d d d #.#.#.#.=.$.$.;.&.;.>.d.d.d.8.8.d.>.>.=.#.Z d f f S $.$.Z u 9 > ",
"v v v v n S S S #.S S S S S S Z >.;.>.>.d.f.f.f.8.f.f.f.9.>.>.>.>.>.:.:.:.:.,.>.$.:.>.,.,.,.,.,.:.:.:.:.:.:.:.:.&.&.#.S $.S a 9 8 2 # @ @ 4 D D n n n n n n n n n n n n a 4 4 9 v n n a n #.*.#.=.&.=.=.;.;.;.;.;.=.#.n d n *.*.*.#.#.S v 9 4 9 0 0 0 0 0 0 0 0 8 8 8 5 1 % 1 8 k k k k 8 5 X o O O O O 1 1 % X . X 1 5 5 5 2 2 9 9 8 8 8 9 c v D D D D D D D D D D D D D D D D D S n v c 0 8 1 5 5 5 5 5 5 5 5 5 5 & 5 v D S $.#.S S S S S S S Z d =.l.k.$.S d S a p 9 9 9 q q p 9 9 8 2 4 r s p a a a v n n v 1 1 & % % 5 k m c M M v c q c v v v v c q q q q k c c 8 ; X ; 9 n n 0 2 1 1 1 1 1 1 5 5 5 5 1 = = 3 *.d.g.d.5.P.Y.'.W.Z.<.( ;.t.5.g.Y._.T.f.d.8.0.Y.P.U.%XY.h./.l.u.u.p.i.n r N n n c c c c c c p p k 0 8 8 8 8 8 6 6 8 c c 8 5 6 h 6 X 8 w.=.n n *.t.d.j.d.d.8.;.;.;.=.=.*.*.*.n D ;.5.&.} $.} >.>.u.;.5.Y.Q.R.s.t.u.u.e.#.u e 7.m.n.2.W I w 3 8 8 8 8 8 2 2 2 8 8 8 8 8 8 8 8 p S #.#.#.d [ #.#.n *.w.2 1 5 1 8 8 8 6 8 8 8 8 h 8 6 1 1 1 & & % 1 1 1 5 % 1 9 #.#.#.#.[ d d d #.#.#.#.#.#.$.;.=.;.>.8.>.>.>.>.#.#.#.#.#.S S S u a S S a p 9 4 ",
"v v n n n S S S *.S d d S S S d Z Z Z #.>.>.d.8.>.>.>.>.:.:.:.,.>.>.:.$.$.:.,.,.$.$.$.$.$.=.,.>.$.$.&.:.&.:.&.&.>.>.$.$.$.$.S a 9 # @ @ ; v *.N v v v v n n n n a a p 9 9 p 9 8 n n n n n #.#.#.&.&.=.=.;.;.;.;.=.#.#.n d n S *.#.S S S v 0 9 0 k 0 0 0 0 8 8 8 8 8 8 5 5 % % 5 k 8 8 8 k 8 % .   . X O % % O X X X % 1 5 1 1 5 9 9 9 8 8 9 c n D D D D D D D D D D D D D D S S D n n v c 0 8 1 5 5 5 5 5 5 5 5 5 5 1 5 v n S $.$.S S S S S S S f d =.k.u.S S S S a a 9 9 9 q 9 q 9 9 9 4 8 p s p a v a v v a 9 1 1 & % 5 8 k M c v v v v v v v k k k c q q a k k k k 8 1 X # 1 N D c 2 2 2 1 % 1 1 5 1 5 1 = = 1 6 *.d.j.d.5.P.E.'.'.Z.1.%.;.a.5.0.I.T.g.8.>.5.0.Y.U.Y.-XT.g.l.l.d.u.p.i.D 8 n N n c c c c c p p p 0 8 8 8 8 8 8 6 8 8 c c 8 6 6 h 6 X 8 w.=.n n *.t.j.j.j.8.8.=.=.=.=.=.*.*.#.v *.t.8.&.&.>.>.k.f.f.d.5.U.W.R.g.d.u.S 4 ; , i W 2.2.W Y U d a a 0 0 8 8 4 8 8 8 8 8 8 8 8 8 4 p S *.#.#.d U #.#.n *.e.2 1 1 1 8 8 8 6 8 8 8 6 8 7 1 1 % O % % % % % 1 1 % 1 9 #.#.#.#.[ d d d #.#.#.#.#.#.$.;.$.=.;.;.;.&.$.$.Z Z S n n n n n a n S N n v n n ",
"n n n n S S S S S n d d d Z S S Z Z d Z $.$.>.>.>.>.>.>.,.>.>.>.>.>.,.,.,.,.>.,.,.=.$.F F S F F $.$.$.$.$.$.&.:.>.:.>.>.u.=.S n v X @ X c n v n c c c v v n n n a a a 9 p c a 4 v n n n n #.#.#.&.&.&.=.=.;.;.;.#.#.n d d d S #.S d n n v q 9 0 k 0 k 0 8 8 8 8 8 8 5 5 5 1 % 5 k 8 8 8 k 8 5 %         X O X X X X X 1 1 1 1 6 9 9 8 8 8 0 v n D D D D D D D D D D D D D D S S S n n v c k 8 1 5 5 5 5 5 5 5 5 5 1 1 6 v v n $.$.S S S S S S S a d $.u.=.S S S S a p 8 0 9 q 9 9 q q 0 8 r p a a p a v n v 9 4 2 1 & 1 5 0 k m l v v v v v v v q q q q a v c c c 0 8 2 1 X X X v D v 2 1 5 1 1 1 1 1 1 1 1 1 5 6 8 *.d.j.d.0.P.E.pX'.G.3.%.a.d.5.0.g.I.d.;.$.;.3.U.C.P.).I.f.k.v.f.u.u.j.e.9 a N n v c c c c p 8 8 8 8 8 8 8 8 8 8 8 8 c c 8 6 6 h 6 X 8 w.=.n n *.t.j.j.j.8.5.&.&.=.=.*.*.*.S v *.d.8.&.:.f.f.d.u.f.d.5.P.Q.R.g.*.a 4 2 : > i W  .Q W <.%.-.e.v c 0 8 2 4 8 0 8 8 8 8 8 8 8 4 9 S =.#.#.Z Z #.S n *.e.2 1 1 1 8 8 8 6 6 8 8 5 5 1 = X X X % % X % % 1 1 % 1 9 #.#.#.#.#.Z d d d S #.S S #.#.$.=.;.>.>.u.>.;.;.#.#.S S n n n n n n n N n B b b ",
"n n n n n n n n S S S S d d n S $.$.$.#.#.#.$.;.d.>.>.>.9.9.>.,.:.:.:.:.>.>.,.>.,.,.>.,.$.S S A $.$.$.$.$.&.$.$.>.$.$.>.>.$.S n S X @ 2 *.n 9 v c c c c v n n n n n c 2 1 8 p 9 a n n n n S *.#.-.&.&.&.=.;.;.;.#.#.n n n n n n n d n n v q 0 0 k 0 k 8 8 8 8 8 8 8 5 1 5 1 % 1 k 8 8 8 k 8 6 5   @ @ @ . X X X % X X 1 1 1 2 8 0 9 8 8 8 0 v M D D D D D D D D D D D D D D D D S n n n c k 8 1 5 5 5 5 5 5 5 5 5 1 1 5 a a v $.=.#.S S S $.S S a d S =.#.S S S S n p 9 9 0 q 9 9 9 9 9 9 p p a v q 9 v D v 9 2 # % % 2 8 k k c k v v v v v v v q q q c c v v c c 8 5 5 1 X o o 0 M m 2 1 1 1 5 1 5 5 5 1 5 8 h 8 p =.d.j.d.0.Y.E.pXpXE.3.%.5.d.5.8.g.h.8.$.$.&.{ N.3.C.).I.f.g.v.k.p.u.j.e.9 p N N v c c c p p 8 8 8 h h 8 8 8 8 8 8 8 c c 8 6 6 h 6 X 8 w.=.n n *.t.j.j.j.8.5.&.&.=.=.*.*.#.#.a #.d.8.:.9.c.v.d.>.d.8.1.C.E.U.I 4 : : 4 4 , w Y 2.2.2.6.6.a.j.n v 0 8 2 8 0 0 8 8 8 8 8 8 8 4 p #.=.#.#.#.S #.S n =.e.2 1 1 1 6 8 8 6 8 8 8 7 1 1 O X X X O % X O % % 1 % ; 9 *.*.#.#.[ Z Z Z d n S S #.#.#.#.$.=.;.>.>.;.$.$.;.$.$.$.*.S S n *.n N n n b c p ",
"n a n n n n n n a n n S #.#.n n #.( #.#.#.#.#.Z ;.>.>.>.>.>.,.:.&.&.:.9.9.9.x.9.9.9.d.f.f.p.,.F #.Z Z Z $.$.$.$.$.$.=.;.=.$.Z d S 9 2 9 N N v c 0 p a c c v a n N m 8 7 6 c p 8 v n n n n d S #.$.$.$.;.;.;.=.#._ n n N n N n n n a a a a 9 9 0 8 8 8 8 0 0 0 0 8 5 1 1 1 1 % % 8 8 0 8 8 k h 8 8 . @ @ X X 5 M c k 5 & 1 5 8 8 0 0 0 8 8 0 c D D D D D D D D D D D D D D D D D D D n c c k 8 1 5 5 5 5 1 1 5 5 6 5 1 1 0 n *.#.$.#.S S #.#.S S u f S $.=.$.S S v a 9 4 2 8 0 q v v v c a p p a v v a v S v 9 # # % 2 9 q c c q q q a a a a k q 9 0 q v c k q 0 5 k c h 5 O X   = O X 1 1 1 % O % O % 1 8 c c p v n =.d.j.d.f.C.Z.W.wXW.B.2.6.8.8.8.&.%.#.#.S Z %.6.6.0._.T.d.d.h.l.d.>.d.;.a a p b c c n c r c z z h h h h k k z h 8 r c c 8 6 8 h 7 X 2 *._ n s #.>.d.d.j.d.=.=.=.=.#.#.#.#.#.d #.k.f.:.9./.(.l.d.d.z.5.6.Y.6.i u > : : > u U 6.N.m.2.1.<.-.*.v a 9 9 9 9 0 0 0 0 0 8 8 8 8 8 n *.;.$.#.S S Z d d D e.v # 1 1 1 3 3 = = = 1 1 X O O X         O   X % O X 1 0 =.$.$.#.S S Z Z d d d Z #.#.S f S >.u.$.;.u.;.;.>.;.=.=.*.#.#.#.S S n n n a a a ",
"a a n n n n n n a n n S S n n n p d _ #.( d #.#.$.$.$.;.:.>.,.>.9.9.c.c.b.b.v.v.f.f.f.f.f.f.f.u.d.8.8.8.8.8.8.8.>.>.;.&.#.Z f f f D =.v a v v 0 p p p p p a a n m m z 8 8 r 0 4 *.*.n n n S S #.#.#.*.$.;.;.=.#.n n n n n b m c a d d p 9 a q 9 8 8 8 8 0 0 0 0 8 5 1 1 1 1 % % 5 8 8 8 8 k h 8 8 1 . @ o X 8 M k 8 8 5 1 5 8 k 0 k k 8 8 0 c D D D D D D D D D D D D F S D D D D M v c c k 8 & 5 5 5 5 1 1 5 5 6 5 1 1 0 n *.#.#.#.S S #.#.S S f a S *.$.*.S S n v q 9 8 9 0 q v v v a 9 9 p a v v v n n v 2 # # 2 4 9 q a q q a a v v v a q q c c k k k k q k 5 c V c 1 X   . X . X X O 1 % % 1 2 h c k p p a N *.=.d.j.d.f.C.Z.W.wXW.B.2.6.0.8.;.&.#.#.#.S U %.6.6.0.I.I.8.d.j.l.d.;.d.;.d p b b b c b c 8 p 8 h h 8 8 h h h h 8 8 4 8 8 8 4 8 h 5 X 2 *.*.n ( #.>.k.k.d.d.=.;.;.=.=.*.#.#.#.d #.h./.h.q.v.v.k.u.t.;.( ) L.5.g > : 9 a Z #.-.0.C.N.2.<.<.#.n n v 9 9 9 9 0 0 0 0 8 8 8 8 8 8 S #.=.$.#.#.S Z d d D e.v % 1 % 7 7 3 = o X . .     X O O O O O % X X % X . # 4 *.$.$.#.S Z Z Z Z d d d S #.Z d d $.>.$.;.>.;.$.;.;.=.$.*.#.#.#.#.S n n n a a a ",
"a a n n n n n n n n n n n n n n n d d d #.$.;.;.=.$.=.&.>.8.f.h.c.b.v.v.v.v.v.v.d.d.d.>.>.u.d.k.f.f.h.h.h.h.I.I.I.g.0.1.&.} { } ;.d.k.;.a 9 p p 3 4 4 w u s d d p c p 4 2 w a a e.*.n n n n S S n S S S $.$.#.#.S n n N n n c c p a a p p a 0 2 8 8 8 8 8 8 8 8 8 5 1 1 1 1 % % 1 8 8 8 8 h 8 8 8 h 1 @ @ X k M 8 8 8 8 8 8 0 k k k k 8 8 0 c D D D D D D D D D D D S n M D D D D n c c c k 8 1 5 1 5 5 1 1 5 5 6 5 1 1 0 S *.#.#.S S S #.#.S S 9 f d S S S S n n v a 9 9 9 0 k v v a 9 9 9 p v v n n n v 9 2 # 2 8 9 q v v q q v v v v c q 0 0 k v v v c k k 0 6 m M k O   . X     . X 1 1 1 1 8 8 k 8 2 2 p v w.=.=.d.d.d.f.0.Z.W.wXW.B.2.6.8.;.=.&.#.( ( n d { 0.0.1.0.f.8.8.d.l.d.;.u.u.S u n _ n n c a p c 8 8 8 8 8 8 8 h k 8 8 8 p a a p 8 8 2 . 2 *.*.n #.#.;.l.k.d.t.=.=.=.=.=.-.*.#.n s #.l.&X(.^.v./.k.;.#.d u I 4.%.g u a #.;.>.;.5.0.C.N.2.<.%._ n n v 9 9 9 9 0 0 k 0 8 8 8 8 8 8 S #.$.#.#.#.#.Z n d D e.v # & % 3 4 7 1 * = 1 = O % % % 1 5 5 6 5 % % 1 % o X 2 *.*.$.#.S d d d Z d a d d Z Z d u #.;.;.;.;.;.$.=.=.=.$.*.#.#.#.#.S #.n n n n n ",
"a a n n n n n n n n n n n n n n S Z #.;.u.d.>.;.;.;.>.>.d.h.c.v.v.v.v.c.c.c.h.k.u.u.u.;.;.=.;.8.8.0.C.C.C.C.P.Y.Y.Y.I.C.0.0.0.0.f.d.k.l.d.s > > > w u i i i i i U ( d w , w d *.*.#.n n n S S S S S S S #.*.#.S #.S n n n n c c p u u a a 4 2 2 8 8 8 8 8 8 8 8 5 5 1 1 1 1 1 % 1 5 8 8 8 8 8 8 8 k 8 X @ o 5 M 8 8 8 8 8 8 0 k 0 k k 8 8 0 c F G D D D D D D D S F n n n n M D D n c c c k 8 1 5 5 5 5 1 1 5 5 6 5 1 1 0 n *.#.#.S S S S #.S S f a a a a a a d a a q 9 9 0 q k v c q 9 4 9 a v v n n v 0 1 % # 0 q q k v v q q k k c c k k 0 0 0 k v c c k 8 8 8 8 5 O   X X X   . O 1 5 5 5 5 2 2 2 1 2 8 v n e.=.=.;.d.d.d.0.Z.W.wXW.Z.2.5.5.&.&.#.[ U U n d { 0.0.1.&.8.8.8.d.l.d.;.;.p.*.9 n n n n a p p c p k k 8 8 k k k h 8 6 8 a c 9 4 8 8 1 o 1 *.e.S n #.t.j.d.t.t.t.-.-.=.e.e.=.*.n p #.d.+X)._./.v.;.Z u u w I <.Y d #.;.k.j.>.=.&.0.N.N.2.<.%.( n n v 9 9 9 9 0 0 0 0 8 8 8 8 8 8 #.#.$.#.#.$.#.S S d D t.v # % 1 6 4 4 3 3 6 4 8 8 8 8 8 0 k c m k 5 1 6 1 X X 2 D *.$.#.S d d d Z d a a a d d Z g d $.;.>.;.$.$.$.$.$.$.$.=.=.=.#.#.#.n n n n n ",
"a a a a n n n n n n n n n n n S S $.>.u.>.>.>.>.;.>.>.9.f.h.c.c.v.v.c.h.f.u.u.>.>.>.;.=.&.&.5.0.0.N.C.C.N.m.C.C.C.C.A.A.A.C.m.3.5.0.g.g.g.<.I < < e I Y <.1.3.3.6.6.<.U i i U %.d S #.S S S S $.S n n n S #.d a #.d n d n v c a d p u p a 8 2 2 8 8 8 8 8 8 8 8 5 5 1 1 1 1 1 % % 5 8 8 8 8 8 8 8 8 8 5   @ X k k k 8 5 8 8 0 k 0 0 0 8 8 0 l M F F D D D D D D F n n n n n M F M M c c c c 8 1 5 5 5 5 5 1 5 5 6 5 1 1 0 S *.#.#.S S S S #.S S d d d a a a a a p 9 9 9 9 9 0 k c q 9 4 4 4 p n v v c 9 2 % 2 2 c c c v c c q q k k v c c c k k k k k k 0 5 & % % O   @ @ X X     O 5 5 6 5 5 5 X : 9 n D *.*.w.=.*.#.=.d.d.f.0.U.Q.W.W.B.2.<.%.#.#.#.[ U d n S %.0.g.&.&.8.8.8.d.k.d.=.=.j.=.9 a n n n c 0 0 p c c k 0 k k k k c k 0 c n S a 2 0 8 1 o 1 *.e.*.n *.t.t.*.*.e.=.=.=.=.=.w.*.N n p #.8.I.I.h.q.$.u g 9 u u U 0.5.d.j.k.k.u.$.#.[ 5.6.3.2.<.%.( n n v 9 9 9 9 0 0 9 9 8 8 6 8 8 4 *.$.$.#.#.$.$.S S d D t.v # % 1 4 8 4 3 1 1 3 2 2 2 8 0 k c m M 8 & 1 8 5 # # 2 n *.*.#.n s s d d d a p p a d n 4 p #.t.t.t.=.*.-.*.=.=.=.=.=.=.#.#.#.#.n n n n ",
"a a a a n n n n n n n n n S *.*.u.>.>.>.>.u.f.h.>.d.f.h.c.c.h.f.c.h.f.u.>.=.=.=.;.$.$.#.-.1.g.P.C.B.m.m.m. . . .m.m.B.Z.Z.m.o. .| <.<.W <.3.3.<.7.6.N.C.U.E.E.Q.U.E.Y.C.3.<.{ { f d [ #.S S $.$.*.#.#.#.#.#.#.[ f f f i p u p p u u u 9 p c c 8 8 8 8 8 8 8 8 8 5 1 1 1 1 1 1 % X 1 8 8 8 8 8 8 8 5 6 k 5 o   5 c 8 5 5 8 8 0 0 8 0 k 8 8 0 l M M M n n n n n n n v c v c M n n M c c c c c 0 5 5 5 5 5 1 1 5 5 6 5 1 1 0 S *.#.S S S S S #.S S d d a p 9 9 9 9 9 9 9 9 9 9 0 k 0 0 9 4 4 4 p c a q 9 2 # % 2 q v v c c c a q q v c c c c c c k k k 8 & % X X X o   o o   X .   X 1 8 8 5 1 1 1 4 v =.i.i.t.t.t.*.S S $.d.f.k.f.U.Q.Q.Q.Z.| %.#.#.#.[ U U U n #.%.5.8.&.&.;.8.d.d.d.p.=.=.j.=.9 a n *.w.n c c c c c 0 0 k k k k M c c v D D v 8 0 8 1 o # *.t.*.N =.w.n a c n n n n c n n n c 8 p #.8.f.8.} Z g > f Z $.=.8._.%XoXj.;.$.$.#.[ [ 1.3.3.2.<.%.n a n v 9 9 9 9 0 0 0 8 8 6 6 6 8 8 *.$.$.#.#.$.$.#.S d D t.v # % 1 2 4 4 1 ; ; ; ; # 1 2 8 8 8 8 5 1 & % 1 1 % # 2 c n D S d s s d d d a p u p a n u u d =.t.t.=.$.-.*.=.=.=.=.;.;.*.*.#.#.S n n n ",
"n n n n n n n n n n n n D *.=.=.p.u.>.f.b.v.h.d.c.c.c.c.c.f.f.f.d.u.>.>.=.=.=.=.=.$.$.&.1.6.0.C.B.m.n.o. . .E E  . .m.B.B.V.n.o.R R W W | |  .3.U.U.E.Q.-XbXbXbXpX'.'.E.E.Y.C.3.{ { %.#.#.$.=.;.k.d.d.d.h.f.f.9.8.8.8.8.8.8.d.d.>.j.j.j.j.y.D c 8 8 8 8 8 0 0 0 5 5 1 1 5 5 1 %   1 8 8 8 8 8 6 8 8 8 k 8 % X X 8 8 6 6 8 8 8 0 8 0 k 8 8 8 k M M M c c c c c c n c v v v c v M M c c c m c 8 5 5 1 5 5 1 5 5 5 6 5 1 1 0 S *.#.S S S S #.#.S S S d d a p p 9 9 a a a 9 0 0 0 0 8 8 8 4 4 4 p a 4 2 2 1 # 2 0 v v v v c c a q q k k c c k k k 0 8 1 % .     . % .   X X O = O   . = 5 5 5 5 8 c D =.t.u.t.e.e.e.=.S #.=.d.k.k.f.C.R.E.E.B.| %.[ #.#.[ [ ( #.#.#.#.&.&.&.&.;.8.d.d.u.u.t.e.j.t.9 a n y.y.*.m c k 8 8 8 5 5 6 8 8 8 6 5 6 8 8 8 2 0 5 1 o # *.y.w.n b B c r r p r r 4 6 4 8 8 7 1 u #.d.8.&.} Z Z $.>.k.l.l.T.%X/.j.;.#.S Z Z [ #.1.3.3.2.<.) n p n v 0 9 9 9 0 0 9 8 8 6 5 5 6 4 D $.=.*.#.#.$.$.#.d D u.n # # 1 2 2 8 1 1 1 2 2 1 1 1 1 1 # # X % & % & 1 1 1 1 4 a n n a u p a a a n a p p a n n u a =.t.t.e.=.=.=.=.=.=.=.;.;.=.=.*.#.S n n a ",
"n n n n n n n n n n n n *.=.e.t.=.>.p.f.f.f.f.h.v.c.h.9.9.>.8.9.d.u.u.>.=.>.u.u.u.u.d.d.I.P.P.C.m.o.o.o.o.o.o.E J R  .o.M.M.M.n.Q Q R ! P R R  .B.Z.E.pXbXbXbXbXbXpXW.E.Q.'.'.'.I.0.6.5.5.8.8.8.g.f.f.f.I.I.I.I._._._.).).+X+X+X$X$X,X<X1Xj.c 1 8 8 8 8 8 0 0 0 5 5 1 1 5 5 1 1 . % 8 8 6 8 8 6 8 k k h k 8 % o 1 5 8 8 8 8 8 k 8 0 k 8 8 8 k M c c v v v v v v c v v v v v c v M c c c m c 8 5 5 1 5 5 1 5 5 5 6 5 1 1 0 S *.#.S Z Z S #.#.#.S #.#.S S S S S S n v v q 0 9 8 8 8 8 8 8 8 8 9 a 2 2 1 # 1 2 q n v v c c a a q k k k k k k 8 5 5 .         . % & 1 % O O 1 5 = .   X 1 5 8 k M w.*.S S S *.*.*.D =.D #.;.k.l.k.g.C.R.E.E.C.<.%.[ #.#.#.[ #.#.#.#.[ [ %.%.&.=.>.>.d.;.t.t.e.j.t.8 8 m y.y.N k 8 1 5 5 1 1 1 1 5 5 % % % % % % 1 5 k 5 1 o % w.y.w.p 2 2 r r r 8 4 c 4 3 6 8 8 6 1 4 U 5.8.&.} &.h.v.v.v.oXoX/.h.&.#.S S S Z d Z #.5.6.3.2.<.Y a p n v 0 9 9 9 0 0 8 8 8 6 5 5 6 8 D =.;.$.#.#.$.$.#.d D u.n # # 1 1 2 5 1 1 1 1 1 2 1 % X X X % 1 % & 1 & 1 5 2 1 1 4 a a p 9 p a a a n a p p a n #.u p *.t.t.t.e.=.=.=.=.=.=.=.;.;.=.=.*.S n a a ",
"n n n n n n n n n n n n n *.e.t.=.=.$.$.$.>.u.d.v.v.h.9.>.:.>.9.h.h.f.f.f.f.d.d.d.f.f.9.0.A.C.Z.m.o.o.M.F.K.H.K.M.M.O.M.M.M.M.n.m.Q ! H H J  . .m.B.Z.G.E.W.pXbXsXsXuX'.W.E.E.bX-X-XY.N.6.6.0.0.6.N.U.Y.E.'.'.'.'.'.'.E.Y.Y.A.0.T. X Xj.n 3 1 6 8 8 8 8 8 8 8 8 5 5 5 5 5 5 5 5 X O 5 8 h 8 8 h k h 8 8 8 6 1 % . % 5 5 1 5 8 8 8 8 8 8 8 8 0 q c c v v v c c c c c v v c c c c c c k k k c h 5 5 5 5 5 5 5 5 5 6 5 5 2 2 v S S S S Z S #.$.#.S S S S S S S S S D D n q 9 2 8 0 5 6 6 2 8 8 8 8 2 1 1 1 2 0 c c c c c k k k k k 5 8 8 5 1 X . . X X O O % O O % X X O 1 1 1 = X . O = 5 k M w.G 9 p a n S n n v n n n #.l.l.k.g.Y.U.U.C.6.%.U [ #.#.#.#.#.#.#.#.[ %.5.5.=.#.#.#.d.=.=.=.N n n 4 z 7 8 z z 5 1 1 1 1 1 % % 5 5 1 & 5 5 5 5 5 1 % 1 6 %   6 e.y.n 4 r r r 8 8 8 c 4 8 4 6 6 6 7 3 3 _ d.T.&X;X&X(.OXv.v.@Xv.8.} U #.#.S Z Z Z #.#.1.3.3.2.<.U a a v a 0 9 9 0 0 0 0 8 8 5 1 1 2 8 =.$.=.$.$.$.*.#.S n *.u.i.a o % 6 6 5 5 5 1 1 1 1 1 1 = % O X X X % & & % % 1 1 2 4 a n n a a d a a a a p a a a n p 9 a =.u.t.=.*.*.*.*.*.*.=.=.*.*.#.S n n n n ",
"n n n n n n n n n n n v n n *.*.;.;.u.;.;.$.$.#.>.8.k.h.c.v.v.v.v.v.v.v.v.v.b.b.c.h.c.I.A.A.Z.Z.m.M.M.M.G.H.W.W.W.R.K.F.Z.M.M.M.o.R J R E o.O.o.O.O.M.M.S.H.wXpXmXhXpXuXpXW.W.Q.E.E.U.N.N.C.P.P.U.R.Q.bXbXbXbXbXbXbXbXbXbX'.'.'.T.d.#.p 3 ; 1 1 5 5 8 8 8 8 8 5 5 5 5 5 5 5 5 5 . X 1 6 6 5 5 8 8 5 5 5 5 1 % X @   % X       o . # % % 1 5 0 k k k k k v c v v v v v v c c c c c c k k c c k 5 5 5 5 5 5 5 5 5 6 5 5 2 2 v S S S Z Z S #.$.#.S S S S S S S S S S S v 9 4 2 2 0 8 8 6 6 6 2 2 2 1 % 1 1 8 0 c M c c k k k k q q & 1 5 1 % O X X % % % % % % % % 5 5 5 8 8 8 5 = . X O O 5 c m c a a v n n n v v q a a S k.j.d.d.P.Z.C.C.6.%.[ Z #.#.#.#.#.#.#.#.-.;.5.5.=.#.#.*.=.=.e._ 8 3 2 4 1 = 1 5 8 5 5 7 5 h h 5 5 5 6 5 5 5 5 5 5 1 1 1 5 6 &   5 M M 8 r 4 8 8 8 r 8 8 7 3 3 1 1 1 = * 3 n d./.;X:X&X+X+XoXv.v.l.8.#.Z #.S S Z d Z #.#.1.3.3.2.<.U a a v a 0 9 9 0 0 0 0 8 8 2 1 1 2 8 *.*.*.*.*.#.#.S S S *.=.t.n X X 5 5 5 5 5 5 5 5 % O X X X   o @ @   . % % & 1 1 1 2 9 v n a a a n a a a a a n n n p 9 p *.t.t.=.*.*.*.*.$.*.=.=.S S S n n n n n ",
"v v n n n n n n n n c a a a c v n S S #.#.Z d a d Z #.;.d.k.l.h.f.x.c.b.b.(.(.(.(.]._._.Y.G.B.M.M.M.S.F.F.J.wXuXaXuXJ.S.M.M.F.K.W.K.K.J.W.W.F.O.O.O.+.+.D.H.J.0X0XJ.S.+.+.o.o.o.o.m.B.B.N.N.N.n.n.n.B.G.E.E.Q.~.~.'.'.'.bXbXnXnXT.5.w * o ; 1 1 5 5 5 5 5 5 8 5 5 5 5 5 5 5 5 5     O % 5 % 5 5 1 % O O O     o @ @           o . . # % % 5 9 0 0 0 0 q q k c c c c c c c c c c m m c k c c k 8 5 5 5 5 5 5 5 5 6 5 5 2 2 v #.#.S Z Z S #.$.#.S S S S S S S S S n n a 4 2 2 1 8 8 8 5 5 5 5 1 2 % % 1 8 0 c v N c c c c 0 8 1 % X # 1 2 1 1 1 1 5 5 5 5 5 5 5 5 k h h h h h 7 1   . . . O 1 5 1 0 a a v v v v a 9 9 a n d.d.d.8.P.N.C.C.5.%.#.#.*.*.#.#.#.#.*.#.#.-.=.&.#.#.$.=.t.t.t.N 3 X 1 3 = = = 1 5 5 5 5 1 5 1 1 1 1 1 1 1 1 1 1 1 1 1 1 1 1 1 O O 5 5 * 3 , 1 3 4 8 8 4 2 3 2 2 3 2 1 3 4 a d.%X<X:X>X>X&XoXl.d.d.d.&.[ Z Z Z Z d Z #.#.1.3.2.2.<.U p a v c 9 9 9 9 0 0 0 8 8 2 1 1 2 2 D D *.*.#.#.S #.S #.*.D e.w.4 o 5 6 5 5 % % % O X X .   o @ @ @       O % & 1 1 % % 2 v n n v v n n n n n n n n p 9 3 4 n e.t.=.=.=.=.=.=.=.$.*.S n n n n n n n ",
"v v v n n n n n n n c a p 9 p p 9 9 9 p p p p p u 9 9 u s [ #.$.f.9.9.x.x.^.].].].].'.~.W.K.F.S.D.F.G.H.H.J.0XuXsXuXF.S.G.W.pXaXMXMXMXMXmXhXiXH.+.+.S.H.7X7X0X7XH.S.^ ^ ^ ^ o.M.o.Q o.n.n.Q Q Q ! R Q  .o.m.M.Z.m.m.C.Y.Y.Y.Y.Y.T.z.( 4 ; ; 2 1 5 5 5 5 5 5 5 5 5 5 5 5 5 5 5 5       X O O O O O X       @ @ @ @   O O % % & % % % % % % 1 1 2 8 8 8 8 9 0 0 q k k k k k v v v m m c c c c k 8 5 5 5 5 5 5 5 5 6 5 5 2 2 v #.#.S Z Z Z #.#.S S S S S S S S S S n n p 4 2 2 1 8 5 5 5 5 5 2 1 1 1 1 8 0 c c c v M c 0 2 % # X X # 1 5 8 8 8 8 k c k k k k k k k k k 8 8 8 8 1 = X .     X O O X 1 5 8 8 0 k 0 0 q 9 9 n j.j.u.5.g.N.C.C.0.&.#.*.=.=.$.#.*.*.*.*.-.&.=.-.#.$.t.j.=.n v p 3 1 = = = = 1 5 7 7 5 1 5 O O 1 7 5 5 5 1 1 1 1 1 1 1 1 O O O O O O = 1 3 > 3 4 p a a a c a v b c c a a 4 a d.;XDX:X>X:X>XOXd.#.$.8.;.#.Z S Z d d Z [ } 1.3.2.| <.U p a v c 9 9 9 9 0 0 8 8 8 2 1 1 2 2 D S D *.*.#.#.#.S #.S n *.i.n o 1 1 % O X     . X . . . . X % 1 5 5 % % 1 1 1 1 2 % 2 0 v n n n n n n a a a a a p 9 3 : a e.j.t.=.*.*.#.*.#.#.#.S S S n n n n n ",
"c c n n n n n n n n c a p p p p c p p r r p p p p u u w w u u u [ } ..q.A.].'.'.~.'.uXuXW.H.G.S.H.H.H.H.H.J.J.0X0XH.S.F.0XhXmXmXaXuXqX0XqXgXmXjX8X8X8X8XqXqXqX7X8XH.D.S.D.0XmXNXpXn.E n.Q ! ! W n.n.B.G.R.R.E.E.Q.E.E.E.U.2.P < %.a.j.*.w ; 1 6 1 1 5 5 1 1 1 1 5 5 5 5 5 5 5 5 O               @ @ o   @ @ @ @ O & 5 5 & & & # & % % # % & % 2 2 2 2 2 8 8 8 9 0 0 0 k k k k k c c c k k c k 8 5 5 5 5 5 5 5 5 6 5 5 5 8 v #.#.S Z Z Z #.#.S S S S S S S S S S S n p 4 2 2 1 2 1 1 1 1 5 5 5 5 1 2 8 c c c 0 8 c 8 # o o X 1 5 2 8 c c c m m v v m m c c c c k h 8 8 5 5 5 1 O O X   . X X X X % % 1 1 1 5 1 1 6 1 1 p u.d.;.;.s.6.0.P.0.;.;.;.t.t.;.;.=.=.=.=.;.=.#.d p u a n 3 : : 3 3 1 = = O 1 5 8 8 8 5 1 5 5 1 X X X X X X O % 1 1 ; O X 1 O O O X X 2 n n #.#.#.#.*.=.=.;.=.=.=.*.n v a 8 p ;.:XDX3X:X4X:XoX$.s Z =.;.&.#.S Z Z Z Z [ [ 1.3.2.| <.U a a v a 0 9 9 9 0 0 8 8 8 2 1 1 2 2 D S S *.*.*.#.#.S #.S a S i.e.# .         .   X X % 1 8 0 v M N M k 8 5 & 5 1 1 1 % # 2 0 a v n n n c p 8 8 4 4 p p 4 3 a e.j.j.=.$.*.*.*.*.#.#.*.*.D n n n n n ",
"v c v v v v v v n n c a p p a a a p p p p p p p p a b a i u w w i H ..A.E.'.'.tXtXtXtX7X7X7XH.D.7X8XH.8X7X7X7XJ.F.F.D.7XaXhXmXgXH.S.+.+.D.jXGXGXjXfXqX9XqXfXqXqXqX8X7XH.H.wXmXMXNXB.E Q Q P W 2.B.R.Q.-X'.Q.E.E.bX-X'.-XQ.1.< * , ( a.t.p ; 1 6 5 5 5 5 5 5 5 5 5 5 5 5 5 5 5 5 %   @ @   @ @ @ @ @ @     . . O O % 5 5 6 8 6 1 k 8 8 5 8 8 8 2 0 0 9 9 8 8 2 2 8 8 0 9 0 0 k k k k k k k k 8 5 5 5 5 5 5 5 5 5 6 5 5 2 8 v #.#.S Z Z S S #.S S S S S S S S S S S S p 3 2 1 1 1 % & 1 1 1 5 5 5 1 2 8 0 0 8 2 1 # X X X X 1 8 k 0 c v n v v v v c c c k k 8 8 8 8 6 5 5 5 5 1 = = X . X O X X O O O % % % O O O 1 X X 4 e.t.=.%.6.6.g.h.f.8.;.u.t.t.t.;.;.;.t.t.;.;.=.#.a u p a a n n n p * X 1 5 6 z r 8 2 1 2 }.{.{.w.c n N m c m N N N n n m 0 1 # X o o p t.u.d.d.d.>.;.u.u.;.;.;.$.*.S d a 9 u ;.;X3X4X>X4X:Xv.S f s #.=.;.$.#.S Z Z Z Z [ 1.3.2.| <.U p a v a 9 9 9 9 0 0 8 8 8 2 1 1 1 2 D D *.*.$.$.$.$.#.#.#.S S i.}.v . .       X X % 2 8 k M D G G G m k 8 & & 5 5 8 1 # # ; 2 2 9 a c a p 4 2 3 3 1 4 4 3 2 p N w.=.#.#.#.n n n n n S n n n n n n n ",
"a a c v c v v v n n c a p p a c 9 r p p p p r r p i s s s ( -.4.U.R.Q.uXuXuX7X7X8X8X9X9X8X7X7X7X0X7X7X7XqXqX7XrXH.7XgXhXhXhXMXBXaXrX+.+.iXHXLXGXzXjX9XfXjXjXjXjXfXqX7XH.H.aXMXCXbXn.! Q ! ! ' ' 2.V.L.B.B.m.n.m.Y.N.N.T.XXs.I , * w ( _ p 3 1 2 5 5 5 5 8 8 8 5 5 5 5 5 5 5 5 5 5   @ @   @ @ @ o       . . O % O 5 8 k l M M m c k k k c m c c c c v q 0 8 8 2 8 8 8 8 8 8 8 8 8 k k 8 8 8 5 1 5 5 5 5 5 5 5 5 6 5 5 2 2 v #.#.S Z Z S S #.S S S S S S S S S S S n 9 : 2 1 # % 1 & 1 1 1 1 1 5 1 1 1 1 1 % % % . # 1 5 8 k k 8 0 a c v c a 0 0 0 0 9 8 8 6 5 5 5 5 5 5 5 5 5 5 = X . X X X X O O O O % & & 1 1 6 6 4 p t.;.-.-.5.6.0.g.f.8.>.u.u.u.u.u.u.u.t.t.u.j.k.l.k.k.{..X}.}.}.j.w.r = 3 n N *.n 2 ; 8 N 1X1X@Xi.*.=.e.*.w.w.e.e.t.e.e.e.D c 8 1 $ X 9 ;.u.>.u.>.>.;.;.;.#.$.$.$.#.S d a 9 9 $.&X3X4X4X:X&X9.Z d d d #.;.;.$.#.S S S Z [ 1.1.2.| <.U p a v a 9 9 9 9 0 9 8 8 8 2 1 1 1 2 a a a v n n S d S d n n p *.}.*.X X X X X 1 2 2 c v M F F F F M 8 8 6 & & & 1 8 1 1 1 1 1 1 2 8 4 2 3 2 2 3 2 2 2 2 1 2 4 p a a 9 4 4 4 4 9 9 4 v v n v a n n n ",
"a a a a a a v v n v a p p p a c c c c c r r r r s i e w i ) T.-XbXbXpXaXiXqXqX8X9X9X9X9X8XqXqXqXqX7X7XqXfXgXqXrXrXfXmXjXiXfXBXGXBXiXD.rXBXLXLXVXjXfXyXjXBXVXCXBXjXqXD.O./ S.W.R.V.! ! Q ! ! ' P ' ' ' ' W T Y <.6.%.Y 6.T.T.4.( , , 4 p p 4 1 1 5 5 5 5 8 8 8 8 5 5 5 5 5 5 5 5 5   @ @     @ @ O O O X     O O k m M M G G G G 0 9 0 q M D G G D N n v q 0 9 8 2 2 2 8 8 8 8 8 6 8 8 6 5 5 5 1 5 5 5 5 5 5 5 5 5 5 5 2 4 v D #.S Z Z Z S S S S S S S S S S S S D n 9 1 1 % X X 1 1 1 1 5 5 1 1 & % X . . . X X 8 8 k k k k 8 6 8 9 p p 0 8 8 8 0 0 8 8 6 5 2 5 5 1 1 1 5 5 5 5 = X   X X   .     X O % 5 6 8 h N N D *.d.;.=.;.1.5.8.f.d.>.>.u.u.u.u.u.u.u.u.u.d.h.l.l.k.k.k.l.@X}.y.i.}.w.c 8 =.t.t.*.4 ; n }.1X}.e.=.=.*.*.e.*.*.*.*.*.=.=.e.*.n v 9 : $ 4 S ;.$.$.$.;.>.;.;.$.$.$.$.#.S d a 9 4 $.+X<X:X>X>X&X:.f Z S s d =.>.;.#.S S S S [ 1.1.2.| <.U p a v a 9 9 9 9 0 9 8 8 6 2 1 1 1 5 # # ; 1 2 2 4 2 9 ; 4 9 # 4 t.*.X X X O 1 8 c v D n q 9 2 2 2 2 5 8 6 6 & & 1 1 2 2 6 8 8 3 2 8 : : ; : 2 3 4 w p 4 4 4 w w p u 4 4 4 4 4 9 4 4 p p p a a a n n ",
"a a d d d n n n n n c r 9 p a c m m k h z c b s s w , < R R.bXbXqXmXmXgXfXiX8X8X8X8X8X9XeXeXqX8XqXqX0XqXhXfX8X8XfXjXjXjXfXiXgXmXgXqX8XqXBXVXVXVXZXzXzXzXBXVXBXjXiX7XS./ J J Q E  .Q W W ' ' ' P K K K K L I U -.g.-.i d.d.( ;.-.4 1 3 6 6 2 6 c 5 5 2 2 2 2 2 1 5 5 5 5 5 5 5 5 1 . @ @ . X X X X % 1 1 % . 5 c M M M m c c k k 8 8 0 c G D F D D D D D D D D D v q 0 8 0 0 0 0 8 8 5 1 1 1 1 5 5 5 5 5 5 5 5 5 5 5 5 1 1 8 v *.S n d d S S S S S S S S n n n v M c 1 X . X X O & & % % & & 5 5 O . + X # % 2 q w.M c c c k 8 8 q q q q k k k k k k k k 0 8 5 5 1 5 1 1 5 5 8 8 5 5 O . X X X 1 8 8 c N D N G e.t.e.;.;.;.;.;.=.;.;.d.d.f.d.u.u.u.$.$.=.$.=.u.p.d.f.T.T.h.h.v.l.l.{.}.i.i.e.m 8 N w.w.n : 9 }.@X@Xu.S S S n v n n n F F F S S n n v p 2 ; ; 1 4 f f #.$.>.>.&.$.$.$.$.$.#.S v a p p #.oX<XDX:X>Xq.1.[ d Z $.=.=.;.$.$.#.Z Z S S &.1.<.) %.%.s p 9 9 0 0 0 0 0 0 0 8 5 1 1 1 1 % . . . . . . . . . X X X # % X X X X X 1 8 c c c 5 5 1 1 1 1 1 1 8 8 8 8 5 1 1 1 1 2 a n n c a p > 9 f s d #.#.=.#.#.#.#.#.n #.#.d n a a p p 9 9 u p p a a a n n ",
"u f a d n n n n n n n c a p p p c c p r r s ) 4.P.2.R  .W.mXMXjXjXjXjXjXjXjXfX9X9X9X9X9X9X9X9X8X8XqXqXgXBXjXjXjXjXxXkXjXhXjXgXeXqXqXqXiXmXZXZXZXzXxXxXzXBXxXjXhXiX0X7XD.O.o.o.n.m.2.W W Y P K K K K K I s I #.#.k.>.s d.d.d ( *.2 1 1 6 5 1 2 0 5 5 6 2 2 2 2 1 5 5 5 5 5 5 5 5 1 X @ o X X O O 1 5 0 0 1 % 5 c m m c k k k k 0 8 8 q M D D F D D D D D D D D D D n c l k c c k 8 8 5 5 1 1 1 5 5 5 5 5 5 5 5 5 5 5 2 1 1 6 m N n a a d n n n v S S n v v a v v 6 1 X     X O O & & 5 5 5 5 5 &   . % 8 c c n N D n k k k 0 8 5 q q q k k k k k k k k k 0 8 5 5 5 5 5 1 5 6 8 8 5 5 X X 1 8 h m D n S *.w.w.w.e.e.=.*.$.;.;.;.=.;.u.p.d.j.p.u.=.=.S S #.S $.u.u.8.0.T.T.h.h.b.l.l.k.i.e.t.w.c 2 D e.w.n 2 a oX#X{.;.n n S n n n n n n F F F n n n c 8 2 1 1 2 4 a d #.$.>.>.&.&.$.$.$.$.*.S n v c p #.T.:X:X>X`.q.1.} $.;.u.u.u.=.$.$.Z Z Z S S #.1.<.) %.) s p 9 9 0 0 0 0 0 0 0 8 6 1 1 1 1 %                   . X X O X X X X X 1 2 8 0 k 8 5 5 5 1 1 1 5 5 8 8 8 8 8 5 1 2 2 4 a a a a p p #.#.$.$.$.=.;.;.>.8.d.;.=.=.#.=.*.*.*.#.S n n n n a a p p p a a ",
"p a v n n n n n a a p u w w u w < g i I ) N.'.bXbXE.Z.W.mXBXBXjXjXfXfXzXBXZXxXjX9XyX9XqXqXqXqX9X9XeXjXZXVXBXzXzXBXVXBXjXjXzXjXeXqX7XK.tXfXjXzXzXjXzXBXxXjXjXjXhXgXqXwX0XD.M.M.B.B.2.W I K K K y K K e e s d #.#.u.u.=.l.d.w u n 1 1 1 1 1 1 1 8 6 6 6 2 2 2 1 1 5 5 5 5 5 5 5 1 1 X . X O % 1 5 0 c M c 0 1 8 k k k k k 0 0 8 8 8 8 q M D F F F M F F D D D D D D D F M v c c k 8 8 5 1 1 1 1 5 5 5 5 5 5 5 5 5 5 5 1 1 1 2 0 c n n n n n n n v a c n n n v a 9 X   @ @   X % % % % & 5 5 & O O + . & l w.y.e.w.D n c c k 8 8 8 q q k k k k k k k k k k 0 8 5 5 5 5 & 1 5 5 8 8 5 5 . X c M M G *.D D e.t.t.e.e.D S n S $.;.;.$.=.;.u.p.p.u.=.=.S S $.u.u.u.u.>.>.q.T._.l.h.h.f.k.j.t.e.w.D q 2 D e.e.n 4 *.#X@Xu.#.a a n n n n n n n n n n n n v q 2 1 1 2 2 4 a Z #.=.>.>.$.$.$.$.$.$.*.S v v c p n l.:X:X`.(.c.h.8.8.f.d.;.$.$.#.[ Z Z Z S Z #.-.%.) %.( s u 9 9 0 0 0 0 0 0 0 8 6 1 1 2 1 % o     X X O % % O % % 1 1 # % # X 1 6 8 8 8 8 5 5 5 1 1 1 1 5 5 8 8 8 8 8 8 5 2 8 p p p a a a n u.>.;.;.;.;.;.;.;.d.d.d.;.=.#.#.*.*.*.*.*.*.#.#.#.S n a p p p p ",
"v v n n n n v n n a u g < g f L ....o.M.K.'.nXNXmXsXiXhXMXzXjXjXyX8XjXVXGXGXBXfX8XtXiXiXqXqXfXjXjXzXzXBXxXzXjXzXBXVXVXBXzXBXZXjXjX7X@.K.tXiXfXfX8XjXZXzXfXiXhXhXmXaXuX0XG.M.B.B.N.2.W K K K y y y y y e s d #.#.#.$.k.$Xd.> u p 2 1 1 1 1 # 1 8 8 6 6 6 2 2 1 1 5 5 5 5 5 5 1 5 1 O X % 1 1 5 8 c M M c 8 1 8 k k 0 0 8 8 8 8 8 8 8 q M F F M F M F F F D D D D D D M M M c k 0 5 5 5 5 1 1 5 5 5 5 5 5 5 5 5 5 5 5 1 1 1 1 6 p n n a a a v n n v n n n a 4 ; X X X     X O % % 1 1 % % % O +   & % & 0 M D D D M n c c k 8 8 0 k q k k k k k k k k k k 0 8 5 5 5 & 1 1 5 5 5 8 5 5 . X M G M N n n D e.e.w.D v n a p a #.;.;.$.;.=.u.u.u.u.=.#.S =.l.#X#X Xu.=.>.q./.-X$Xv.l.d.p.u.u.e.e.D c 1 n w.t.n 4 t.#X{.$.d p a v v v n v v n n n n n n a 9 2 1 1 2 8 9 f Z $.=.>.;.$.$.#.$.$.$.*.S v v c c n z.;X:X+X(.)./.h.f.u.;.S d #.Z Z Z Z Z S S n #.Y Y %.U u u 9 9 0 0 0 0 0 0 8 0 8 1 1 1 1 % O % 1 1 5 8 8 h 8 8 h 8 6 1 1 1 1 8 0 k 8 5 5 5 5 5 1 1 1 1 5 5 8 8 8 8 8 8 2 4 a p p p p a #.#.;.;.$.=.;.;.;.=.#.=.;.;.=.#.#.#.#.S S S S n n n S #.#.S n a p 9 ",
"v v v v n v v v d d [ } ..q.Y.~.~.tXtXyXdXkXkXkXBXBXBXBXBXxXxXBXyXyXyXxXBXxXhXtX8X8XqXqXqXiXjXjXjXyXzXzXjXjXjXBXHXHXHXHXVXVXVXVXMXtX~.dXtXK.rX8XrXjXzXfX8XD.7X7XiXgXmXaXJ.S.B.B.2.W L < e e K K y y e t d U #.#.d #.j.1Xl.p u p 2 1 1 6 1 1 1 8 8 8 8 5 2 2 1 1 5 5 5 5 5 5 5 5 % % % 1 5 5 5 8 k c c k 1 & 8 0 0 0 8 8 8 8 8 8 8 9 p n F F F F F F F F F F M M D n M M M c k 0 5 1 5 5 5 1 5 5 5 5 5 5 5 5 5 5 5 5 1 1 1 1 2 6 c v n n n v c c n c 8 2 ; X o X X X X X O % % O 5 1 % O O X     1 % . % 1 2 9 0 v k v v k 8 8 k k q k k k k k k k k k 0 8 8 5 1 & & & % 5 5 6 8 8 8 X % M G c m v n D D n v 9 4 a p 9 u Z ;.>.;.;.=.t.u.u.;.$.S $.f.#X1X*X Xu.$.:.8.%X<X;X/.l.p.p.u.i.i.i.e.n 2 p D t.v 4 t..Xd.S d p p a a v v v v v v v n n n 9 9 2 1 ; 2 0 a d S $.;.>.;.$.#.#.$.$.#.#.S v c a c n d.*X:X+X(.(.c.d.=.$.#.Z d S Z Z Z Z Z d d s U U Y ) U u p 9 9 0 0 0 0 0 0 8 0 8 2 1 1 1 1 c c c c m m m m v v m c 8 2 2 2 0 k k 8 5 1 1 2 5 1 1 1 1 1 5 5 8 8 8 8 8 8 8 9 a p p p a #.=.;.;.$.$.=.;.>.>.;.=.;.d.u.;.=.=.*.S S S S S n n n n S #.#.S n a p ",
"v v v n D D D #.d.d.h._.].].dXdXtXtXlXxXSXSXSXxXHXHXVXVXVXVXHXHXxXkXyXyXtXtXtX7X8X8XqXqXiXiXfXfXyXyXyXyXjXxXCXHXMXhXfXhXhXjXhXfX7X~.dXFXdXJ.7X7X8XjXzX9X+.+.+.O.F.gXHXCXpXG.B.m.n.W L < e e e e y e e s U #.#.#.Z #.#.{.#X*.4 a 8 2 2 6 6 1 1 8 8 8 8 8 2 2 1 1 5 5 5 5 5 5 5 5 % % % 1 6 5 5 5 0 k k 8 % % 8 0 0 0 0 0 0 0 0 0 8 9 l n F n n F F F F F M n M M n M M M M c k 9 1 1 1 5 5 5 5 5 5 5 5 5 5 5 5 5 5 5 1 2 1 1 1 2 8 9 p a p 9 8 8 1 1 # X o o X X X X X X O % O X O X X . . . X X % X . # # # # 2 8 2 8 0 8 5 5 8 a a k k k k 0 0 k k k 0 0 8 5 1 & & % % 1 5 6 8 8 8 % 1 M G m c a v n a 9 9 q 9 a p 9 9 d ;.u.;.;.;.;.u.u.;.$.S u.l. X Xv.k.u.=.;.8./.;X$Xv.h.u.u.u.u.i.i.u.D 9 8 n e.a 4 t.{.e.n d a a a a a a v v v v n n n n 9 9 2 1 1 2 0 v S S $.;.;.;.$.#.S #.#.*.D S v c a b n =.oX+X/./.c.9.$.Z d d d Z Z Z Z Z Z d d a p s I U ) U u p 9 9 0 0 0 0 0 0 8 0 8 2 1 1 1 1 m c m m m v v v c c c p 2 2 3 2 c c 0 6 1 1 2 5 5 1 1 1 1 1 5 5 0 8 8 2 2 4 9 9 p p p n #.=.t.d.;.;.=.;.;.;.;.;.;.;.d.d.d.;.;.;.#.S S S S S S n n n S S S S n n ",
"d n S *.;.d.l.l./.(.).].].dXdXlXlXlXkXxXxXxXkXkXBXHXVXVXVXVXVXcXxXxXyXtXtXtXtXtXiXtXqXqXiXiXqX7X7X7X7XiXmXCXCXmXF.F.F.F.F.K.D.@.@.~.FXKXnXuX7XH.iXjXjX9XD.D.S.O.+.uXCXCXbXG.B.N.m.' I e e e e e e e t s ( #.#.#.S #.n j.1X=.> 4 8 5 6 6 6 1 1 8 8 8 8 6 2 2 2 1 5 5 5 5 5 5 5 5 1 O O 1 8 6 5 1 8 k k 5 % & 5 8 8 0 0 0 0 0 k 0 8 q l F F n n F F F F F n n M M D D M F M c 0 2 % 1 1 5 5 5 5 5 5 5 5 5 5 5 5 5 1 5 2 2 2 2 2 1 2 : ; o X o ; 2 ; # # X X X X X 1 % X X X X X X o o . X X # ; 1 # # # 2 2 # # 2 2 1 1 8 8 2 5 8 q q c k k 0 0 0 k k k 0 0 8 5 1 1 % % % 1 5 5 8 8 8 1 1 c M m m k v a 9 9 c v v a a p 9 a ;.d.d.>.;.;.u.u.;.#.S u.k.l.p.p.u.u.u.;.;.l.%X/.k.u.u.u.=.t.t.u.u.*.a 8 a D 4 3 t.{.=.d d v a a v v v v v v v v v n n a 9 2 1 1 2 c v S #.=.;.>.;.#.#.S #.#.*.D n n c a b n n d.f.8.8.>.=.S d d d d Z S S Z Z d f a p u u i U %.d w p 9 9 0 0 0 0 0 0 8 0 8 2 1 1 1 1 8 8 0 0 p a a a 9 p a p 8 4 p v v p 8 2 1 1 2 2 2 2 1 1 1 1 5 5 0 8 8 2 4 9 9 p p p d #.;.d.d.d.;.;.;.;.;.$.=.=.;.;.u.t.;.=.;.=.*.*.*.*.*.#.S S S S #.#.#.#.S n ",
"( #.$.u.l.@X*X;X&X&X].].~.lXlX6XlXlXkXlXlXtXtXtXkXxXHXVXxXxXxXxXyXkXyXyXyXhXsXhXfXiXiXiXiXuXJ.K.F.A.F.uXMXCXbXm. .m.M.o.o.O.+.O.@.dXKXKXdXuXJ.+.iXjXjXqX7XiXwXH.S.J.aXmXpXZ.B.B.m.' I e e e t e e e t s n #.#.S d S #.l.$X*.: 3 8 2 2 6 2 1 1 8 8 8 8 6 5 2 1 1 5 5 5 5 5 5 5 5 1 X X 1 8 6 1 % 5 k k 8 1 1 8 8 8 8 8 8 0 0 k 0 8 q l F F M n F M M n n n n n n n n M M n k 8 % % 1 1 5 5 5 5 5 5 5 5 5 5 5 5 5 1 1 2 6 6 5 2 2 ; ; 2 2 : ; ; ; ; ; # X # ; 1 2 6 5 1 1 # X X o o X # 2 4 9 p a 2 2 1 9 9 8 2 2 2 % 1 2 8 8 8 0 q q c k k 0 0 0 k k k 0 0 8 5 1 1 % % % 1 5 5 8 k 8 1 1 6 k c c v v q 9 9 c c 0 q a a 9 a ;.d.d.u.>.;.u.u.;.#.S $.f.l.p.f.p.u.u.=.$.d.l.k.>.>.u.,.$.$.$.$.=.=.v 0 0 v 2 3 j.{.e.a a v a v v v v v v v v v v n n v 9 2 1 2 8 c v S #.=.>.>.=.#.S S S *.*.D n n c a n a p $.&.[ $.$.S Z Z S S S S S S S Z d a 9 9 4 w i U #.s w 8 9 9 0 0 0 0 0 0 8 0 0 2 1 1 1 1 0 0 p p p p a a 8 p a a a v n =.c p 2 1 1 2 2 2 2 1 1 1 1 1 5 5 0 8 2 2 4 9 9 p p a #.=.d.j.d.;.u.u.d.u.;.;.;.t.;.;.;.=.=.#.-.-.e.t.e.=.=.=.*.*.n S *.=.=.*.n n ",
"I 5.k.k.l.#X*X;X<X>X`.].~.~.[.[.tXtXtXtXtXtX~.~.~.sXkXjXjXxXkXlXyXyXkXBXHXGXHXCXBXMXhXsXW.F.o.X.o.....E.NXbXC. .W  .Q ! E O.M.O.~.FXFXnXMXH.J J iXMXaX8XmXMXpXF.H.S.G.pXpXR.N.B.N.7.U e e t t t t t s n n S S S $.S n u.#X*.; 9 2 1 1 1 1 % 1 5 c c 0 0 8 2 1 1 5 5 5 5 8 6 5 5 k & X % 1 % & 5 1 8 0 8 % % 1 8 0 0 0 0 0 0 8 8 2 q v M v v M F F M n M M n F F D D F c 0 2 1 1 8 8 8 8 6 5 5 5 5 5 5 5 5 5 5 5 6 5 1 1 2 5 6 1 *.;.j.k.t.n a a v v v v n n v a c 8 5 8 k 8 8 2 p p a a a a v n D D D v v v q 2 1 1 2 8 9 0 0 0 q q k k k 0 0 0 k k k 0 8 8 1 & 5 5 % % % 5 5 8 h 8 1 X O 6 c M c a k k k k q q 0 q p p d ;.d.;.u.u.u.u.p.u.$.S $.=.u.p.u.u.u.>.>.;.;.;.;.$.F F A S S d d S S v v 8 2 X 9 {.@Xe.v v v a v v v v v v v v v v n n a 4 2 1 1 8 c a n #.$.;.;.;.$.S S S n n n n c c c p a a d f Z [ $.Z d Z S Z d S S S d a p p p 9 9 w w I %.d r p 0 9 0 9 8 9 9 0 8 8 8 8 5 1 1 % 0 9 0 p p p 9 9 p 4 4 p 9 n t.=.2 2 2 2 8 8 0 0 8 8 8 8 8 8 8 8 8 8 8 8 2 2 9 a n S *.=.;.;.;.=.;.;.=.;.;.;.;.;.=.;.;.;.=.-.#.#.*.*.*.#.#.*.*.*.*.*.*.*.S S n n ",
"&.g.l.d.>.u.k.h.;X&X].].~.~.[.[.~.~.A.A.A.].].~.~.~.K.tXkXxXxXlXyXxXBXxXjXjXjXiX7XK.F.M.o.E J J X.{ T 3.E.Z.W P W 2.n.n.M.F.J.F.~.FXFXdXhX@.~ ^ aXMXaXH.qXpXW.S.F.O.M.wXbXR.N.N.N.<.I e e e t e t s s n n S S S S S S j.#X#.; 4 2 1 1 1 1 # 1 5 c c 0 0 8 8 2 1 5 5 5 6 6 6 5 8 h 1 X % 1 % & 5 1 8 0 5 % % 5 8 8 0 0 0 0 0 8 8 2 q v M v v M F F M n M M n F F D n c q 8 2 2 8 8 8 8 8 6 5 5 5 5 5 5 5 5 5 5 5 6 1 1 2 2 1 8 n j.k.l.l.u.$.#.*.S S n S S S n v c c c 0 1 ; 2 p p p p a #.u.k..Xj.j.u.=.D D n c 8 9 9 0 0 0 k k q q k k 0 0 0 0 k k k 0 8 8 5 1 5 5 % % % 5 5 8 8 8 5 % % 5 c M c a k k k k q q q a a u a ;.d.;.u.u.u.u.u.u.$.S S =.u.u.p.u.u.u.>.;.;.;.$.S F =.,.f.k.;.$.=.=.D v 0 2 X c @X@X=.v v v a v v v v v v v v v v v v a 4 2 1 1 8 c c a S $.;.;.;.#.Z S S n n n v c c c c a p s f Z $.>.S d Z S S d S S S d a p p q q 9 w w d %.d r p 0 9 0 9 8 9 0 0 8 8 8 8 5 1 1 1 0 9 p p p p 9 p p 9 9 p 9 n t.=.; 2 q v v q 0 0 8 8 8 8 8 8 8 8 8 8 8 8 2 2 9 v n n #.*.=.=.#.#.$.$.=.=.=.=.=.=.=.=.=.=.-.#.#.#.#.S S S S #.*.*.*.*.*.#.S S n n ",
"#.d.d.;.=.;.>.k.+X_.^.^.A.~.@.A.3...| } } } 1.1._.A.A.~.MXHXdXtXkXBXBXyX8X8XK.+.O.o.o.X.E J H H H L L T 3.| H P n.M.G.D.H.W.'.~.AXFXFXsX0X^ ~ O.bXMXwXS.G.R.G.B.F.E E E.bXR.N.N.L.' I e e i i w i s d n S S S S S S *.u.{.n : p 2 1 1 1 % # 1 6 c c k 0 8 8 2 2 5 5 5 5 5 5 8 8 8 1 % & 1 & % 1 1 8 0 5 % % 5 8 8 8 0 0 0 0 8 8 2 q v M v v v F M M n n M n F F n v 0 2 1 8 8 8 8 k k 8 6 5 5 5 5 5 5 5 5 5 5 5 6 1 1 6 2 1 m i.l.k.u.>.;.$.#.$.S S S S S S d a c M v 2 X # 9 D v S ;.k. X@X@X@X.X.Xl.u.*.D M v k k k k q q q q q q 0 k 0 0 0 0 0 0 0 0 8 5 5 1 5 5 % % % 5 5 5 8 5 5 1 % 1 8 v c c k c c c q q q a a p a ;.j.;.u.u.;.u.u.;.$.S S $.=.u.u.u.u.u.>.;.;.$.S S =.p. X#XOXl.u.u.>.e.a 0 2 ; n 1X@X*.v v v a v v v v a a a a v v v v a 4 2 1 1 8 c c v S *.$.$.$.#.a d d n n n v c c c c a s d } :.9.h.$.d Z S Z Z S S S d a p p a a p u u d #.b r p 0 9 9 9 8 9 0 0 8 8 8 8 5 2 1 1 q q 9 9 p p p p a p u p u d t.*.4 a N D v 0 8 2 8 8 8 8 8 8 8 8 8 8 9 9 2 2 9 v n n n #.#.#.#.#.*.*.*.*.*.*.*.*.=.-.*.#.#.#.#.#.n n n n n n S #.*.*.*.*.S S n n ",
"#.d.d.;.;.;.>.k./.h.q.q.^.Y.A.3...&.} [ Z [ } &.5.0.A.'.FXMXdXdXHXBXiX@.@.K.@.@.X.X.X.X.X...R P L L L { { { | n.Q.H.!.D.G.W.~.~.FXFXkXuXF.J ~ G.mXMXR.o.V.B.B.B.K.E J G.bXE.N.N.6.Y e w t s a s a s n n S S D S S S =.t.j.a : 9 1 1 # 1 % # 1 8 c c k 0 0 8 8 8 5 5 5 5 5 8 8 8 8 1 % & 1 & % 1 1 8 8 1 % 1 8 8 8 8 0 0 0 0 8 8 2 q v M v l v n n n n n n M n F v 0 2 1 1 8 0 0 k k k 0 6 5 5 5 5 5 5 5 5 5 5 5 6 1 1 2 1 1 M j.u.$.Z Z #.#.S S S S S S S n a p p c 2 X X 4 D u.{. XoX#X#XoXoXv. X Xk.t.D n v c c c c c q q q q q q 0 0 0 0 0 0 0 0 0 8 8 5 5 1 5 1 % % % 5 5 5 5 5 5 1 1 O 5 c c c c c c c q q q a a p a ;.d.>.u.u.;.;.u.=.$.$.$.=.=.u.u.u.u.u.u.;.;.$.S S ,.v..X#X.Xl.d.u.u.=.a c 8 ; n @X.X*.v v v a a v v v v a a a v v v v a 4 2 1 1 8 c c a n *.$.$.#.n p a a n v v c c c c p a s #.f.(.+X+X>.Z d S S Z S n v a p p p a a 9 4 w d ( s 8 p 0 9 9 9 8 9 0 0 8 8 8 8 8 2 1 1 q q 9 9 p p p p a p p a u n t.=.n n N v q 9 8 8 0 0 0 8 8 8 8 8 8 8 0 9 8 2 9 v n n a a n d #.#.#.#.#.#.#.#.#.#.*.*.#.( n n n n a a a a n n n S *.*.*.#.S S n n ",
"$.d.f.u.u.;.u.k.l.8.1.q.I._.q...&.#.#.#.$.$.;.;.d.g.I.'.nXdX'.MXHXhX@.@.@.~.~.[.@.@.@.F.F.A.m...T U [ { } | C.Q.wXD.V.o.M.E.A.].FXFXdXuXM.~ J W.MXbXm.R m.N.Z.Z.W.E J B.pXQ.B.L.4.I < y i a b b a n n n #.#.*.D D *.t.i.i.p # # ; # % 1 1 1 2 8 c c k k 0 0 9 8 6 6 6 8 8 8 8 8 8 5 & & & % & 1 1 8 8 1 % 1 8 8 8 8 8 0 0 0 0 8 8 q v M v v v n n n n M M M c c 9 2 2 2 8 0 0 0 k k k h 6 5 5 5 5 5 5 5 5 5 5 5 5 1 1 1 1 5 m *.*.d a d S #.#.*.S S n n n n v a 0 8 # o # v u.{.1X$X#XoX/./.(.OXv.k.u.=.S n n N c c v c q 0 9 9 q 0 0 0 0 0 0 0 0 0 8 8 5 5 5 5 5 % % % % 1 1 1 5 5 5 5 % X 1 8 v v c c c c c c a a a u a =.d.u.u.u.u.u.u.u.=.$.>.>.>.u.u.u.>.;.u.;.;.*.S S u. Xv.v.h.d.d.u.>.=.q c c ; 9 }.}.=.v v v a a c c v v v v a v v v v a 4 1 1 2 8 v v a n #.*.*.#.n p a a a a a c c c B p a u &.+X>X:X>Xf.Z d S S S S d a a p 9 9 q a 9 4 w d ( b 8 8 0 9 0 9 8 9 9 0 8 8 8 8 8 2 1 1 a a a a a a p p p p p a u n t.e.D S q 9 8 9 0 q 0 0 0 0 8 8 8 8 8 8 8 0 8 8 0 v n n a a n n #.#.n n n n #.#.#.#.#.#.n d d a d n a a a a a n n S *.*.*.*.#.S n n ",
"S $.p.p.u.>.d.l.k.8.&.q.^.^.q.&.#.#.S S D D *.*.a.z.P.-XNX'.K.nXHXuX@.@.[.[.[.tXtX~.~.~.~.'.Y.0.1.&.1.q.q.0.E.bXG.^ ^ Q m.Y.A.].FXAXdX0Xo.~ E W.bXwXE H m.Z.Z.Z.E.Q J n.E.R.B.N.) e , < w p p b n n n #.#.*.$.*.=.*.=.*.D 1 X X 1 # % 1 1 1 5 0 c c c k k 0 0 0 6 6 8 8 8 8 8 8 8 5 1 & % % & & 1 5 8 1 % 1 8 8 8 8 8 0 0 0 0 0 8 q v M v v v M M M M M l l q q 2 2 8 0 k k k 0 k k k k 8 5 5 5 5 5 5 5 5 5 5 5 1 6 2 1 1 8 c v n a a d #.*.$.=.S S S S S n v a 8 6 # X ; a i.@X@XoXoXOXOXOXOXOXk.;.#.n d v v n c c v c q 0 9 9 0 0 0 0 0 0 0 0 0 0 8 8 5 1 5 5 & % % 1 1 1 1 1 1 5 5 1 % O 1 5 v v c c c c c c q a v p a =.d.u.u.u.u.p.p.u.t.=.u.u.u.u.u.u.>.;.u.t.;.$.S S u. Xb.p.>.>.d.d.,.=.q c c 1 2 t.j.=.v v a a c c c v v v v v v v v v a 4 2 1 2 0 v v a n #.*.*.#.a p a a p p p p c c n c p i &.&X>X=X:Xh.[ f Z S S n a a p p 9 9 0 q 9 4 u d _ b 8 8 0 9 0 9 8 9 9 0 8 8 8 8 8 5 1 1 a a a a a a p p p p p a p n u.t.=.n 9 4 2 9 9 9 q q 0 0 0 8 8 8 8 8 0 0 8 8 0 c v v v n n n n #.n d d d n n n n #.( n d a a a a a a a a n n S #.*.*.*.*.#.S n n ",
"S #.u.f.;.;.j.k.8.&.&.q.^.^.q.} #.#.#.S D *.*.*._ -.1.).NX'.Y.nXMX~.@.@.[.[.[.6X~.~.~.~.~.~.^.q.h.h.c.b.^.I.'.-XU.' n.2.3.0.q._.FXAXsX7X .~ ! R.wXR.H H 3.C.C.A.E.Q H Q B.B.m.7.T < * , , 3 4 a n n n #.*.*.*.*.D v c 9 4 # # # ; # 1 1 1 2 8 k c c c k k 0 0 0 6 8 8 8 8 8 8 8 8 8 1 % % % & & 1 5 5 1 % 1 8 8 8 8 8 0 0 k k 0 8 q v M v l v M M M M v l q 8 2 2 8 0 k k k c c c c c k 8 5 5 5 5 5 5 5 5 5 5 5 1 5 5 1 1 8 c c n a v n n n D *.*.S n n n n a 0 2 8 2 ; ; p u.#X X Xv././.(.OX+X;.Z u 9 p a a v c c c c k k q q 0 0 0 0 0 0 0 0 0 8 8 5 1 1 5 5 & & & 1 1 1 1 1 1 5 5 1 % % % % v v c c k k c k k v a u p $.d.u.u.u.p.k.k.p.u.t.p.u.u.u.u.p.u.u.u.t.t.=.S S u.v.b.p.u.u.d.>.,.>.q 8 m 2 1 *.j.e.a a a a c c c c a a a a a a v v a 4 2 2 2 0 v v a n *.*.*.#.n p p p p p 8 p c c B c a g } &X=X`.>Xx.[ f Z S n n a a p 9 8 8 0 q 8 4 w a _ b 8 8 0 9 0 9 8 9 9 0 8 8 8 8 8 5 5 1 c a a a a a a a a a a a p v t.e.D n q 2 2 2 8 2 q q q q 0 8 8 8 0 j k 0 8 8 0 c v v v a n n n n d d d d d d n n n n n n d a s p a a a a n S *.*.*.*.*.*.#.S n n ",
"S Z u.k.;.>.h.h.8.&.&.q.I.^.q.&.#.#.S S D *.=.w._ -.%.T.nXY.A.nXnXA.X.@.~.~.~.~.~.~.].].A.^.^.^./.v.b.v.^.h.I.'.%XL.P.6.5.&.&.^.FXAXsXW...~ ! B.Q.B.H H 3.C.m.C.Z. .H R 2.2.2.7.I < * ; ; ; 3 8 n N S *.*.*.=.*.a 4 2 ; 1 # 2 2 ; 1 1 1 2 2 0 v v c c c k q 0 0 8 8 8 8 8 8 8 8 8 8 5 % % % & & & 5 5 & 1 1 8 8 8 8 8 0 0 k k 0 4 q v M v l v v M n M v q 9 6 2 2 9 k k k k c M c c c k 8 5 5 5 5 5 5 5 5 5 5 5 1 5 5 2 2 8 m M n n n n n v n *.D n n n v a 9 8 2 2 8 2 2 a u.#XoXoXoX/././.(.(.;.d 9 4 9 q a v c c c v c k a a 0 k 0 0 0 0 0 8 0 8 8 1 1 1 5 5 5 1 & 1 1 1 1 % % 5 5 1 % 1 % X c c c c k k k q q v a 9 p $.j.p.u.p.k.k.k.d.u.u.p.u.u.u.p.p.p.u.u.;.=.=.$.$.,.b.f.p.d.d.>.>.>.>.q 5 c 0 1 *.}.t.v v a a a c c c q q q a a a a a q 2 2 2 2 0 v v a n *.*.*.#.n a a p p 8 8 8 p c m c n u &.&X=X`.>Xx.} A Z Z n n a a p 9 8 0 0 0 8 4 w a _ b 4 8 0 9 9 9 8 9 9 0 8 8 8 8 8 5 5 1 c a a a a a a a v a a v 9 v t.=.v a 0 2 2 8 0 q q q q q 0 8 8 8 k 8 0 0 8 8 0 v c c c v c a a a a n n n n n n n n n n n n a a p a a a n n S *.*.*.*.*.*.#.S n S ",
"d S #.u.j.>.d.k.8.8.&.8.0.0.8.1.#.#.#.#.*.*.*.*.*.#.#.g.-XI.3.-X-X0.| 1.0.I.Y._.)._.^.I.^.h.q.&.>.:.&.$.$.;.8.h.j.d.a.;.;.d f :.FXdX'.G.W < P N.U.<.L T <.m.m.m.C.| L L Y <.<.Y y , 3 3 1 1 ; ; 2 8 p c n D n 9 ; ; # 2 c 0 2 2 1 1 1 1 1 6 0 c v v v v v a k k 8 8 8 8 8 8 8 8 5 8 6 1 % % % % 1 % % % 5 8 0 8 8 8 8 8 0 0 0 0 2 q n n n n c k n v c k 9 8 8 8 k k q q k c c v c c k 0 8 5 1 1 5 5 5 5 5 5 5 5 1 5 5 5 2 8 k v n d n n n n S S S n v v v a 9 8 8 8 2 2 4 9 *.{.@X$X#Xk.;.f.oXoX*.p a v 8 9 9 0 n v v q a v n N k k k k k k k h 8 8 8 6 5 5 5 5 6 5 5 5 5 % % % & & % % % % % % % c c k c m c 0 9 p a a p S u.u.u.u.u.d.d.f.f.f.u.u.u.u.u.u.u.>.u.u.>.=.$.=.u.b.f.f.f.d.u.>.>.=.a 1 0 c 1 n }.t.n n v c c c c c 0 0 0 0 0 p c m v 8 5 1 1 8 m m c v n *.=.*.n v a c k 0 0 0 0 p m c c p &.).&X`.`.x.} Z d d S v 9 9 9 9 0 0 0 8 8 r p p p p r 8 9 q q 9 8 9 0 8 8 8 8 8 5 5 5 2 c a v v a a v v v v v v a n e.S 2 2 8 8 8 8 8 8 q l c q 8 8 8 8 k 8 8 8 2 8 c c a a c c c p c a a a n n n n n n n n n n n c a a n n n n S *.*.*.*.*.*.D D D D S ",
"Z S S >.j.d.k.k.8.;.&.8.8.8.8.1.-.#.#.S *.*.*.*.*.#.#.g.-XI.3.-XT.&.%.8.g.g.f.g.8.8.f.h././.8.[ } } [ $.;.u.d.f.k.d.u.=.#.f f 8.FXdX'.R.W < P L.U.<.L U <.m.m.m.N.W L L ( -.-.U w , 3 7 5 1 1 1 1 * X X 1 8 9 2 o 1 q N D c 1 1 1 1 1 1 1 5 0 c v v v v a a q q 8 8 8 8 8 8 8 8 5 8 6 1 % % % % 1 % O % 5 8 0 8 8 8 8 8 0 0 0 0 2 q n n n n c k q q 0 0 8 8 8 0 c k k k c c v n c c k 0 9 8 2 1 5 5 5 5 5 5 5 5 1 5 5 5 2 8 c v n d d d n n n S S n v a v a 9 2 5 5 2 2 2 9 D }..X#X Xu.$.>.v.OXD 0 c c q q q c a q q v D D D n k k k k k h h h 8 8 8 6 5 5 5 5 6 6 5 5 5 & % % 1 1 % % % % % % % k c k c c p 0 9 p a a p S u.d.u.u.d.d.f.f.f.f.d.d.u.u.u.u.>.>.u.,.>.$.$.$.>.f.d.d.d.d.u.u.>.>.a 1 0 c 2 M |.y.n n m c c c p c c m c 0 8 k c c c 6 5 2 6 c m m c c n D =.*.N v c c k k 0 0 0 p m c c p ;.OX=X`.`.c.} Z d n n c 0 0 0 0 0 0 8 8 8 r p p p p r 8 9 q q 9 8 9 0 8 8 8 8 6 5 5 5 2 k v v v a a v v v v v v q v =.n 2 8 8 8 8 8 8 8 q l c q 8 8 8 8 0 8 2 2 2 8 c c a a c c c c b c c c n n v n n n n n n n v c c c n n n n S *.D *.*.D D D D D S S ",
"S Z Z ;.k.k.h.d.;.;.&.;.8.8.8.1.&.#.#.#.#.*.*.S #.( ( g.%XI.6.-XT.-.d [ -.&.5.8.;.&.&.&.d.l.l.f.&.&.;.8.k.l.k.d.k.u.=.S a g f h.FXdX'.R.W < P L.U.<.i U 1.m.m.m.3.Y i i U %.) I w 3 3 7 5 1 1 1 1 * X * 2 0 2 # o 9 D e.w.p 1 1 1 1 1 1 1 6 0 c v v v v a a q q 8 8 8 8 8 8 8 8 5 8 6 1 % % % % 1 % X % 5 h 8 5 8 8 0 0 0 0 0 0 2 q M n M c k 0 1 2 5 5 5 5 8 0 k k k k k c c c c k 0 0 8 8 2 1 5 5 5 5 5 5 5 5 1 5 5 5 2 8 c v v d d d n n n n D n a q 9 9 4 2 2 5 1 1 2 4 n i..X.Xl.$.Z >.v.oXD 9 q a 9 a a a 0 c M D w.D N c k k h h h 8 8 8 8 8 6 6 5 5 5 5 6 6 5 5 5 5 & % 5 5 % % % % % % O 8 c c k c p c p a a p p S u.j.u.u.d.d.f.f.k.k.k.f.d.u.u.>.>.>.u.u.>.=.S $.=.u.u.u.p.p.u.u.u.u.a 2 0 c 2 n j.t.n n m c c c c c c m m 8 8 8 c c 8 5 6 6 8 c v m c c v D *.*.n v c c k k 0 0 0 p m p c p ;.(.`.`.`.^.} f S n n a 0 0 0 0 9 9 8 8 8 8 p p p p r 8 9 a q 9 9 9 0 8 8 2 6 5 5 5 5 2 k c v v a a a v v v v v 9 v *.v 2 8 8 8 8 8 8 8 q v c k 8 8 8 0 0 8 8 8 2 8 c c p a c c p p c c c c n n v v n n n n n n n n c c n n n n n S S *.D D S S D D n n ",
"#.d d $.k.l.l.8.;.;.;.8.8.8.8.5.&.#.#.#.#.#.S S n ( ( 5.%XP.0.-Xh.%.d U %.%.-.%.8.%.[ [ [ [ j.$X/.v.v./.OXoXl.u.;.$.S a u g a h.nX'.~.R.W < P L.T.) i U 1.N.m.m.3.Y e i U %.) s w 3 3 7 6 5 1 1 1 1 6 B w.N 2 o 0 N w.e.D 0 2 8 2 2 1 1 1 6 0 c v v v v a a q q 8 8 8 8 8 8 8 8 5 8 6 1 % % % % 1 O . % 5 h 8 5 8 8 0 0 0 0 0 0 2 q M n M c k 8 % 1 1 1 1 5 8 k 0 0 0 0 k k c v k 0 0 0 8 2 2 1 5 5 5 5 5 5 5 5 2 5 8 5 2 8 0 v v d d d n n n n S v q 9 4 4 2 2 1 1 1 1 2 2 a =. X Xk.S f $.c.oX*.4 4 9 9 9 a v n D e.e.D v q k 8 8 8 8 8 8 6 6 8 8 6 5 5 5 5 5 6 6 6 5 5 5 5 5 5 5 % % % % % % X 5 c c c 0 0 c p a a p a S t.j.u.u.d.d.f.f.k.k.k.k.f.d.u.>.>.>.u.u.>.=.$.$.=.>.u.u.u.p.u.u.u.u.q 2 0 p 2 n y.w.M n m c c c c c 8 c c 8 6 6 m w.c 6 6 6 6 c v m v c v n *.*.n c c c k k k 0 0 p c p a p $.(.`.`.>X^.} f S S n p 0 0 0 0 9 9 8 8 8 8 r p p p r 8 9 a a 9 9 9 0 8 2 2 5 5 5 5 2 2 q q v v a a a v a a a a 9 v *.v 2 8 8 8 8 8 8 8 q c M k 8 8 0 0 0 8 8 8 2 8 c c p a c c p p c c c c c n n n n n n n n v n n n n n n n n n n n S n n n n S n n n ",
"#.d a #.d.l.k.>.5.5.8.8.d.d.d.8.=.$.#.#.*.*.#.S n ( U ;.I.P.0.%Xg.%.( %.-.#.( U #.#.#.&.d u #.d.$X+X$X#X@Xl.u.=.S d a p a u d c.dX].E.Z.W < P L.L.) i U 1.N.m.m.3.T e L ( -.) s w 3 3 6 8 5 5 1 * 3 B *.*.c 2 X w.e.=.*.N a 2 8 2 2 2 1 1 6 0 c v v v a a a a a 8 8 8 8 8 8 8 8 6 8 8 1 % % % % % X   O 5 h h 6 8 8 0 0 0 0 0 0 8 k v M M c k 8 % 1 1 1 5 5 6 h 0 0 0 k c c c c 0 0 8 8 8 2 2 2 5 5 5 5 5 5 5 5 1 5 6 5 2 5 0 c v d d n n n n n n a 9 2 2 2 4 2 1 1 1 1 2 2 9 S k. Xp.Z f $.h.@X=.4 2 9 9 v n D e.y.y.G v 9 8 0 8 8 8 8 8 6 6 6 8 8 8 5 5 5 5 5 6 6 6 6 5 5 5 5 1 5 % % % % % % X 1 h m c 0 0 c a a a p a n =.d.u.u.u.d.d.d.f.f.k.k.f.d.u.>.>.;.u.u.>.;.$.$.=.;.>.>.>.u.>.>.;.;.p 6 0 0 8 n t.w.n n m c c c c c 0 8 k 8 6 2 M |.m 8 6 2 2 8 m m v c c n *.*.n c c c k k k 0 0 p c p a p $.(.`.`.>X(.} f Z S n 9 8 8 8 8 9 9 8 8 8 p p p p p r p p a a 9 9 9 9 8 2 2 2 2 5 5 5 2 0 q c v a a a a 9 9 9 q 9 v *.v 2 8 8 8 8 8 8 8 k c M k 0 0 0 0 0 8 2 8 2 8 c c c c c c c c c c c a c c b n n n v v v n n n n n n n n n n n n n n n n n n n n n ",
"S d d S ;.k.d.;.;.8.8.d.j.d.d.d.;.=.$.*.*.*.#.S S #.U -.g.g.0.T.T.-.( #.#.( #.#.( -.;.=.#.d d s h.v.oXoXk.;.#.S a p p a d a S h.`.~.E.Z.W < I L.s.Y i U 1.N.m.m.3.T e L ) 4.%.s w 3 3 6 8 8 5 3 * 4 N N p 1 2 a e.e.*.*.*.v 2 1 2 2 1 1 1 2 8 c v v a a a a q a 8 8 8 8 8 8 8 8 6 8 8 1 % % % % % X X % 5 8 8 8 8 8 0 0 0 0 0 0 8 q c n M c 0 1 1 1 1 1 1 5 5 8 8 0 k c c c c c 8 8 8 8 5 2 2 1 5 5 8 8 5 5 5 5 2 5 6 5 2 2 0 c v d d d n n n n v a 4 2 2 2 4 2 1 1 1 2 2 ; 2 a i.l.u.Z f $.k. XD 2 4 v N *.e.t.i.e.D c 0 9 9 8 8 h 8 8 8 6 6 6 8 8 8 5 5 5 5 5 6 6 6 6 5 5 5 5 5 5 % % % % % % X O 8 m c 0 0 c a a a a a a S ;.>.>.>.u.u.d.d.d.f.d.d.u.u.>.>.;.u.u.u.>.=.=.=.=.=.=.;.;.=.$.$.*.9 8 0 8 8 m w.w.n n m c c c c c c k 8 8 6 6 M i.m 8 6 1 1 8 m m v c a n *.*.n c c c k k 0 0 0 p c p p p $.(.`.`.`.`.} f Z S v 8 8 8 9 8 9 9 8 8 8 r 9 p r r r p p a a 9 9 9 9 8 2 2 2 2 5 5 5 2 0 0 a v v a a a 9 9 9 9 9 v =.v 4 8 8 8 8 8 8 8 k c M k 0 0 0 q 0 2 2 2 2 8 c c c c c c c c c c a a c c c c n n c c v c n n n n n n n n n n n n n n n n n n n n ",
"n a n n *.d.;.=.;.;.d.d.d.d.d.d.u.;.=.*.$.*.*.#.#.#.U %.a.0.6.T.z.*.( *.*._ _ #.*.=.=.#.#.*.#.d &.k.#XOXk.#.d a a a a a d a d h.].~.E.Z.W < I L.s.U i I 1.N.m.m.2.T < L ) 4.) s < , 3 6 8 8 7 3 4 r c p 2 1 v e.D *.*.*.*.a 2 1 2 2 1 1 1 2 8 0 v v a a q q q q 8 8 8 8 8 8 8 8 6 8 6 1 % % % % O O O % 1 5 8 h 8 8 0 0 0 0 0 0 8 k m M M c 8 & 1 1 1 1 1 1 5 5 5 8 8 k k k k k 8 8 8 5 5 5 1 1 5 5 8 8 5 5 5 5 2 5 8 5 2 2 0 c d d d d v v n n a 9 4 2 2 2 2 2 1 5 1 2 2 ; 2 p e.k.u.Z f $.d.l.S 2 4 D e.e.e.t.w.N c 8 8 0 0 8 8 h h 8 8 8 8 6 6 5 5 5 8 8 5 5 6 6 6 6 5 5 5 5 5 5 % % % % % % O X 5 m M k 0 p p a p a a p v *.;.>.>.>.>.>.>.>.d.>.>.>.>.>.>.>.>.;.;.;.=.=.=.$.$.$.$.$.#.S S S 8 8 0 8 8 v w.w.n n m c p p c c m c 8 6 8 c N w.c 8 6 5 2 8 m m v a p v *.*.n c c c k k 0 0 0 p c p a p $.(.`.`.`.`.:.f d n a 8 9 9 9 9 8 9 8 8 p p 9 p p p p p a v a 9 9 9 0 8 2 2 1 2 5 5 5 2 8 0 a v c a q q 9 9 9 a 9 v *.v 4 8 8 8 8 8 8 0 k M M k 0 0 q q 0 2 2 2 2 8 c c c c c c c c c c a c c c b n n n c c c c n n n n n n n n n n n n n n n n n n n n ",
"n a S n *.t.=.=.=.;.8.d.d.d.d.j.d.t.=.$.=.$.*.*.#.#.( #.5.5.5.T.a._ n *.*._ _ *._ #.*.*.*.*.#.n $.h.*X*Xl.$.n d v v n n d u d h.].~.E.B.W < T P.7.U i I 4.N.m.m.2.L < i ) -.) e < , 3 6 8 8 6 6 c r 4 4 8 p D i.D *.D D n 9 3 9 2 2 1 1 1 1 8 0 c c a a q q q q 8 8 8 8 8 8 8 8 6 8 6 1 % % % %   O O % & 5 8 h 8 8 0 0 0 0 0 0 8 k c M M c 8 % % 1 1 % % 1 1 5 1 1 5 8 8 8 5 5 8 5 5 5 5 5 1 1 5 5 8 5 5 5 5 5 2 6 8 5 2 2 0 a d d d d v v n n 9 9 4 4 8 8 8 8 5 5 1 5 8 # ; 9 =.j.u.Z A $.>.k.S 2 9 w.y.t.*.D v v 0 8 8 8 0 k h h h h 8 8 8 8 5 5 5 8 8 6 5 5 6 6 6 6 6 6 5 5 5 5 % % % % % % O   1 m M k k 0 0 a a a a 9 p S ;.;.;.>.>.>.>.>.>.>.>.>.>.>.>.>.=.=.=.=.=.=.$.$.*.$.#.#.S S d n 8 8 0 8 8 m *.w.n n m c p p c c c c 8 1 8 N w.N 8 6 5 6 6 c v m v a p v D *.n c c c k k 0 0 0 p c p p u $./.`.`.`.`.:.f d d a 9 9 9 9 9 8 8 8 8 9 p 8 8 p p p p a v a 9 9 9 0 8 2 1 1 1 1 5 5 2 8 0 a v c a 0 0 a a a a 9 v *.v 4 8 8 8 8 8 0 0 l M M l 0 0 q q 0 2 2 2 1 8 c c c c c c c c c c a a c c c n n n a c c c n n n n n n n n n n n n n n n n n n n n ",
"n n n n n *.=.=.=.;.;.;.=.;.d.j.=.=.;.;.t.=.*.*.*.#.#.( #.%.5.a.-._ n n n n N N n n *.=.-.=.*.n >.*X<XoX#.S S a v v a d a p n ;._.A.G.B.W < I L.s.I g i 1.N.m.m.2.L < L %.4.) e , 3 4 7 8 c m p p r 4 4 p n *.*.D D D D v p 4 4 2 1 1 2 2 1 2 8 v c q 9 q 9 9 4 8 8 8 8 8 8 8 8 6 6 6 6 1 X       X O O % % 1 1 h 8 8 8 k k k k 8 k m M m k 8 1 5 5 5 5 5 5 1 1 % % 1 1 5 1 1 1 1 1 1 1 5 5 5 5 5 5 5 6 6 6 6 6 2 2 2 8 2 2 9 v a a d d v v v v 9 4 4 9 k v q 8 8 5 1 1 2 2 2 4 v u.k.Z f S u.l.S 4 9 e.*.S v 9 8 8 8 8 8 8 8 8 k k h h 8 8 5 5 6 6 6 5 5 5 5 5 6 6 6 5 5 5 5 5 5 5 % % % % % % X X O 5 k k 0 8 0 0 p p a a a p #.#.;.;.;.;.;.;.d.u.>.;.;.$.#.#.#.*.*.*.*.*.*.#.S S #.*.#.S d a 9 p c 8 1 8 N w.M n c c c c c c c c c c c c c c 6 8 6 2 6 c c c n c p a n *.D v 0 k k k 0 0 0 9 c p 9 p $.v.`.`.`.`.9.f d a 9 p p p 8 8 8 8 8 8 a 9 9 p p p 9 4 v *.D a 9 a 0 2 2 2 1 1 1 1 1 2 8 9 q a q 9 9 a 9 a 9 9 9 v *.D 9 8 8 8 8 8 8 8 v M v k k 0 8 k 8 8 5 1 2 8 0 c c c p p 8 r c p a a a c c c c n n n n n n n n n n n n n n n n n n n n n n n n n ",
"n n n n n #.=.e.e.=.=.=.*.=.;.d.=.=.=.=.t.=.=.=.*.*.#.#.#.-.5.a.*._ N N n n N N n n n n _ *.*.#.=.$X<Xl.#.n n a a a a a a p n ;._.A.E.B.Y < I s.a.I w s 4.N.m.m.2.L < L %.4.) e w 3 3 1 8 k z 4 r r 8 p n N *.*.D D D D v p 4 4 2 1 1 2 2 1 2 8 v k q 9 q 9 9 4 8 8 8 8 8 8 8 8 8 8 8 6 1 X . .             X X % % % % 1 5 5 1 % 1 5 8 6 5 % X % % % % 1 1 = = % % 1 1 1 1 1 1 1 1 1 1 5 5 5 5 5 5 5 6 6 6 6 6 6 6 2 8 2 2 0 v a a a a n v a a 4 4 4 9 k v q 0 8 5 5 1 2 2 2 2 v u.k.S f S u.l.*.4 9 e.*.S a 4 8 8 8 8 8 8 8 8 k k h 8 8 8 6 5 6 6 5 5 5 5 5 5 6 6 5 5 5 5 5 5 5 % % % % % % % X X O 5 k k 0 8 0 0 0 p a a a p d #.=.;.>.>.u.>.;.;.;.$.$.#.#.S #.S #.#.#.#.#.#.#.*.*.*.S d p 9 9 p c 8 1 6 n D M m c c c c c c 0 0 8 8 c c c c 6 8 6 2 6 c m m v c p a n *.D v 0 k k k 0 0 0 8 p p 9 p $.v.`.`.`.`.9.f d a 9 p p p p p 8 8 8 8 9 p p p 4 p a S n *.D 9 9 q 9 2 2 2 1 1 1 1 1 2 8 9 9 q 0 0 9 a a a 9 9 9 v *.n 9 8 8 8 8 8 8 8 k M c l k q 8 0 8 8 1 1 2 8 0 c c c p 8 8 r c p a a a c c c n n n n n n n n n n n n n n n n n n n n n n n n n n ",
"n n n n n n *.-.t.=.=.*.#.#.#.=.*.=.=.=.t.t.t.t.=.*.*.#.#.-.;.5.*.*.n n _ n n n N n a p p b b a #.v.$Xk.S n n a a a p p p p n ;._.A.E.B.W < L 7.5.I w I 4.m.m.m.2.L < L %.4.( w w 3 3 6 h 8 7 1 3 w p b *.*.*.D D D *.S v p 4 4 2 1 1 5 2 1 2 8 c k q 9 q 9 9 9 8 8 8 8 8 8 8 8 h 8 8 8 1 X   .                 . . . . X X X X . X X O O O     O O O O O O O O % % 1 5 5 5 1 1 1 5 5 5 5 5 6 5 8 8 8 8 8 8 8 8 4 2 8 8 2 2 9 v v a a v n v a 4 2 4 0 c v c k k 8 8 5 1 1 2 2 : a =.i.S f S u.l.$.9 9 e.*.n q 4 8 8 8 8 8 8 h h k h h 8 8 8 5 5 5 5 5 5 5 5 5 5 5 5 5 5 5 5 5 5 % % % % % % % % O X X 5 8 k 8 8 0 0 0 p q a p p a d *.;.u.u.u.u.=.$.$.$.$.#.#.#.*.*.*.D D D D D D D S n n a a p a c m 8 1 2 n N n m c c c c c c 8 8 8 8 8 8 8 8 6 8 6 6 6 c m m v c p a n *.D v 0 k k k 0 0 8 8 p p 9 p $.c.`.`.`.=X9.f d a p p 8 8 p p p p 8 4 p 9 4 4 p v S *.D e.D 9 9 a 9 2 2 2 1 1 1 1 1 2 8 8 9 q 0 0 0 a a a 9 a a v D v 9 8 8 8 8 8 8 8 0 M n l l k 8 8 8 8 1 1 5 8 0 c c c k 8 8 r r p a a c c v v n n n n n n n n n n n n n n n n n n n n n n n n n n ",
"n n n v c n *.=.t.e.=.*.#.#.#.*.*.*.*.=.t.t.u.u.=.=.=.*.-.-.-.t.*.*.n n _ n n n n n p p r p p p s k.@Xd.n a v a a a p a a 9 n ;.Y.Y.E.B.W < I 4.4.s w I 4.N.m.m.2.L < L %.-.( w < 3 8 z 8 1 1 1 4 r a N *.*.D S D *.*.S n p 4 4 2 2 2 5 2 1 2 8 k q q 9 9 9 9 9 8 8 8 8 8 8 8 8 8 8 8 8 1 X     O O O           . . .   .     . . . . .         X . + + + + + + O % & 1 5 5 5 1 5 5 5 5 5 6 6 6 8 8 8 8 8 8 8 8 8 8 8 8 2 2 9 v v v v n n a 9 4 2 4 c v c v v c 8 8 5 5 1 2 2 ; 9 *.u.S f Z >.k.$.9 9 t.*.n 0 2 8 8 8 8 8 8 h h h h h 8 8 8 5 5 5 5 5 5 5 5 5 5 5 5 5 5 5 5 5 5 % % % % % % % % O O X 1 8 8 8 8 0 0 0 0 q a p p a d S #.=.=.=.=.*.*.$.$.$.$.*.*.=.*.D D S S S S n v v a a v S N n N N c 2 8 n N n m c c c c c p k 0 0 8 8 8 8 8 6 8 6 6 6 c m m m c p a n *.N v 0 0 k k 0 0 0 8 0 r 9 p #.h.).`.].=X9.f a a p a 8 9 p p a p 9 8 9 4 4 p n D *.*.t.t.D 9 0 a 8 2 2 2 2 1 1 1 5 2 8 8 9 9 0 0 0 0 a a 9 a a n S a 9 8 8 8 8 8 8 8 0 M M q k k 0 2 8 8 1 1 5 8 0 c c k k h 8 r r p a a c c c n n n n n n n n n n n n n n n n n n n n n n n n n n n ",
"N N b p p a n *.e.e.=.=.#.#.#.#.#.*.*.*.=.t.t.u.;.=.=.=.-.-.r.t.=.#.n n n n n n n a i p a a p p u ;.l.;.n a v a c c a a a p n ;.Y.~.E.N.W < I 4.-.s w I 4.6.m.m.2.L < i ) -.( w < w r 8 1 X 1 8 r p a n n n S S #.#.*.S n p 9 4 2 6 6 6 2 1 2 8 q q 0 9 9 9 9 9 8 8 8 8 8 8 8 8 6 6 6 8 5 % O O & & & & % % % % % % % O X   . . O O X X   . O O O O + + + + + + O % 1 1 1 1 1 1 5 5 5 5 6 8 8 8 8 8 8 8 8 8 8 8 8 8 8 8 4 2 0 n v v n n v 9 9 4 2 9 v v c v c c 8 8 8 5 5 2 1 ; 2 S u.S f Z >.f.$.9 9 t.*.n 0 2 8 8 8 8 8 8 8 8 8 8 8 8 8 8 5 5 5 5 5 5 5 5 1 1 5 5 5 5 5 % % % % % % % % % % % % X X % 5 8 8 8 0 0 9 0 q a a p a a a d n S S S D #.D #.D *.D D *.D n n v a a a a a a n n S *.*.N N N m 2 8 c n n c c p c c p p c c c c 8 0 0 0 6 8 6 6 6 k c c c a p a n D n v 0 0 k k 0 0 0 8 8 r 9 p #.h.(.].].=X9.d f a p a 8 8 p p p p u 9 3 9 v S S *.t.u.i.i.D q q a 8 2 2 2 2 1 5 1 5 2 8 8 4 9 9 q 0 0 a a 9 a a v D v 9 8 8 8 9 9 8 8 k M c 0 0 k 0 8 8 8 1 1 1 6 k c k k h 8 r r r p a p c c n n n n n n n n n n n n n n n n n n n n N N N N n n n n ",
"N n p 8 8 p v n =.=.=.=.*.#.#.#.*.*.*.*.*.=.;.t.;.;.=.=.e.t.t.t.=.#.n n _ n n n n n s s n b a p u =.j.=.n a c a v v a a a 9 a -.I.A.E.N.T < I 4.-.s w I 4.6.n.n.2.L < i ) %.U w w w 4 1 O O 8 B s a a n a n n S #.*.*.#.n p 9 4 6 6 6 6 2 1 2 8 0 0 0 9 9 9 9 9 8 8 8 8 8 8 8 8 5 5 6 8 5 % O % & 1 1 5 5 5 5 5 5 5 5 1 % X X X % O O X X X O O O O O O + + + O O O % 1 1 1 1 1 5 5 5 8 8 8 8 8 8 8 8 8 8 8 8 8 8 8 8 8 4 2 9 n a a v a 9 2 4 4 2 4 q c k 0 0 k 5 6 5 5 5 1 2 2 4 v =.S f A >.p.$.9 9 =.*.n p 4 8 8 8 8 8 8 8 8 8 8 8 8 8 5 5 5 5 5 5 5 1 1 1 1 5 5 5 5 % % % % % % % % % % % % % X   O 5 5 8 8 8 0 9 0 9 q a a a a p p a v v n n n n n n S S S n n a a p p a a a n n *.*.*.S n N N D m 2 6 c c m c p p p c p p c c c c k 8 k 8 6 8 6 6 6 k c c c a p a n n n v 0 0 k k 0 0 8 8 8 r 9 p S f.(.].].=Xh.Z f a p a p 8 8 8 p p p p p a n *.t.u.j.k.t.e.n 9 q q 8 2 2 2 2 1 5 5 5 2 5 2 2 9 9 q q 9 q a 9 a a v D n 9 8 8 8 9 9 8 8 l M l 8 q k 0 8 8 5 1 1 5 8 k c 8 k 8 8 8 r c p p p c c n n n n n n n N n n n n n n N n n n n n N N N N n _ n _ ",
"N c r 4 8 p p p n *.=.=.=.$.*.*.*.*.#.S #.*.*.$.;.;.e.t.t.t.t.t.=.#.n n #.n n _ _ _ n n n b a p u =.d.=.n v v a c c a a p 4 a #.0.A.Z.n.L < s ) %.i w U 4.7.2.2.2.~ < i ) -.U w w 4 1 X 1 8 m B s a a a a a n S #.*.*.#.n p u 4 8 6 6 6 2 1 2 8 0 0 0 9 9 4 9 9 8 8 8 8 8 8 8 8 6 6 8 8 5 % O % % & 1 5 5 6 8 h h h 8 5 1 % % % 5 1 O O O O O O O O O O O O O O O O % 1 1 1 1 1 5 5 8 8 8 8 8 8 8 8 8 8 8 8 8 8 8 8 8 9 4 4 0 n 9 p 9 9 4 2 2 2 2 2 2 8 8 8 8 5 5 5 5 5 8 2 2 2 : a =.S f d >.u.#.> 9 =.*.S a 4 8 8 8 8 8 8 h h 8 8 8 8 8 5 5 5 5 5 5 5 1 1 1 1 5 5 5 % % % % % % % % % % % % % % X   O 1 5 8 8 0 0 9 9 9 a a a a a a a v n S S n n n n n n n n n v v a c v n n D *.*.w.=.*.n n N *.*.v 6 6 c c n c p p p p p 8 c k c k 8 8 8 8 6 8 6 5 6 k c c c a p a v n n c 0 0 k k 0 8 8 8 8 r 9 u Z 9.(.].].=Xh.Z f a p a p p 8 8 8 p p a n n #.t.i.j.u.=.D D a 9 9 9 8 8 2 2 2 1 1 5 5 2 2 2 2 4 9 q 9 9 9 a q a 9 a D D 9 8 8 8 9 9 8 8 l c k q k q 8 8 8 5 1 1 5 5 k c 0 8 8 8 8 z c p p p c c n n n n N N N N N n n n n N n n n n n n N N N N _ _ _ _ ",
"B c 8 8 p c 8 2 n n =.=.;.=.#.*.*.*.#.S S S *.#.=.;.e.t.t.t.t.t.-.#.n n #.n n _ _ n s n n n n a u =.d.=.n n v a c c p 0 9 2 9 #.3.A.Z.2.L < e ) ) i w U 4.7.7.2.<.L < i ) -.( w w , X X 8 M B r p s a a a a n S #.*.*.#.n p u 4 8 6 6 6 5 1 2 8 9 0 0 9 9 4 9 0 8 8 8 8 8 8 8 8 8 6 8 h 5 % O O % % % 5 6 h k k h k k 8 5 5 1 5 5 5 1 1 O O O O O O O O = = O O O O % 1 1 1 1 1 5 6 8 8 8 8 8 8 8 8 8 8 8 8 8 8 0 8 0 9 8 4 0 v 9 9 4 : : ; ; ; ; ; : : : : # # 1 1 1 2 2 2 4 4 : 9 =.S d d u.p.S 4 9 e.*.n c 8 8 8 8 8 8 8 h h 8 8 8 6 8 5 5 5 5 5 5 1 1 1 1 1 5 5 % % % % % % % & & % % % % % % X   O 5 5 6 8 0 0 0 9 0 p a a 9 9 p v S D *.#.S S S n S n n n n n n n n *.=.e.e.=.=.*.*.D D S *.*.w.n 8 8 m n v c c 0 k p k 8 8 0 0 8 8 8 8 8 6 8 8 5 8 k c c c c p a v n n c 0 0 0 0 8 8 8 8 8 0 9 u Z 9.(.(.].=Xh.Z f a p a a p 8 4 4 p a a n *.u.j.i.=.n a a v 9 4 9 9 9 0 2 2 2 2 1 5 5 2 2 2 2 4 9 a q 9 9 a a a 9 p *.*.9 8 8 8 8 8 8 8 k l k k c q 2 2 8 5 1 1 1 5 k c 8 8 8 8 8 r c p p p c a n n n n N n N n N N n N n n n n N n n n n N N N _ _ _ _ ",
"8 6 8 8 8 8 6 6 8 v =.t.t.$.#.*.*.*.*.*.*.*.*.#.*.*.=.=.e.e.e.e.d.t.=.*.n n n n n n n n n n n d -.oX#X>.a a a v a a a q 9 8 9 u L C.Y.7.L < e b N p w i ) <.1.1.Y < < s ( ( b r 3 1 1 2 8 r 8 4 r t t t t s b _ #.#.$.=.S p 9 p 8 8 6 6 5 1 2 8 8 8 0 8 8 8 0 0 8 8 8 8 8 8 6 6 8 8 8 8 8 1 % X X X O 1 8 k k h c 8 5 1 1 1 1 1 1 1 O O O O 1 1 h h 5 = + + O 1   X X % 1 1 5 5 5 6 8 8 8 8 6 5 c c k 0 8 8 8 8 8 8 8 8 6 2 2 2 3 ; ; : 4 9 9 4 p p a a a d v d S a > : $ , : : $ 9 $.=.v v D u.c 8 8 t.w.*.8 6 8 h 8 h h h h 8 8 8 8 h h h 8 8 2 1 1 1 1 % % % 1 % % % % % % % 5 & + + + O & O     O O 5 5 8 8 8 6 5 5 5 2 8 8 a p a a d #.$.;.d.f.f.u.$.Z f u v n S D S D =.=.=.$.#.#.S #.#.*.=.*.*.N 8 6 p k c c c c c c c c 0 0 0 8 0 8 8 6 8 8 8 5 8 k c c c q c a a c v v 0 0 0 0 9 0 9 8 8 p p u d >.^.`.).(.h.[ f a a p a p a p a n D *.u.t.=.*.S a a 9 q 0 0 9 9 0 0 k 8 8 8 8 2 2 2 2 2 2 2 2 8 0 c q k 9 9 9 4 a $.=.9 8 8 q k q 0 0 0 8 8 8 8 8 8 8 1 1 1 1 5 8 0 8 8 8 p p p p c p n a n n N n n _ *.#.*._ n n n n _ N N N n b N N N n B N _ N b r ",
"8 8 8 8 8 8 8 6 8 v *.t.t.$.#.#.*.*.*.*.*.*.*.*.*.*.=.=.e.e.e.e.t.e.=.*.*._ n n n n n n n n n d ;.#X*Xd.d a a a a a a q 0 8 0 p L N.Y.7.L w w b n r 4 i Y ' <.<.U w < s _ _ n 8 2 1 1 2 4 4 8 r s t t t t t b n _ #.$.=.S p 9 p 8 8 6 6 6 1 2 8 8 8 0 8 8 8 0 0 8 8 8 8 8 8 6 6 8 8 8 8 8 5 % X % % % 5 8 h 8 8 8 5 1 O O 1 1 1 1 1 = O O = 1 1 1 O + + O O O O O % % % 1 1 1 1 0 8 8 8 8 8 8 8 0 8 8 6 2 1 1 1 2 2 1 1 1 1 ; ; $ : p #.t.u.>.=.u.u.u.u.u.u.d.d.v.v.d.$.Z 9 : $ $ 9 S D p q v D 8 2 2 e.w.w.c 0 8 8 8 8 8 h 7 7 5 5 6 8 8 8 8 6 1 1 1 1 1 1 % % 1 1 5 1 % O O % + + + + O + +       O % 1 5 6 8 8 8 6 6 6 8 8 9 d d d S #.=.>.>.>.d.f.h.9.>.:.>.S n v n S $.=.$.#.#.#.#.#.#.#.#.*.#.*.N 8 6 c k c c k k k k k 0 0 0 0 0 8 8 8 8 8 8 8 8 8 k c c c q c c 0 c v v 0 0 0 9 9 9 9 8 8 0 p u d >.^.).).).c.&.d d d a p p a d S $.t.u.=.=.D S v a a 9 q k 0 0 0 0 0 0 8 8 8 8 2 2 2 2 2 2 2 1 2 0 k 0 q 9 q 9 9 n =.=.q 0 8 q k q 0 0 8 8 8 8 8 8 6 8 1 1 1 1 5 8 p 8 8 p p p p p p p a a n n n n n n #.#.#._ n n n n n N N N N N N N N N _ _ N B p 8 ",
"6 6 8 6 8 8 8 8 0 v *.e.e.$.#.#.#.*.*.*.*.*.*.*.*.*.=.=.=.=.=.=.=.=.e.e.=.*.n n n n n n n n n d a.;X<Xd.d a a a a a a q 8 8 0 4 L N.U.7.L w w b p 4 > i U ) ) Y U w < i d N c 2 2 1 1 6 2 6 8 c s s s t t t a b _ #.*.*.n p 9 p 8 8 8 8 5 1 2 8 8 8 8 8 8 8 0 0 8 8 8 8 8 8 6 6 8 8 8 8 8 5 & % % 1 5 5 h 8 5 5 % O X X X O % % = = 1 1 1 1 1 1 O O O O O O     O O O % 1 1 1 1 1 1 6 8 8 8 6 2 2 2 2 2 2 1 1 ; ; ; ; 1 1 2 2 3 9 f =.d.f.d.u.d.u.u.d.d.d.f.f.f.h.v./.(.l.=.9 : $ : S S 9 9 v D 9 2 4 w.w.*.p 6 8 8 8 8 8 8 8 8 5 6 6 8 8 8 8 8 1 1 1 1 1 1 1 1 % % 1 % % % % % % O + + + + + + X X # 1 1 2 2 2 2 2 4 9 a n D *.=.=.=.;.;.;.>.>.>.>.9.d.9.f.f.h.>.$.S d S #.=.;.$.$.#.#.#.#.#.*.*.*.*.n 8 2 c k k k k 8 0 p 8 8 8 8 8 8 8 8 6 6 6 8 8 2 6 0 c c c k c c k c v m 0 0 8 8 8 8 8 8 8 0 p u d 8.^.).).`.^.:.Z a a a a d #.=.t.t.t.e.S S n v v a q q c k k 0 0 0 0 0 8 8 8 8 2 2 2 2 2 2 2 1 2 0 0 0 k q q 9 p *.u.*.q 0 8 k k 0 8 0 8 8 8 8 6 6 6 8 1 1 1 1 5 8 k 8 p p p p p p p c n n n n n n _ n *.*.*.*.n n n n N N N N N n _ _ N _ *._ B p 4 4 ",
"6 6 6 6 6 8 8 0 c n *.=.e.=.#.#.#.*.*.*.*.*.*.*.*.*.=.=.=.=.=.*.=.=.e.e.-.*.n n #.#._ n n n n d ;.*X;Xd.a a a a a a a 0 8 8 8 4 L 6.U.7.L w w s r 3 4 i U ) Y ) U w w w a b p 1 2 1 1 1 3 6 8 c s s s s s s b b _ #.*.#.a p u p 9 8 8 8 6 1 2 8 8 8 8 8 8 8 0 0 8 8 8 8 8 8 6 6 8 8 8 8 8 5 & % % & 5 6 6 5 % O X . . . X O O % 1 1 5 7 7 5 1 1 O X O O O O O 1 1 1 5 5 8 8 8 8 0 8 8 6 2 2 2 2 ; ; ; ; : : 2 3 v n S *.=.e.t.u.=.>.d.d.9.9.d.f.9.9.f.f.f.f.x.x.9.f.c.(.oX Xh.u.f d $.$.v a a n 9 ; ; n *.*.p 2 8 8 8 8 8 h h h 8 8 h h h h h h 5 5 5 5 5 5 5 5 1 1 1 1 % X X   X X O O % & 5 1 1 ; ; ; ; ; ; ; a a v n *.=.t.d.d.d.d.d.u.>.>.>.d.d.8.>.>.>.9.h.d.d.;.#.Z Z #.$.;.$.*.#.#.#.#.*.*.*.*.n 4 2 k 0 k k k k r p p 0 8 8 8 8 8 8 6 6 6 8 6 2 6 0 c c c k c c 0 c m c 8 8 8 8 8 8 8 8 8 8 9 p Z 8.b.).).).^.:.d f a d =.t.u.u.t.=.S v v v v v v v v v v c k 0 0 8 8 8 8 8 8 8 2 2 2 2 2 2 2 2 8 p c q v v v a n t.u.D l 0 8 0 0 8 8 0 8 8 8 8 6 6 6 1 1 1 1 1 5 8 k 8 p p p a p c c c n n n n n n _ _ *.*.*.*.n n n n n _ N n n _ *.*.*.*.*.N p 4 3 2 ",
"2 2 6 6 8 8 c c c n D =.e.=.=.*.#.*.*.*.*.*.*.*.*.=.=.=.=.=.*.*.e.e.=.=.=.*.*.*.#.#.#.#._ n n d $.#X$X;.a a a a a a a 0 8 8 8 4 i 6.U.7.I w w p 8 3 4 s ( ) ) ) I w w w a _ n p 6 1 1 1 7 4 8 r s t s s b b n n n #.*.n a p p p 0 8 8 8 6 1 2 8 8 8 8 8 0 0 8 8 8 8 8 8 8 8 6 6 8 8 8 8 8 5 & % O O 1 1 O O O   . . X O O O O 1 1 5 8 8 8 8 5 1 X X X . . X 1 8 2 2 5 5 2 6 8 8 8 0 a c a 8 2 : 4 9 a S $.u.k.l..X.X Xl.l.k.p.u.h.f.f.9.9.9.9.f.8.8.8.9.9.9.9.9.9.c.b.(.+X&X+XOXd.>.f.u.F S d a a : : v *.*.a 1 2 2 2 2 6 6 6 8 8 8 h k h 8 8 8 5 5 5 5 5 5 5 5 1 % X X X 1 1 1 5 1 1 # X X X X # ; : 9 u a d S d.d.u.;.;.;.>.>.u.u.u.u.u.>.>.>.>.&.$.[ Z } :.9.>.9.d.>.&.[ Z Z $.$.$.$.$.#.#.#.*.*.*.n 4 2 z r z z z z r r r 8 8 8 8 6 6 6 6 6 6 6 6 2 5 k c c c 0 c c 8 k c c 8 8 8 8 8 8 8 8 8 8 9 u Z 8.b.(.(.(.b.8.} #.$.=.l.j.u.=.S v a a v v v v n n n n v c k 0 0 8 8 8 8 8 2 2 2 2 2 2 1 2 2 2 0 v M n N D n v D p.p.D v k 8 8 0 8 8 8 8 8 8 5 5 5 5 1 1 5 1 1 6 k c 8 p p a a c b b b n n n n n n *.*.*.*.*.*.N N n n #.#.#.n _ #.*.=.e.*.n c 8 6 6 2 ",
"2 2 6 8 8 c c c v v n *.e.t.;.=.*.*.*.*.*.*.*.*.=.=.=.*.*.*.*.*.e.e.=.=.=.*.*.=.*.*.*.#._ n n n #.l. X$.a a a a a a c 0 8 8 8 2 I 6.U.7.I w w r 8 2 w s ( ) ) ) s w w p n *.w.M 6 1 1 2 6 4 8 r p p i s n ( n n n #.#.n p p p a 8 8 8 8 6 2 2 8 8 8 8 8 0 0 8 8 8 8 8 8 8 8 6 6 8 6 8 8 8 6 & % O O O O O O   + O O O O O O = 1 5 5 5 5 5 5 1 1 X . o o X # 1 ; 1 1 2 3 2 4 4 4 a *.j.@X1X#X@X X X Xv.v.l.l.l.l.d.d.d.d.d.d.d.d.f.f.x.b.b.b.x.9.9.9.x.x.x.x.x.x.9.9.x.b.v.(./.v.>.$.>.,.$.$.S S =.n a *.=.=.n 8 3 3 2 2 2 6 6 6 8 8 8 8 8 6 2 1 5 5 5 2 1 1 1 1 X X 1 2 8 8 2 1 ; ; ; ; ; 2 9 a d Z #.$.;.d.k.k.k.h.j.d.8.>.>.>.>.>.;.;.;.;.;.;.Z Z Z f A [ :.8.f.f.f.h.h.f.>.;.#.#.S S S S #.#.*.#.*.n 4 2 r r z z z 8 8 8 8 8 6 6 8 6 6 6 6 6 5 6 6 1 5 8 c c c 0 k c 8 k c c 8 8 8 8 8 8 8 8 8 8 8 p S 8.v.(.(.(.^.h.8.>.d.l.u.t.*.S n v v v n n n n n n n n v c k 0 0 8 8 8 8 8 2 2 2 2 2 2 1 2 2 4 q N D D D D S S =.k.j.=.v k 8 8 8 8 8 8 8 8 8 8 8 5 5 5 1 5 1 1 6 k c 0 c c a c b b b B N n n n n *.*.*.*.*.*.*.*.N _ _ #.#.#.#.#.*.=.-.w.n p 6 6 8 6 1 ",
"3 2 8 0 c c c m v v n #.e.u.t.;.*.*.*.*.*.*.*.*.e.=.=.*.*.*.*.=.=.=.=.=.=.=.=.-.*.=.*.*._ _ n n #.d.d.#.d a a a a a k 0 8 2 8 2 i 6.U.7.I w 4 4 8 2 4 s ( ) ) ) s w w w s _ *.c 1 1 1 6 6 6 8 p b s s b N N N n n *.*.a p p a a p 8 8 8 6 2 5 8 8 8 5 8 0 0 8 8 8 8 8 8 8 8 8 8 8 8 8 8 8 8 1 % O + O O     X O O 1 1 1 1 O 1 1 1 1 1 1 ; 1 1 1 # ; 1 8 v n n a a d S S *.$.;.;.l.l.oXoX@XoX Xv.f.f.f.d.8.8.>.>.>.>.>.8.f.h.v.v.c.c.v.(.+X+X(.b.f.f.x.x.x.x.x.x.c.9.:.>.9.c.(.(.&.Z $.$.$.>.$.$.$.S S $.=.=.=.D a a v v v v v v 0 0 9 9 8 2 1 ; 2 2 2 ; ; ; # # X 3 v N n 4 ; o X ; p #.=.d.k.l.l.v.l.l.l.k.d.d.>.>.>.>.>.>.>.>.>.;.$.$.#.#.$.$.$.$.$.&.&.:.>.f.c.c.h.h.v./././.d.8.;.$.[ Z #.#.#.n #.n 4 3 p 8 8 8 8 8 8 8 8 4 8 6 8 6 8 6 8 6 6 8 6 5 6 h c c c k k k 8 h c k 8 8 8 8 8 8 h h 8 8 8 p S 8.v./.(.^.b.h.d.>.>.u.n n S S S S n n n n n v n n v v v c k 0 0 0 0 0 8 8 2 2 2 2 2 2 2 2 2 4 k M D D D D S D t.k.k.u.n k 8 8 8 8 8 8 8 8 8 8 8 8 5 8 5 5 5 5 6 k c 0 c c c c b B B N n n n n n _ *.*.*.*.*.*.*.*.*.#.#.#.#.#.*.=.e.e.n p 6 2 8 8 6 1 ",
"3 2 8 p c m m m c c n D e.d.d.t.*.*.*.*.*.*.*.*.t.=.*.*.#.*.*.=.=.=.=.=.=.=.=.-.-.-.*.*._ _ n n #.u.u.#.d a a a v a q 0 8 2 5 2 s 7.U.4.I w 4 4 8 2 4 u I ( ( ) s r w 4 r c c 2 1 1 6 8 6 3 4 c b b b b N n n b n *.S a p p a a p 8 8 8 6 2 5 8 8 8 5 8 0 0 8 8 8 8 8 8 8 8 8 8 8 8 8 8 8 8 1 % O + O +     O O 1 5 5 1 1 O X 1 1 ; X X o # ; ; a #.t.l.l.k.d.d.d.d.d.k.l.l.v.v.oX/././.v./././.v.c.c.f.9.8.>.:.>.9.f.h.v.(.OX+X&X+X(.v.c.9.9.9.9.9.x.x.x.x.x.x.x.9.:.:.:.9.c.b.v.9.9.>.:.>.[ Z $.S #.#.d a S S $.=.=.;.t.e.e.e.a a a p 9 4 2 : : : : ; $ $ X $ 9 p a 9 : : a #.v.oXoXoXv.h.d.d.d.f.d.d.d.d.8.8.>.;.&.$.$.$.$.$.$.#.#.S #.#.$.;.d.d.9.9.>.:.>.>.9.h.h.c.c.c./.OX+X+X/.h.9.:.&.$.#.U #.n 4 3 9 8 6 6 6 7 6 6 7 7 8 8 8 8 8 8 8 5 6 8 6 5 6 h c c c k k k 8 h c k 8 8 8 8 8 8 h h 8 8 4 p S d.v./.b.c.c.f.>.$.S d v v n n n n n n v v v v v v a a c c k 0 0 0 0 0 8 8 2 2 2 2 2 2 2 2 2 2 q n n n D S n *.u.}.l.}.v k 8 8 8 5 8 8 0 0 8 8 8 8 8 5 5 5 5 5 6 k c 0 m c m v B B N N n N n n n *.*.*.*.*.*.*.*.*.*.#.n ( ( #.*.=.t.t.p 8 2 2 8 8 6 1 ",
"8 p p p p p c n a c c n *.d.d.t.=.$.#.#.#.*.=.t.=.*.#.#.#.*.*.*.=.=.=.=.=.=.=.=.*.=.=.-.*._ n n *.$.t.#.a a a a v a q 0 8 5 8 8 i 4.P.4.s w 4 1 5 2 4 s ( ) ( ( s r w 3 3 3 1 1 5 1 1 5 6 4 4 4 n n N N n n n a a n a p p a a a c 0 8 8 5 1 6 8 8 8 8 8 8 8 8 8 8 8 8 8 8 8 8 8 0 0 8 8 8 1 1 1 O % % O O X O % 1 1 1 1 1 1 # X # o $ : p *.d.j.@X@X{.l.k.k.l.l.h.c.v.v.v.v.v./././.v.v.v./.+X;X+X*X*X&X&X=X&X(.(.v.OX=X<X:X&X(.(.(.(.c.9.:.:.:.9.9.x.x.x.x.x.x.x.x.9.9.9.9.9.9.c.v.(.(.(.v.f.>.>.$.#.#.$.#.d u 9 u a a a a d S u S >.l. Xv.k.d.f.f.f.f.k.k.k.k.k.k.l.h.h.h.h.h./.v.h.f.9.8.8.8.f.d.d.d.d.d.>.>.#.Z Z Z [ #.#.#.$.#.#.#.#.$.>.8.>.>.>.>.>.>.>.>.>.>.9.f.c.c.c.c.c.c.b./.(.(.b.h.f.8.;.S u : ; ; 8 8 8 8 7 5 5 5 8 6 5 5 5 6 6 h 6 5 5 6 h c m c c c c k 8 8 8 8 6 6 6 6 6 6 6 6 8 8 8 p d d.v.c.(./.9.>.;.$.S Z n n n n n n n n n v v v v a q a c k k 0 0 8 8 8 8 8 8 8 2 2 1 1 2 8 2 2 2 a n v S S D D t.i.e.S k 8 5 & 1 5 5 1 6 8 8 8 8 5 5 1 5 5 1 1 6 k c m m v n n N N N N n n N N *.*.*.*.N *.*.*.*.N n n _ d ( ;.j.j.e.n 2 2 6 6 8 8 8 6 ",
"p a a a p p c m a c c n =.t.d.d.t.;.=.*.*.=.t.t.=.$.#.#.#.*.*.*.=.=.=.=.=.=.=.=.*.=.-.-.*._ n n #.#.;.#.a a a v v a k 0 8 5 8 8 w 4.P.4.s w 4 1 5 4 4 p ( ) ( ( s r 4 3 3 3 2 1 5 1 1 5 6 8 4 4 b b n N n n n a a a a p p a a a c 0 8 8 5 1 6 0 8 8 8 8 8 8 8 8 8 8 8 8 8 8 8 8 8 8 8 0 8 8 1 1 . O % 1 1 1 % % 2 ; # X # : 4 9 n *.d.l.oXoX#X$XoXl.h.d.8.8.8.8.8.f.h.h.h.h.h.c.h.h.v./.OX+X+X+X+X&X<X3XDXJXJXJX3X4X:X:X;X&X(.(.b.c.x.9.9.9.x.c.c.c.b.b.b.^.b.(.x.x.x.x.c.x.x.x.9.9.9.9.b.(.&X;X+XOXv.v.f.8.>.>.$.#.#.#.$.$.$.$.=.>.d.h.v.v.h.k.v.v.v.v.v.v.v.l.h.h.f.f.f.f.f.h.f.9.9.9.9.9.9.9.f.>.>.;.;.;.$.$.S Z #.#.#.#.$.$.$.$.#.#.#.#.$.>.8.8.>.>.>.>.>.>.:.>.>.9.f.h.c.c.c.c.b.b.c.b.c.c.h.h.v.v.l.u.*.n 9 8 6 5 5 5 5 5 8 5 6 5 6 5 6 8 6 5 5 5 h k c c k p c p k 8 8 8 6 6 6 6 6 6 6 6 8 8 9 9 a ;.h.f.c.h.>.$.=.$.S *.n n n n n n n n n v v v v a a q c k k 0 0 8 8 8 8 8 8 8 2 2 1 1 2 8 2 2 9 v S S D n S =.u.t.D v 8 5 5 1 1 1 % % 1 1 5 5 8 8 6 5 5 1 1 5 8 k c c m M n n N N N N N N N *.*.*.*.*.*.D n n n n n n _ #.a.{. Xj.n 4 2 2 6 2 5 6 8 8 ",
"n n n n c c a a c c c n *.t.d.d.d.u.t.t.t.t.d.d.t.=.*.*.*.*.$.*.=.=.=.=.=.=.=.=.*.=.-.*.#._ _ n #.#.;.#.a a a v v a 0 8 8 5 8 4 w 4.P.4.s w 4 7 5 8 8 p ( ` ( ( s r 3 3 3 7 5 5 5 1 1 5 6 8 8 4 c c n n n n v v p a a p p c v v c 0 8 8 5 1 2 8 8 8 8 8 8 8 8 8 8 8 8 8 8 8 8 8 8 2 2 2 1 1 2 1 # % 1 1 # X X X # ; 4 a *.d.{.@X$X$X$X$X#XoX#X#Xl.h.d.>.&.$.$.$.>.>.d.d.d.8.9.9.h.c.v.(.+X*X&X+X(.>XDXJXKXKXJXJX&X&X&X+X(.(.&X:X=X(.c.c.b.(.b.b.b.b.b.b.b.b.b.b.c.c.b.b.b.b.c.c.9.} } } :.9.(.&X*X>X>X+Xc.9.f.c.(.v.h.f.d.u.>.;.>.:.:.:.:.>.9.9.f.f.f.f.9.9.9.9.f.f.f.f.x.x.x.x.9.9.9.9.9.9.9.9.8.>.;.;.$.#.Z d Z Z Z S S #.$.$.S S S S d Z #.$.d.d.>.>.&.:.:.:.>.>.>.>.9.f.c.b.b.b.b.b.c.x.x.c.(.(.+X$X*X.Xu.D M v 0 8 8 8 6 5 5 5 5 5 5 5 5 5 5 5 5 5 8 k k k 0 9 0 9 0 9 0 0 8 4 8 4 8 4 8 8 8 8 9 4 u #.d.d.9.8.>.&.$.S Z S n n n n n n n n n n v v v a k k v c k 0 0 0 9 8 8 8 8 8 2 2 1 1 5 8 8 2 9 v D D S n D u.i.*.a 8 1 5 5 1 % % X O % % 1 5 5 5 6 6 6 5 1 1 5 h c c M M M N M M N N N N N N N N N N v n n n N N D *.e.t.j.z.j.=.a 4 4 4 6 2 5 6 0 c ",
"n n n n n n c p c v v n *.t.d.d.d.d.d.d.d.d.d.d.t.=.*.*.*.=.=.$.*.=.*.*.=.=.=.=.*.=.-.*.#._ _ #.#.#.;.S a a v v a q 0 8 8 8 8 8 w <.s.) e w 8 5 5 6 8 a ( ( ( ( t r 3 3 3 3 5 5 5 1 1 5 6 8 8 4 c c v n v v v v p p p p a c n v c c 8 8 6 1 2 8 8 8 8 8 8 8 8 8 8 8 8 8 8 8 8 8 8 8 2 1 1 1 1 1 2 2 1 ; # ; 4 9 S $.k.@X$X$X#XoXoXoXoXoX#X#XoXv.k.d.>.&.$.#.[ $.>.>.8.>.>.>.8.d.v./.(.+X+X+XOX(.b.&XJXKXUXJXDX;X:.9.c.b.b.(.4XJXJXDX=Xb.b.(.(.(.b.b.b.^.b.b.b.b.b.c.b.b.b.b.c.c.c.9.:.9.9.9.9.b.&X>X:X&Xv.9.9.c.+X/.c.d.>.>.>.:.>.:.:.:.:.>.9.f.f.f.f.f.f.9.9.9.x.x.f.x.x.9.9.9.9.9.9.9.9.9.9.8.>.>.;.$.#.Z a u f d d d S S S S Z Z d d d Z #.$.>.>.&.$.&.&.&.&.>.>.>.>.9.f.c.c.v.v.b.c.x.c.b.(.(.c.f.p.u.;.S a D v 9 2 5 2 1 # 1 1 1 2 2 2 1 1 1 1 1 1 2 4 8 8 2 2 2 3 2 3 2 2 8 4 8 4 4 4 4 4 6 8 8 2 > a =.>.>.>.>.=.$.S d d n n n n n n v v n n v v v v c k c v k k 0 0 0 9 8 8 8 8 2 2 1 1 5 8 8 2 8 a n S a S t.i.e.v 4 2 % 1 5 1 % X X X % 1 1 1 5 5 5 5 h 5 % O 1 5 k m M M M M M M M n c c v n n n n n n c n n N *.w.e.t.t.=.*.n a a p 4 8 8 2 2 8 c M ",
"#._ _ *.*.N n p v v n n *.t.d.d.d.d.d.d.d.d.d.d.t.;.=.=.=.=.=.=.*.*.*.*.*.*.*.*.*.*.=.*._ _ _ *.#.#.t.#.a a v v a q 0 8 8 8 8 6 w %.s.) w 4 8 5 5 8 8 a n ( ( b r r 3 3 1 7 5 5 5 5 1 5 6 8 8 8 p a v v v v v v p p p p c c c v c c 8 8 6 1 2 8 8 8 8 8 8 8 8 8 8 8 8 8 8 8 8 8 1 2 2 2 2 1 1 2 4 2 4 4 9 S u.l.$X#X/.v.h.h.l.v.d.d.d.k.k.d.>.&.>.;.$.$.#.#.$.$.>.9.9.9.9.f.c.v.(.&X&X&X+X(.b.c.9.9.(.3XDX:Xc.>.9.x.v.v.b.v.>XDXJX3X&Xb.b.(.(.(.(.(.b.b.b.b.b.b.b.b.b.b.b.b.b.b.(.c.c.(.(.x.9.x.(.&X=X).b.9.9.c.9.9.>.>.&.&.>.>.>.:.8.9.9.9.x.c.f.x.c.c.c.c.c.c.9.9.f.f.f.f.9.9.9.9.9.9.9.>.>.>.>.&.#.d d d Z Z Z Z S d n n n d Z d d d d #.$.>.;.;.&.&.:.>.8.9.f.9.9.9.f.f.c.b.v.b.b.c.c.b.b.b.,.$.A A a f a a v q 9 9 q a 9 9 9 p a a v v v a a 9 9 9 a a v a a a a p a 9 9 9 q 9 9 9 9 9 9 9 2 2 8 3 : u $.>.$.$.&.$.S Z Z S n n n n n v n n n n v v v v v c c c c k k 0 0 0 9 8 8 8 2 2 1 1 8 8 2 2 2 9 a n p *.j.t.n 4 2 1 1 1 1 1 O X O % 1 1 1 1 1 1 1 5 6 5 % O O 1 8 c c c c c c c c c 8 9 p p a c c n n N N *.*.*.*.*.S n n n n v p 4 4 8 8 8 9 a N D ",
"*.#.*.=.w.w.N c v n n n S =.u.d.d.d.d.d.d.d.d.u.t.t.=.=.;.t.;.=.*.*.*.*.*.*.*.*.*.*.*.*._ _ *.*.$.$.u.*.a v v v c 0 8 8 8 8 8 8 > ) s.) w 4 8 8 5 5 8 p b ( ( b r r 3 3 5 5 5 5 5 5 1 6 6 8 8 8 9 p a v v v v v p p p c c a a c c c 0 8 6 1 2 8 8 8 8 8 8 8 8 8 8 8 8 8 8 8 8 8 1 1 % % 1 2 9 0 p S =.k.l.v.v.v.l.l.v.c.c.c.c.c.&.;.;.$.$.;.>.d.$.#.#.S #.$.$.=.>.8.9.f.c.v.+X*X&X&X&X(.c.9.f.c.(.x.c.&X*Xc.&.&.c.x.f.9.>.:.9.b.b.h.f.x.b.v.v.b.(.(.b.b.b.b.c.c.b.b.b.c.c.b.b.b.(.c.x.c.c.x.9.x.b.c.c.x.9.9.9.9.9.9.9.8.>.>.8.9.:.:.9.9.9.9.9.9.9.9.9.9.9.9.9.9.9.f.9.9.9.9.9.9.9.>.,.:.&.&.&.$.#.[ d d Z #.#.$.$.#.#.S S S S d a a a d d #.;.8.>.>.8.d.f.h.c.v.f.f.f.f.f.c.c.c.b.b.v.v.b.x.&.Z A A A A A A F F p 9 p v $.e.u.t.$.$.;.;.t.t.;.;.;.=.$.$.=.;.;.;.t.e.e.=.=.*.*.*.n v v v v a a v 0 8 p p 9 a $.>.$.$.$.Z f u a a v n n n v v n n n n v v v v v v v c c k k 0 0 0 9 8 8 8 2 2 1 1 6 5 1 2 2 2 9 v a =.u.*.p 2 2 2 1 5 5 1 1 1 1 5 % % % % 1 1 5 5 % % % % O 1 5 8 6 6 6 6 4 4 4 4 8 8 p p a c n n N *.=.w.*.N n c a a n n *.n a 4 4 8 9 p v n D *.",
"#._ #.e.t.t.*.n n n n n n =.u.d.d.d.d.d.d.d.d.d.u.;.;.;.;.;.;.=.*.*.*.*.*.*.*.*.*.*.*.*._ _ *.=.;.;.d.=.v v a a c 0 8 8 8 8 8 8 , ) s.` w 4 8 5 6 5 8 p b ( n b r y 7 1 1 5 5 5 5 5 1 6 8 8 r 8 8 9 q a v v v v a p p b c p p c m c 0 8 6 1 2 8 8 8 8 8 8 8 8 8 8 8 8 8 8 8 8 8 1 1 2 8 k M G e.k.l.v.v.v.v.v.v.v.v./.b.c.c.c.h.[ $.=.=.$.;.>.d.#.#.S #.$.=.u.u.d.f.b.v.(.(.&X&X=X(.c.:.:.:.x.(.+Xc.v.*X+X:.Z Z d.:.&.} $.[ $.&.$.$.$.>.>.>.9.f.h.h.c.f.9.9.9.9.c.c.c.c.c.c.c.c.c.x.9.9.9.9.9.x.x.x.9.9.9.9.9.9.9.9.9.9.9.9.9.9.9.9.9.9.f.f.9.9.f.f.f.f.f.f.f.f.9.9.9.9.8.8.>.>.>.>.$.[ S S #.$.#.[ #.&.;.;.=.#.=.$.*.#.#.S n n a d Z #.#.;.>.d.h.l.c.v.h.f.d.9.9.9.x.c.c.c.c.c.c.b.b.b.p.$.A g A A F F F F F v p a S $.u.p.f.d.>.>.;.;.;.;.;.;.>.;.=.=.;.;.;.;.;.t.t.=.=.=.=.=.$.$.*.*.S S S D D N N N n S >.>.>.>.>.$.f 9 9 9 v n n v v v n v n v v v v v v v n v c c k k k 0 0 8 8 8 2 2 1 1 6 1 2 8 2 2 a S $.*.n a 4 3 2 2 5 5 6 6 h h h 6 1 % % % 1 5 5 6 O O % O X O 1 1 5 5 1 6 4 4 8 8 a c c c n n N N *.D n n c c c c v v n n N n v p 4 8 p n *.=.=.*.",
"_ n #.=.d.j.w.n n n n n n =.u.d.j.d.d.d.d.d.d.d.t.;.;.t.t.t.;.=.#.#.*.*.*.*.*.*.*.*.*.*.#._ =.-.t.u.d.=.a a a v c 0 8 8 8 8 8 8 3 ( a.( w 3 8 5 5 6 8 p b ( b a r y 3 1 1 1 5 5 1 1 1 5 8 8 r r 4 9 a a v v v v c p a b n p p a m c k 8 2 1 2 8 8 8 8 8 2 2 2 2 2 2 2 2 2 2 2 2 2 9 D e.j.{.{.{.l.v.v.v.c.h.v.v.(./.b.c.c.h.c.c.f.d.d.k.h.l.l.k.$.$.$.$.=.>.p.f.c.b.(.+X&X&X(.(.(.c.:.} } :.c.(.c.d.v.:X+X>.Z $.h.>.$.$.;.;.;.$.$.;.>.;.$.#.#.#.S S Z Z Z Z f A 9.9.9.x.x.x.9.9.:.8.8.9.9.f.9.9.9.9.9.9.9.9.9.:.>.:.:.:.9.9.9.:.f.9.9.9.9.f.h.c.h.h.h.h.f.9.9.9.9.9.9.8.>.>.>.>.$.$.Z Z Z $.=.>.>.>.>.8.8.d.>.;.$.$.#.#.S S n S Z #.;.>.d.f.h.h./.v.v.v.d.:.} Z 9.9.f.c.c.b.b.c.v.x.,.F A A A A A F A F A A a a D =.u.u.f.d.p.u.d.8.>.>.&.&.&.&.&.$.$.$.$.$.$.$.$.$.$.$.$.$.$.$.>.u.;.;.=.=.$.=.t.e.e.e.=.=.u.u.d.k.v.l.;.Z Z d n v v v v v v v v v v v v v v v n v v c c q 0 0 9 9 8 8 2 2 1 1 5 1 2 8 9 4 a D j.S 9 4 4 4 2 2 1 5 5 h c c k 8 5 5 1 1 % % 1 5 O O O . . X 1 1 5 6 6 8 8 r c c n n N N N N *.w.c c c a a a c a n n n n n n v a 4 4 p n w.e.e.*.",
"#.#.;.d.t.=.*.*.D D D D *.=.t.j.d.d.d.d.d.d.d.u.>.>.;.>.>.;.$.$.#.#.#.#.#.#.*.*.=.*.S D *.*.=.=.u.d.;.S a n n c 8 8 8 8 h h h 8 3 a r._ 4 2 2 4 1 2 4 p n n n s 4 3 3 4 4 6 1 1 1 1 1 3 2 r r p a a v v v v a a p p a a n a p p v c p 8 3 2 : : 9 9 4 4 2 2 ; 2 # : 4 4 4 2 2 9 .X@XOX Xv.v.c.v.(.(.v.v.b.c.x.f.v.v.v.b.x.9.9.f.v.v.v.v.v.v.f.9.9.9.8.8.8.9.9.9.b.(.&X&X+X(.v.b.9.:.&.:.9.c.f.9.9.f.+X<X/.$.f >.v.;.#.=.=.$.$.$.=.=.$.*.$.#.#.#.#.#.S S S S Z Z &.(.c.:.9.c.c.9.8.d.f.k.k.d.u.>.:.&.:.&.:.&.&.} :.:.9.9.9.9.9.9.8.9.9.f.f.f.f.9.h.f.f.9.8.8.8.8.8.8.8.8.8.8.8.>.$.$.&.&.:.>.9.9.9.9.9.9.9.>.:.$.$.$.$.$.$.$.$.$.$.>.f.c.b././.c.c.h.>.$.Z Z >.f.b.b.v.v.v.c.b.f.F F Z Z A A a A F A A F A a f Z f.k.h.f.f.d.p.d.>.8.9.9.8.>.&.&.&.&.&.&.:.>.>.>.>.>.>.;.;.$.$.$.>.>.>.;.;.>.>.>.=.=.=.=.=.=.=.;.&.>.f.f.9.>.>.>.u.=.=.=.$.D n v S S n n n n n v v n n v v q q q 9 9 0 8 2 2 2 2 5 5 2 1 1 8 N e.v 9 2 2 4 8 2 1 ; 2 q c c 0 0 k k k 0 8 5 1 & % 5 5 X . X O O 5 5 5 8 8 c M N *.n n n c c v m m c c p c p c n n n n n n n S n n 4 a =.t.t.=.=.*.",
"#.=.;.u.;.=.#.#.S S D D *.=.t.j.d.d.d.d.d.d.d.d.u.;.;.;.>.;.=.$.*.*.*.*.#.#.*.*.*.*.*.D S *.=.t.j.k.d.#.a a v 0 8 6 5 6 6 j j 8 2 a r._ 4 2 4 4 3 3 8 p n n n d p r r r 8 8 2 1 2 2 1 3 4 r b b c v v v v c a a n S #.#._ n n n a c p p p p p u u u 9 p a n n n D D n 9 2 4 4 : S p. XoXOX(.(.&X&X=X&X(.9.:.:.8.f.f.f.c.b.v.OX+X(.v.c.x.f.f.9.8.9.9.8.8.9.9.c./.(.(.(.v.x.9.9.9.:.:.:.8.d.f.h.f.f.f.(.:Xv.[ f 8.l.&.#.$.$.$.*.*.$.$.*.*.#.#.#.#.#.#.#.#.#.#.#.#.[ c./.c.c.c.f.9.k.k.j.d.u.;.=.=.,.,.,.>.>.9.9.f.8.9.9.9.9.9.9.9.9.9.9.f.f.f.f.f.f.f.9.9.8.8.f.f.9.8.8.8.8.8.8.8.8.8.8.8.9.9.f.f.f.9.9.>.&.&.:.:.>.>.>.>.>.>.>.>.9.x.c.x.x.c.x.9.>.$.F $.>.h.c.c.v.v.v.v.f.,.F Z Z A Z A A A A A F F a A A Z $.d.h.h.c.h.c.c.x.f.c.h.9.9.9.9.f.h.9.9.h.c.c.v.v.v.h.v.v.v.v.h.f.d.>.>.>.>.:.:.&.;.=.=.$.=.=.>.>.:.>.8.9.8.:.8.9.h.k.d.u.u.u.t.=.$.v v n n n n n v v v n n a q 9 9 9 9 0 8 2 2 2 2 5 5 6 2 2 8 m N 0 0 0 8 8 2 2 1 4 9 v v v q 0 q c k k 0 8 8 5 1 6 5 O X O % 1 8 h c m M M m c 8 p p p p p p k k c c c c c c v n n n n n n v p p a n =.t.t.=.*.*.",
"#.=.t.u.;.=.#.#.*.*.*.D *.=.t.i.p.d.d.d.d.d.u.u.u.;.;.;.u.;.;.$.=.=.*.*.*.*.*.*.*.*.#.S n S e.j.k.k.d.#.a a c a 2 5 5 6 6 6 6 5 2 a r.N 4 4 4 4 3 3 4 p b d d a p r 8 4 4 8 6 2 6 6 2 2 2 r p b v v v v n n n n =.=.*.*.*.#.#.n N N N D *.*.*.=.$.;.;.u.k.{..X@X1X1Xi.c 2 2 4 # a S $.f.#X*X*X*X&X&X&X&X(.c.9.:.9.9.9.c.(.;X<X3X4X:X>X&X&X(.c.9.9.9.9.x.b.(.&X&X&X(.v.9.>.>.>.>.>.>.f.h.d.f.k.8.f.9.c.&Xh.Z d k.j.$.#.#.#.#.#.#.*.*.*.*.#.#.#.#.#.#.#.#.#.#.#.#.Z :.v.(.+Xv.>.:.$.$.$.=.=.=.>.>.,.>.u.u.f.d.8.>.8.8.8.9.9.9.9.9.9.9.f.f.x.f.f.f.d.d.8.8.8.8.d.d.>.8.8.8.>.>.>.>.8.8.8.8.8.8.9.8.d.>.:.Z f f $.>.9.d.9.f.f.f.h.f.b.c.x.x.x.9.:.} } $.,.d.v.v.(.(.oXv.f.,.F A f u A A A A F F F F F A A S F ,.h.oXv.c.v.v.v.v.v.v.v.v.v.c./.(.&X*X+X+X+XOXOX(.(.(.v./.#X+X+XOX/.v.>.8.>.>.>.>.>.>.;.>.>.>.>.>.>.>.9.h.c.f.9.h.c.h.l.k.k.k.j.=.S v a a v v n n n n v v n n v a 9 q 9 0 0 9 2 2 2 2 1 5 8 8 8 8 0 c 8 8 0 0 2 1 1 2 a v D n v a 0 q c c k k k k 0 8 8 6 1 % 1 5 8 k M M m k h 8 8 8 8 8 8 p p 0 c c c c c m n n n n n n n n p 9 9 9 #.=.t.u.t.*.#.#.",
"=.;.d.u.;.=.*.#.*.*.*.*.*.*.t.u.u.d.d.d.d.d.u.d.u.;.;.;.;.>.;.=.e.=.=.=.*.*.*.*.*.*.S #.S #.t.k.j.j.u.#.n v c a 2 2 5 5 6 5 5 5 2 a r.N 4 4 4 4 3 4 r p b n b a 8 4 3 3 6 8 8 8 6 5 6 6 6 8 r p c a n n D *.=.=.e.=.*.*.*.*.*.*.e.e.e.e.e.t.u.d.;.u.k.k.k.k. X@X.X}.w.k 5 5 9 8 9 v S S ;.d.l.#X+X+X(.(.&X&X>X:X>X&X(.(.(.(.&X&X3X3X3X3X:X=X(.x.h.c.b.(.`.=X>X>X;X*X+X(.v.v.oXoXv.>.=.$.Z =.k.f.h.8.9.(.8.f Z k.>.#.#.#.#.#.#.#.*.*.#.#.#.#.#.S S #.#.#.#.#.#.#.Z Z >.v.*X&X:.Z : : 4 9 p a S S k.k.p.u.u.u.d.d.d.d.f.h.c.h.9.9.9.f.f.f.f.9.8.8.8.>.>.;.$.$.$.$.#.#.#.#.$.$.$.#.=.;.>.>.>.>.>.>.$.[ Z f g f $.>.f.d.f.f.f.c.c.c.c.b.b.b.x.x.:.} } 8.v.#XoXv.b.v.l.p.$.A 9 9 f a a a a A F F F F a a S ,.p.b.v.v.v.v.v.(.(.(.(.(.(.(.+X&X&X&X+X+X&X&X&X&X+X+X(.(.oXOX+X+X+X*X*X+XoXv.h.9.>.>.>.>.>.>.>.>.>.>.>.>.h./.(.c.c././.v.d.t.*.S d p 9 9 9 9 a v n n n n v v n n v q q q 0 0 0 0 2 2 2 2 2 5 8 8 5 5 8 8 8 8 8 8 2 2 4 p n D *.D n a q q c c c c c k k k k h 8 5 5 8 k c c c k 8 8 8 6 8 8 8 p p c c c c k c m n n N n n n v a p 9 p a n =.t.u.u.=.*.#.*.",
";.d.d.d.;.=.*.*.=.=.*.*.*.*.e.t.u.u.u.d.d.d.d.d.u.>.;.;.;.;.;.;.e.e.w.=.=.*.*.*.=.#.S #.*.=.d.k.l.l.j.$.n a 9 4 9 9 8 8 8 8 8 6 2 c w.N 8 8 8 8 4 8 r a n n n a r 4 6 6 8 k c k c k 6 2 1 2 4 8 n S *.;.t.t.t.t.=.=.=.*.*.*.=.=.e.e.e.=.=.;.t.d.u.d.k.k.k.f.k.j.y.V c k 5 1 2 8 v v v p a v S $.d.v.&X;X:X:X<X3X4X4X>X`.(.(.(.(.>X>X>X>X=X=X).(.(.(.`.&X&X&X&X&X+X#X#X#X#XoXoXoX=.d u 9 : a d.k.k.8.d.v.>.d Z k.;.#.S #.#.#.*.#.#.#.#.#.#.S n n n n n n S #.#.#.d u Z f.*X*X>.u : : : : : : : 4 S S *.$.=.$.#.#.>.>.>.>.>.8.>.>.f.f.f.9.8.>.>.;.$.$.#.#.Z Z d d a n n n d d d d s d Z Z Z Z Z d d f a f Z $.>.8.9.9.f.9.f.c.c.c.b.b.(.(.(.(.c.9.x.b. X#XOXv.9.,.S S A A a a a a a a a a v v v a 9 Z ,.h.v.v.v.c./.(.(.(.(.(.&X+X:X<X<X:X;X+X(././././././.(.+X+X*X*X$X#X#X$X*X;X3X<X*XoXv.v.v./.c.c.c.h.h.f.f.f.c./.v.c./.+XOXv.a 9 4 4 4 4 4 9 4 9 a v n n n n v n n n v q q q q q q 0 2 2 2 2 5 5 2 2 1 2 8 8 8 8 2 1 2 8 c N D =.e.*.n a q q c k k k c k k k k h 6 5 5 8 k c 1 5 8 8 h h 8 6 8 8 8 0 k c c c c c m m v c c a p p 9 p a S *.=.t.t.d.t.=.*.$.=.",
";.d.d.d.;.=.=.=.=.=.=.*.*.*.e.t.u.u.u.d.d.d.d.d.u.>.;.;.;.;.;.;.t.t.e.e.=.*.*.*.*.#.#.*.;.;.d.j.@X{.j.*.a 4 2 2 v a c k 0 0 0 8 2 a w.N 8 8 8 8 8 8 p c n n a a r 8 4 8 8 k k 0 8 2 1 1 1 8 b N *.;.u.k.j.j.t.=.=.=.=.*.*.=.=.=.=.=.=.=.;.d.d.j.d.u.u.d.k.d.t.D c k h k 8 1 2 0 a a 9 9 v v 9 9 f $.b.$X;X:X:X;X&X&X&X>X>X:X3XDXDX4X>X=X>X>X:X4X:X:X>X&X(.h.>.&.;.;.;.;.;.=.#.n > > u u 3 p =.d.k.d.d.h.$.d Z >.$.#.S #.#.*.*.#.#.#.#.S n n n n d d d d n n n n d u d >.#X*Xf.f 9 9 8 4 4 4 4 4 $ $ # 2 9 v S D =.$.$.$.#.$.>.d.f.f.9.9.8.>.;.$.Z Z d d a a d a v v n n a a a a d n Z Z d d d d d d #.$.>.d.f.h.f.f.h.h.c.c.b.c.b.b.b.b.(.(.(.v.OXv.v.v.f.,.Z A 9 a a F F F a a F v v v v a a a a =.v.v.h.h.c.^.(.(.(.).&X&X&X&X:X*XOX/.h.f.f.f././././.OX+X+X*X<X*X#Xv.d.d.8.d.h.l.v.v.v.v.v./.(././.v.v.v.c.h.h.v./.+X*XoX>.f ; ; : 4 9 9 4 4 2 9 a v n N n n v n S n v a q q q q q 0 8 2 2 2 5 5 2 1 1 2 8 0 0 8 2 2 8 c D *.*.=.e.*.n v k k c k k k k k k k 8 5 5 5 1 5 8 8 6 6 6 6 8 8 0 c 0 0 c c c c c c c c c c p 8 8 4 9 p a S =.t.t.t.t.t.t.=.*.*.=.u.",
";.d.d.t.;.=.t.t.e.=.=.*.*.*.e.t.u.u.u.d.d.d.d.d.u.;.;.;.;.>.;.t.t.t.e.=.=.*.*.#.#.#.$.t.u.t.u.d. Xk.=.d 9 4 9 a S n n v v q 0 0 4 a w.N 8 8 8 8 8 8 p c n n a a p 4 8 p p c c 0 1 2 8 p n e.j.l.l.k.k.d.d.u.u.u.t.t.t.e.t.t.t.t.u.u.t.u.d.j.j.k.u.u.j.j.j.t.S v c k k 0 2 # 2 9 v S S v v a q v p 9 f Z ;.v.*X:X/.OX&X:X3XDXJXJXJXDXDXDXDXDXDXDX4X<X*X/.d.#.f g S n n a a p 9 3 4 p p 4 3 u =.j.f.h.h.l.$.Z Z ;.$.S #.#.#.*.=.#.#.#.S n n n n n n n n n n n n a n a Z >.OX;XOXd 4 4 8 9 9 9 9 9 1 2 2 8 8 8 2 2 v a a u 9 f #.;.8.8.d.d.d.>.>.;.S Z d d a a a a v v v n n n n n d d d d d d d d $.;.8.d.k.h.h.l.h.h.h.c.c.v.v.b.c.c.c.x.c.(.(.v.v.v.f.,.S f f 9 a a a v v v v a v v v v v a p a F p. Xv.c.c./.(.(.).`.&X=X>X>X:X&X+XOXv.v.v.v.v./.OX+X*X+XOXv.h.d.d.>.;.;.;.;.;.d S $.>.k.l.v.v.h.h.h.f.f.d.d.d.h.oX$X#Xl.$.9 $ 9 4 2 4 4 4 4 9 4 9 v n D D n n v F S F v a q q c c c q 8 2 2 2 5 5 2 1 2 5 8 8 8 8 8 p v N D *.D *.*.D n v v v c c k k k k k k h 5 5 5 % 1 5 1 5 5 6 6 6 8 8 8 k k k k k k k k 8 8 8 8 9 0 p a n S =.u.j.j.d.t.t.t.;.$.#.#.;.d.",
";.d.d.t.;.;.t.d.e.=.=.*.*.*.e.t.u.u.u.d.d.d.d.d.u.;.;.=.;.;.;.;.t.t.e.=.=.*.*.#.n *.t.d.d.t.t.d.u.=.n 9 9 p D e.*.D D n v v q q 4 a =.n 8 8 8 8 8 8 p a n n a a u u p a n N n n w.t.y.j.k.l.l.l.#X Xj.;.=.;.j.l.}.k.k.j.j.j.j.d.d.d.d.u.t.d.d.j.=.u.}.}.t.n a 9 0 c v q 9 9 d $.l.k.$.d a a q a a a a 9 9 a S >.v.oX&X:X3XDXDXDX3XDXDXDXJXDX<X;XOXv.>.#.S #.;.u.*.n v a a p 8 8 9 p 8 2 2 p D t.d.l.l.h.$.Z Z $.#.S #.#.#.*.=.*.S S n n n n n n n n n n a n a a S S Z u.#X<X,Xn a a c c c 0 9 9 8 8 8 8 6 6 6 8 2 8 9 4 4 9 d #.8.8.d.d.d.d.d.u.#.#.S Z a a a a v v v n d n n d d d d d Z S #.#.8.f.l.h.f.f.h.l.h.h.h.c.v.v././.b.b.(.b.b.v.v.v.d.>.F a 9 9 9 u p p v v v v p p p p v v v v v a u.f.v.v.v.(.(./.&X`.&X>X>X:X:X<X+X$X*X*X*X+X#XOXl.f.>.$.#.[ Z #.#.$.;.>.u.>.;.;.>.$.S d S ;.k. Xh.h.h.h.h.k.k.k.#X$X#Xp.p $ : 9 a 9 4 4 4 2 2 4 4 0 v n D D n n v F S F v a q q c c c q 9 2 2 2 5 5 2 2 6 6 6 6 2 8 c N D *.D N D D *.D n v v c c c c k k k k k k 6 5 5 1 1 5 1 1 1 1 5 5 5 5 5 6 6 6 6 6 5 5 2 2 2 4 8 a n n D =.t.j.k.j.d.d.d.t.t.;.#.#.#.;.j.",
"d.d.t.;.;.;.t.d.=.=.=.=.*.*.*.*.;.;.u.d.k.d.d.u.u.;.;.;.>.>.;.;.=.=.=.*.*.*.*.*.*.u.k.j.t.*.n a d p 9 > u u.@X@Xt.S v v c a a 9 3 a n v p 9 0 0 4 4 8 9 a a n n S #.u.d.u.t.u.j.{.{.{.l.{.l. XoX#XoX X X X X Xv.d.d.d.d.j.j.j.d.;.d.j.k.j.j.t.e.e.e.D v c 0 8 8 v 9 9 9 $.f.v.OXoXoXoXoX Xk.u.=.F v 9 q a v a 9 d $.d.l.+XDXJX<XJXDX3X:X+Xl.;.#.Z d d d n a a a a p p p p p p r 4 8 4 8 8 3 r w.d.d.k.f.;.#.S #.*.#.*.*.*.*.#.#.n n n n n a a a n n n n n n n n n d S d.<XJX,X=.v c c c c p a a 8 8 8 8 5 5 8 8 c 6 8 9 3 4 S u.d.8.8.8.>.;.>.d.d.d.;.$.S d d d n n S S S Z Z Z Z Z Z Z #.$.>.>.h.h.h.k.f.f.8.8.8.>.8.8.;.&.#.Z Z &.:.Z :.c.(.d.$.S a 9 9 a a p q k k v v v v v v v l q q c D =.u.>.>.f.v.(.(.).(.(.(.>X:X>X+X/.d.d.d.>.>.;.;.;.=.&.$.$.$.$.#.#.S S S #.#.#.#.#.#.#.#.S S d d d $.>.d.d.k.@X$X#Xk.u.S q 9 9 9 a a a q 9 8 2 4 9 9 9 a v n n n n n n S n v a q q q q q 0 8 2 8 8 5 5 2 6 6 2 1 1 8 c N D *.N N n D D D D n v q c c c k k k k k k 8 8 5 5 1 1 % % 1 1 1 5 5 5 2 1 % 5 2 1 # 1 1 ; 2 3 8 n e.i.j.j.t.u.d.j.j.d.d.d.t.;.=.=.=.;.d.d.",
"d.u.t.;.;.;.u.u.=.=.=.*.*.*.*.*.;.>.u.d.k.d.d.d.u.;.;.;.;.;.;.=.;.=.=.*.#.*.=.=.e.d.j.t.*.v p 4 4 9 a n ;..X$X.X=.n v v a 9 9 2 3 p n c 9 8 8 8 2 2 4 p a #.=.;.$.>.k.l.v.{. XoXk.l.{.oXoX#XoXoX/. Xv.v.l.k.d.;.#.n d a n S =.t.j.j.d.d.t.*.n v q q k k k 8 8 q 9 f ;.v.*X*XOXc.v.v.OX*X*X,X*X$Xj.u.D v q 9 9 9 : 9 f 9 f d.;X<XoXh.;.#.d d d n a a n n v c c c c c c c p p r r 8 8 4 8 8 6 z _ d.d.k.d.=.S S #.*.#.*.*.S S #.#.n n n n n a a a n n n n n n n n a d #.k.;X<X XS c c m c c c a a p c k 8 8 5 8 8 k 8 0 9 4 p *.d.8.&.&.#.#.Z #.#.;.;.;.>.>.;.$.$.$.#.#.S Z Z d d S Z $.$.;.>.8.f.f.f.9.8.8.>.;.;.&.$.=.#.n n #.=.Z f A &.OX*X/.>.S n a q q a a a v k k l v v v v v v v l k c D D =.;.>.>.h.+X;X&X&X+X(.(./.q.} f ;.;.;.;.;.;.;.;.=.=.=.=.$.$.$.$.#.#.#.#.#.#.#.#.#.#.S S S S n d f d Z #.u.j.u.=.2 9 9 q v v c c c k q 9 8 2 2 9 9 9 a n n n n n v n S n v a q q q c q 0 8 2 2 8 5 5 1 5 5 2 2 6 c v N D D N N N D D D D n v q c c c k k k k k k 8 8 5 5 1 1 % % 1 1 1 5 5 5 2 1 5 2 2 1 # ; 2 9 v S e.j.{.}.j.u.t.u.d.j.j.d.d.d.;.;.=.=.=.;.;.d.",
"d.;.;.;.;.;.t.t.*.*.*.*.*.D N n t.u.d.d.d.d.d.d.u.;.;.;.>.;.;.=.=.=.*.#.*.=.;.t.j.t.*.n a 4 1 ; u d $.d.@X,X#Xd.S a a a a 9 8 2 4 p a a 9 4 8 9 a n *.=.u.d.j.j.h.h.v.v.oXoXoXoX XoXoX#X#X/.v.h.d.d.d.d.d.u.;.;.;.=.#.d a n *.t.j.d.t.*.n a 9 8 2 2 2 8 0 0 8 9 $.c.<XDX3X&X(.(.(.+X&X;X:X<X:X,X,X1X.Xi.*.n v v 9 9 p 9 : 9 d d n a p p a a n a a a a c c c c c m m c c c z 8 8 z 8 8 h z 8 8 b u.f.k.u.$.Z S #.*.*.#.#.*.n n n n n n n n n n n n n n n n n n n a d #.d.$X@X;.a v c c c c c a a c c c k h 8 8 8 8 0 0 4 4 S d.j.d.;.$.#.#.Z Z #.Z #.$.>.u.d.f.f.d.>.>.>.$.$.;.&.;.>.>.8.k.h.l.l.8.>.>.;.&.$.$.#.#.*.#.n #.#.#.#.d Z $.8.#X$XoXu.n v c c c c c p c c k k c c c c v v v v v v n n v S S S =.v.*X*X(.f.&.&.&.&.$.$.>.u.>.>.;.;.;.;.$.$.$.$.=.=.=.$.$.=.=.*.*.*.#.#.S S S S n n n S S S S S D n 9 2 4 9 0 k c c c k k k k 0 8 2 2 8 9 0 a v n n n n v n S n v v q q q c c 0 8 2 2 8 5 1 1 2 2 2 8 0 D D D D N N D D D D D D n v k c c c k k k k k k 8 8 5 5 1 1 % % 1 1 1 1 5 5 2 1 8 1 1 2 ; 2 a =.j.k..X@X.Xl.k.d.t.d.d.j.j.d.d.u.;.;.=.;.;.;.5.8.",
"d.;.;.;.;.;.;.;.*.*.*.*.S n n v ;.u.d.d.d.d.d.d.u.>.;.;.>.u.>.;.;.;.;.;.t.;.=.=.S n p 3 # # 9 *.>.j.l.@X,X,X{.S v a a a a 9 0 q d #.*.#.n n n D j.j.j.k.l.l.l.v.OX/././.oX#XoX@X$X#X#XoXh.f.>.&.>.;.;.;.u.d.k.l.#X#X.Xl.j.t.t.e.=.*.n a 8 8 2 2 2 1 2 9 2 2 *.#X<X3X3X4X>X&X&X&X;X;X;X*X*X+XOXoX$X1X#Xk.=.v a a v 9 9 a 9 9 9 9 a p p a n n c a p a p c c c m m c c p r r 8 8 8 c 8 h z z 8 8 8 ;.u.k.>.#.Z S #.#.#.#.S n n n n n n n n n n n n n n n n n n n n n n d =.l.u.d a v c m c c c a a c c c k h h h 8 8 c p 2 9 =.j.d.;.$.Z Z Z d Z [ Z Z Z [ &.8.h.v.v.v.c.f.f.f.f.h.d.f.h.h.h.k.k.d.;.;.$.$.#.#.#.#.#.*.#.n =.=.n 9 d d.v.;.d.oX#Xu.c c c k c c c k k k k k k c c c v v v v v v v v 9 p p 9 f ;.v.+Xv.8.} [ &.>.8.d.j.d.d.u.;.;.$.$.=.=.=.=.;.;.;.=.e.=.=.*.*.#.S n n n n n S S S S *.*.*.D n a 9 9 v v k k k k c c k k k 0 8 8 8 8 9 0 a v n n n n v n S n v a q a c c c 0 8 2 2 2 5 2 1 2 2 2 0 m D D D N N N D D D D D D n v q c c k k k k k k k 8 8 5 5 1 1 % % 1 % 1 1 1 1 1 1 1 1 2 2 4 a u.@X@XoXv.l.k.d.d.d.u.d.d.j.j.d.d.u.=.;.;.t.8.8.5.5.",
"d.>.t.;.;.;.=.=.*.*.*.*.n n a p $.;.d.k.k.d.d.d.u.u.;.>.u.d.u.u.;.t.u.u.t.=.*.S 4 : ; ; : p j.1X@X#X+X$X,X$Xp.a v a q q q c c D u.k.l.k.u.d.k.l.k.l. X@X#X$X$X$XOX(.oXOX$X$X$X#X@X Xk.d.>.>.>.>.9.f.h.v./.oX#X#X$X$X$X#X@Xk.t.*.c p 8 2 2 2 5 8 8 9 4 : 4 =.,XJX3X:X>X=X&X&X&X&Xv.v.v.v.h.h.f.k.d.u.t.S p p v D S a a n v c c c p p 8 p p p p 8 c c c c c m m B 0 0 0 0 0 0 h h c z h z h h 8 6 S >.k.>.#.d S #.S S S n n n n n n n n n n n n n n n n n n n n n #.n f #.d.;.a a v v m m c c a a p p p p 0 k h 8 5 c 9 : u t.k.d.;.#.d d d d Z Z Z Z } &.8.h.v.(.&X+X/.c.h.f.f.k.l.h.k.j.d.;.$.#.#.#.#.#.#.#.#.#.#.S n S *.a 4 p d.h.d.Z >.#X#Xt.a q k k c c k 0 k k k c c c c c c c v v v a a a a a a a p d u.OX$Xv.>.>.>.>.;.#.;.;.=.=.=.=.$.$.=.=.=.=.=.=.=.=.=.e.=.=.*._ n n n n n n n *.*.*.D D D D n v v v q q q q k k k k k k k 0 8 8 8 8 8 0 k c n n n v v n F n v a a a c v c q 8 2 1 2 5 2 1 2 1 2 0 v N N N N D D D D D D D D n v q c c c k k k k k k 8 8 5 5 1 1 & & % % % % 1 1 1 1 1 8 8 9 a t.@X*XoXl.k.k.k.j.d.;.d.d.j.j.j.d.d.t.=.;.5.d.8.8.;.;.",
";.;.t.;.;.=.=.=.*.*.*.*.n n a p S $.u.k.k.d.d.d.u.u.;.>.u.u.u.>.t.=.=.#.n p 4 : 4 3 4 n t.l.@X1X#X+X+X*X*X X$.d a a q 9 q c n w.l.oX@Xl.k.l..X@X#X#X$X,X;X;X;X;X*X*X*X*X*X$XoXl.d.=.#.$.>.h.v.(.(.+X*X;X*X$X#XoX@XoX X{.k.t.n p 8 8 5 1 1 1 2 2 4 9 u a d.<XJXDX:X4X4X4X:X*X+XoX>.>.>.;.$.$.$.&.;.#.a 9 a =. X,X.Xe.c c k 0 k 0 0 p c c m c p 8 c c c c c c c c c k c c c c c c c z z z h 8 8 6 a =.f.>.#.S S #.S n n n n n n c n n n n n n n n n n n n n n n n d d f Z >.>.#.n n v b c c c a a p p p p c c k 8 6 0 4 3 d d.h.8.>.#.Z Z Z Z [ $.&.:.9.b.(.(.(.(.(.(./.c.h.h.h.h.l.l.k.d.;.*.#.S S #.#.S #.#.#.#.*.n S *.a > a l.v.&.Z Z h.$XoXu.9 q k k k k 0 0 k k k k c c k c v c a c a a a q v c v v p 9 S l.*Xl.=.$.=.;.;.=.=.=.=.=.;.;.t.t.=.=.=.=.-.$.$.*.*.*.*.*._ n n n n n n n n *.*.*.*.D D S D n v 9 a q k k q q 0 0 k k k 0 8 8 8 9 8 0 k c n n n v v n F n v a a a c v c q 8 2 2 1 5 5 2 2 2 5 0 M v v M N D D D N D D D D n v q c c c k k k k k k 8 8 5 5 1 1 & % % % 1 1 % 1 1 2 8 q v n e.l.#X$Xv.h.k.k.h.k.d.u.d.d.j.j.j.d.d.t.;.;.5.d.d.8.8.8.",
";.>.t.t.;.=.=.*.*.*.=.*.S n a 9 a S u.k.k.d.u.u.u.u.;.;.;.;.;.$.=.*.a 4 3 2 4 4 n =.j.{. XoXoXoXOXOX+X*X$Xd.Z a a a q q q 0 c D k.l.l.j.>.u.j.k.l.k.l.l.v.OX$X*X*X$X+X@Xv.k.d.t.*.#.#.;.k.oX*X*X&X+X+X(.v.v.v. X@X@X Xk.t.S 4 : 5 5 5 5 5 1 1 1 # 4 u.<X3X:X:X3XDXDX3X3X<X;Xv.d.>.>.;.;.#.#.#.#.&.#.d [ ;.l.$X<Xj.n 8 0 c M m k k 8 8 0 c c k 8 c c c p p p p p k k k k k k k k z z z z 8 8 h 8 4 #.d.u.#.S S #.n n n n n v c a a a n n n n n n n n n n n n n n a d s d &.k.j.;.a n b b c c c a a a a c c c 0 8 6 8 4 9 $.l.h.f.>.$.S #.&.>.8.f.v.(.(.(.(.(.c.c.c.c.h.f.9.8.d.d.j.d.t.=.$.*.#.*.N N N N N N N _ *.D S n p a t.oX>.[ Z [ h.OX@Xk.p q q 0 0 0 0 0 k k c c c c c c c a 0 p a c a a c c v n q 9 v =.#Xf.$.#.=.;.=.=.=.=.=.t.t.t.t.t.=.=.=.=.*.*.*.#.n n n n n n n n n n n n n n *.*.S S D S D *.n 9 a a q 9 q a v c k k k k 8 8 8 8 8 0 k v n n n v v v F n v a v v c v v q 2 2 1 1 5 5 5 5 5 5 0 v v v v N D D D N D D D D S v q c c c k k k k k k 6 6 5 5 1 1 % % 1 1 5 1 1 5 8 0 c c v =.l.#X#X/.h.f.f.f.h.h.f.d.d.d.j.j.j.d.d.u.;.;.8.d.d.d.8.8.",
";.;.t.t.;.=.=.*.=.=.=.*.n n a 9 9 n t.j.k.d.u.t.d.u.t.=.;.$.*.#.p 4 ; ; 4 S j.oXk.oX#X@X X XoX/.+X+X+X$XoX$.9 a 9 q 9 9 0 8 0 n k.l.k.>.$.$.t.u.$.$.#.#.#.Z Z Z $.$.S Z d n S *.t.e.;.d. X$X*X*X$X Xd.$.#.=.k.oX#X#X@Xk.=.v 4 1 1 5 6 6 5 5 1 1 ; e.5XJXJX;X_.c.(.+X*X+Xv.d.$.#.$.$.$.#.#.#.=.;.Z Z #.;.j.j.t.=.a 8 0 c k 8 k c 8 8 8 8 0 0 8 8 c p p p p p 8 8 r 8 8 8 8 8 8 8 z 8 z r 7 6 h 8 : S d.u.#.S #.#.n n n n n c a a a a a n n n n n n n n n n n n n a ( d f #.k.oXk.a n n n c c c c n v c m m c 0 8 2 2 : u >.v.c.c.d.>.>.8.v.OX&X:X<X;X(.b.x.9.9.9.8.8.8.>.;.&.$.#.#.#.#.n n n n #.N N N n n n n n n S n 9 p d.l.;.Z } &.Z 8.OX#Xd.p q q 0 0 8 0 0 k k c c c c c c c p 0 9 a c a a 0 c n n v v n S $Xk.$.#.$.;.=.=.*.*.*.=.=.=.;.;.=.=.=.*.*.#.#.#.a a n n n n n n n n n n n n n S v D *.S n S n a a v a a q 9 9 8 k k k k 8 8 8 8 8 9 q v n n n v v v F n v v v v v v v q 2 2 2 1 5 5 6 8 5 5 8 v N M v N N D D D D D D D n v q c c c k k k k k k 6 6 5 5 1 1 % % 5 8 6 6 5 8 9 a v 9 a u.@X$XoXv.>.8.f.k.f.d.8.8.d.d.j.j.j.d.d.u.8.8.8.8.d.d.d.8.",
"d.;.;.;.;.*.*.=.t.j.t.n a c 0 2 4 a *.d.j.d.d.;.d.t.=.-.=.N v p : ; 4 #.d.z.l.T.l./.oXoXl.k./.%X;X+X*X$X;.p p v 9 0 9 0 0 0 k a d.k.k.u.;.$.$.;.$.$.$.$.$.*.#.#.#.#.S S S S S D =.e.t.e.D S *.e.v c 0 q v *.u.k.@X$X,X.XD 2 1 1 5 5 5 5 5 5 1 1 1 v j.@Xl.d.=.#.$.t.d.j.u.$.#.#.*.=.=.$.;.d.;.d , S d.j.t.=.n a 2 8 0 8 8 8 0 k 1 2 2 2 4 4 2 2 8 8 4 6 6 6 8 8 8 0 c n N *.w.e.*.N c 8 2 2 2 4 4 c e.i.=.#.#.n #.S S n n n v a v v n n n n n n n n n n n n d a n n n a d d.oXoX=.n p a n n c c m m m B B m 8 2 1 4 u f.^.`.).x.c.(.&X>X4X4X:X>X(.v.9.>.>.8.>.$.#.#.#.#.n n n d n n n n n n n n n n n n n n S S S a u d ;.k.u.S $.#.Z $.f.+X+Xd.a a 0 0 8 8 8 8 k k k k k c c c k p c c c c a a q v n n v n n d =.#Xd.#.#.#.t.=.*.*.*.*.=.=.;.;.;.=.;.d.=.n p p p a n n n n S #.S *.*.#.S *.*.D D D S S D S n v 9 9 q q q 9 0 q k l c k 8 0 8 8 8 9 q v n n n v n v n v q 9 v n a q q 9 9 2 2 1 2 2 2 2 2 6 0 c v v M N M N D D M M N D D c k k c c k k k k k k k 8 5 5 5 5 k c c w.y.e.v 4 8 a p Z ;.h.+X;XoXd.>.d.k.l.k.d.d.u.d.j.k.k.k.j.d.>.>.>.d.d.d.d.d.8.",
"d.;.;.;.=.*.=.=.j.j.w.n p a 9 2 3 p n =.t.a.;.;.d.t.=.*.N v 8 2 3 p #.d.l.l.T./.T././.l.h.l./.oX$X*X$Xk.#.a v a 0 0 0 0 0 0 q q j.k.l.k.u.$.=.;.=.=.=.t.=.=.*.*.*.*.*.*.*.*.*.*.w.w.w.w.*.*.*.w.c k k c v n S S d. X$X{.n 2 % & 1 5 5 5 5 5 1 1 1 8 N e.*.*.=.=.=.*.e.t.*.a a -.a.t.=.=.t.=.d 9 a =.u.e.*.*.N v 2 8 c p 8 1 1 2 v a n n n n n n n n n c c c n N *.D D N D *.w.e.N v a 8 4 2 4 8 2 a e.i.=.S n S #.#.S S n n v v v v n n n n n n n S #.#.#.( n d n n n a d d.oX/.=.n p a a c m M m B B B m z 6 1 9 u a h.).>X>X`.>X>X:X:X:X=X(.c.c.f.8.d.d.>.=.#.S n _ n n n n n n n n n n n n ( S S S S S S #.*.d a a *.u.u.$.#.#.#.Z $.9.OX$Xd.a a q 0 8 8 8 8 8 k k k k k c c k c c c c c c c q n D *.D D S v *.@Xl.#.#.*.;.#.*.*.*.*.*.=.;.;.;.;.;.t.*.d a s a d n #.#.#.#.#.#.*.*.S S *.*.D D D S S D S n v q q q q q 0 a q k k c k 0 0 8 8 8 9 9 v n n v v n v n v q q v v a q q 9 9 2 2 2 2 2 2 2 2 6 0 c v v M M N M N D N N N D D v k k c c k k k k k k k 8 5 5 5 5 0 c c D t.t.n 4 4 p a ;.h./.).(.v.j.u.d.k.l.k.j.d.u.d.j.k.k.k.d.d.>.>.>.u.d.d.d.d.d.",
";.;.;.;.=.*.=.u.j.t.N c c 0 8 2 3 4 a *.e.t.t.t.d.t.-.n p 4 2 3 n =.l.{.l.k.l.T./.T.l.l.l.l.oXoX$X<X#X$.a n v q 0 0 0 0 k k 0 9 t.d.{.l.u.=.=.;.;.;.t.t.;.;.$.$.=.*.=.=.*.*.*.*.w.*.*.w.e.e.*.N k c c m c a 9 9 S j.#X}.v 1 & % 1 1 5 5 5 1 1 1 2 8 N =.*.*.=.t.e.*.*.*.a 4 n j.t.=.=.t.=.a 9 9 $.=.=.n N *.D n 8 8 8 2 2 0 M D j.k.f.u.;.$.$.=.*.=.e.e.e.e.t.j.i.t.G n v a c v c p 0 8 8 4 8 8 2 9 *.t.e.n n #.S S S S S n n n n n n n n n S S S #.#.#.#.#.#.#.n n n n d ;.oXoX=.#.a a a c M V M N N m h 7 1 1 a a #.OX3XDXDX4X4X:X&X)./.c.h.f.>.;.8.k.k.;.S d n n n n n n n n n n n n n n n n S S #.#.*.*.*.#.a a S ;.;.$.#.#.#.$.Z #.8.OX$Xu.a a q 0 8 8 8 8 8 8 0 k k k 0 k k c c c c c c p 9 n w.t.e.e.D n n {.{.$.S *.*.#.*.*.*.*.*.=.;.;.;.;.t.=.#.a a d a d #.#.#.#.#.#.*.*.*.#.#.*.*.D D S S S D S n n a 9 q q a a a q k c c k 0 0 8 8 8 8 0 c v n n v n n n v 9 9 a v a q 9 9 9 2 4 2 2 2 2 2 2 6 0 c m v v M M N N M D D D w.D n c k c c k k k k k k k 8 5 5 5 5 0 c c n e.t.*.p 4 u #.l.+X(.(.v.d.d.d.j.l.l.k.k.d.d.d.k.k.k.k.d.d.>.u.u.u.u.d.d.d.d.",
";.;.;.=.#.*.u.l.j.*.c c c k 8 2 4 4 p n =.t.t.t.t.e.*.a 3 3 p n d.l.{.z.;.=.d.T.T.T.l.l.l./.oXoX<X;Xk.d a n v q 8 0 0 k k k 0 9 a $.j.k.d.;.=.;.;.;.t.t.;.;.=.$.=.=.=.=.=.*.*.*.w.=.=.e.t.e.D v c c c c c a a p a u.#X}.a 1 5 5 1 1 5 5 5 1 1 1 1 8 N e.=.*.*.*.=.e.*.a 4 a =.t.*.*.e.e.v 4 9 n S S a p n n n 8 : 1 2 r n e.}..X#X$X*X#Xl.u.=.$.u.u.d.j.i.u.u.i.e.w.M q 9 2 8 2 0 0 0 9 0 8 8 8 2 4 n e.e.*.#.#.#.S S S S S S S n n n n S S S S n S #.#.#.#.#.#.S S S #.S ;.oXoX;.#.a a c v M M N B m h 5 1 1 1 a d ;.*XJXJXDX:X+XOX/.h.8.&.[ Z Z &.d.j.>.#.d s n n n n n n n n n n n _ #.#.#.S S #.#.*.*.S S n a #.;.;.$.$.$.#.#.$.Z $.8.+X$Xu.a a q 0 8 8 8 8 8 8 8 8 8 8 0 8 0 k p c c c c p 2 v =.e.e.e.D S p =.l.=.S #.#.#.*.*.*.*.*.=.;.;.;.d.t.=.n p a n n #.#.*.*.*.*.*.*.*.*.*.#.#.*.D D S S S S S S n a a q q a a a q k c c k 8 0 8 8 8 8 9 q v v v v n n n v 9 9 q q a q 9 9 9 2 2 2 5 2 2 2 2 6 0 c c c m v M M M N D D *.w.G M c c c c k k k k k k k 8 5 5 5 5 0 c c v *.y.e.a 4 4 >.OX+X+X(.h.>.>.d.k.l.l.k.k.d.d.j.k.k.h.k.d.d.>.>.>.>.u.u.u.d.d.",
";.;.=.#.#.;.j.{.e.n 0 c c k 5 2 9 4 p c D w.e.e.e.*.n 9 4 a =.j.l.j.a.;.#.d ;.l.l.l.l.l.l.l.oX$X<X#X=.d n v a a 9 9 0 0 0 0 0 8 4 a *.u.j.j.u.t.;.;.;.;.;.;.;.=.*.*.=.*.*.*.*.*.w.e.e.t.e.*.n c c c c p c c v n p t.@Xj.9 % 6 6 1 1 5 5 5 5 1 1 # 1 c *.*.#.*.#.*.=.n 3 8 D e.D v D *.n 9 2 a D S d a p n n a p ; p t.{.@X@X@X#X1X,X,X$X Xk.u.u.k.u.t.=.*.D n v c k k 0 0 0 0 8 8 8 8 8 8 8 6 5 6 2 9 D t.t.#.S #.#.S S S S S S n S S D D *.*.*.n n n n n S S #.*.*.*.*.#.;.oXoX;.#.d n n N v m c h 7 1 1 5 6 6 9 p #.oX3X3X&Xh.f.8.=.#.s s s d u =.z.d.#.d d a n n n n n n n n n n S #.#.S S n *.*.S S n n d d S $.;.$.#.$.$.#.#.$.[ $.f.+X$Xu.a a k 0 0 8 8 8 8 8 8 8 8 8 8 8 0 0 p c c c p 0 2 v D w.e.w.=.*.9 a t.;.#.#.S $.*.*.*.*.$.=.=.;.;.d.;.#.a u a #.#.#.*.=.*.-.=.=.=.*.*.*.*.S S S S S S S S S D D a a q a a c a 0 q c c k 8 8 8 8 8 8 8 0 c v c v M v n v 8 8 q k k k 0 0 9 2 2 1 5 5 2 2 2 6 0 c c c c m v v M M D D D w.D N c v c c k k k k k k k 8 5 5 5 5 8 c c c D t.t.n 9 4 ;.#X*X+X/.h.>.u.d.k.k.l.k.d.d.d.j.k.k.k.k.d.u.>.>.>.>.>.>.u.d.d.",
";.;.$.#.;.j.l.k.n c 0 c k 8 6 5 8 4 8 p v n N D w.n a a n t.k.l.j.=.#.#.( d ;.l.l.l.l.h.k.oX$X<X;Xk.d n S v 9 a 0 9 0 0 0 0 0 8 9 9 a D j.}.j.e.;.;.;.;.;.;.;.;.*.=.=.=.*.*.*.*.w.e.e.e.*.n c c a c c c c c a a a *.}.y.4 # 5 5 5 5 6 6 6 5 5 1 1 6 n *.*.*.#.n n n 8 3 p n S v n D n 9 3 4 v D d d d d ( ( #.n =.{.<X2X<X1X1X1X$X$X@X{.j.u.u.u.e.D a 9 4 4 4 2 1 5 8 0 0 0 h 8 h 8 8 8 8 6 5 5 8 2 2 c t.j.t.#.#.#.#.#.D D D D D #.*.*.*.*.*.*.n n n n n n S S *.*.*.=.#.;.oX#X;.#.n n D n c 8 5 1 = = 5 h c c 8 9 u ;.(.c.:.f f a a d a a n n p ;.j.=.a a d d n n n n n n S S S #.*.*.*.S n n $.S a p p a S #.u.$.$.$.$.#.#.$.$.$.#.>.c.+X$Xd.a v k 0 0 8 8 8 5 5 5 8 5 8 8 8 0 0 0 p c c 0 0 9 n *.=.=.e.t.t.n p #.=.#.S #.;.*.*.*.*.$.=.=.;.8.d.;.#.a p n n #.#.*.=.=.=.=.=.=.*.*.*.*.n n S S S S S S S D *.v a q a v v a 0 k c c k 8 8 8 8 8 8 2 9 q v v v n c v v 8 8 q k k k 0 9 9 2 2 1 5 5 2 2 2 6 0 c c c c c c m m m N N N D D n c c c c k k k k k k k 8 5 5 5 5 8 c c c N t.t.*.p 3 S v.*X+Xv.8.>.d.d.j.k.k.k.d.d.d.k.k.k.k.k.d.u.;.>.>.>.>.>.>.u.u.",
";.=.#.=.j.{.j.e.v a c 0 5 5 6 8 9 9 p p p c v v N n n *.u.j.k.j.d.=.#.#.#.-.8.l.h.h.l.v.oX#X,X<Xk.*.d n S d a a 0 0 0 0 0 0 0 0 9 4 4 a *.u.u.u.t.u.u.u.u.>.>.>.=.=.=.=.=.=.=.=.*.*.*.N n a a a c c c c c c a a p n i.t.8 % 5 & 6 6 8 8 h 8 5 5 5 6 c D S S n a v p 8 9 v n v v n S v 9 3 p n _ d U { { I s d ( g.oX1X%Xl.a.d.k.t.e.=.S n n N N 9 4 1 1 1 2 2 5 5 8 6 8 h 8 j 6 h 8 h 8 6 8 6 8 8 9 2 9 e.j.u.$.S S #.*.*.D G $.*.#.*.*.*.*.*.*.n n n n n n n S n S *.=.#.=.oX@X=.#.n n n a 8 1 1 1 1 6 h c m M 0 4 > d f.8.} g p c n n n b n N ( t.a.*.n d d d n n n n S S *.*.*.*.*.=.*.S n n n a u 9 u d $.;.d.;.$.$.$.#.#.$.$.#.$.f.(.&X+Xd.a a k 0 0 8 8 8 5 5 5 5 5 5 6 8 8 0 0 p p p 0 0 9 n D *.*.e.u.i.t.n S $.S S $.$.*.*.*.*.$.=.;.;.d.d.=.d p s n d #.#.*.=.=.=.=.=.=.*.*.*.*.n n S S D D S S S D *.v a q a v v c 0 q c c k 8 8 8 8 8 2 8 8 k c c v c c c v 9 8 k c k k q 0 9 8 2 1 2 2 2 2 5 6 0 c c c c c c c c m c c n D D n c c c c k k k k k k k 8 5 5 5 5 0 c c c n e.t.=.a : u d.$X+Xh.8.>.d.d.d.k.k.d.8.d.d.k.k.k.k.k.d.>.;.;.;.>.>.>.>.u.u.",
";.=.$.u.{.@Xj.D c c c 8 1 % 6 k p a a a 0 0 c v c D t.j.l.j.d.8.j.d.=.#.#.;.d.h.d.j.l.oX$X;X,X,X#.n n n a v v 9 q 0 0 8 8 8 0 0 8 9 9 9 9 v e.k.u.u.u.d.d.d.8.u.=.e.e.e.e.e.e.e.*.D n c p p 0 p v v v c c v v n a a t.t.0 & 6 & 6 8 h h h h 6 5 5 2 0 n n *.*.#.c c c v n n n n a a a u > w s %.5.C.U.C.<.L i L < L U Y L < , , , : : : 2 2 4 8 # ; 1 2 5 5 2 2 8 8 k 8 h h h h h 8 8 8 6 8 h 8 6 0 4 9 *.k.j.;.S S *.*.=.=.G =.#.#.#.#.#.*.*.*.S S n n n n n n n n *.=.#.*.{.@X*.#.n n c 4 1 1 1 6 z c c c k c a 4 > s l.f.:.Z a n N N n b c p w.r.t.*._ n d a n n n S S #.*.*.*.*.=.=.*.S n a 9 9 9 u a #.;.u.u.u.;.#.#.#.$.S $.#.$.h.+X&X+Xf.a a k 0 0 8 8 8 1 5 5 5 5 5 6 6 8 0 0 p p 0 0 0 9 n D D D w.u.i.k.$.#.*.S #.=.#.$.*.*.*.$.=.=.;.d.8.=.d p a n a #.#.*.=.=.*.=.=.=.*.*.*.*.n n n S D D S S S *.w.v a q a v v c 0 0 c c k 8 8 8 8 8 2 2 8 0 k v c c k c c 9 0 c c c k q 0 9 8 2 1 2 2 2 2 5 6 0 c k c c c c c c c c c v N D n c c c c k k k k k k k 8 5 5 5 5 0 c c c n =.t.e.v : 9 ;.oXoXh.f.d.;.u.d.d.j.d.8.d.d.k.k.k.k.k.d.>.;.;.;.;.>.>.>.u.u.",
"*.=.d.l.oX}.e.n p 0 8 8 1 % 5 h S *.D v a n n n *.j..X@XoXoXoXv.k.j.j.d.8.d.f.h.f./.*X;X<X5X<Xd.v v v n n v v v q 0 0 0 0 8 5 8 0 8 2 4 4 4 9 n j.d.>.>.u.d.d.u.t.e.w.e.e.e.*.n v v a a a a c v a a a c v v v c 2 p =.e.0 % 1 5 h h h 8 h 8 8 8 % 5 c N *.*.S n n n v c a a a a n d i i I %.6.P.-XnXNXnXB.! ~ ~ < H 2.m.7.T < < < w p n n n #.=.u.t.*.n n e.i.i.w.M k 0 k k k 5 k k k 8 8 8 8 8 8 8 8 0 N t.u.=.S S *.#.D D *.=.#.#.$.#.#.d n #.n n n n n n n n n n *.=.=.=.e.t.a a a 8 2 2 8 8 c c c c c c c c 0 9 9 u u.h.>.Z n M v n M c c N j.t.*.n n n n #.*.#.S S *.*.*.=.e.D *.=.n v c a p p a d $.d.d.;.u.;.$.#.#.#.#.#.Z d >.OXv.v.*Xl.S 9 0 k k k 8 k 0 0 8 5 1 1 5 8 8 8 0 0 0 0 8 8 9 v D D *.e.=.=.{..Xt.a d =.;.$.=.=.=.=.=.=.=.=.d.d.=.d p a n n #.#.$.=.*.*.*.*.*.*.#.S n n n n S S S S S D D D D v 9 9 v n n v c c k 8 8 8 8 8 5 8 8 5 5 8 c M n c k 0 0 k c c k k k 0 8 2 2 8 2 2 5 2 2 2 6 8 k c c c c c c c c c c c v c c k k k k k k k k k k 8 5 5 5 5 8 p p v v *.i.i.*.9 4 S  X$Xh.8.d.>.u.u.u.d.d.d.d.j.k.k.k.k.k.d.d.>.u.>.>.>.u.u.;.=.",
"=.t.k.{.{.j.D p c p 0 8 5 % 5 8 t.k.{.t.n a v v *.u.l.@X#X$X$X$X$X#XoXh.d.j.v.OX$X*X;X<X3X<Xl.*.v v n n n v v v k 0 0 0 0 8 5 8 1 2 4 4 9 a 9 4 *.=.u.d.d.u.u.u.t.t.t.e.=.D n n c c a a a c v n n p p v N n p 8 4 p *.e.c 5 6 6 5 5 5 5 5 5 1 1 % 2 p n D *.S n 4 p c n n n n d i I ) 1.6.N.N.B.R.wXbXbXH.M.n.n.R  .V.B.B.n.n.2.6.5.d.g.g.g.XX%X$X$X@X{.oX@XoXl.w.D v 0 8 8 8 8 8 8 8 8 8 8 8 8 2 2 3 4 a *.*.#.S #.#.*.*.*.*.#.#.[ d [ #.$.#.#.#.#.#.S n n n n n S *.=.*.n n a u 9 9 8 8 8 0 p c c c c c c c c k 9 9 u u.k.8.[ c M v n M c n *.t.-.n n n n #.*.#.#.S S #.*.*.*.*.n v n a a a p p u a #.;.u.u.u.u.;.$.#.#.#.#.#.Z Z d.#Xh.9.oXv.S 9 0 k k k 8 k 8 k 8 8 5 5 2 2 8 8 0 0 0 8 8 8 9 v D D *.=.=.*.u.j.l.u.S d $.;.=.=.=.=.=.=.=.=.;.d.;.#.a a n n #.#.=.=.=.=.=.=.*.*.#.S n n n n S S S S S D D D D v q 9 v n n v c c 0 8 8 8 8 8 5 5 8 6 5 8 c M M c c k k k c M c c c k 9 8 2 8 2 2 5 2 2 2 8 8 0 0 0 k c c c c c c c c v c k k k k k k k k k k k 8 5 5 5 5 8 p c v v *.t.u.=.p : a k.$Xv.d.d.>.u.u.u.d.d.d.d.j.k.k.k.k.k.d.8.>.;.;.;.;.;.;.;.>.",
"j.j.d.t.=.D v p c p 0 8 5 1 5 8 i.#X<X#Xj.*.S n n n #.>.k.v.oXoX<X<X;X*X$X$X*X;X<X<X;X<X3X@X$.d v v n n v v v v k 0 0 0 0 8 6 8 8 a n v a 9 9 9 9 n $.u.d.d.u.u.u.j.j.e.n a a v a a a c v n n n n p 9 v N c 0 9 p a D *.c 2 1 1 1 1 1 5 5 5 5 5 8 0 a n n S n n a c n n a s s L U | m.Z.U.Z.B.M.M.D.0XqX0XW.H.H.M.M.M.V.V.V.B.Z.C.C.C.A.C.C.I.Y.P.I.P.0.0.0.5.%.a.t.-.n w , , 4 3 3 3 , , , , , , , 3 w s #.%.#.-.[ U d U ( ( ( U U [ [ [ [ #.#.#.*.*.*.*.n N n S #.*.#.n a p 9 9 4 4 4 0 p c c a c c c c c c c c 0 9 u t.k.d.#.p m v n n n N e.*.S n n n #.#.*.#.#.#.#.#.#.D D n a 0 8 9 c v a u a S =.;.;.>.d.>.;.$.#.#.#.#.#.Z [ v.OX>.$.d. X*.9 0 0 k k 8 0 8 8 8 k h 8 2 1 2 5 8 8 0 8 8 2 0 v D D D *.*.D S =.l..Xt.d S ;.=.=.=.=.=.;.;.;.;.t.d.;.#.a n S n #.$.=.;.=.=.=.*.*.#.S n n n n S S S S S S D D D v q q v n n v c c 0 8 8 8 8 8 5 5 8 6 6 6 k c D M M c c c c c M m c k 8 8 8 8 2 2 5 2 2 2 8 8 8 8 8 8 0 0 k k p c c c c c k k k k k k k k k k k 6 5 5 5 5 8 a c v v *.t.t.e.n ; 9 u.oXl.d.d.>.u.u.u.d.8.d.d.d.l.l.k.k.d.d.>.;.>.u.d.>.;.=.;.;.",
"i.e.D c p 9 0 p 0 8 8 8 8 5 5 8 u.oX;X;X$X@Xk.u.$.S d #.;.d.j.k.l.oX$X;X<X;X;X*X*X;X<X<X*Xu.d v v v n n n v v v k 0 0 0 0 5 5 8 c D i.j.=.a 9 a 9 p a #.u.d.d.u.d.t.e.*.a p p a a c c v n n n N a 9 0 c c k c N a c N n 4 # # X # # # 1 2 6 8 8 N N S ( ( d d d d a u w < < L Y N.N.B.B.V.M.S.D.H.7XqXgXgXaXaXaXK.J.H.H.S.M.S.F.M.B.m.B.m.m.m.m.m.A.A.C.C.A.A.C.P.T.T.g.4.) U U U U I I I I I U ( ( ( ) 5.6.g.6.1.%.U I I U %.) L Y { { [ [ [ #.$.$.$.*.*.*.*.*.*.*.#.n a a a a a p 4 8 0 c v v a a c c c c c c k 0 9 9 ;.j.d.#.p m n n n n *.=.n n n n S #.#.#.n S #.#.#.n n n 9 p 9 9 c n N c u d $.;.;.;.u.d.;.$.$.#.#.#.#.#.Z ;.OXv.[ Z ;.l.*.9 0 0 0 k 8 0 8 8 8 8 k k 8 2 1 1 2 8 9 9 8 8 0 v N D D D D S S S $.k.{.=.S $.t.e.=.=.;.;.;.;.;.;.d.d.=.#.n #.n S *.=.=.=.=.=.*.*.#.S n n n n n S S S S S D D D n a a v n n v c c 0 8 8 8 8 8 5 5 6 5 5 1 1 5 k c c c c c c c k k k 8 5 1 5 8 2 6 5 2 2 2 8 8 8 8 8 8 8 0 0 0 p c c c c c k 0 c c k k k k k k k 6 5 5 5 5 8 a c v c *.t.t.t.*.: 4 $.l.k.>.u.u.u.u.u.d.8.d.d.d.l.l.k.j.d.>.;.;.d.d.d.;.;.;.>.>.",
"n v 0 9 9 0 8 8 8 2 8 0 0 8 8 9 d.v.$X*X*X;X;X*XoXd.$.$.$.;.>.u.;.d.h.v.oX+X;X<X+X;X5X<Xk.S d S c c v n n v v v q 9 0 0 8 6 5 8 9 S j.@X.Xe.a 9 a 9 9 a S =.i.j.t.*.n a p a a a c c v n n n n n 8 p c c 8 k m M p n *.n 8 2 6 8 v v v S D *.=.=.t.=.=.-.#.[ U U #.U I L T Y 3.N.Z.B.M.M.O.S.H.7XqXiXgXhXhXMXCXHXGXKXKXHXmXJ.M.O.F.S.+.+.M.F.F.Z.M.M.B.m.B.E.E.Z.Z.U.U.U.U.U.C.C.m.m.2.7.7.7.7.6.7.7.7.6.6.3.3.3.| | | | W W <.<.<.| | <.1.5.;.&.;.;.$.#.*.*.=.-.=.*.S n n n n n c a a c v n v c c c c c c c c k k 8 0 p $.d.j.$.n B n N n n *.*.n n n S S S S S S S #.#.S S v a 9 a a c v n c 4 p #.u.;.;.u.d.u.$.$.$.#.#.#.#.#.S f.#X8.f Z $.d.=.q 9 0 0 k 8 0 8 5 5 6 8 k k 0 1 1 1 2 8 0 0 8 9 v n N N D S n S n S =.k.d.$.$.t.=.=.=.;.;.;.;.;.=.;.d.d.=.*.*.n n #.#.*.$.$.$.*.*.#.S n n n n n n S S S S D D D n v a v v n v c c 0 8 8 8 8 8 8 8 5 1 % O X X % % 1 5 8 k c M k k k 8 5 5 5 5 2 6 6 6 2 5 8 8 8 8 8 8 0 0 0 0 c c c c v c k k c k k k k k k k k 6 5 5 5 5 8 a c v c *.t.t.t.e.9 4 S k.d.&.;.u.u.u.u.d.8.8.d.f.l.k.k.d.d.>.;.;.d.>.;.>.d.d.d.d.",
"k 8 8 8 p c 0 8 2 2 8 c c p c a ;.v.+X+X+X*X;X;X*X/.d.;.=.$.;.>.d.8.>.8.f.v.$X<X$X<X3X$X#.u d v c m M M v v v v q 9 0 0 8 5 5 5 4 p S u..X.X=.4 a a p 9 p n =.i.*.n p 4 p a a a n n n n n v c c p c c c c c c h m N e.=.N N w.e.k.l.l.l.l.l.l.l.d.5.5.5.1.1.1.1.1.1.6.6.N.N.Z.R.M.M.S.D.H.7XiXfXhXjXjXjXmXCXKXIXIXUXUXIXGXmXJ.K.F.D.H.7XuXaXuXJ.F.M.O.M.W.bXsXW.Q.E.R.Z.B.B.m.m. .Q Q Q Q Q Q Q Q Q W W W R ! R W Q  .W R W  .2.N.N.m.6.C.I././.d.>.;.#.#.*.*.=.*.#.S n n n n v c v N D w.D n c c c c c c c k k c 8 0 p *.u.k.=.n n n n n #.*.( n S #.#.S S S S d S #.#.S n a 9 9 v v c v 0 2 ; n ;.u.;.;.d.d.;.#.$.#.#.#.S #.#.#.v.oX$.f [ $.;.=.q 9 0 0 k 8 8 8 5 5 5 8 k m v 8 2 1 2 8 0 0 8 8 c n n n N S n n d S $.$.;.u.=.=.=.=.=.=.;.;.;.=.=.=.t.d.t.t.=.#.#.S #.#.#.*.*.*.*.#.S n n n n n n S S S S D D D n v a v v n n c c 0 8 8 8 8 8 k 8 5 % O       .     X % 5 8 k c c c k 8 5 1 1 5 6 6 6 2 5 8 0 0 0 0 0 k k c c c c m v v v v c c c k k k k k k k 6 5 5 5 5 8 a c c c *.t.t.u.t.n 4 a u.d.;.;.t.u.u.u.8.8.8.d.f.k.k.d.d.>.>.>.;.;.;.d.k.k.d.$.Z ",
"k 0 8 8 8 0 k c 0 0 c v N v v v S f.+X&X+X+X+X+X+X+X(.l.d.f.k.l.d.d.8.8.8.h./.OX$X*X#X>.d a d v c M M n v v v c q 0 9 0 8 5 5 5 4 4 9 S d.{.j.*.v v v a a a n D a a a a a v n n n n n n v a p 9 p 8 k c c k k c w.t.y.e.e.t.j.j.f.d.d.d.d.d.d.8.8.8.8.0.0.0.0.0.C.C.C.C.Z.Z.G.D.G.D.D.H.qXgXhXhXhXmXmXmXMXBXHXGXKXIXIXKXCXaXJ.H.aXmXMXCXGXGXCXbXS.S.M.S.pXMXMXbXbXbXpXW.M.o.o.o.E ^ o.O.O.o.^ E ! ! Q Q E ! J E E E E E E  .n.V.B.B.U.U.P.T.).&X8.>.;.$.#.#.*.*.#.#.n n n n N n D *.e.e.w.D n v c c c c c k k k c 8 0 0 D u.k.;.#.( d d n #.*.d n #.#.#.S d d d d S #.#.S d 9 9 a v c 0 0 2 1 2 =.u.u.;.>.d.d.$.#.#.#.#.#.Z Z [ $./.l.[ f [ =.=.=.a 9 8 0 k 8 8 8 8 5 5 8 k m N c 0 2 1 2 8 8 8 4 a n n n N S n d n S S S $.>.$.=.=.-.=.=.=.=.=.=.;.;.;.t.t.t.t.t.*.#.n S #.#.#.*.*.#.S n n n n n n n S S S D D D S v a a v v n c p 0 8 8 8 8 8 8 5 1 % O O O O & % % % % % 1 1 8 k k k h 5 5 5 5 6 6 5 2 5 8 0 k k c c c c c c c v v v n v c v k k k k k k k k k 8 5 5 5 5 8 a p c v =.t.t.j.i.*.2 > ;.l.k.u.;.u.u.u.8.d.8.d.f.k.d.d.u.>.>.>.>.>.d.d.d.;.#.u , ",
"k c c 0 8 2 8 0 c a v N D n n n d >./.OXOX+X+X+Xv.OX+XoXv.v. X.Xl.l.v.l.l.v.oX#XOXoX;.f a n d v c M n n v c v c q 0 9 0 0 5 5 8 2 9 a $.t.u.k. Xn d a v n v a 9 4 p n n n v n n N N n n v p 8 8 8 8 8 c 8 1 c *.j.j.j.t.=.t.e.;.d.f.f.d.8.8.8.5.5.3.3.m.m.m.C.m.Z.A.Z.Z.G.W.pXgXqX7XH.H.qXgXhXhXiXeXgXgXiXqX7XJ.uXaXhXaXwXJ.J.J.MXBXCXHXGXGXCXmXmXmXaXwX0XsXmXhXaXmXmXuX@./ / O.O.+.F.J.J.F.O.o.E Q ^ o.E J J E ^ ^ o.O.M.S.S.M.V.B.B.U.Y.T.T.h.>.;.;.$.$.$.*.$.#.S d a n #.=.=.u.u.i.e.D n n v c c c c c k k k c 8 k 0 D u.k.;.#.d d d n =.=.d ( #.#.#.n d d n d S S *.S v 9 4 c c 9 8 2 2 2 v u.u.;.;.d.d.u.$.#.#.#.#.#.Z S #.$.oXk.Z Z Z $.;.t.a 8 8 0 k 8 8 8 8 8 8 8 0 c n N c 2 1 2 2 2 2 2 0 v n n N D n n S n d #.$.S S $.=.=.=.=.=.=.=.=.t.t.=.=.;.t.t.d.;.*.n n #.#.#.*.*.#.S n n n n n n n S S S D D D S v a v v v n c p 0 8 8 6 8 8 5 5 % O O % 5 5 5 5 6 8 6 5 % % % 1 8 h 8 8 6 6 5 6 6 5 2 5 8 0 c c c c c m m v v v M v M n c c k k k k k k k k k 8 5 5 5 5 8 a 0 a v =.t.t.d.j.*.# , $.oXoXk.;.u.u.u.d.d.d.d.j.d.d.u.t.>.t.u.d.l.j.t.S p 4 9 u ",
"8 8 8 9 p a v v n n N N D D D n n #.d.#X$Xl.k.k.d.j.l.l.v.{. X@X{.l.l.k.d.k. X@X$Xk.*.a p v v a n v v v c c c c c k 8 8 5 5 5 5 4 9 n =.;.;.d.k.d.#.d n a a a 4 p a b n n n n b N _ N p 6 6 4 6 c p 8 8 c n e.}.}.l.j.j.d.d.d.d.p.k.k.d.8.8.0.A.G.F.J.wXaXpX0XH.S.B.B.B.S.H.aXmXqX7XH.H.H.H.H.H.qXqXqXwXJ.F.S.+.@.S.0XNXCXMXaXaXmXBXBXBXZXZXCXGXHXGXHXCXhXiX7X7XH.G.H.W.K.+.O.O.@.7XtXK.@.@.F.K.M.M.M.M.V.^ E J E ^ M.G.J.7XJ.J.M.B.B.U.g.%.s u a *.;.$.$.$.#.[ Z d f Z &.h.oX#Xv.u.S n S n v v v v v c c c c k c 0 0 0 p *.j.8.=.d a n #.*.=.#.#.#.#.#.( n n d S n #.S p 9 a a v 9 9 9 9 a S u.>.>.&.;.d.>.$.=.#.#.#.#.#.#.#.#.;.l.>.d Z #.#.u.u.v 2 2 0 0 8 8 8 8 8 8 8 0 q a D D n 8 % 2 0 1 2 9 v N N n n n a d S S *.#.*.*.*.*.$.$.=.;.t.;.t.t.t.;.;.;.;.t.t.;.=.#.#.#.#.*.*.*.*.S n n N D S S D D D D D D S D N v c v n n c 8 8 8 6 6 8 7 6 1 1 1 8 c c k 8 8 8 8 6 6 6 6 1 % % % 1 5 6 5 5 8 8 2 1 1 8 c v v v v v c c c m c m M M c k k k k k k k k k k k 8 8 8 5 5 9 q v n S *.t.u.t.u.=.4 ; #.oX@Xk.u.d.d.d.d.u.t.t.t.j.t.t.j.j.}.k.j.w.N c p 8 8 8 8 ",
"8 9 p p a v n n n n N D *.D D S D *.u.oX#XoXk.k.8.8.d.d.j.j.j.j.u.t.;.=.$.;.u.j.@Xk.=.n a a a a v v v v c c c c c k k 8 5 5 5 5 8 4 9 a d #.;.j.d.;.#.d d n a a p a n n n n N N _ b r 8 8 r h 8 c 8 9 p v t.{.k.@XoX@X/.h.f.f.k.k.k.d.d.0.Y.E.'.sXiXiXiXeXqXqX0XH.M.M.M.S.H.7X7XD.H.7XwXwXH.S.S.H.0X0XJ.H.S.S.S.M.G.mXKXKXHXmXhXiXhXjXjXmXjXmXCXHXGXGXGXBXkXjXgXJ.H.H.J.J.F.O.X.[.8X8X+.o.o.+.K.Z.M.M.M.M.o.E J E o.D.W.wX0XH.G.E.Z.Z.N.7.U u w r *.=.#.$.$.[ Z f Z &.f./.OX(./.v.>.S S S S v v v v v c c v c c c 0 k 0 p *.j.8.=.n a n *.=.*.S #.#.#.( n n d a n n #.n a 9 a a q 4 2 4 a d #.;.;.&.8.v.v.>.Z Z #.#.#.#.#.#.#.#.;.k.u.d Z S S u.u.v 2 2 9 0 8 6 8 8 8 8 8 0 9 a v n D N 8 1 8 8 5 0 v N N n n n v n S S *.*.*.*.*.$.$.$.=.;.t.t.t.t.t.t.;.;.;.;.;.;.=.#.#.#.#.*.*.*.*.n n n N N S S D S D D D D D D D v c v c v c 8 8 8 6 6 8 1 2 1 1 6 c m m c 8 h 8 8 8 8 6 6 5 1 % % 1 5 5 5 5 5 8 2 1 2 8 c v v v v n N n N w.N M M c k k c k k k k k 0 k k k j 8 8 8 5 8 q a v n *.t.u.;.u.t.p : S }.{.d.=.e.=.=.*.#.S n n *.*.=.t.y.t.w.*.c p 8 8 c c c k ",
"9 p a v n n n N N D D *.*.*.D S *.#.=.l.oXoXk.j.;.=.=.#.=.=.=.*.#.#.#.S S S *.*.k.j.t.D a p a n v v v v c c c c c c k 8 8 5 5 5 2 2 2 4 u u s d #.d.;.n n n a c p p c n N N _ _ N r 3 4 z 8 r c 4 r 9 n j. XoX$X*X*X*X(.c.h.c././.l.f.0.Y.'.bXmXhXjXjXgXgXeXqXiXJ.S.M.M.M.+.+.+.+.8XgXmXiXD.+.+.D.D.D.S.S.M.M.M.O.M.uXMXCXmXuX0XqXgXhXgXjXjXjXBXHXGXLXGXGXGXBXBXbXpXW.W.iXiX7X+.8X@.@./ E o.O.@.Z.M.V.V.n.Q ! H Q o.M.H.H.G.S.M.E.E.U.m.<.i w 4 p *.$.S #.#.[ [ &.>.h.OX*X*X+X/.l.>.S Z S n n n v v c c c c c k c 0 k 0 p *.j.8.=.n a n *.*.#.n _ _ n n n n n n n n S n a 9 9 9 2 2 4 a S $.$.=.>.8.h.OXoX>.Z S #.#.#.#.#.S S S =.k.t.n S S #.u.u.n 2 2 8 8 8 8 8 8 8 8 8 9 9 q v n w.e.M 8 8 0 6 0 c n N n n n v n S S *.$.*.*.*.$.$.$.=.;.t.t.t.t.t.t.;.t.t.t.;.;.=.#.#.#.#.*.S S n n n n N N S S S S n S S S D D D v a a v v k 8 8 8 6 8 8 5 % 1 5 c M M M c k k h h h 8 8 8 5 5 1 1 % 1 5 5 5 5 8 8 5 8 k m N M v v v c c c k 8 8 8 5 5 8 c k k 8 8 0 0 0 0 k j 8 8 8 5 8 q a v n *.t.u.u.u.d.v 3 a e.t.=.S n n n n v a a a c c n N *.N c 8 8 8 8 8 8 p p p ",
"c c n n N N N N D D *.*.*.*.*.D *.S *.d.oX@Xl.d.d.;.=.#.*.#.*.S #.#.#.#.#.#.#.*.t.u.i.=.v p a n v v v v c c c c c c k 8 8 5 5 5 1 8 v n n u > , > d =.*.D a 8 8 8 8 p a n N N _ c 8 4 8 8 8 8 c 2 4 n j. X#X*X:X:X;X(.^.h.^._.&X(.h.q.A.E.bXmXmXfXjXjXjXfXqX8X7XD.S.M.S.M.+.+.D.qXfXjXmXqXD.S.S.S.S.S.S.M.M.M.M.M.o.O.F.F.S.M.S.0XgXhXgXgXiXiXgXhXCXGXGXGXGXBXhXaXW.S.S.0XMXkXyXvX@.O.O.F.K.M.O.M.n.Q Q Q R ! H Q Q Q ^ ^ ^ Q  .Z.U.U.m.) i w 4 a *.*.S #.;.>.8././.OX+X+X+XOX/.l.>.S Z S n n n n v n c c c c c c 0 k 8 9 #.d.8.;.n a ( $.*.#.n n n n n n n n n n n n n 9 4 2 2 2 4 a S $.;.u.d.v.v.h.d.>.$.#.#.#.#.#.S S S S S $.u.;.S S S #.t.i.S 2 2 8 8 6 6 8 8 8 8 8 9 9 q n v D e.e.c 8 5 6 8 c v N N n n v n S S *.$.$.*.*.$.$.$.;.;.t.t.t.t.t.t.;.t.t.t.;.;.=.*.#.#.#.*.n n n n n n N D S S S S n S S S D D D v a v v v k 8 5 8 8 8 k 5 X 1 8 M M G M M k k k k h h 8 8 6 6 5 1 % % 1 5 5 5 8 8 5 8 0 c c k 0 8 2 2 1 1 1 1 1 5 1 % 5 8 8 8 8 8 0 0 0 8 k j 8 8 8 5 8 0 q v n D t.u.t.u.=.a 2 4 n *.D n c a v a v v n n c c c c c c 0 8 c p 8 8 8 8 p a ",
"n n n D N N n n D *.*.*.*.*.D D *.#.#.=.k.oXl.j.j.d.d.;.#.#.#.#.*.*.*.*.*.*.*.#.*.e.u.e.n a a n v v v v c c c c c k k 8 8 8 5 5 2 N j.{.}.;.#.d > > a *.=.n c 2 8 8 4 8 c n n n 8 c p 8 8 8 8 8 3 a d. X$X,X<X&X&X(.c.I.I._.'.-XI.C.N.Z.W.aXmXjXjXjXjXfX8XrX+.+.+.M.M.S.+.+.K.iXBXmXhXqX0XD.S.S.M.M.B.S.B.M.M.o.M.o.O.M.M.+.M.D.7XqXqX0X7XH.D.H.D.iXmXBXBXBXhXH.o.^ E ^ K.kXBXkX8X@.@.J.sXsXJ.M.m. .R ! Q W W W W W ! ! ! ! T R 3.C.U.6.Y i w w p *.=.$.u.h.v.oXOXOXOXOX/./.v.v.l.;.S Z S S F F n n v v c v k q c 0 k 8 8 #.d.d.;.#.a #.=.*.n d n n n n n n n n D N v 0 4 2 ; ; a a S #.=.d.v.#X$XoXd.$.Z Z #.#.S S S S S S S S #.;.=.S S S #.t.k.D 4 2 8 8 6 6 8 8 8 8 8 9 9 q n n n D G M 0 & 8 8 a v n N n n n n n S *.=.$.*.$.$.$.$.;.;.u.u.=.=.=.t.;.;.t.t.;.;.;.=.#.#.#.*.n n n n n n N D S S S S n S S S S D D v v v v v c 0 8 0 8 k k 8 . % 0 M D D M M k k k k k 8 8 8 8 8 5 1 % % % 1 1 1 1 1 1 5 5 8 1 1 1 1 1 1 1 1 p c c c 8 1 1 6 0 8 8 h 0 0 0 0 j 8 8 8 8 1 2 9 8 q a n *.=.*.$.n a 2 1 9 n N n D N N n v v c c n c p p p p 8 8 p 9 p 9 p a n n ",
"N N N N n n n n D D *.*.*.D D N D D D *.d.l.l.k.j.j.j.8.=.#.#.*.*.#.#.#.#.#.S n #.=.e.e.*.n a a v v v v c c c c c c k 8 8 8 8 8 0 e.@X,X1X$XoXoX=.u 9 n =.e.*.p c p 8 8 p c p p 0 c 0 8 8 a p 3 d ;.l.+X<X:X&X(.c.h.I.Y.'.'.'.'.'.'.E.Q.pXaXaXeXfXeXqX8XrX+.+.+.+.+.M.S.+.+.8XkXHXmX0XH.D.M.O.o.o.o.n.n.m.o. .E ....o.M.M.M.S.D.H.wX0XD.S.S.O.+.D.iXmXMXBXBXiXO.J J J o.J.MXMXjXtXiXsXsXsXuXJ.K.m.2.Q W W 7.7.7.W W ) ' Y Y Y T W 3.N.6.Y i u u p =.u.u.k.l.v.v.h.l.h.h.9.f.l.v.k.;.S n S S S S n n M v m v k q c 0 k 8 4 #.d.d.d.#.a #.t.*.d a n n n n n n n n *.N a 2 2 2 2 4 S S #.$.d.v.OXoXl.>.$.#.#.S #.$.S S S S S S S S S $.$.#.S S #.t.j.D 4 2 8 6 6 6 8 8 8 8 8 9 0 q c n N M M c k 5 8 8 0 v n N n n n n n S =.=.$.*.$.$.$.=.;.;.u.u.=.=.=.=.;.;.t.t.;.;.;.=.*.#.#.#.S S n n n n N N S S S S n S S S n D D n v v v v v 0 8 8 8 0 k 5 . & 0 c M c m c k k k k 8 8 8 8 8 5 5 % % % % % % % % % % 1 1 1 1 1 2 6 8 0 p c c p c c 0 5 5 8 0 0 k k k 0 0 0 j j 8 8 8 1 2 8 2 9 9 a S S n S v v 0 2 8 N *.D D N n v c a 0 9 p p 8 8 8 8 8 8 8 p c n n n n n ",
"N n n n n n n n N N D *.D D N n n *.*.S =.k.oXl.j.j.j.d.t.;.=.=.*.#.#.S #.#.n n *.*.*.=.e.*.n p v v v v c c c c c c k 8 8 5 8 8 p e.{.@XoXoX$X;X$X5.s s #.u.u.=.*.n c p c c 0 6 8 8 8 8 8 p c s d.8.+X<X&X/._.I.I.A.Y.'.bXbXbXwXbXbXpX'.W.W.J.H.D.D.H.rX8X8X8X8XH.G.S.S.+.O.rXMXCXqXS.^ ^ o. .Q E E  . ......... . .o.m.O.O.M.M.D.0X0XS.+.S.+.+.J.hXMXMXBXBXiXo.J R E O.uXMXkXfXfXkXhX~.M.O.M.Z.n.Q W T ' <.<.%.U ) ) %.%.#.U U T 2.L.7.U i u p N t.j.p.d.d.>.>.>.>.>.&.&.>.k.v.k.=.S v S S D D n n M v m c c a c 0 k 8 4 S d.f.d.#.s #.t.*.a a a a n n n n n n D N 8 1 2 4 a n *.t.u.k.l.v.h.8.#.Z S $.#.#.$.$.S S S S S S n n n *.$.#.#.S #.t.k.D 9 2 6 6 6 6 8 8 8 8 8 9 0 0 k N M c c k 0 0 8 8 9 c n N n n S v n S $.=.$.#.$.$.$.=.;.;.u.u.=.=.=.=.;.;.t.t.;.;.t.=.*.#.*.*.*.*.D n n n N N n n n n n n n n n *.*.n v c c a c 5 1 5 5 8 6 % X % 8 k k 8 k k k k k h 8 8 8 5 6 5 % % % % % % % % % 1 1 1 1 1 8 8 0 0 p p p p 2 2 p c v c 0 0 k k k k k k k k j 8 8 0 8 1 1 8 8 9 9 a S S v v v N v 8 8 v D n c c c c 0 0 0 0 6 8 8 0 0 0 p p a v n n n n n n ",
"n n n n v n n n N D D D D N n n n *.*.n *.j. X Xk.k.j.j.j.d.;.=.=.*.#.#.#.#.S S *.S S *.e.e.n p v v v v c c c c c c k 8 8 8 8 8 9 S t.t.;.d.h.l.<XoX#.u S u.j.j.t.*.n c m c 0 6 6 8 8 8 4 4 a =.8.).:X>X).I.C.A.I.Y.'.bXbXbXbXbX'.'.'.E.A.C.M.Z.M.S.H.0XgXhXgXgXqXH.S.O.O.O.D.hXmXH.E ~ H R W | .. . .3.N.A.A.A.'.'.'.Y.A.C.m.B.S.H.H.M.O.M.M.S.H.aXMXmXMXMXH.J J H J o.0XMXhXfXhXhXuXO.J J ..o.' W P Y Y Y U s d ( ( #.#.#.( I Y 3.L.4.I u u p *.j.d.;.;.=.$.#.#.$.$.$.$.$.>.h.k.=.n v n n D D N n M v m c c k c 0 k 8 4 S f.f.d.#.s #.d.*.a a a n n n n n n N D n 4 # 2 9 S t.t.k.v.l.k.d.:.$.Z S $.#.Z #.$.Z S S S S S n n n n *.*.#.#.S #.t.}.D 9 2 6 6 6 6 8 8 8 8 8 0 0 0 c M M c c k 8 k 8 8 9 c n N n n S n n S =.=.$.#.$.$.$.=.;.;.u.u.=.=.=.=.=.;.t.t.;.;.t.=.*.#.*.*.=.*.*.S N n N N n n n n n n n n D *.*.n c c a p k 5 1 1 1 5 1 X X & 5 8 6 5 8 k k k k h 8 8 5 5 6 1 % X O % % O 1 1 1 5 6 8 8 8 8 6 6 2 2 2 1 1 a c N e.e.N c 0 c c c c k k k k 8 8 8 0 8 1 1 8 q v v v D D S S v *.D 8 2 c v 0 0 0 0 8 8 8 8 8 8 8 8 8 p p a c n n n n n n n n ",
"n n n n n n N *.*.*.*.*.N n n n N N D #.S #.d.oXl.l.j.8.d.j.d.d.d.t.=.*.*.*.*.#.*.S n D *.e.e.e.n n n v v c c c c k 8 8 5 5 5 6 4 S j.j.t.;.8.d.l.%Xl.S p =.j.j.t.y.w.m 8 8 8 8 0 8 4 4 p n ;.f.>X>X>X].Y.A.A.U.C.U.'.-X-X-XQ.Q.Q.T.C.6.3.0.C.A.Y.M.F.wXmXmXgXqX7XH.D.D.^ / H.MXmXS.^ ! P | | 3.3.0.I._.).).).).).)._._._.Y.Y.A.G.wXJ.M.O.M.M.M.O.M.H.wXwXG.E ~ ~ ~ H  .W.mXhXfX7XhXF.X.R H R H Q W Y Y I I s s _ #.S S S n n U Y 1.L.s.( s u 4 n t.t.$.;.$.$.$.$.$.$.$.$.=.;.;.d.;.S n n n N D N n M v c m m c 0 0 1 1 2 d l.h.h.#.#.j.t.d n a n n n *.n n D n N 6 o ; D e.=.u.l.k.p.;.$.$.$.$.#.#.#.#.#.#.#.#.#.S n n n n n n a a S *.n S t.k.}.n 2 8 8 5 6 j 6 6 8 8 0 0 0 0 q c D D M k 6 1 8 2 4 a n n n n =.*.S n n *.$.$.=.=.=.=.=.=.=.=.u.t.t.;.=.t.t.a.*.*.#.#.*.=.*.*.e.=.*.n n n N D n n n n N N N _ *.=.w.*.c p 8 p 8 5 5 1 1 % % % X % 1 8 8 h 8 8 5 8 8 8 5 5 1 1 % % % % % % 5 8 c 8 8 8 8 6 1 1 o X 1 2 p n *.w.y.j.j.t.y.t.v 0 c c c c k k k k 8 8 8 8 8 8 6 6 9 q v n n n n D n v c 8 8 8 8 8 0 8 6 2 8 8 8 2 c c m n N N N N N N n n n n n n ",
"n n n n n n N *.*.*.*.D n n n n N N D *.S *.d.l./.l.h.d.d.j.j.d.d.t.=.$.*.*.*.*.#.S n D *.=.e.e.n n n v v c c c c k 8 8 5 5 6 5 8 n =.t.;.;.5.8.d.h.j.*.a n e.}.j.j.w.M 8 8 k 0 8 8 8 9 a $.k.+X>X`.].A.A.A.Z.N.C.U.Y.T.T.U.U.P.6.5.5.5.8.8.q.q.0.3.m.Z.R.0X0X0X7X7XH.D./ / D.MXmX+.E R Y 1.0.q.).).+X+X+X).(._.(.).&X>X>X)._.A.G.0XW.M.o.M.M.O.Q ^ o.V.M.o.J ~ H ~ H ! M.uXiXiXD.0XO.R R H R P ! Y Y T I I s a n n S S S n n n U <.L.7.( s p 4 n t.t.$.;.$.$.$.$.$.#.#.$.=.;.;.d.$.S n N N N D N n M v c c c p 0 0 5 5 2 d l.h.j.$.#.j.;.a n d a n n n *.n c *.c 1 ; 0 *.u.j.k.k.d.;.$.$.#.[ #.#.#.#.#.#.#.S S S S n n n n n n v a n S n *.d.{.i.v 2 8 8 5 6 j 6 6 8 8 0 0 0 0 q v D D m 0 6 1 6 2 4 a n n n N =.*.S n S *.=.=.*.*.*.*.#.#.*.*.;.=.=.$.*.-.=.=.*.*.#.#.*.=.*.*.*.*.*.D n n n n N n N N N N N N _ _ N n p 8 8 p % % O X X X X X X O 1 1 5 5 5 5 1 1 1 % X .   X . X % & 1 5 8 k c p 8 2 1 1 X X X 1 a *.w.e.t.t.t.a.j.e.t.w.c 9 0 0 c c k k k k 8 8 8 8 8 8 5 5 9 q c v v a v v c c k 8 8 8 8 8 6 8 8 8 5 5 8 8 v n M N N N N n N N n n n n n n ",
"n n v v n N *.*.*.*.*.N n n n N N N N *.S #.;.k.oXoXl.j.d.d.j.d.d.t.=.=.=.=.=.*.S #.*.*.*.*.=.e.n n n v v c c c c k 8 8 8 5 6 6 8 9 a n #.#.#.#.#.*.;.e.n 9 n i.j.y.w.n p p 0 0 a a p d $.h.*X:X`.]._.A.A.A.C.C.U.I.P.0.6.5.5.d.5.;.;.8.d.d.8.8.8.8.3.C.B.B.G.J.qXqXqX7X^ / H.BXhXo.R | 6._.).&X+X+X+X+X+X(.(.(./.).&X:X;X+X/.0.Z.W.R.M.o.o.o.o.E E E Q  .Q R H H ~ ~ ~ E H.0XiX+.H.o.J R R Q ! K K K K K I s s n n n n n n n n U <.s.7.U i p 4 a t.;.$.=.$.#.#.#.#.#.#.$.$.;.;.u.$.S n n N D D N n v c k 0 8 8 k k 8 8 4 d v.l.j.=.;.j.=.s n n a n n n N n n *.1 1 c *.t.j.{.k.>.;.$.#.S S S S #.#.#.#.S S S S n n n n n n n v a p a n n =.j.{.e.q 1 8 8 5 6 8 6 6 8 8 0 0 0 0 q c D D c 0 5 5 2 2 4 a n N N *.=.=.S n S *.=.=.#.*.*.*.#.#.#.*.$.*.*.#.*.*.#.*.*.*.#.#.*.=.*.*.D D D N n n v v N N N N N N N N c c c c 8 6 1 1 X X X           @ @ @ @   @ @ @ o o o o @ o   . X % 1 5 5 5 6 8 2 1 ; X o X 3 8 N *.e.t.y.t.e.=.e.e.e.=.e.e.v p 0 0 c c c c k k 8 8 8 8 8 8 8 1 8 9 0 9 9 9 9 9 8 8 8 0 0 8 8 8 2 8 8 8 2 2 8 c N N N N N N n n N n n n n n n n ",
"n v a v N *.w.=.w.*.D n n n n N N N D *.S #.=.d.@X$XoXk.g.j.d.d.d.t.;.=.=.=.*.*.S *.*.*.D *.=.e.n n n n v c c c c k 8 8 8 5 6 6 8 1 2 p n n d d d a n S v 3 8 v *.D n c p 8 0 0 n n S ;.v.*X<X3X`.`.>X]._.Y.Y.Y.I.I.g.8.8.;.;.u.>.u.u.u.d.d.f.d.d.8.0.q.3.N.R.W.aXhXmXqXO./ 7XCXMXM. .3.I.+X+X*XOXoXoXv.v.v.v.v.f.h.c./.v.h.d.1.Z.W.R.n.o.o.Q E E E  .o.n.n. .R R ~ ~ ~ Q E.uXaXS.H.o.R W W W ! K K K K K I b s n n n n n n n n U ) 7.4.U p p 4 a t.=.$.$.$.#.#.#.#.#.$.$.$.=.$.u.$.S n n N N M N n c k 8 8 8 8 k c 8 8 4 d v.v.k.;.d.j.#.s d n a n n n n *.*.8 X 8 *.j.u.d.u.;.$.$.#.#.S S S S S S S S S S S S n n n n n n c a p p a n S =.j.k.S 9 2 8 8 5 6 6 6 6 8 8 0 0 0 0 0 v M M k 8 5 5 1 2 8 c n n N *.e.=.S n S =.;.;.=.=.=.=.$.$.$.=.$.$.*.*.*.*.#.#.*.#.#.#.*.*.*.*.*.D N n n n n n n N M B B m m c 8 8 8 r h 7 1 O 1 1 O O X X O O X X       @ @ @     . .   X % % % 1 5 5 5 1 1 1 ; X ; : 2 a *.e.e.t.t.t.e.=.=.*.*.=.e.e.j.j.D n 0 a c c c c k k 8 8 8 8 8 8 8 8 2 8 2 8 8 4 4 4 2 8 8 8 0 0 0 0 0 8 2 2 2 8 p v *.*.*.*.N N n n n n n n n n n n ",
"v c c n *.w.e.e.*.*.N n n n n n n n N *.D #.*.;.oX$XoXT.k.g.d.u.d.t.t.=.=.=.=.*.#.*.*.*.*.*.*.=.N N N n v v c c c k 0 8 8 5 5 8 5 2 p *.t.t.=.#.#.d a a a p 2 ; a p 8 4 8 8 9 p *.t.k.oX*X<X:X:X>XDXDX>X_.I.I.I.f.g.d.d.d.>.>.>.;.>.k.l.v.l.k.d.u.>.d.8.8.3.Y.'.aXgXmXwXO./ 0XHXmXm. .1.f.oXv.v.l.f.>.$.Z f f u $.$.$.#.&.&.=.%.Z.E.R.n.Q Q E ! ! R  . .2.2.Q Q Q ~ ~ P m.'.bXmXS.W.m.W W W P K K K K K I I s d n n n n N n n ( d ) 4.4.U i u u a e.=.$.=.$.#.#.$.$.$.$.$.$.$.$.u.*.n n n N N N n c k 8 6 6 8 0 k c k 0 4 d v.v.k.8.h.d.#.s a n n n n n n *.a o 4 *.i.u.u.=.#.#.#.#.#.S S S S S S S S S S S S S n n n n v v a p p 9 a n #.=.t.e.a 4 1 8 8 5 6 6 8 8 8 8 0 0 0 0 k c M m k 8 5 5 1 2 9 c v n D =.e.=.*.n S =.;.;.=.=.;.;.;.;.;.;.=.=.=.=.=.-.-.*.*.#.*.*.*.*.*.*.*.*.D N n v n n m m m c z z r 8 h 8 8 7 5 5 5 5 5 5 1 1 % % % % 1 1 1 1 1 1 5 5 6 6 8 8 8 8 6 5 % 1 5 5 1 % % % X ; 4 b *.r.e.-.-.*.*.*.*.*.*.*.=.t.j.l..X{.e.D c c c c k k k 8 8 8 8 8 8 8 8 8 2 2 2 2 2 8 8 8 4 4 4 8 9 p a c c 9 4 2 2 4 a N *.*.N n n n n n n n n n n v c c ",
"v v n D =.e.e.e.*.D n n n n n n N N N *.D n #.$.l.oXoX/.l.l.h.j.j.d.d.a.t.t.=.=.*.*.*.*.*.*.*.=.N N N n v v c c c k 0 8 8 5 5 8 2 a e.{.@X@X{.k.j.j.t.*.*.*.n 9 n p 4 8 8 0 a n t.l.$X*X;X:X>X=X4XDX:X`.^.h.h.f.8.;.;.;.>.>.u.>.8.h.+X;X,XOXk.u.d.u.d.8.8.0.I.'.uXhXmX0XO.^ uXHXMXm.| %.( #.Z Z S n d a a a a d S #.#.#.=.;.;.1.C.E.G.o.Q Q R ! R R W W W W Q Q Q P P R C.bXnXMXS.W.N.! T I K K K K K K I I ` n n n n n n n n s s ( 4.-.d i p u a e.;.$.;.$.$.$.$.$.;.;.;.;.$.$.u.*.S N N M M v c p 8 6 6 8 0 p q c k 0 2 a v.v.f.d.l.d.d s a d n n n n *.c 1 X =.j.t.*.*.#.Z #.#.#.S S S S S S S S S S S S S S n n n v c a a p a a v n *.=.e.D 9 2 8 8 6 5 6 6 8 8 8 8 0 k 0 0 k c c c 8 5 5 5 1 2 0 v v v N =.e.=.*.S S =.;.;.=.=.;.;.;.;.;.;.=.=.t.t.t.;.=.=.*.#.#.*.*.*.*.*.*.*.*.*.N n v c c c z r 8 8 8 8 8 8 8 7 5 5 5 8 1 1 % % % % % 1 1 5 6 h k c M M k k k c c c k 8 5 5 5 1 1 1 1 1 4 p n t.z.z.j.a.;.-.( _ *.;.j.j.l. X@X#X1X@Xt.S v c c 0 k 0 8 8 0 8 0 8 8 8 8 8 8 8 8 8 8 9 9 9 8 8 9 9 a c v n c c c a 2 1 0 *.*.n n n N n n n n n n n c c c c ",
"n n *.e.e.e.w.=.D N n n n n n n N N N *.D n n #.;.h././.oXoX/.l.l.l.z.z.j.d.t.t.*.*.*.N *.*.*.*.N n N n v v m c c k 0 8 5 5 5 8 2 n j.oXoXoXoXoXoX$XoXl.t.=.t.j.j.=.n a a a n *.k.@X$X&X&X>X`._.&X&X).(.(.+X(./.h.d.;.=.;.u.d.d./.).;X;X$Xv.f.u.k.d.f.h.h.h.^._.'.aXbXW.o.^ W.CX'.Q Y I u a 9 a a p p p 9 p a p S #.$.t.d.j.j.g.C.E.Z. .Q Q Q R Q  .| W W W Q Q ! P P Y N.-XnXNXM.R.B.W K K < K K K K K I s ( n n n a s s p p u s ( ) ) s p p u b t.t.=.;.=.=.=.$.;.;.;.;.;.;.$.u.$.S n N M c c 8 4 8 8 8 0 c c 0 c k 0 2 a v.v.h.d.l.8.d s a a a n n n c 9 c w.j.t.*.n n S #.#.Z Z S S S S S S S S S S S n n n n n v a a p p p n n n S *.t.e.n 8 2 8 8 5 5 6 6 8 8 8 8 0 0 0 0 k c c k 8 1 5 5 1 8 c v v v n =.t.=.*.S S =.;.;.=.=.;.;.;.;.;.;.*.=.=.t.;.;.=.=.*.#.#.*.*.*.*.*.*.*.*.D N v c 8 r h h 8 8 8 8 7 7 7 h h 7 5 7 h % % & % & 5 5 6 k k m M G G G w.m c k k k k k 8 h 8 8 5 5 5 h c n *.a.{.%X$X#X%Xz.d.a.a.z. X%X$XoX%X$X#X1X@Xe.n v c 0 8 8 8 8 8 0 0 8 8 8 8 8 8 k k 0 0 0 k 0 0 9 p a v n n n n v n N n p 2 8 n *.#.n n n n n n n n n n c c c c ",
"n *.e.t.t.=.*.*.D n n n n n n v n n N *.D n n #.#.8.l.oX@X#XoXoX{.{.{.{.{.l.j.j.=.*.n n *.*.*.D N N N n v v c m c k 0 8 5 5 5 8 4 #.j.k.j.d.l.T./.$X$XoX;.d t.$X,X{.=.n v v D e.oXoXoX/.+X;X&X^.{ &.8.h.v.+X$X+X#X Xd.t.t.j.l.v.+X+X/.v.k.d.d.k.k.d.d.k.l.h.h.h.E.'.pXZ.R R G.NXE.W Y I u a 9 v q q q a a a a a a n *.t.j.j.j.g.C.E.Z. .R Q W W | | <.<.| W W ! ! P W T 3.'.bXbXV.R.B.! L K y K K K K L s s ` ( a a a p p u u w i ( -.) a p p u n t.t.=.t.=.e.=.;.;.;.>.>.t.;.;.u.=.D D N M c c 2 2 8 0 c c c c 0 v k 0 2 p l.v.h.8.l.8.d d a a a n *.a : p }.,Xu.D a a a S #.Z Z Z S S S n S n S S S S n n n n n n c a p 0 0 p *.n n S *.t.t.D 8 2 8 8 5 5 5 5 8 8 8 8 0 0 k 0 k c c k 8 1 5 5 2 8 c n v c n *.t.=.*.S S $.;.;.>.>.>.>.t.t.t.t.#.*.=.=.e.e.=.=.*.#.#.*.*.*.*.*.=.*.D N m c k 8 r r 8 8 8 8 8 8 6 8 8 5 1 1 h m 1 5 5 5 8 k k k m M G G w.w.w.G G M m c k k 8 8 8 8 5 5 8 c M w.a *.j.oX#X$X$X#X1X$X$X$X$X$X%XoXoXoX@XoX$XoX=.n a a 8 4 2 2 8 9 9 9 9 4 8 2 2 2 n v q 0 q a q 9 9 p v n N N n n n n D *.n 4 4 a =.*.*.n N n n n N n n c c p p p ",
"=.=.=.t.e.=.=.=.D n n n n n n n D *.*.*.*.D n n S *.*.*.*.=.e.t.t.t.t.e.e.e.e.w.D D D *.D *.D *.D D n n n n v c q 0 8 8 2 2 8 8 4 n j.k.d.d.d.8.d.j.@XoX;.f ;.;X;XoXS p a v *.t.j.u.;.j.oXoXT.d.-.-.=.-.$.#.*.*.*.*.-.r.t.t.d.d.d.j./.oXk.k.oXl.j.j.k.d.t.t.t.;.| U.E.n.R ! U.NXU.W ) i p a a p l k k v a a v a v S e.i.j.j.d.5.N.G.B.Q Q W | 1.%.&.&.&.<.| W Q ! P P T | Y.'.mXo.S.R.' I I K y K K K K t t t t t p p p a a p p p b _ ( n a p 4 a =.e.=.e.*.*.u.u.>.;.;.=.t.t.t.t.e.D n c 0 0 0 c c a a k k k k q 0 8 8 1 9 c.(.9.f.g.;.n a n n a n p ; p {.@X#.n n n n n n S S n n n n S S S S n n S S S S n n n a a p p p n *.#.S d d #.j.j.*.0 9 8 6 8 8 8 8 8 8 8 8 8 8 k k k k 8 5 1 5 6 8 2 0 v D D n n e.t.=.*.S #.$.=.;.=.;.;.;.;.;.e.e.=.e.e.e.e.t.t.t.*.#.#.#.S *.*.D N m z h h z h 7 z 4 3 4 b *.*.=.t.y.D p 0 8 5 c 5 1 & 6 m M M M D D D D D D D D w.G D M c k 0 8 k 8 8 0 m M N N 2 *..X1X$X%XoX+X+X$X$X$X$X$X@X.X$X$X%X%X@Xk.*.a 9 9 > > 9 a Z S $.=.=.;.=.$.S S $.;.>.$.d f Z $.{.d.=.*.n n n n b n n n N N p 2 v *.t.t.*.n n #.#.n a p a a a a ",
"$.$.;.t.t.;.=.=.D n n N n N n N *.*.*.*.*.D N N n n n n n n n N n n v v v v v c n n n n n n n n D n n v n n c v q 0 8 8 2 8 8 4 4 n d.k.d.8.d.8.;.;.j.k.#.u #.+X;X/.S u a c D e.t.=.*.*.a.a.;.#.-.-.-.-.*.*.*.*.*.*.=.*.-.-.-.-.=.;.l.%X X{.{.j.d.d.t.D n v M n %.U.E.n.R P L.NXU.W ) s p a a a l k k l c v a v a n =.u.d.d.d.5.N.G.V.Q W | | 1.&.&.&.%.%.Y W R P H P W | Y.'.mXo.S.R.' I I t y K K K K K t t t t p p p a a a a p N _ N b p p w 4 a v a n a a S S S S S n n S n n v v q q 0 0 0 c v a a a k k k 0 0 8 5 1 9 c.(.9.q.f.-.n a b n n d > u j.j.S d n n n n n S S S n n n n S S S S n n S S #.S n n n v a p p a n *.S S d d #.u.i.D 9 9 8 6 8 8 8 8 k k 8 8 8 8 8 8 k k 8 6 5 5 5 8 5 0 c S D v n =.;.$.S S #.$.;.;.;.;.;.;.;.;.e.e.=.=.e.e.e.e.e.=.$.*.#.n n n n n r z z z h h j 7 r r n -.d.t.t.t.t.j.e.*.D a 1 %   % 6 k c v v v D D *.=.$.$.$.$.=.=.G D F a 9 9 4 1 ; 2 p n n c 4 #.l.$X%X%X_.).^.^.I./.oXoX#X#XoXoXoXoXoX Xj.;.k.k.l.v.oXoXoX/.oXOXoXoXoX Xv.v.k.l.l.k.d.k.v.$X<X@Xj.=.n a a n n n N N _ N c 4 k M w.t.e.*.S #.S a u u p a a n ",
"=.=.;.t.t.t.=.=.*.*._ n n _ *.*.=.=.=.=.*.*.N N n n n n c c a a a p a p p p p 0 c c c c c c c c v v v v v n v v q 0 8 8 2 8 8 4 4 d d.h.d.8.d.5.=.=.;.d.#.f &.+X;X/.S p a a N *.t.=.#._ ( _ ( n *.*.*.*.*.*.*.*.*.*.*.*.*.*.*.*.*.*.j.oXoXoXl.d.#.S n p 9 9 k p %.U.R.n.R P L.NXU.W ) s p q a a l l k k c c a a a v *.e.u.u.t.5.N.B.B.Q W | %.&.&.&.&.%.%.Y W W P H P W | Y.Q.bXo.S.R.' I s t y K K K K t t t t p p p p a a a a b N N b p p p r 4 p p p a a a a d a a a u u p p 9 9 9 9 0 q k k c v v a v v k k 0 8 6 5 & 9 c.(.h.h.8.#.n a b n a 3 a u.t.n d d n n n n n n S S n S n n S S n n S S S S S S n n a a a a a v n n S S S Z #.u.u.S 0 9 0 8 8 8 8 8 k 0 8 8 8 8 j k k k 8 5 5 5 5 6 5 0 v n D v n *.$.S S S $.;.;.=.;.;.;.;.;.;.;.;.=.=.=.=.=.=.=.=.=.=.*.N b p r r r r 8 8 8 z m M p n j.1X,X@Xl.l.d.d.=.*.=.S 9 2 2 k D D D D D D *.*.$.S S S S S S F F =.$.F S d u 4 > 4 p d s w < I 5.P.P.P.Y.Y.'.'.'.).%X%X#X$X#X$X$X$X$X$XoX/.v.c.h.v.v./.v.v.v.v.h.f.d.d.d.d.u.f.k.k.l.v.#X,X<X#Xk.t.D v a a n *.*.*.*.*.n r 1 k N e.t.e.*.n a p p s n #.*.=.",
";.;.t.t.t.t.e.=.*.*.*.*.*.*.=.=.e.e.e.e.=.*.D N *.*.D N v c a p v v v c c c c c a a a a a c c c a a a a v v v v 0 9 8 8 8 8 8 2 4 d d.k.d.8.8.5.d.;.;.u.;.#.8.+X;X/.S p p p v N y.e.*.n n ( ( ( #._ _ _ _ _ _ _ _ _ *.*.-.-.t.t.;.-.;.d.j. XoXd.p p p a q 0 k p ) P.U.n.W P N.nXP.T ) s p q a a k k k k k c a a a v S =.t.t.t.;.m.B.B.Q W | { %.&.&.#.%.{ { | Q P P P W <.Y.Q.bXO.S.R.' I s t y K K K K t t t r p p p p a a a a b b b p p p p r n a a v v n v p d a a p p p a a a q 9 9 q v c M M n v v v v c v 0 8 6 5 & 9 c./.c.h.>.( n b a p 4 n t.e.n a d #.n n n n n n n S S S n n n n n S d S S S S S n n a a n a a n n n #.S S S *.u.t.n 9 0 0 8 8 8 8 8 8 8 8 8 k k k l k 8 8 5 5 5 5 6 5 a n n n v v *.#.S d S $.;.;.=.=.;.;.;.;.=.;.;.=.=.=.=.=.=.=.=.-.*._ B c r r 4 x r 4 4 c M N N n t.#X<X<X$X@X Xk.u.#.d S S d d *.e.u.t.=.$.$.;.$.$.=.;.>.8.8.d.v.oX+X&X*X&X&X+XOX/.l.T.T.g.5.%.T 7.U.'.-XbXbXnXbXnXbX-X-X+X%X$X*X*X*X*X+XOXv.v.c.c.c.v.v.v.c.f.v.h.d.>.>.>.>.>.u.d.k.v.v.v.l.l. Xd.*.n a a n *.*.*.=.=.r.r.N c 1 6 c *.t.t.*.n a d #.*.;.;.t.t.",
";.;.t.u.u.t.t.e.=.*.=.=.*.=.=.r.e.e.e.e.=.*.*.n N N N N n c p p c c v v v v v v c c c v v v v v q q q a v v v v 9 9 9 8 8 8 8 8 4 a ;.k.d.5.8.;.d.d.;.;.d.;.d.$X*Xv.Z u p 0 c c t.=._ n n ( ( ( _ _ _ _ _ _ _ _ _ _ *.*.-.t.t.t.t.=.=.#.*.l.@Xj.d a a a q 0 0 8 U C.U.2.P P 7.bXP.T ) s p q a a k k k c c c c a a v S =.e.t.t.;.3.B.n.Q W Y { { [ #.#.[ { Y W Q P P W W <.Y.Q.bXo.S.R.' I I I e K K K K t t t w p p p p p p a a b b p r r p p 4 n a a a a a a p a f u u u u p p 9 9 a a c c M M M n v v v v c c 0 8 6 5 % 9 c./.c.h.;.n n b p r a t.e.n n n a a d n n n n n n n S S S S n n n n d S S S S S S n a a a a a S *.n #.S S S S u.e.v 9 0 8 8 8 8 k k 0 0 0 0 k k k c 8 8 6 5 5 1 5 1 2 a n n n v v S S d n S $.;.;.$.=.=.=.=.=.=.$.$.=.=.=.=.*.#.#.*.N M B c r 8 4 4 r r p c n v a 9 =.v.,X<X*X#Xl.k.d.>.#.d d d d d $.$.$.$.$.&.&.:.>.8.8.9.f.h.c.^.^.^.^.^.^.^././.^.^.^._._.Q.Q.Q.bXbXbXbXbXbXmXmXbXnXnX'.'.).+X+X+X&X*X+X(.v.c.c.v.v.v.v.v.c.f.9.9.8.>.>.>.>.>.d.l.v. X Xv.k.=.D n v a v v a n D =.=.=.=.r.r.*.b 6 6 8 n *.e.*.n $.=.t.t.u.;.$.$.",
";.t.u.u.u.u.t.t.=.=.=.=.=.=.r.r.e.e.e.r.=.*.*._ N N N N N n c c c c c c c c v v v v v v v v n n a a a a v v c k 9 9 9 8 8 8 8 8 4 a t.k.d.;.;.;.;.;.*.*.=.=.5.l.$Xl.d u p 0 c p w.*.*._ ( _ _ _ _ _ _ _ _ _ _ _ _ _ _ *.*.*.=.*.=.*.-.#.( d.oXj.#.n a 9 9 9 0 8 U 6.U.2.T L 7.-XN.Y ) s p q a a k k k k c c a a a v n *.=.t.;.-.2.m.n.Q W W %.&.-.;.g.l.I.6.2.W T T W W <.U.Q.bXO.S.R.' I s s e y K K K t t w w p p p p p p a a a p p r r p p 4 a a a a a p a n d d a u u u p p 4 9 a v n n c c M M n n n n v v 0 0 8 5 1 9 c.(.c.h.;.a v c r p =._ *.*.n n _ s d d n n n n n n S S S S n n n n d d S S S S n n a a a n n #.*.n *.#.S S D t.=.a 0 0 8 8 8 8 k k k k k 0 0 8 0 0 5 5 5 5 5 1 1 1 2 a n n v v d S d n S $.;.;.;.=.;.=.;.$.=.$.$.*.=.=.*.#.n n a n c c z 8 8 8 8 r c b n v a a n S l.+X*X#Xv.l.d.;.#.#.d f u f f f } { { &.5.0.q.0.^.^.^.I.^.I.I.I.I.I.A.A.q.h.h.I.I.I.Y.Y.U.E.-XbXbXbXbXbXmXmXmXmXmXbX'.m.| | | &.9.v.OXOX/.c.c.v.v.v./.v.v.f.f.8.>.>.>.>.9.k.l.l.l.l.k.p.e.*.v p n a 9 9 9 p n *.=.=.=.=.r.r.*.n 8 6 6 p n *.*.n =.;.;.=.$.$.$.$.",
"t.u.u.u.u.u.t.t.e.e.=.=.=.=.=.=.-.-.-.-.=.=.*.*.*.*.*.*.*.*.n n c c c c v v v v v v v v v v v v v v a a v c k 0 8 8 9 9 8 8 8 8 4 a =.k.d.;.;.;.=.=.#.#.#.#.#.8.$Xk.d 9 p 0 k 0 N *.=.*.#.( _ #.n n n n _ _ _ _ *.*.*._ _ _ _ _ #.( #.*.#.;.l.l.#.n a 9 9 9 0 8 U 6.U.7.W L <.-XN.Y %.s p q q q k k k k q c a a 9 a a n *.=.=.-.<.n.2.Q W <.5.8.k.l.oX#X%XT.6.2.T T T T Y C.E.bXV.B.Q.) d s s t y y t t t t w w p p a p a p p p p p r r w p u 3 a *.*.D D D *.j.d.d.>.;.$.*.*.*.n n n n n n n n F D S F n n M M p k h 8 2 9 c.(.c./.>.p 8 4 8 N n n n *.N n n _ d d d n d d d n n n n n S S S n d d S S S S n n a a a n *.*.*.*.*.*.S n D e.*.0 0 0 8 8 8 8 k k k k 8 8 5 5 5 5 1 1 1 5 1 1 1 1 2 c n v v v a n d S #.$.;.;.;.;.;.;.;.=.=.=.*.*.#.#.n n v c p z h h k k c c v v n n d a u d $.d.d.f.f.8.;.;.&.#.s f f f [ } { | 3.3.0.I.I.Y._.Y.C.A.A.A.A.A.Y.Y.A.U.Y.Y.A.A.A.I.A.A.A.U.R.Q.bXbXbXsXpXpXaXaXmXbXmXbXR.| T T [ f f &.f.h.f.8.8.f.h.v.oXoXv.f.>.>.8.9.f.h.l.l.l.l.p.u.=.*.S n v v n v a a p p v N =.=.*.*.=.-.*.n p 6 2 8 v D *.n #.*.*.*.*.$.$.;.",
"u.u.u.u.d.u.t.t.t.e.=.=.=.=.=.=.*.=.=.=.=.=.*.*.=.*.*.w.w.*.N n c c c c c v v v c c c c c v v v n n v c v a 0 0 8 8 9 8 8 8 8 2 4 a e.k.d.=.;.;.=.t.*.#.*.#.#.;.#Xk.a 9 a 0 0 8 c n =.=.( a d _ n n n _ _ _ _ _ *._ _ *._ _ _ _ _ a ( -.#.*.l.oXS n c a q 0 8 2 d 7.P.7.Y L 4.XX6.Y %.s p 0 0 q k k k k q c a a 8 9 a n *.=.*.#.' 2.2.Q | 6.g.T.z.j.t.-.#.U Y W T P T T Y N.E.bXn.B.U.) d d s t y y t t t r w w p p a a a p p p r p r w r r w 3 n t.j.t.u.t.j.#X<X,X$X#X.X X{.{.j.t.*.n n n D D D D S S n n M M c c h 8 8 9 v.(.c./.d.p 1 1 8 *.n N n n n n n a d d d d d d d d n n n n n n S n d d S S S S n n a p a n *.*.*.*.*.*.*.n D e.D 8 8 8 8 8 8 8 k k 8 6 5 1 & 1 1 1 & & 1 1 5 1 1 1 2 v n v v v v n n S $.;.;.=.;.;.;.;.;.$.$.*.*.#.s a a p p z z z c c c c v n S S p a d n [ #.[ U i f f f f f f f f U { 5.0.A.I.A.Y.Y.Y.A.A.A.A.A.Y.Y.Y.Y.Y.Y.Y.Y.U.U.E.Y.A.C.3.3.3.3.3.m.N.B.R.R.F.M.M.M.G.W.wXQ.Q.R.m.Y T { } } f $.f.h.8.;.;.>.v.v.v.k.>.;.>.8.f.f.h.h.k.f.u.>.S S S n n S D D D v a 9 8 p n w.*.*.*.*.*.-.*.n p 2 1 6 c N *.n n #.*.=.$.$.$.;.",
">.u.u.u.u.u.t.u.t.;.e.=.-.*.*.*.*.*.*.*.*.*.=.=.=.=.=.*.w.w.=.=.c a a a c v c a v v v v v v v v n c 0 0 a a 0 9 0 0 0 0 0 0 0 9 8 n t.d.;.;.t.;.=.*.S #.=.#.#.8.#Xk.n 9 8 k 8 8 8 n *.*.N _ _ n n N _ _ _ _ _ _ *.*.*.*.N p p N _ _ _ #.#.*.d. Xt.a 8 c c 0 8 8 a 4.s.' T L Y T.) ) %.s 8 8 2 8 8 8 8 0 0 q q a p p a a n n #.#.1.2.2.W <.6.5.;.( ( n ( ( U U W T P T Y Y <.R.bXn.Z.U.) s p s t t t t t r p w u p p p p p r r r p r r r p r p p *.t.e.=.t.u.i..X<X;X$X Xl. X Xl.{.i.=.S n F n n M F S S S F M M 0 k 8 8 1 2 :.&X(.f.Z ; 4 9 n _ n n N n n n N n _ n a a n n n n n n n n n n n n #.S n n n n n a a v n n N N _ N n N N _ N N c 8 5 5 6 6 6 6 5 5 & & & 1 5 5 6 8 5 1 & 1 5 5 1 % 8 c v c v n n n d #.u.u.;.$.$.;.=.t.=.*.S d s d 4 4 8 p c c z r c b n n n d d Z d [ &.8.g.0.1.{ { { { { { %.1.5.I.I.I.A.A.A.A.Y.A.G.K.E.E.E.E.E.G.E.W.Q.E.E.G.G.Z.Z.m.2.2.| R P T R W W |  .2. ...X...o.m.B.N.N.m.7.<.5.8.8.f.h.9.h.f.9.8.} Z $.v.f.>.;.>.d.k.l.h.v.v.h.>.#.Z n S S S S n n N n v a 9 9 p a n =.-.=.*.*.*.*.-.r.2 8 6 1 4 n *.n n n #.=.$.$.;.d.",
"u.u.u.u.u.u.t.t.t.;.=.-.*.*.*.*.*.*.*.*.*.*.=.=.=.=.=.*.w.w.w.w.v c a a c v v c n n n n n v v v n v q q a a q 9 0 0 0 0 0 0 0 9 p n =.=.*.=.=.#.S S n S #.S #.;.oXk.n 9 8 k 8 h 8 c N *._ _ ( n n n _ N N _ _ _ *.N b b p 4 w p _ _ #.*.*.=.j.oXj.n 9 a q 0 8 8 s 4.7.' I e U L.) ) ) b 8 8 2 8 8 8 9 0 0 q q a c a p p a n #.-.7.N.m.<.W <.%.( #._ n n U U U W T P T Y Y <.R.bXn.Z.U.) s u s t t t t r r p u u p p p p r r r r r r r r r p p p *.e.e.=.t.t.u..XoXv.l.l.k.k.k.l.{.i.=.S n S n n M M S S S D M M a 0 k 8 5 9 Z Z c.&.u : a n _ n b n n n n n n n n n n n n n n n n n n n n n n n S n n S n n n n v v n n N N n N c c c c m m 8 5 1 1 5 5 5 5 5 5 1 1 1 1 & & & & 8 1 & & 1 5 1 1 2 c v c v v n n =.=.t.t.t.;.;.u.t.e.*.n p p a ( ;.5.a.%.a w r s s s d ( U #.&.1.g.0.C.I.Y.A.C.3.A.A.A.A.I.Y.Y.Y.Y.U.A.A.A.Z.A.A.Z.G.J.W.W.W.W.W.J.W.W.Q.W.K.G.Z.Z.m.2.W W T T T T T T Y | 1.3.3.....3.3.3.3.6.6.P.6.6.g.f.f.h./.(.b.b.b.c.8.>.8.9.8.>.8.d.f.h.l.v.l.k.>.$.#.S S S S D S n n N n v a 9 9 p a n =.=.=.*.*.*.*.-.r.c p 2 1 2 p N =.t.=.#.#.$.;.u.d.",
"u.u.u.u.u.>.t.t.t.=.-.*.*.*.*.*.*.*.=.*.*.*.*.*.=.=.=.=.*.*.*.w.N n v c v v v v n n n n n n n n N v a q a a k 0 9 0 0 0 0 0 0 9 a a n #.#.#.#.p a n S n n n #.;. Xd.n 9 8 k 8 8 8 c n *._ N N N n _ N b n _ _ n N c r r r r r p ( _ _ *.*.-.j.oXj._ p 0 0 8 5 8 p -.4.) I e I s.U ) _ s 8 8 2 8 8 8 9 0 0 0 0 a v c p p a n *.-.1.6.7.W T Y %.( #._ n n d U U Y T T I Y Y <.U.bXn.Z.P.) s p a s t t t e r p p p p 9 p r r r r r r r r r r r p p _ e.e.=.e.e.t.l.u.>.;.$.$.>.p.k.{.i.w.D F n n n M M S S D M M M p 8 k 5 8 9 : $ > > : > n D _ N N N n n N N n n n n N n n n n n n n n n N n N _ N n N *.*.*.N n p p c c c c c z r 4 8 8 8 8 7 5 5 5 5 5 5 5 5 5 5 & & 1 & & & & 8 8 1 & 1 1 1 1 5 c v c c v c n t.e.=.=.u.u.;.=.N M c r p a ( %.T.T._.I.1.Y U Y i U <.0.C.C.A.A.Y.E.E.'.'.'.E.E.Z.Y.Y.E.Y.E.E.E.E.Z.Z.Z.Z.Z.Z.Z.F.J.uXuXpXuX'.'.'.'.'.E.G.Z.Z.Z.N.6.<.T T T T T T T { { 1.q.9.q.0.0.0.6.5.6.g.z.l.d.8.d.f.h.v.+X=X(.(.(.(.b.b.c.:.8.f.f.f.h.b.v. Xk.;.#.#.#.#.S S S N N n n M M v a 9 q p a n =.=.*.*.*.*.-.-.t.=.c 2 1 2 2 v =.}.t.*.#.$.d.d.d.",
"u.u.u.u.u.>.t.t.t.=.*.#.#.#.*.*.*.*.=.*.*.*.*.*.=.=.=.=.*.*.*.=.*.D n v v v n n N n n n n N N N D n a a a v c 0 0 0 0 0 0 0 0 9 9 a *.=.*.#.d u n *.*.S #.#.#.=.l.u.n 9 0 k 8 8 8 8 c *.*.N n N N N N b n _ N b p p p b N _ N N n n n _ _ *.a.{.{.=.p 8 8 5 5 6 p _ 4.) I w e ) I U ) s 6 5 2 6 8 0 0 0 0 0 0 a a a v n n S #.%.Y | <.W Y Y %.-.#._ n d d I Y Y T P Y Y Y | U.bX .N.P.) s p a p i t t i r w p p 9 9 r r r r r r r r r r r r p w n e.=.=.e.=.e.k.;.>.$.f f =.k.k.{.i.w.D S F n n M M S S S M M c 0 8 8 5 8 2 $ : : g f u N N _ n _ _ *._ N n d d n *.n p 8 c n n n n n n n N N N n N N _ *._ M B 4 4 8 r 8 4 8 7 8 7 7 7 7 7 5 1 5 5 5 1 5 1 & % 5 1 5 5 6 8 8 8 k 8 5 1 & & 1 1 5 c c c c c c v y.t.e.=.=.#.n a 6 8 8 r u i L T | 3.A.~.'.E.m...N.C.A.Y.Y.Y.E.G.Z.E.pXbXbXpXW.F.Z.Z.Z.Z.Z.Z.Z.G.G.G.E.R.G.G.E.W.W.W.uXpXpX'.W.W.Q.E.G.Z.m.3. . .6.7.<.Y Y Y Y Y { { 1.0.h.^._.(._.h.d.8.d.z.l.l.u.=.$.>.f.v.(.(.=X(.(.(.(.(.(.(.:.9.b.b.c.c.v.OXk.u.$.#.#.*.S n S D N N n n M M v a 9 q p a n =.=.*.*.*.-.-.t.t.t.n 8 2 2 2 9 n j.i.t.=.t.d.j.d.",
"u.u.u.u.u.>.;.;.;.=.*.#.#.#.*.*.*.*.*.*.*.*.*.*.*.*.*.*.*.*.*.=.w.*.N v v v v n n N n n N N N N D n a q a c k q 9 9 0 0 0 0 0 0 8 c =.t.*.n d a *.=.*.*.*.#.#.#.k.t.n 9 k h 8 8 8 8 p N *.N n N n N N N n N n p 8 c N *.r.r.*.*.n n N _ ( #.t.}.@Xe.c 4 8 6 5 6 r _ ) I s w y I i U -.s 6 8 5 6 8 0 8 8 0 0 p p 9 a n D #.#.#.( Y Y <.Y T U ( ( *._ n b d U Y Y P P Y Y U <.U.bX .m.L.Y i r s i i i p r r r p p 9 9 r r r r r r r r r r 4 4 w w n e.e.*.=.*.=.j.d.f.>.Z f $.u.p.k.p.e.D S n n n M n n n n n c c 8 8 8 5 8 # : 9.(.c.>.d *.*._ n n n n n n n s d n N c 1 : p N D N N N N N N N N B B n N M B m z 7 4 8 8 h 8 8 7 8 7 7 5 5 5 1 1 1 1 5 5 5 5 & 5 k 0 k k k k k k k 0 8 1 & & 1 1 5 k c k k c c v e.e.w.D a 9 4 2 8 4 r w i i H H H X.O.K.sXsX~.K.A.A.A.Z.Z.F.F.F.M.J.sXMXmXpXJ.K.G.F.M.M.M.M.F.F.H.W.uXpX'.W.W.W.J.W.W.W.'.W.E.E.Z.C.3. .| | Y Y | %.{ Y Y Y Y { | 1.0.^.).).`.+X(.v.h.j.d.d.t.=.n $.u.v.(.(.(.(.`.(.`.(.^.(.`.(.x.c.b.b.v.v.b.v.;.=.$.*.*.D n n N N n n n n n v v k 0 0 0 a n *.=.*.*.*.-.-.;.t.j.*.p 2 1 2 2 8 *.t.j.j.d.d.d.8.",
"u.u.u.u.u.>.;.;.=.=.*.*.*.*.*.*.*.*.*.*.*.*.*.*.*.*.*.*.*.*.*.*.w.*.D n v c v v n n n N n N N N D n a 9 q c k 0 9 9 0 0 0 0 0 0 0 c =.=.S a n *.*.*.D n *.#.n #.d.;.v 9 k h 8 8 8 8 0 n N N N n b b N N N n p p r N r.t.r.*.*.*._ _ _ _ ( _ t.l.@Xt.c 4 8 6 5 6 r ` ` I s w < t e U -.c 6 8 8 6 8 0 8 8 0 0 p p p c n D _ #.#.#.Y Y W Y I I U ( ( _ N n d U U Y L L Y Y U Y U.bXE m.N.U p r p p p u r r r r r r r r p p p p p p r r r w 4 4 4 4 n -.=.=.e.=.e.j.v.k.u.>.$.S *.u.k.p.=.S n v v v c n v v v v c k 2 8 5 5 8 $ A 3X4X>Xv.S n n _ n a a a n n ( ( ( n n 8 ; X 2 m n *.N N N N N N M c c m m m c r 8 8 8 z z z z h 8 7 7 5 5 5 5 1 1 5 6 6 h j k k k m k k k k k k k k k 8 6 1 & & 1 5 k c k k k k c N N n a 4 3 4 p a s i i Y ..m.A.K.[.[.tXtXtXtXtX+.M.M.M.F.S.M.M.F.H.uXuXuXJ.J.J.J.H.G.S.S.S.F.K.uXpXpXsXsXpXQ.K.m.V.Z.G.E.E.Z.A. .| | { Y { Y Y U U { Y { { { { 5.q.I._.).).(.(.v.l.k.u.=.S a 4 S u.v.OX&X`.`.`.`.`.`.(.(.(.`.(.(.b.c.v.+X/.9.$.$.*.*.D S n n S N N n n n n v v v q 9 0 0 p n *.=.=.*.*.-.-.;.t.j.t.n 2 1 2 2 1 9 D j.l.k.j.d.d.",
"d.d.u.u.u.>.;.;.=.=.=.*.*.*.*.*.*.*.*.*.*.*.*.*.*.*.*.*.*.*.*.*.w.w.*.N v c c c v v n n n N N N D n a 9 9 q q 0 9 9 0 0 0 0 0 0 0 p n *.n a S *.S S n S *.d a #.u.=.v 9 k 8 6 8 8 8 8 p n _ _ n B b n _ N p p p B *.r.w._ _ _ _ _ _ _ _ n _ =.j.@Xj.v 4 8 8 5 8 r ` ` I s w , w w ( -.b 8 8 8 8 8 k 8 0 0 0 p p p v n *._ _ #.#.Y Y Y T T I ( _ _ _ N n n I I T L L Y Y U { U.bXR 3.6.U u 4 p p p u r p r w r r r r p 0 0 0 0 p 8 w w w 4 4 4 4 n =.=.=.t.e.e.j. Xh.d.d.;.d n $.i.u.=.S v v v v c v v v v k k 0 4 8 5 8 1 # :.DX`.&Xv.#.n n *.*.n n n ( _ ( ( ( c p 2 ; 1 2 8 p m c m c m c m m c z z z z z 8 7 h h z z z z j 7 5 5 7 7 7 h j j k k m l M M M M l k k k k k k k k k k 8 5 & & 1 5 h k h k k k c 0 8 4 4 0 v D *.( U { 1.Y.'.dXdXkXlXlXlXlXlXlXtXK.H.H.H.H.J.J.J.W.W.J.F.M.F.wXbXaXaXuX0X0X0X7X7XaXaXsXsXpXW.V.^ E Q m.Z.G.Z.m.2.W T Y { { <.&.&.{ } } } { ..5.q.^.^._.(.(.(.b.b.f.d.;.S a p a a u.l. Xv.v.(.`.`.(.`.`.(.`.`.(.(.v.v.v.v.v.f.$.S #.D D D n n N *.N n n n n n n v c q 0 0 9 p n *.e.=.-.-.-.-.;.t.j.y.w.c 2 1 1 1 2 a =.j.l.k.d.k.",
"d.d.u.u.u.>.;.;.=.=.=.=.=.-.*.*.*.*.*.*.*.*.*.*.*.*.*.*.*.*.*.*.*.=.*.D n c a a v v v n n n N N D n q 9 9 0 0 0 0 0 0 0 0 0 0 0 8 2 p n #.n n n n n n *.#.a a *.;.=.v 0 k 8 6 8 8 8 8 9 n _ *.n N c b _ N r r b _ w.w.N B N *.*._ _ n n n n *.d. Xj.n 4 8 8 5 6 c ` ` ` s w , w w ( -.b 6 k 8 8 h 0 0 0 0 0 p p p v *.*.*._ *.#.%.Y Y Y U U ( ( _ ( n n ( U I T L L I Y U { U.bXW 3.s.U p 4 p p p r r r r r r r r r p 0 0 0 0 p 8 w r 4 4 4 4 4 b =.=.=.t.e.t.k. Xh.d.>.#.d d S p.u.$.S v a a v v v v a q q 0 0 8 8 6 8 % 4 f.4X>X=Xv.#.#.*.r.*._ n N N N b a b 8 6 1 1 5 7 5 5 8 8 8 8 8 8 8 h h h 8 8 z z z h h 7 8 7 7 7 5 = 1 7 8 h h k c c c c l l k k k k k k k k k k k k k k k 0 5 1 & % 1 k k h k k k k 1 # # 4 n t.i.a.%.| 0.Y.'.sXdXsXtXtXtXlXlXkXlXtXK.8X7XfXmXMXMXMXmXaXJ.M.o.M.uXMXhXhXhXgXfXiXiXiXiXsXbXpXW.m.R H ! Q n.Z.U.C.2.Y Y Y { { 1.8.8.q.q.q.q.:.q.9.^._.&X&X).(.(.b.b.c.f.u.S 4 ; 9 e.{.l.l.l.h.v.(.(.c.(.=X(.(.&X&X(.v.c.v.oXv.u.$.#.S S S D D D D N D N n n n n n n v c q 0 0 0 p n *.e.=.=.-.-.-.=.;.t.j.i.=.a ; # ; 2 8 n t.l.k.k.j.",
"d.d.d.k.d.;.$.;.*.*.=.=.-.-.-.*.e.e.e.-.=.=.=.*.*.*.*.*.*.*.*.*.*.( n N N n a p p a n n n n N *.*.v 0 0 0 0 9 9 0 0 0 0 0 0 0 0 8 8 c D =.*.S #.S S S S n n n S t.*.v 0 8 8 8 5 8 k 0 8 c N D *.N n b p p p c c _ r.r._ N _ *.N _ *.*.n n n #.*. XoX*.4 2 8 8 6 r s ` ` b r 4 4 w ( ) b r 8 0 0 8 0 k c c c p p p a n S *.#.#.#.#.%.( ( ( ( ( _ ( n n d n ` ( ` T L U Y L { Y.bX1.Y -.N 4 p c b r r r r r r r r r r 9 9 p r r r 4 4 4 w 8 8 4 4 n =.=.*.*.*.t.k.v.v.f.;.;.$.#.=.d.d.=.S d d a a v v c v v k 0 0 8 j 8 5 2 > /.&X=X&X(.$.a N B x 8 7 8 7 5 1 = = 1 7 7 5 = 5 5 5 m j 5 5 h m z h h h h h 8 8 8 8 7 7 1 = * * ; 1 8 0 c n n n v c k k l l l k k k k q q k k c c c 0 0 0 0 8 2 1 % 8 k k k k j m m % O 2 n t.d.=.#.} 3.A.E.'.7XK.K.7XK.K.8XtXhXhXhXtXfXxXVXVXVXBXZXBXBXaXO.^ S.pXmXMXhXhXhXhXhXhXgXaXsXbX'.N.T L L L P ' 7.6.1.%.{ [ %.&.8.8.9.f.x.x.9.:.:.9.(.&X>X*XOX/.(.OXoXoX@XD n a 9 4 a t.1X{.{.l.k.8.;.&.&.[ ;.d.d.l.oX/.h.+X/.k.;.*.D D S D S D *.D *.*.*.*.D n n n n v c k 0 0 0 0 9 v *.e.t.t.a.a.;.5.5.;.t.d.t.=.n 8 ; 1 3 2 a =.j.}.j.",
"k.d.d.d.d.u.;.$.$.$.=.=.-.-.-.-.e.w.e.w.w.=.=.*.*.*.*.*.*.*.*.*.#.( _ n n n a p p a n n n N N *.D v 0 0 0 9 8 9 0 0 0 0 0 0 0 0 8 8 c N *.*.S S S S n n n n n S t.*.v 9 8 8 8 5 8 k k h k N D D N n b p p p c c N *.w._ N _ *.N *.N D n n n #.#.l.oX=.4 2 2 8 6 r s ` ` b r 8 4 w U ) I r 8 0 0 0 0 0 c c c p p p a v n D *.#.#.*.#.#._ _ ( ( ( n n n d ( ` ( ( I L U Y U | Y.bX1.( _ N r r c b r r r r r r 0 0 9 9 r r r r r r 4 4 4 4 8 8 4 4 n *.=.*.*.*.t.j.v.v.f.>.&.$.$.>.f.d.;.S d d v v v c v v v k k k j j j 5 ; , ^.&X=X:Xv.u , r r 7 7 j j 5 5 5 5 = 5 5 1 5 5 5 5 j 1 j h h h h h z h h h 8 8 7 1 1 1 1 1 3 8 p c n v v n n n n M v l l v v c c l l k q q q a a c c 0 0 0 0 8 2 1 % 2 k c k k k k j 5 7 c _ *.%.( U | m.K.pXhXhXgXfXtXtX7X8XsXhXhXsXhXxXBXVXVXVXZXZXVXCXgXS.^ S.uXsXhXfXjXgXhXhXgXaXpXpXbX'.C.Y L L L L I I Y %.%.%.#.&.>.8.9.9.9.9.9.9.9.c.`.=X&X(.(.OXoXOX*X,Xd.9 D v c 0 4 p e.@Xk.l.l.j.a.;.=.=.;.;.=.#.=.j./.+X+Xf.;.=.D D D S D S S D D *.*.*.*.D n n N N v c k k 0 k 8 9 v *.e.t.t.t.a.;.5.5.a.a.d.t.e.*.n c 1 1 ; 8 N y.j.j.",
"l.k.p.u.d.k.d.t.=.=.=.=.=.$.-.-.e.e.e.w.=.=.=.*.*.*.*.*.*.*.*.*.#.( ( ( n n a s a a n n n n n _ D v 0 9 9 9 8 9 0 0 0 0 8 8 0 0 8 8 c n D *.S S #.S n n n n #.S e.*.v 9 8 0 8 5 8 8 k h c M N D N n b p p p c c B _ _ N N _ *.N N N N n n n #.( l.@Xt.9 1 2 8 8 r s ` ` b r 8 4 w U ) I r 8 0 0 0 0 0 p p p p p 9 p v n *.*.*.*.*.#.#._ _ ( s s ( ( d d s ` ( ` T I U Y U 1.E.bX%.s n n p p p c r r r r r r p 0 0 0 r r r r r r 4 4 w w 8 8 4 4 a *.=.*.*.=.t.j.l.h.h.k.>.;.>.u.k.j.t.D n n n v n n n c c k k 0 k j j 5 ; ; h.).:X*X>.: , r 7 z 7 7 j 7 5 7 7 7 7 1 1 5 5 = 5 h 5 7 7 8 8 8 8 8 8 7 1 1 1 1 2 1 p p c b n N D N D S D D D n n v v v v v c c c c v a a a a a v c 0 0 0 0 8 5 1 % 1 k m c c m k 1 1 r _ -.%.%.<.| m.K.pXmXBXZXBXBXjXfXjXjXjXkXhXfXjXBXVXVXVXVXVXZXCXBXiXS.O.J.aXhXfXfXgXhXhXhXhXaXJ.'.'.'.C.W L I T L L L i I U } } &.>.9.9.9.8.9.:.x.(.=X=X&X+X(.+X+X*X;Xv.S u v v c c q 4 8 *.j.j.j.j.d.;.=.=.=.d.d.t.=.=.8./.<X+X&.S *.D G =.S D S D D D *.*.*.w.D D n N N v c k k 0 k 8 9 v D e.e.t.t.t.;.a.a.d.d.d.t.t.e.w.*.n 8 ; X 3 n t.}.",
"k.k.k.p.d.j.j.u.t.;.=.=.=.=.=.=.e.e.e.w.=.=.*.*.*.*.*.*.*.*.*.*.#.( _ ( n n a a a n n n n n n _ D v 0 9 9 9 8 9 8 8 8 0 8 8 8 8 8 8 0 v N D D S #.n n n #.#.#.S e.D v 0 0 0 8 5 8 8 k k k m N D N n b c p p c c b N N N N _ _ N N n n N n #.( d j.$Xj.p 1 2 8 8 r p b b p 8 6 4 w U ) I r 8 0 0 0 0 0 0 0 p p 0 9 p a n D *.*.*.*.#.#.#._ n s i ( n n s s ( ( ` T I U U U 1.E.bXY i b n p r r r r r r r r r 0 8 8 8 8 r r r r 8 4 4 w 4 8 4 4 w n *.=.*.*.=.d.k.l.l.v.l.>.;.u.u.k.j.t.D n F n n M n M c k k 0 0 k k j 5 ; ; h.).*X>.> * 3 4 1 z h h h h h 8 8 8 7 1 1 1 = X = 5 7 5 1 3 3 1 1 1 ; ; ; 3 p n D *.*.*.*.*.*.N n n D D *.*.D D D n v M M c M c c M v v v v v a v v q q q 0 8 8 1 % 8 0 k c M v 4 * r ` a.5.6.6.P.Z.K.0XhXMXBXZXBXBXxXkXzXzXkXjXjXfXyXfXzXBXVXVXVXVXBXmXqXD.D.aXmXmXgXgXhXhXhXsXuX0XG.K.E.Z.3.T L L Y Y Y { [ [ [ [ &.:.9.9.f.9.8.:.x.(.;X>X&X(.+X+X X*X#X>.a 9 a v c k c c 4 4 n t.d.d.d.t.;.=.=.&.t.t.d.d.=.=./.3X+X[ a *.D D w.S $.*.D D D D *.*.w.D D n N N v c k k k k 0 0 c D e.e.t.t.t.;.5.a.j.d.d.a.t.=.=.=.w.N p 1 X : n j.",
"=.j.{.l.k.d.u.u.d.t.t.=.=.=.=.=.e.t.e.r.=.*.*.*.*.*.*.*.*.*.*.*.#.#.#._ n n s b a n n n n n n _ D a 9 8 9 8 8 9 8 8 8 8 0 0 0 0 8 8 0 a n S D S #.#.n n n n #.S =.D v 0 0 0 0 8 8 0 0 k k c n N N n b c p p c c c b b b B N _ N n n n n #.#.d d d.$Xl.n 2 2 8 8 8 r s b r 4 2 2 w U ) s r 8 0 0 0 0 0 0 0 0 0 0 p p a n n *.*.*.*.#.*.#._ ( s i ( n s s b ( ( ( I I ` U { 0.'.bX) w p b p r r r r r r r r p p 8 8 8 r r r r 8 8 4 4 4 4 4 4 4 w n *.=.#.$.;.d.k.l.h.l.l.>.;.u.;.j.i.e.D n M M v N M c c k 0 0 0 k k j 5 2 : h.+Xf.> * , 4 4 7 h h h h h 8 8 8 6 3 3 1 = 1 7 6 3 ; ; ; 1 * * ; 4 p a S -.u.d.u.t.D *.*.=.*.*.D D D S *.$.$.=.D D v v n n n n n n v v v v v v v v q q 0 0 0 8 1 % 2 8 9 a 9 3 4 w %.6.P.P.C.Z.Z.G.H.7XaXjXmXBXBXBXBXxXxXZXxXkXjXyX8X9XjXzXzXZXZXBXBXjXqXH.7XaXmXhXhXgXgXhXaXuXJ.F.G.Z.Z.m. .P H L { { :.q.9.q.8.:.9.9.9.9.9.9.9.x.(.+X&X&X+XoXv.v.p.*.a p p p p a c k v c 4 2 a e.u.t.;.;.;.;.;.;.=.#.=.=.d d f.<X*X#.d $.D D w.D $.*.*.*.*.*.*.*.*.D N M N N c p k k k k 0 9 c N =.e.t.t.t.t.a.a.d.d.d.a.t.=.=.*.=.=.*.N p 1 4 a ",
"u #.k. X Xk.j.d.j.d.t.=.=.=.=.e.t.t.e.r.=.*.*.*._ *.*.*.*.*.*.-.#.#.#._ n n n n n n n n a a n _ D a 8 8 9 8 8 9 8 8 8 8 8 0 0 k 8 8 0 0 v n *.S #.#.n n n n #.S *.n c 0 0 0 0 8 0 8 0 k 0 k v N N n b c p p c c c c c c B N n B c n n _ #.#.d d ;.@X{.S 9 2 8 8 8 r s s r 6 5 2 w U %.s r 8 0 0 k 0 0 0 0 0 0 0 p p p a n *.*.*.#.*.*.*.( ( s s n n s s s ( ( ( I I I U [ 0.-XbX%.w r c p r r r r r r r r p p 8 8 8 r r r r 8 8 4 4 4 4 4 4 w w d *.-.#.=.;.d.k.h.h.l.l.d.>.;.;.j.i.e.D n M M v n v c k 0 0 0 0 8 j 8 5 2 : l.v.d ; , r 3 7 8 8 8 8 8 8 8 5 5 2 2 1 1 3 B t.t.w.p 3 * ; 4 p n *.j.j.k.k.l.l.d.;.$.$.*.*.*.*.D S S S S *.$.=.=.=.n n n n M M n n n n n v v v v v c k 0 0 k 8 2 % 1 2 4 9 3 ; i %.6.P.U.U.Z.Z.G.F.S.H.0XiXgXjXzXBXxXxXxXxXxXxXzXjXzXzXzXxXZXZXBXBXjXjXiXqXiXhXmXhXmXmXaXpXuXJ.Z.M.M.m.m.3. .W W | 1.:.9.9.h.h.9.9.9.9.:.:.:.9.b.(.&X*X*X+Xv.d.;.$.9 p a a a p a c v v v a 4 2 v e.u.t.;.;.5.a.5.;.#.#.#.#.a f 8.:X;X;.S =.=.D =.D $.$.*.*.*.*.D D D D n c v v c 8 k k k c 0 9 a n =.e.t.t.t.t.a.a.a.d.d.d.d.t.e.-.*.=.e.t.w.n p 4 ",
"4 p *.j.{.{.l.l.j.j.t.t.=.=.=.t.e.e.e.=.=.*.*.*._ _ *.*.*.*.-.-.( #.*._ ( d n n n n n a a a N _ n a 8 8 8 8 8 9 8 8 8 8 8 0 k 0 8 k 8 8 c n *.S #.#.#.S n S S S D n a 0 k k k 8 0 8 0 k 0 0 c N N n b c p p c c c p p c b B b b c n *.*.*.#.S d =.oX}.=.c 2 8 8 8 r s p 8 6 5 2 w ( %.s r 8 0 0 c c 0 8 8 0 9 0 p 9 9 a n *.*.*.#.*.-.*.*.#.( n d s s s s ( ( ( U I ` U { g.-XnX4.w r a p r r r r r 4 4 r p p 4 8 8 8 8 8 8 4 4 4 r 4 4 4 4 4 4 n *.-.#.=.t.d.k.h.h.h.h.h.k.>.;.u.u.e.D n n n c c c k k 0 8 0 0 5 8 6 & 2 4 k.8.> ; 4 3 * 1 1 5 8 8 0 8 0 8 8 8 8 2 1 p e.}.oXoXj._ u d a.l.oXoXc.h.f.h.v.v.l.k.u.;.=.$.*.S S S *.#.#.S S S S S v n n n F F F F S n n n v v c c v k k 0 k 8 2 % # 1 4 a s U %.0.C.Z.Z.G.F.F.F.F.F.H.qXiXgXjXjXjXzXzXzXxXBXBXxXZXCXCXZXBXZXZXBXBXjXMXmXhXhXhXhXsXbXpXW.E.G.M.m.m. ... .m.C.C.A.Y.h.h.h.h.9.9.9.h.c.c.c.c.c.(.=X>X*X$XOXl.;.S a a 4 a n n v v c c n v v a 4 4 n t.d.t.;.8.d.d.d.8.#.#.*.=.#.[ 8.;X:X8.S *.=.=.*.D *.*.$.*.*.D D D D n v c c c 0 6 0 k k c 0 9 a n =.=.t.t.5.a.a.a.a.d.d.d.d.t.e.=.-.=.w.w.e.w.N v ",
"n a a =.k.l.l.k.j.j.d.t.=.=.=.t.e.e.e.=.=.*.*.*._ _ *.*.*.*.-.-.( #.*.( n d n n n n n a a a n _ n q 8 2 8 8 8 9 8 8 8 8 8 0 0 0 8 k 8 8 p n *.S #.#.#.S n S S S D v a 0 k k k 8 0 8 0 k 0 8 c N N n b c p p c c b p r p c c c c a n *.*.#.#.S S =.{.l.e.n 8 8 8 8 r p p 8 5 5 2 w ( %.s r 8 0 0 c c 0 8 8 8 9 0 p 9 9 a n *.*.*.#.*.-.-.-.*._ ( n s s s s b ( ( U I ` U #.I.-XnX5.w r a p r r r r r 4 4 r p p 4 8 8 8 8 8 8 4 4 4 r 4 4 4 4 4 4 n *.=.#.=.u.d.k.h.h.h.h.v.l.d.u.u.u.=.S v v v c c k k 0 8 8 0 0 5 8 5 % 2 4 d.$.3 3 4 3 1 1 1 5 k 0 k q q p c c p 8 8 n *.t.j. XoXz.d.oX<X<X<X:X_./././././.h.f.;.$.$.$.$.=.=.=.$.$.$.S S S S S S S S S S D D S S n n n v v c k v k k k c 0 2 % 1 1 4 ( a.P.P.C.A.Z.Z.G.F.F.F.H.0XiXhXhXgXfXfXfXzXzXzXZXVXVXVXVXZXZXBXBXBXBXZXzXZXVXCXBXhXiXiX0XW.R.B.m... ..... . .3.C.Y.E.'.'.;X>X=X&X&X&X>X>X>X:X:X:X:X:X:X:X;XoX>.S S S d a p 9 a n N N m c N v v a 4 4 n j.d.d.;.d.d.j.d.d.=.#.*.=.#.#.f.:X:X8.Z S =.e.*.D *.$.$.*.*.D D D S v c q c k 8 2 0 k k c 0 9 a n =.=.t.a.a.a.a.a.d.d.d.a.t.=.-.=.e.e.e.=.*.e.w.*.",
"d.=.n a *.j.{..XoXl.u.e.=.*.=.e.=.=.=.=.=.*.*.#.*.*.*.*.*.*.*.#.%.( ( ( n n n n d n n a p p p a 9 9 0 0 9 9 4 2 8 8 8 8 8 8 0 0 8 8 8 0 0 c n S S n n n S S S S S a 9 9 c k k k k k k k k k q a N N n c p p p p p p p p c c c c c n D *.#.#.#.#.=.d.d.i.D 9 k 0 0 p p r 8 5 2 2 w ( ) s 4 4 0 9 k k 0 0 0 8 8 8 c a 9 4 a n *.*.#.#.*.*.*.#.#._ d d s a s s ( I ( ( s ( U ^.-X-X5.i r p 8 8 4 r r r r r 8 4 8 8 8 8 4 4 4 4 4 4 4 4 4 4 4 4 r p n #.*.*.=.d.k.k.h.f.f.h.h.l.k.d.d.t.*.n n v v v 8 8 8 8 8 6 6 5 5 1 8 8 1 a S > 2 4 4 r c c m v G D c q 8 8 a n c p p p a n *.d.oXl.T.$X;X;X:X<X>X)._./._.+Xh.&.#.#.#.#.$.$.$.$.$.$.$.$.D S S n v v v v n F F F n n N n n v c v c q 0 0 k 8 2 % 1 o w a.T.T.U.Y.Z.Z.Z.Z.F.J.uXaXmXmXmXhXqXqXfXjXzXzXZXGXHXBXxXjXmXMXmXhXBXZXZXBXZXBXBXBXjX7XD.K.F.m.R H H R  .|  .3.C.U.Y._._.).&X*X:X:X:X:X:X>X:X4X3X:X:X:X:X;Xk.*.a a n n p p a a a 0 0 0 k c 0 9 v 9 ; 4 D j.j.d.;.=.d.h.g.d.=.;.;.d.d.8.h.+X:Xv.f S D D =.=.=.=.=.=.*.*.D D v c q 0 8 8 8 8 k k k c 0 9 9 a n _ *.*.-.-.-.-.;.;.a.a.;.;.=.*.-.=.r.r.w.*.*.D ",
"=.=.=.#.a n t.{.,X@Xk.d.t.e.=.=.r.r.e.=.*.*.*.*.*.*.*.*.*.#.#.#.#.( ( ( n d d n d d n b a p p p 9 9 0 0 9 9 4 2 8 8 8 8 8 8 0 0 8 8 8 8 0 a n S S n n n n S S S D v 9 9 c k k k k k k k k k q a N N n c p p p p p p p p c c c c c n D *.#.#.#.#.=.d.d.u.D 9 0 0 p p p 8 8 5 8 2 w U ) s 4 8 0 0 k k 0 0 0 0 8 8 c a p 9 a n *.*.#.#.*.*.*.*.#._ n d s s s s ( ( ( ( s _ [ ).-X-X5.s w 9 9 8 4 r r r r r 8 4 8 8 8 8 4 4 4 4 4 4 4 4 4 4 4 4 r p *.*.=.=.t.d.j.d.l.l.h.h.k.k.d.u.u.t.*.N n c v c 8 8 8 6 6 6 5 5 5 1 8 k 8 v n 4 B B B N N *.w.w.D D n q 8 4 p a v a p p p p #.t./.T./.+X;X:X:X:X;X)._._._./.8.$.[ [ #.#.#.#.*.*.S $.$.S S n d d a a v n n F n F n n N n n n c v c q 0 0 k 8 2 ; 1 3 ` T.XXU.U.Y.Z.G.E.W.'.uXpXpXpXpXpXwXiXhXmXmXjXBXBXxXfX8X8X8XiXgXhXMXCXVXZXVXZXZXBXxXjX8X7XJ.E.Z. .R  .|  .2.2.6.C.I.Y.I.I.I./.+X&X+X(.v.v.v.+X*X&X(.(.&X+Xh.$.n a a a a p p 0 a c c c k c c c 9 9 9 p a a u.j.j.u.;.d.g.f.8.t.d.d.d.j.8.h.+X<X/.d S D D =.=.=.=.=.=.*.D D D v c q 0 8 8 8 8 k k k c p 9 p c n n n n ( #.-.-.-.=.;.d.d.d.d.t.t.e.w.*.*.*.=.w.",
"*.=.t.=.a 4 a e.$X@Xk.t.e.t.t.t.=.-.=.=.*.*.*.=.*.*.*.*.#.#.#.#.#.( ( U d s s s d s s s b a p w 9 9 0 0 9 9 2 2 8 8 8 8 8 8 0 0 8 8 8 8 0 a n n S S n n n n S S D v 9 q c k k c k k k k k k q a n N n c p p p p p p p p a c c c c n S #.#.#.#.#.$.d.u.;.=.v q c c a 9 6 5 5 8 8 w U ) s 4 9 q 0 k k 0 0 0 0 9 9 c a p 9 a n *.*.#.#.*.*.*.#.#.#.( ( ( n n ( ( ( ( I b _ #.%X%X-X4.( 8 8 p 8 4 r r r r r 8 4 8 8 8 8 r r 4 4 4 4 4 4 6 4 4 4 8 r D *.=.=.t.d.j.d.k.j.d.u.u.u.t.t.*.D v c q k 0 0 8 5 6 6 6 6 5 5 5 8 k p p n n p N N _ *.*.*.w.*.D n n v p p r r v v v a 9 u S ;.k.l./.+X;X:X:X;X>X/./././.8.&.[ d d d d S S S S S S S S v a p 9 4 9 v F M n n M F n D F n n c v c q 0 0 c 0 2 ; 3 p a.XXXXP.P.P.A.Y.'.'.'.'.'.E.E.E.G.W.sXMXMXsXmXBXMXiXK.K.H.H.J.J.0XhXCXZXZXVXZXZXZXBXxXjXiX7XE.Z.m...3.m.6.6.6.0.0.0.0.8.:.8.&.>.,.&.$.[ $.$.v.v.f.8.d.h.>.$.n v v v c p p c k c v v m c c c q v 9 9 D =.n *.d.j.j.d.d.f.f.f.j.j.j.k.k.d.h.+X<X+XS S D D =.$.=.=.=.=.*.D D D c c k 0 8 8 8 8 0 0 k c c p a n =.*.*.#.( ( ( ( ( _ #.#.=.;.d.j.t.t.e.e.e.e.r.w.",
"t.e.t.t.=.n p w l..X@X{.j.u.t.e.=.=.*.*.*.=.-.e.*.#.*.#.#._ #.#.#.( ( ( s s s s a a a d n a r 4 9 9 0 0 9 9 2 2 8 8 8 8 8 8 0 0 8 h 8 8 8 p v n n n n n n n n n D v 9 q c c k c k k k k k k q q n N N n p p p p p p p p a c c c v n n #.#.#.#.[ $.d.;.*.e.D c v c c 8 2 5 5 8 8 w U %.s w 9 c a k k 0 0 p p p p c c a p a n #.#.#.#.*.*.*.*.#.#.( ( ( ( ( ( ( ( ( ` b ( =.%XI.-X%.#.r 4 p 8 4 r r r r r 4 4 8 8 p 9 r r 8 r r r 4 4 6 6 6 8 8 8 n D *.*.=.t.u.u.i.u.=.D n v a a 9 9 8 8 8 2 2 1 8 8 8 h j 6 6 5 8 0 0 8 p n n n n N n n N n S S S S S n n a p 4 a c v v 9 9 d =.>.l.(.).&X;X:X&X&X/./.h.8.&.#.d u s s s d d n S *.S S d a p 9 4 # 2 v S D n n M F F D F n n c v c q 0 k c 0 5 1 p *.j.l.z.g.h.I.Y._.'.'.'._.A.C.C.A.Y.'.nXnXsXJ.MXBXhXJ.K.J.J.J.K.F.F.7XgXgXmXVXVXGXGXGXGXHXBXhXE.Y.M.C.C.A.C.C.0.6.5.1.&.&.&.:.$.$.S S Z $.>.k.v.>.=.>.>.$.S S v n n n v c v n c c v v v m c c c a 9 v j.}.S p ;.j.k.j.d.f.g.g.h.k.k.k.k.d.h.+X<X*X$.S *.D =.*.G G D D *.D n v c q 0 0 8 8 8 8 0 0 0 c c a v n t.d.j.j.d.;.#.( *.#.d p s d #.-.=.t.d.j.j.t.e.w.",
"t.t.r.t.j.d.#.u a =.k.{.k.j.u.=.=.=.=.*.*.=.-.-.*.*.#.#.#.#.( ( ( ( ( d s s s s a a a n n a w 3 9 9 0 0 8 8 2 2 8 8 8 8 8 8 0 0 8 8 8 8 8 9 a a n n n n n n n n D v q q v l k k k k k k k k q q n D *.n p p p p p p p p a a c c v n n #.#.#.#.[ =.j.;.S e.e.v v c 0 6 5 5 8 8 8 w ( %.s r 0 c c k k p p c c a a a v a p a n S #.#.#.*.*.*.*.*.*._ _ ( _ _ ( ( ( ( ( N ( d.%X6.T.( *.b 8 p r 4 r r r r r 8 4 8 8 9 p r r r r r r 8 6 8 6 6 8 8 8 v n N n D D *.D a a p 9 8 8 8 9 2 2 4 8 9 9 8 2 8 h h j j h 8 8 8 0 8 8 0 c n n n n n n n n n n D *.*.*.#.n a p 0 c v v a p a #.u.v.OX(.(.&X=X).+X/.h.8.&.#.#.s u p a a n n n D =.S a 9 a 9 4 # # 2 v D M M M M n n S F n n v v c q k k c 0 6 1 *.u.l.k.j.k.h.h./.^.T.I.I.I.h.g.q.0.'.nXNX-X'.'.CXNXdX~.~.'.W.H.F.S.S.H.0XqXjXGXGXLXLXGXGXGXVXhXK.K.A.A.A.U.P.P.6.5.;.-.#.&.;.;.;.$.*.$.u.k. X@Xd.$.#.=.$.S d S n n v v v v n n n v v v c c v v v 2 q i.1X{.a u #.d.k.h.d.d.f.g.h.h.j.k.k.8.f._.:X;X;.#.$.=.=.=.=.D D *.*.D n a c q k 0 8 8 8 k 0 0 k c c c v n t.j.}. X Xl.z.d.j.a.=.#.d s u u u a n *.e.t.y.y.",
"t.a.j.j.j.}.j.t.p p p a S e.j.j.e.e.-.-.*.*.*.#.*.*.#.#.#.( ( ( ( ( ( d s s s s s a s n n a w 4 9 9 0 0 8 8 2 2 8 8 8 8 8 8 0 0 8 h 8 8 8 4 p a n n n n n n n n D v q q v l k k l l k k k k q q n *.*.N p p p p p p p p p a a c v n n S #.#.#.d ;.k.;.a =.i.N q k 0 6 5 8 h 8 4 p ) -.I r 0 a a k k p c c c c c a v a a a n n #.#.#.*.*.*.*.*.*.( _ ( ( _ ( ( ( ( ( N N j.$X%.P.U _ *.p 4 r 4 r r r r 4 8 4 8 4 8 8 r r 4 4 4 8 8 8 8 8 8 6 8 8 v v v c c a a 9 2 4 4 4 4 4 8 9 n n n N N n a 9 0 k k j j h 8 8 5 8 0 0 p a v n n n n _ S S S #.*.*.*.*.*.#.n a 0 k c M n a a a >.l.(./.b.(.(././.h.d.&.[ #.#.s p a a d n S D *.=.S a 9 q 9 2 # 2 8 v n M c M M M n S n n n v v c q 0 k c k 8 1 S u.j.d.d.j.d.5.d.d.8.5.5.5.8.d.8.I.-XnX;XI._.-XHXFXnX'.'.~.G.F.F.F.F.W.pXiXmXGXGXLXVXVXVXGXVXhXJ.F.A.A.A.P.P.g.1.;.=.;.;.;.;.$.=.*.=.e.i.j.j.j.=.*.D S n n v v n v c a c v n v M n v c c c v v 8 c i.#X@Xt.p p ( ;.j.k.g.g.f.f.h.g.j.h.k.8.9./.:X:Xu.#.=.e.=.=.=.*.D D w.D v a k q 0 0 8 8 k 0 k k k c v c v N t.t.j.l. X X X Xl.l.l.l.z.;.#.d u u 4 4 r c N *.",
"p a b b n n *.*.=.n 3 : 4 a D e.=.-.=.=.-.=.*.*.*.*.#.#.#.( ( ( ( ( d d s s s s i s d n a p r 4 9 9 0 0 8 8 8 2 8 8 8 8 8 8 0 0 h h 8 8 2 4 p p n n n n n n n n D v q q l l k k c l c k k k q q v *.w.N c 8 p p p p p p p p p p v n n S #.#.#.Z ;.k.>.a *.}.D 8 0 8 6 6 h k 8 4 s %.-.I r 9 a q k k p c c c c v a v v a a n n _ #.#.#.*.=.=.*.*.( ( ( ( _ ( d s n b N N k.;XU g.s n t.c 3 r 3 r r r r r 4 4 4 4 8 8 8 8 4 4 4 4 8 8 8 6 6 8 8 8 c c c 9 9 9 9 4 3 4 p c n n D *.t.t.t.t.e.*.a 4 0 k h j j h 8 8 8 8 0 k 0 a n n n n n n n n S #.*.#.#.#.*.#.S n m k k m n v p 9 Z >.v./.(.(.(.(.h.;.$.#.#.#.#.a a n n n *.*.*.=.D n a q q q 9 8 0 q k c M M M M M n S n n n v v c q 0 k c k 8 1 a *.t.;.t.;.=.-.=.-.#.( #.%.-.;.%.P.-X-XP.1.I.-XFXnXnXDXnX'.R.F.F.F.F.0XaXaXfXBXVXGXVXVXVXGXVXjXK.F.A.M.A.A.C.0.5.>.;.;.;.;.$.*.=.=.t.t.i.t.w.D n n n a a a v v a v v a v n v a n c v v v v c v q i..X{.k.=.p a s #.d.h.h.h.f.f.g.j.j.k.l.d.9.^.;X<Xd.$.=.e.=.=.w.=.*.=.w.D v q q 0 0 0 8 8 0 0 k k k c v c v N t.t.t.d.d.z.l.T.l.l. XoXoX Xl.g.d.;.#.a p 4 2 2 ",
"r , ; 3 4 4 3 4 a 9 4 4 4 : ; 1 *.*.=.r.t.e.e.r.*.*.*.#._ _ _ ( ( ( U d s s s s i a n d s u r p 0 0 0 0 8 8 8 2 8 8 8 8 8 9 0 0 8 8 8 8 2 8 9 a n n n n n n n n D v q q v v l k c c c c k k q 0 v *.e.D c 8 p p p p p p p p p p v v n S #.#.#.Z >.l.u.p *.{.w.8 8 8 6 8 0 0 9 2 a -.4.( r 0 q 0 0 0 p c c c v v a v n a a n n n #.*.*.=.=.=.*.*.( ( ( ( _ ( a a d s n n l.,XU g.i b j.n 1 r 3 r r r r r 4 4 4 4 4 4 4 4 4 4 4 6 8 8 8 8 6 8 8 8 8 8 8 8 8 9 9 9 c n D *.=.=.e.e.j.j.j.j.e.n 9 2 8 8 h h h j 6 5 k 8 8 0 8 p n *.n d n n n n #.#.#.#.#.#.#.#.S S N c 8 c n v 9 4 9 Z d.v.(.+X&X*Xd.#.#.#.#.#.#.d d n n #.*.=.e.e.v v v a 9 0 q k l k k c c c M M M n S n n n v v c q 0 k c c 8 1 a =.t.t.e.-.-.=.-.-.*.#.( #.*.-.U g.-XT.%.U 3.'.nX'.>XDXnX-XE.Y.Z.Z.Z.W.pXuX7XqXjXZXVXZXZXVXBXiXJ.K.A.A.A.A.P.f.d.d.>.;.;.;.$.*.*.w.t.t.e.*.n c n a p a v a c n 9 v v v v n n v v v v v n v a q j..Xi.=.k.u.u a p #.d.k.k.l.h.f.h.j.j.h.l.d.9./.;X<Xd.$.=.t.e.e.e.w.=.=.w.D n q q 0 0 0 8 8 8 8 k k c c v c n n e.e.=.;.a.a.z.z. Xl.k.z.k.l.oX%XoXoXoXl.d.=.n a ",
"l.d.=.n p 4 3 > 4 p p 9 4 8 8 2 1 1 1 7 6 6 8 8 w.w.*.*._ _ _ _ ( U U d s s s i i a a a p w w 4 8 0 0 0 8 2 8 8 8 8 8 8 8 8 0 0 0 8 8 8 8 8 4 4 n n *.D n n n *.D S v a q q k v k k k k q q q 0 9 N e.=.n a 8 8 p p p p p p a a n n n n #.#.#.#.#.oXl.a D @Xc 5 8 5 8 q q 9 9 n _ -.-.I p p c 0 0 a c v c c c v v a p p a v n n n *.=.N p p s s u p s s a a a a d s #.#.oX1X( -.p p t.@X*., p w r r w w w r r r w w w w r r r r k 8 5 5 8 5 8 0 8 9 0 0 c n N *.=.=.=.*.*.*.D D u.j.k.u.*.v 0 0 8 8 h h h h h 8 6 8 8 8 0 c n n n n n n n n S #.#.#.#.#.#.#.#.S v N N v p p v S 4 : 9 $.#X<X<X$Xf.>.&.#.#.#.#.S d a d S $.$.S v c c v c v c c c c 0 9 0 c v N N n n n M D D M n c q 0 0 q q 0 8 ; b t.y.*.-.-._ ( ( ( #.*.*.-.-.Y g.%XP.%.Y 0._.-X0.&./.;X;X-X_.Y.A.A.Y.E.E.G.F.F.7XhXMXmXqXJ.F.Z.A.Y.A.C.g.g.f.j.d.>.;.$.#.=.=.=.t.u.*.n v v v v v v v v v v v v v v v v v v v v v v a 9 9 S k.p.=.=.$.d.k.d a n d *.d.l.j.d.k.l.h.g.d.8.8.f.f.:X<X#X;.t.i.t.e.*.*.*.e.i.D v v c q 9 8 8 0 0 c M n n n v v n n *.e.u.t.a.d.d.d.j.j.j.k.k.k.l.l.oXl.k.l.l.l.k.j.",
"k.k.l.k.j.t.*.*.9 u p 9 9 9 8 2 5 5 5 1 O O = 1 z m B N _ _ _ _ a s s s s s s s a b b b p r w 8 4 9 0 0 8 2 8 8 8 8 8 8 8 8 0 0 8 8 8 8 8 8 4 4 v n D n n n n n S n v q 9 9 q q c q q q k q k q 0 n e.w.n a p 8 p c a c a a c c n n n n *.#.#.#.#.j.{.d.e.}.0 5 6 5 9 9 q 9 v *._ -.-.I r r k 8 0 a c v c c c v v c a p a a n n n N N a 4 4 9 u u u p s d S #.#.;.;.j.d.$X<X#.=.a p =.1X-.> w w w w w w w w w w w w w w r r r r k 8 5 5 5 5 6 0 c v v N D *.=.=.#.D D D D D S S t.u.d.u.D c 0 8 8 8 8 8 8 8 j h 6 8 8 9 0 c n N n n n n n n S #.#.#.#.#.#.#.#.#.N N n v a a a a p 3 : p ;.oX1X,Xl.k.>.$.#.S Z d a d S #.$.*.n a c c c c c c c c 0 8 8 8 0 c v v n n n M D D M n c q 0 0 q q 0 8 * c r.j.r.r.r.-.-.-.-.-.-.-.-.-.%.g.T.g.%.U 1.g.T.1.U #.d.oX%X%XY.Y.A.A.A.A.G.G.Z.K.iXhXhX0XG.Z.Y.A.A.C.0.0.8.d.d.d.u.;.=.#.-.=.t.i.t.D v v v v v v v v v v v v m M v v v v v v a n d u a $.>.>.u.,.>.$.d.h.Z a n n D u.k.k.j.j.k.h.d.8.8.8.9.f./.*XoX;.t.j.u.t.e.=.D e.t.D a a c q 9 8 8 9 k c M M n n n v v v S =.t.t.5.d.d.;.;.;.d.j.k.k.l.l.l.l.l.k.l.l.k.k.",
"j.k.l.l.{.l.k.k.u.t.=.S n n 9 2 7 7 5 1 = O = = = 1 6 r c B n n n a s a a a a a a b a p r 4 2 2 2 8 8 9 9 8 8 8 8 8 8 8 8 8 0 0 8 8 8 8 8 8 8 4 c n D D n n n n S n v a q q a a v v v a c a q a 0 n *.e.*.c p a c c c c c c c c n n n S *.#.#.#.#.#.l.@Xt.e.6 5 5 8 0 9 q v *.e._ -.-.I r r 0 0 0 p c v c c a v c v v a a a v n a n *.*.*.*.=.=.=.=.=.;.d.k.l.v.%XoX#X/.<X<X#.#.a 4 _ 1Xt.4 w 4 w w w w r r w w r w 8 8 r p p r k h 5 5 5 5 8 0 *.w.w.w.w.*.*.*.S S n n n v v a *.;.u.e.D k 0 8 8 8 8 8 6 6 6 6 6 8 8 8 0 c n N n n n n n n S *.*.*.#.#.#.#.#.*.*.*.n n v a a p n a 4 4 p *.j.oXl.l.k.d.;.$.S S a n #.*.*.S a 9 c c c c c c c c 0 8 8 8 0 c c v n v n n N D M v k 0 0 0 0 q 0 8 1 4 _ j.j.r.-.-.-.-.-.-.*.*.*.*.5.g.h.d.-.%.;.a.5.-.( U d ( d.%X-X'.Y.Y.A.A.G.E.M.K.iXhXaXJ.F.B.A.I.0.0.8.8.8.d.d.d.u.;.=.$.$.=.j.i.e.n a a v v v v v v v v v v m m v v v v v v d d a a $.f.f.>.,.>.>.$.d.v.$.a n n n =.j.l.z.d.j.d.d.8.8.8.8.f.h.+Xv.;.=.t.t.t.i.e.*.e.e.D a a c q 9 8 8 0 k c M M n n n n n v 9 a *.=.;.a.5.;.;.t.d.j.k.k.l.k.k.k.l.k.l.k.l.l.",
"g.j.d.d.j.j.k.l.l.k.d.t.t.=.#.c 1 5 7 7 5 1 1 = = 1 1 1 2 4 8 9 p p p p p p p p p p p r 2 1 1 ; 1 2 2 8 8 8 8 8 8 8 8 8 8 8 0 0 8 8 8 8 8 8 8 2 8 c n N n n n n D S v a a a a v v c v a a a c a p c D e.=.n a c c c c v n n n n n n N #.*.#.#.#.#.#.j.{.=.v 1 6 8 c q 9 a =.t.=.d -.-.I w 4 8 0 0 a c v c a c v a v n n a a a a n *.u.l.{.l.l.l.d.d.d.j.k.l.oXoXoXT.oXk.,X<Xn a p 4 *.1Xt.4 w w w w w w w r w w r r 8 8 r p p p k 8 5 5 5 5 8 0 w.w.*.*.D N n n v v v v v v a a n #.=.=.n 0 8 8 5 5 6 6 6 6 6 6 6 8 8 8 0 c n N n n S n n n S *.*.*.#.#.#.#.#.*.=.=.*.n n v a p n n n a p p n *.;.u.k.k.u.*.d a d S *.*.S v a 9 c c c c c c c c k 0 8 8 8 0 c c v v v n N N n c q 0 0 0 0 0 0 0 3 1 B y.j.*.*.#.*.-.-.-.*.-.-.-.-.;.;.-.-.-.;.-.;.#.#.#.( d #.a.%X_._.Y.Y.A.Z.G.Z.K.iXhXiXJ.F.C.C.0.8.1.&.>.>.d.d.d.u.;.$.$.=.t.k.u.*.v a a v c v v v v v v v v m m v v v v v v v 9 a $.p.f.u.>.>.,.>.;.d.v.>.f n n n *.u.k.k.5.d.d.8.;.5.8.8.0.v.+Xv.#.S D *.e.j.y.e.e.e.n a a q 0 9 8 0 0 c v M M n n n n v v 4 p p p s #.=.;.u.u.t.t.t.d.d.d.j.k.l.l.k.j.l.l.",
"j.j.g.g.j.k.k.k.j.j.d.u.d.d.t.=.1 7 8 6 5 1 = = 1 1 1 ; ; ; ; ; 4 4 4 8 r r p p r 4 4 3 1 1 * X # # 1 2 2 2 8 8 8 8 8 8 8 8 0 0 k 8 8 8 8 8 6 2 1 8 v N N n N N D n v c a p a c c c c c q p k 0 0 a N e.e.D v c v v n n n n n n n n D *.#.#.#.#.#.*.#.n p 9 2 8 c c a q D p.u.n s %.4.( w 4 8 0 0 p c v c c c v a c n n c a a v *.=.d.l.k.d.;.;.8.8.5.;.t.d.d.j.;.#.=.#.oX<X#.4 w 4 t.,X*.4 w p r r w w r r r r r r r 8 r r r r k h 5 5 5 5 8 0 N N n v n n n n v v v v v v a a a S *.*.v 0 9 8 6 6 6 6 6 5 6 6 6 8 8 8 0 a n N n S S n n n D *.*.*.*.*.*.*.#.#.=.=.*.#.S n n n p a n a a p 4 9 n *.t.u.t.S a 9 n S D D v a a a c c c c k k k c c c k 0 0 0 c c v c c n M M n c 0 0 0 0 0 0 0 0 1 * 8 e.j.t.;.;.;.a.d.a.=.-.=.=.=.=.=.-.=.;.;.-.*.=.=.*.#.#._ d 5.0.I._.Y.A.M.M.F.H.iXhXiXH.Z.C.3.8.5.&.;.>.8.d.d.d.>.$.$.=.;.d.j.e.n a a a v v v v v v v v v v v v v v n v v v a 9 S k.f.>.>.>.>.>.u.>.f.oXd.d n n n n =.j.z.d.d.d.;.;.5.8.8.0./.$Xv.#.a v n D e.t.i.|.e.v q q q 0 9 8 0 k v M n n n n n n n n n *.#.n s s s s a n n n S *.=.t.e.t.d.d.d.j.j.k.",
"d.8.d.j.j.j.k.k.k.k.j.j.j.j.j.t.4 8 8 7 3 6 8 c 8 r p p p 9 8 2 3 3 3 3 3 2 2 2 4 3 1 * * X X X 1 2 2 2 2 2 8 8 8 8 8 8 8 8 0 0 h 8 8 8 8 8 5 6 2 0 N D *.D D D D D N v c c m v k k k 0 k k k 8 9 a n e.t.=.n c v v n n n n n n v n S #.#.#.#.#.#.;.p ; : 4 8 p N v a S p.k.=.p i %.7.) i 4 8 0 0 p c c c c c v a c n v a a v n =.*.=.t.d.;.&.&.f.f.j.d.d.d.;.;.#.#.#.#.d.$X-.3 4 p {.@Xa 4 p p r r w w r r r r r r 8 8 r r r p k h 5 5 5 5 5 8 N n v c c v n n v v v v v v v v a S *.*.v 0 9 0 6 6 6 6 6 5 6 6 6 8 8 8 0 a n N n S S n n n D *.*.*.*.*.*.*.#.#.#.#.#.#.#.*.*.=.n n n a a 9 4 4 9 p v n n v a v n n S n v a a c c c c k k k k k c c c 0 8 0 k c c c c v M M n v 9 0 q 0 0 0 0 a X o 4 t.l.oX$X$X<X<X<X$XoXT.l.l.j.j.d.d.d.j.d.t.;.;.;.-.#.#.#.#.[ %.0.I.Y.Y.Z.Z.F.F.uXhX0XF.M.0.1.>.;.;.>.d.d.d.d.u.;.$.=.=.a.d.t.*.v v a a v v v v v v v v v v v v v v v v v v a d u.l.u.=.>.>.>.>.>.>.h.oXl.S a n n n *.t.j.j.d.;.;.;.5.8.8.f.k.#Xl.S v v v v D w.|.{.t.v 0 0 q 0 9 8 0 c M D n n n n n n n n t.j.oX@XoXl.j.t.n n a p p a a n a a n S #.*.*.=.",
"S S #.#.#.#.*.=.=.t.t.t.t.i.u.t.8 8 6 6 4 r n _ *.*.w.w.r.=.*.*.*.*.N N n n n n c p 8 4 4 4 2 2 0 9 2 2 2 8 8 8 8 8 8 8 8 8 0 0 h h 8 8 8 5 5 6 2 k N w.w.D N N N N M c k k c c h h 8 8 8 8 8 6 9 a n w.t.t.D a a a a n c c n n v n n #.#.#.#.#.=.=.4 # 1 2 a v D v v u. Xl.#.w w ) s.4.I w 8 8 0 c c v c c c v a c v c p a n n *.#.#.;.d.d.8.8.f.f.h.d.d.8.;.=.=.=.#.=.;.oXj.u 4 a 1Xj.w 4 b r r r r r r r r r r r r r r r p p k 8 5 5 5 5 5 8 N N n v v v a a v v v v v n n v a S $.*.n q 0 0 8 8 8 8 6 6 6 6 6 8 8 8 0 a n N S S D S S S S *.*.*.*.$.$.$.*.#.#.#.#.#.;.u.d.k.d.u.t.$.S n n S 9 9 9 q a a a a v v n n v v a c c c c c k k k k c c k 8 8 8 k c c c v v n n n v 9 0 q q 0 0 q a : 9 #.l.#X*X3XDXDXDXDX<X*X(././.OX$X#XOX#X$X$X#XoXk.d.d.d.;.=.;.#.%.&.5.0.P.U.R.F.F.0XaXJ.F.Z.3.5.>.>.u.u.d.u.d.p.u.=.=.t.a.a.t.*.n v v v a v n v v v v v v v v v v v v v v v v n *.p.f.=.=.u.>.,.>.>.9.c.OXv.S p v n n n *.d.k.a.5.;.;.;.8.d.f.d.oXk.S v n v v n D i.j.w.k 0 q 0 9 0 0 0 c M D n n n n n v n n n *.d.k.l.oX#X%X{.l.j.t.*.n p u a p p p p p u u ",
"> > u u u u u p a v n n n n n n 6 6 6 6 6 4 c n D D N _ _ *.*.*.=.=.=.*.*.*.*.*.e.w.*.N *.*.*.*.n v 9 2 2 8 8 8 8 8 8 8 8 8 0 0 h h 8 8 8 6 5 5 1 8 v N N v c c c k h 6 5 5 5 5 6 6 6 6 6 6 6 5 8 a n =.t.t.*.p a a a a c c c c c n n #.S #.#.#.t.*.4 2 4 3 n n n a S k.#Xl.#.w < ) P.7.I w 8 8 0 c c m c c c v a c c a p a n *.*.#.#.8.h.f.8.f.8.8.d.d.d.5.=.#.#.-.#.=.-. XoXn 4 n ,Xe.3 p n 4 p r r r r r r r r r r r r r p k k 8 5 5 5 5 5 8 v v n n n n n v a a v v v v v v v S =.*.n q 0 k 8 8 8 8 8 8 6 6 6 8 8 8 0 a n N S D D S S S S *.*.*.*.$.$.$.*.#.#.Z d #.>.k.l.l. X X{.k.j.j.j.j.u.e.=.*.D D n a a v v n n v v q q p c 0 k k k 0 c c k 8 5 5 8 0 c c v n n n n v 9 0 q q 0 0 q a D >. X+X+X*X3XDX3X3X4X;XOXc.h.h.f.l.l.l.v.oX#X@X@X,X,XoXk.d.d.d.;.#.[ U %.6.P.U.G.G.uXsXJ.F.A.0.8.d.d.d.d.d.u.u.u.;.=.;.d.d.a.e.n v v n v v v n v v v v v v v v v v v v v v v v $.$.u.u.$.>.f.>.>.>.>.d.v.#Xv.#.p a n n n #.a.l.a.a.;.;.8.8.d.f.h.oXd.d a n n M D n *.e.n 0 k v 0 9 8 0 0 c M D n n n n v v n n #.*.=.=.=.t.j.j.oXoXoXoXoX{.l.j.$.#.d s p u > , ",
"s s s p u 4 > > 3 9 3 3 3 4 a 2 1 8 2 8 2 ; 1 ; p p a a n n n n S #.*.*.*.*.*.*.*.=.=.=.=.*.*.*.D n q 8 2 8 8 2 8 8 8 8 8 8 0 0 h h 8 6 5 5 5 8 1 1 1 ; # # X X % % O X O % % % % % % O O X + . o # 9 *.e.u.t.#.a a a v n n n c n v n #.#.#.#.#.=.n 4 2 8 n D D p d d..X.Xu.p u < U 6.6.Y w 3 8 8 8 0 c c c c c c c a a a a c a $.#.$.8.k.f.8.f.8.8.d.8.;.=.-.=.-.-.=.;.#.d.$Xj.a j.@Xn p p 8 r p r p r 8 8 8 4 8 8 p p p p 0 8 5 6 5 5 5 5 8 8 n N N n n N n n n n n n n n n v v S *.*.n k k 8 8 8 8 8 6 6 6 6 h 8 8 8 8 p n N S S S S S #.#.#.#.#.#.#.#.S S #.Z Z #.8.h.k.d.d.d.k.k.d.u.;.=.=.D w.i.}..Xj.i.u.e.e.=.S v v q 4 9 9 0 0 0 0 0 0 v k 0 8 8 8 0 k v v c M M c q 9 q c c 9 2 0 D i..XoX#X+X*X*X&X&X+X+X(.(./.v.c.c.oXOXOXoXv.l.l.l.l.l.oX@X#X$X@X@XoX=.a i i ) 6.U.R.F.0XaXwXG.N.1.;.;.u.u.;.;.u.u.u.;.=.t.j.j.-.p n v v v v v v v v v v v v v v v n v n n v v v a v $.>.;.>.>.,.>.9.f.f.f.h.oX XS p n n v n a #.z.d.d.a.5.8.d.k.h.h.j.=.n n n n M v v N D c 9 8 k 0 0 0 0 0 k k k v n n D N n n v n t.d.=.=.=.=.;.;.;.d.j.k.k.l.k.oXoXl.k.d.;.=.=.",
";.;.;.;.=.=.#.#.p a p 9 u 9 4 : 4 8 2 2 2 1 2 3 : : 3 4 9 p p p p p a a n S #.#.#.#.*.#.#.#.#.#.*.N q 8 2 8 8 2 8 8 8 8 8 8 0 0 h h 8 8 6 5 5 8 0 8 4 2 2 2 2 2 1 % % X X X # X % % % O X X   . o X 4 S =.u.t.*.d a a a v n n v n v n #.#.#.#.*.=.n 4 2 p n n a u =.l.#X@X*.w e L W m.6.) e 4 8 2 2 8 0 c c v v c c a a a a c v #.#.$.8.f.f.8.f.8.8.8.5.=.-.-.-.-.-.=.;.#.a.oX{.-.}.}.n p p 8 8 p r r r 8 8 8 8 8 8 p p c k 0 h 5 6 5 5 5 5 8 8 n N N n n N n n n n n n n n n n v S *.=.n k k 8 8 8 8 8 8 6 6 6 h 8 8 8 8 0 c n S S n n n S S S S S S #.#.#.#.#.&.8.l.oX/.h.d.u.>.u.d.k.d.u.=.*.D S D =.w.e.u.i.u.t.=.$.$.=.S v a a q 9 9 9 9 0 a q 0 0 9 8 9 8 9 0 k v v c 9 1 8 0 0 9 9 v e.}.k.k.k.k.h.h.f.f.+X+XOX(././././.JXJX3X,X Xd.t.=.$.=.t.d.j.j.j.j.u.n p s s ( 7.U.Z.G.0XaXuXG.C.1.;.;.u.>.;.>.d.d.$.$.t.d.j.=.n p v v v v v v v v v v c v v v v v v v n v v v v d n =.>.>.>.>.,.>.>.8.9.f.c.oX X#.a D N n n a n d.d.d.a.t.a.d.j.h.h.j.*.n n n M M v M N M v 9 0 0 0 0 0 0 0 k k k c v n D n n n v n t.d.t.;.;.;.;.5.;.;.;.d.j.k.l.l.l.l.k.h.g.g.j.",
"h.h.h.h.h.h.h.h.d.j.d.=.=.#.u 4 p 8 1 2 4 8 a p 4 4 4 4 4 4 > 4 u u a a d Z S S S #.#.#.#.#.#.#.e.D q 8 8 8 8 8 8 8 8 8 8 8 0 0 8 8 8 8 8 5 5 5 8 8 8 4 4 9 a c c c c 0 0 0 0 0 6 6 5 2 1 1 1 1 # # 9 n =.u.u.$.S n a a v n v v n n n S #.#.#.=.=.v 2 4 c n a u d l.oXOX{.a > s ' 2.m.N.4.I r 6 1 1 2 8 8 c c v c c a a a c c c #.#.$.8.f.f.8.d.8.8.5.;.-.#.#.-.*.*.-.;.#.-.l.#X{.@Xt.p a 9 p 8 p r r 8 8 8 8 8 8 8 c c k k h h 5 6 5 5 5 5 8 8 v N n n n n n n n n n n n n n n n S D D n k k 8 8 8 8 8 8 8 6 6 5 6 8 8 8 8 a v n Z S S S S Z Z Z Z S $.=.;.>.>.8.h.l.h.k.d.d.>.d.d.d.f.k.d.>.$.$.S S n n n S S $.=.$.#.$.;.u.;.=.e.t.e.*.S a p 4 2 2 2 2 8 8 9 9 9 q v c q 2 2 0 q q 0 0 v w.i.=.=.*.*.#.#.#.#.&.#.#.#.#.[ #.S k.j.u.=.S n a a a v n S D D D D n a a n a I %.6.N.Z.0XaXuXE.A.0.d.;.;.$.$.;.>.>.#.;.d.j.e.n p c v v v v v v v v v v v v v v v v v v v v n v v d S ;.u.>.,.,.,.9.9.9.f.v.(.+X#Xu.v D N n n a a =.j.d.d.a.5.8.d.j.j.j.$.n v v v v v N N c k 0 0 0 0 0 0 0 0 k k k c v n n n n n v n t.d.t.;.t.5.d.8.;.&.&.&.8.f.l.h.h.h.h.h.h.h.h.",
"h.f.d.d.d.f.h.h.l.l.l.d.d.=.9 4 p 8 ; 2 c n =.*.a n n #.$.;.d.d.u.u.u.u.;.;.=.$.#.#.$.$.&.;.;.;.u.D 0 8 8 8 8 8 8 8 8 8 8 8 0 0 8 8 8 8 5 5 2 2 2 4 8 9 c n *.e.t.t.e.e.w.w.w.e.n v v v v c c c v a v S =.u.>.$.#.#.n a a v v n n n n n #.#.=.t.*.p 2 0 v a a d d.#X#Xv.u.u < U 7.2.m.N.6.) s 8 2 2 2 2 8 0 c c c c a a a c c a #.#.&.>.f.f.d.d.d.d.;.=.#.#.-.-.-.-.-.-.-.#.d.,X<X$X*.w a 9 a 8 p r r r 8 8 8 8 8 8 c c k h h h 6 6 5 5 2 5 8 8 v N n n n n n n n n n n n n n n n n D D n k k 8 8 8 8 8 8 8 h 6 5 6 8 8 0 0 a n S S S d d d Z Z $.;.;.>.d.f.h.h.f.f.>.$.;.d.k.d.d.d.d.d.d.d.>.;.#.S S S S $.u.u.l. X Xl.d.d.k.l. X X.X Xl.d.=.*.a a 9 2 2 2 2 8 8 8 9 0 0 0 8 2 c c c q 0 q M w.N N n n n n ( ( ( ( ( d d d a a a a a n v v n n v n n n n v c a v c v n b a ( <.m.M.J.aXpXE.P.g.l.j.;.$.$.;.>.;.u.k.l.u.S p p v v v v v v v v v v v v v v v v v v v v v v v v d $.u.u.>.,.,.>.9.f.c.v.(.OX*X$Xp.a n n n D n n *.j.j.d.a.5.d.d.d.j.d.*.n v v c c n D M k 0 0 0 8 0 0 0 8 0 0 k k k c v n n n v v n t.d.t.;.t.a.d.;.;.&.&.&.;.d.h.h.h.h.h.h.h.h.g.",
"h.f.d.8.8.d.d.g.j.k.k.d.d.#.> 4 p 2 ; p *.j.}.j.t.t.u.d.d.k.k.l.d.d.d.f.k.k.l.l.>.>.>.8.8.f.f.k.j.D 0 8 8 8 8 8 8 8 8 8 8 8 0 0 5 5 8 8 6 2 2 2 8 9 c n *.e.t.i.t.t.e.e.e.e.e.t.D D D D D D D D D n n S ;.u.>.;.=.#.#.n n n n N n n n d #.&.=.=.n 8 8 c c 9 d d.oX#X$Xk.S u w Y 6.2.n.N.N.4.b 8 0 8 8 8 8 8 0 0 c c a p p a c a #.$.$.>.8.h.f.d.d.d.;.;.-.-.-.t.-.-.-.-.-.( ;.1X2X1Xn 4 a p c 8 k z z z z 8 8 8 h h c c c h h h 6 6 5 5 5 5 5 8 v N n v n n n n n n n n n n n n n n S D v c k 8 8 8 8 8 8 8 j j 8 8 k 0 0 9 a a f f f f d #.;.8.v.h.h.h.k.f.f.f.f.d.>.>.>.k.k.d.>.8.>.>.$.$.#.#.$.>.d.v.#X,X<X<X<X5XDX<X*XOXoXoXoX Xl.l.k.k.k.l.j.u.=.n a 9 2 2 8 2 2 2 8 9 9 8 9 9 0 0 0 q v N N N M n N ( _ ( _ ( ( ( n n n n n n n n n n n n n n n n v v v c c c v v n N ( ) 3.M.J.aXsXQ.C.0./.v.l.d.d.8.h.v.$X#Xl.*.a a v n v v v v v v v v v v c v v v v c v v v v v v v d =.u.u.>.,.u.9.h.x.v.(.(.(.*X#X$.9 v c v *.S n =.j.j.d.a.a.a.5.8.d.d.*.n v v c c c n n q 0 0 0 8 k k 0 8 8 0 k 0 0 q v v n n n a n e.d.;.;.;.;.d.5.5.;.=.&.;.d.h.g.g.h.h.h.h.k.k.",
"h.h.d.d.d.d.d.d.d.j.k.d.t.#.u u u 3 : v j.@X@Xj.=.=.;.;.;.;.;.;.u.t.u.>.;.>.;.;.d.d.k.k.h.v./.oX}.D 9 2 8 8 8 8 8 8 8 8 8 8 0 0 5 5 5 5 4 8 0 0 v n n D *.=.=.=.*.D D D D D D D D D D D D n D N N n v v =.>.>.u.;.=.*.#.n n N N N n n d #.=.=.*.p 8 0 m a p =.@X#XoXoX>.a u w Y N.n.n.N.6.%.b r c k 0 8 8 8 8 8 p p 0 9 9 p a a S $.$.>.8.h.h.d.d.8.;.;.-.;.t.t.-.-.-.-.-.#.=.oX2X1Xn 4 p p c p k z z z z z z z h k c c k h h h 6 5 5 5 1 5 5 6 v N n v n n n n n n M n n n n n n n S D v c k 8 h 8 8 8 8 8 j j 8 8 8 8 2 4 9 p f f Z &.8.k.v.v.v.c.h.h.9.8.8.8.>.d.d.>.>.;.>.>.&.&.$.$.$.&.8.h.$X,X<X:X;X*X$XOXoXOX+X+X*X&X(.h.v.l.k.k.k.k.l.l.{.l.k.j.u.e.D D D n c k q 0 9 8 2 2 8 9 0 q c v N N N N N N ( ( ( ( ( ( _ _ _ _ n n n n n n n n v v v v v v v c c c c c N *.-.4.3.m.F.uXsX'.0.1.8./.+X$X/.v.+X:X3X$Xu.n a n M M v v v v v v v v v v c v v v v v v v v v v v v n =.u.u.>.,.p.f.b.b.v.v.v.OX;X#Xd 9 a 0 c *.*.n *.d.d.a.a.a.a.5.a.d.d.*.v v m k k c v c q 0 0 0 8 k k 0 8 8 0 0 k 0 0 a v n n v a n e.d.;.=.;.;.5.d.8.;.=.#.=.d.h.l.l.k.k.k.h.k.h.",
"j.j.j.j.j.j.d.d.u.d.d.d.*.p 9 p p 3 : n {.1X@Xu.=.=.$.$.$.$.$.$.=.=.=.=.=.=.;.;.>.u.>.d.k.l.v.oX.Xw.8 2 8 9 8 8 8 8 8 8 8 8 0 0 6 6 2 2 8 c n D *.*.D n n n n n D D n n n n n n F M M n M n M n c v a a *.;.>.d.>.>.t.=.*.n N N N n a s #.;.$.n 2 8 0 c v *.k.#XoXOXh.#.u u s <.6.n.n.n.2.) p 8 8 8 0 0 0 8 8 8 0 0 8 8 8 8 0 p S $.;.;.d.h.h.d.;.;.=.=.;.t.e.r.r.-.t.-.;.;.=.k.<X$Xn p 0 p 0 c k z z z z z c c k k c c k h h 8 6 6 5 5 1 5 5 6 v N n v n n n n n n M n n n n n S v n n c c k 8 h 8 h 8 8 8 h j 6 8 8 8 8 a n S >.8.h.v.v.c.f.9.9.8.8.8.8.8.8.8.>.u.u.u.>.>.8.f.8.9.f.v.OX;X3XDXJXDX;X/.d.>.&.} } [ $.>.v.+X).v.l.l.l.l.k.k.k.k.j.k.k.l.{.}.}.}.i.i.e.w.D n k 9 9 9 0 0 0 0 0 0 B B N N N N n ( *.#.#.#.( ( ( _ _ n n n n n n n a a a a a a v c c c c c D w.r.1.3.m.F.uXsXQ.3.{ } f.OX*X*X+X+X*XDX XS a v n c v v v v v v v v v v v v v v v v v v v v v v v n n =.u.u.>.>.f.c.v.(.f.:.f.+X<X#Xu a v 9 a D D n #.t.t.t.a.a.a.a.t.a.t.*.n v c k k 0 0 0 k k 0 8 8 k k 0 8 8 8 k 0 8 9 a v v n n a n t.d.t.;.;.;.;.;.u.u.;.=.=.;.j.l.k.k.k.k.k.j.j.",
"j.g.h.k.k.k.j.j.d.d.d.d._ 4 w u p 4 3 *..X#X{.=.*.*.#.$.$.$.$.$.$.$.$.$.#.#.#.#.$.$.$.;.>.d.k.l..X*.4 2 9 9 8 8 8 8 8 8 8 8 0 0 6 2 2 4 p n =.e.t.e.*.S n n n S D D n v v v v c D D F F M M M M c v a v *.;.;.j.d.d.u.=.*.n S n D n a s #.;.$.a ; 8 0 8 n j.@X#XoX$X>.f u > I 7.6.n.m.m.2.I w 3 2 2 8 8 0 0 8 0 0 0 8 8 8 8 8 9 S $.;.;.d.h.k.d.=.#.-.-.=.t.r.r.-.-.t.-.;.a.=.t.,X$X*.a 8 p 0 c k z k z k c c c k k c c k h h 8 6 5 5 5 1 5 2 5 v N n v n n n n n n n n M n n n n v n S v c k 0 8 8 8 8 8 8 8 8 0 q a a S $.d.l.h.h.h.h.h.f.9.9.8.8.8.>.>.8.>.>.8.>.d.l./.OXOXOX<X<XDXJXJXJXJXJX3X<X+Xh.>.8.8.8.h.8.>.8.v.&X:X;Xl.l.k.j.j.k.k.l.k.k.k.j.j.j.j.}.i.i.y.y.y.G M v 0 0 0 q q q q 9 c c b N _ _ _ _ ( ( ( ( ( ( ( ( *._ n n n n n a n n n v v a a c c M v v D w.*.-.3.m.F.uXsXQ.2.U f #.f.OX:X&Xc.d.5Xf.f a D v q v v v v v v v v v v v v v v v v v v v v v v v n n =.p.u.>.p.f.v.oXv.&.f :.&X<X X> n n 0 c D N n n t.t.t.a.d.d.d.d.;.t.*.v c c k k 0 8 0 c c 0 8 8 k k 0 8 8 8 0 0 8 8 0 c v v v a #.u.j.t.;.;.;.;.=.;.d.d.;.=.=.;.d.d.d.j.j.k.k.l.",
"l.h.d.d.g.h.j.d.d.d.d.-.n p u p 4 ; #.k.@X$Xl.#.#.*.*.*.*.*.*.#.#.$.#.#.$.$.$.$.#.$.$.=.;.>.d.k.k.u.a 2 8 8 8 8 8 8 8 8 8 8 8 8 0 q 2 9 S >.f.u.u.u.u.t.=.=.=.=.D D F n n n D D D D M M M M M M c v a a S =.u.p.>.>.u.u.>.;.$.#.a #.#.n =.t.S : 3 4 8 a t.#X#Xl.1X}.a 4 u w ( 7.m.n.n.n.2.T < , w 8 4 2 2 8 0 k 0 0 0 0 0 0 0 9 u S =.>.d.k.d.#.#.#.*.=.;.;.t.e.#.*.=.*.*.#.*.*.@X@Xn 8 8 p 8 8 c c k k k k k k k k k k k 8 8 5 5 5 5 5 5 5 2 2 c n n n v n n n n n n n n n n n D n n v v c k k k 0 8 4 4 9 p a Z [ :.9.c.c.x.x.9.9.h.h.9.9.8.9.8.>.;.8.>.;.d.h.(.(.+X&X&X*X<X3XDXDXDXDX3X<X<X:X#X+X+XOX/.c.h.h.f.9.9.h.+X<X<X<Xk.k.j.j.k.k.l.{.{.}.j.i.j.j.j.i.w.G M v c c k 0 k k k k k k q q 0 c n N N _ _ _ _ _ #.#.#.( ( ( _ _ N n n n n n n n n n v v c c m m M N *.*.*.%.3.m.F.7XsXW.m.Y U d ;.l.;X<Xv.>.<X$.a n a a v v v v v v v v v v v v v v v v v v a v v v n v a S u.u.u.f.l.b.v.v.$.S #.>.#X;X$.9 n v c v n v n *.j.j.d.u.;.>.t.d.d.t.=.n 0 0 k 8 k k k k k 0 0 0 8 8 0 0 0 8 8 8 k 0 k c v v v a S t.p.u.d.d.>.;.k.k.j.j.d.;.;.;.#.=.d.k.l.l.k.k.",
"8.8.8.8.5.5.;.;.a.a.5.#.s w w w > 4 =.{.@X@Xj.#.#.#.*.*.*.*.*.#.#.#.#.#.$.$.$.$.$.$.$.$.$.;.u.u.k.u.a 2 8 8 8 8 8 8 8 8 8 8 8 8 8 0 4 d >.>.8.>.>.>.>.;.=.=.*.*.D D n v v n D D D D M M M M M M c c v a S =.u.u.>.>.>.>.>.;.$.#.S #.#.*.e.e.n ; ; 3 a ;.oX$XoXz.j.*.8 9 p w %.7.6.n.n.n.m. .Y L s i w 4 2 4 0 0 q k k 0 0 0 0 9 u S ;.>.d.l.d.$.*.*.-.-.-.-.-.-.#.-.=.-.*.*.-.e.{.@Xn 8 p p p k k k k k k k k k k k k k k 8 8 5 5 5 5 5 5 5 2 2 c n n n v n n n n n n n n n n n n n n v v c q q 8 9 9 p p d #.$.f.h.x.x.x.x.x.x.x.c.9.9.>.:.>.>.8.>.>.>.>.8.l.#X+X&X&X;X*X&X+X+X/./.oXOX+X#XoXoXOXOX+XOXOXoXOXOX/./.oX#X*X;X$XoXd.j.j.}.{.{.{.{.k.j.u.t.e.=.=.*.M c k 8 8 8 8 5 k k l k k k p q 0 c v M N N _ _ _ _ #.( #.( ( ( _ _ N n n n n n n n v v v v c c c m n n _ _ *.) 3.m.F.J.iXW.m.Y ( n #.d.#X<X;X*X3X=.a d a a v v v v v v v v v v v v v v v v v v c v v v v v a S t.u.k.v. X Xf.>.$.S #.>.OX<X=.9 n n v v v N N n t.u.d.d.d.;.t.;.d.u.=.v 0 0 k h k k k k k k 0 0 0 0 0 0 0 8 8 8 k k k c c v v a D u.d.;.>.8.d.l.oXoXoXl.k.j.d.d.=.#.#.=.u.j.j.d.",
"d.d.d.d.8.d.d.d.d.a.;.#.a w 4 4 ; p d.oX#XoXt.#.#.#.#.*.*.#.#.#.#.#.$.$.$.$.$.$.$.$.$.$.$.$.$.;.d.t.a 2 8 8 8 8 8 8 8 9 8 8 8 8 8 9 9 *.k.d.>.>.>.>.;.=.$.*.#.#.D S n v v v n D D D M n M n M M c c v a F =.u.u.>.>.>.>.>.;.$.$.$.#.*.=.t.*.9 $ ; p =.l.oXl.;.n v 8 2 a 4 w ) 7.N.m.m.m.m.m.3.6.7.4.) s w 4 4 2 4 9 8 0 0 0 0 9 f S ;.>.k.k.j.;.-.*.#.#.#.#.#.#.-.-.#.#.*.*.=.e.}.@Xn 8 p p c c k k k k k k k k k k k k k 8 5 5 5 5 5 5 5 5 2 2 c v n n v n n v v v v v n n n n n n v c v c q q n S D *.=.>.k.l.9.h.c.x.x.x.x.x.9.x.f.9.>.:.:.:.>.$.} >.v.OX+X#X&X*X*X*X+Xc.>.$.$.$.$.;.>.=.=.=.&.>.>.>.>.>.d.k.oXv.v.l.v.v.l.d.k.k.}.}.}.k.j.j.D S n v v v a a 0 8 5 5 5 5 8 8 k k k k k k q q 0 p c B b N _ _ _ _ ( ( ( ( ( ( #._ n N n n n n n n v v v v c c c c v n N _ _ ( 3.m.M.J.uXW.3.Y ( ( n =.l.,XJXJX3X;.a a a v n v v v v v v v v v v v v v v v v v v v v v v v a S u.k. X@Xv.u.=.$.$.S #.;.oX<X;.9 v n M c v D D n =.;.;.d.d.u.;.;.u.d.e.v 8 0 k k k k k k k k k 0 0 0 0 0 0 0 8 0 k k k k c v v a *.j.j.d.l.l.k.v.oXoXoXl.l.k.j.j.=.#.#.#.#.;.t.t.",
";.;.d.t.;.;.t.d.t.t.-._ a p r 4 > #.l.#X$Xl.*.#.n #.#.#.#.#.#.#.#.#.$.$.$.$.$.$.$.$.$.$.$.$.$.$.p.e.a 9 8 8 8 8 8 8 8 9 8 8 8 h 0 8 9 t.l.>.>.>.=.=.$.$.$.*.#.S S n n v v v n M D M M n n n M M c M v a n $.u.u.>.>.>.>.>.>.;.=.;.*.=.u.e.a : ; p =.j.d.=.#.s u q 8 0 c 8 w ( 6.N.B.B.V.V.m.N.N.B.N.6.Y < , , : : 4 2 9 9 0 0 p u d #.;.d.j.d.;.#.#.#.#.( *.-.-.;.;.-.-.*.*.=.=.j.{.n 8 p p p c k k k k k k k k k k k k 8 8 5 5 5 5 5 5 5 5 2 2 c v n v v n n v n n n n n n n n n n n c v v c a =.;.u.d.f.l.v.OX(.+X&X(.(.x.^.(.(.(.b.f.>.&.&.&.&.>.9./.&X;X*X+X+X(.h.>.>.$.#.Z S S S S Z Z Z f Z Z Z Z #.#.$.;.d.u.>.u.u.u.>.=.$.*.D S n n n S 9 9 9 9 9 9 9 8 k h 8 5 5 8 0 8 k k k k k k q q 0 0 c m B b _ _ _ _ _ ( ( ( ( ( *.*._ n n n n n n n c c v v c c c c c n n ( _ ( 3.m.M.K.uXE.3.%.( #.( -.d.@XJXJX;X$.a a p v n n v v v v v v v v v v v v v v v v v v a v v v v =.{. X Xf.=.$.$.$.$.#.#.=.v.<Xu.9 v n v c c N D *.t.;.d.d.d.u.t.t.t.j.t.n 9 0 c k k k k k k k 0 0 0 0 0 0 0 0 0 0 k k k k c a v a t..X@XoX$X X;.;.=.=.=.=.=.=.=.=.#.#.*.#.#.#.*.=.",
"a n S n n n n #.=.*.*.n n a p p p u. X#X#Xd.#.#.S S #.#.#.#.#.S #.#.#.$.$.$.$.$.$.$.=.=.=.=.$.$.u.=.a 9 9 2 8 8 8 8 2 8 8 8 8 k k 8 p p.v.>.$.$.;.=.=.$.$.#.#.*.D S n v v v n n M M n n n v c c c c v a v *.;.u.>.>.>.>.>.>.;.;.;.=.t.t.*.4 : 4 =.t.t.#.a d #.$.D M v a p w I 7.N.B.S.S.M.V.m.V.B.B.B.2.T < g i u u 9 u u p p w i i U [ #.-.=.-.( ( ( #.#.-.;.;.*.-.*.*.=.=.=.=.j.{.n p p p p 8 k k k k k k k k k k h 8 8 5 5 5 5 5 5 5 5 5 2 2 c v N v v n n v n n n n n n M M D M n n v c c a S $.;.u.u.d.k.v.+X*X:X<X>X>X>X;X<X:X*X(.v.f.9.9.f.v.&X;X<X:X+Xv.f.>.$.Z [ #.$.$.#.#.#.S S S S S $.$.$.$.$.;.u.u.>.u.u.p.p.=.#.S 9 4 2 3 3 2 4 4 a a a p 8 4 4 2 h h 8 6 5 5 8 8 q q q q k k p q 0 8 0 c b N N _ *.*._ ( ( ( ( ( *.*._ _ *.n n n n n c c c c c c c c c n n _ *.) 6.m.M.K.0XE.3.<.U #.-.;.=.d.*X<X XZ a d p a n n v v v v v v v v v v v v v v v v v v a v v v S =..Xj.=.#.$.$.$.$.=.#.#.$.l.<Xu.4 v c c c p c N e.j.d.d.u.d.d.d.d.t.j.t.N p 0 c k k k k k 0 0 0 0 0 0 0 0 0 0 0 0 k k k k q a a a i.#X$X@X@Xd.a f s s a a n a n n n n #.#.n d n n ",
"p p a a a a b n n n c a c a p p *.l.@X#X X;.#.#.S S #.#.#.#.#.#.#.#.#.#.$.$.$.$.=.$.=.;.>.>.;.=.=.=.a 9 9 2 8 8 8 8 2 8 8 8 8 k 0 2 a l. X>.$.[ ;.=.=.=.$.$.*.*.D D n v v v n n M M n n n v c c c n v a v S =.>.>.>.>.>.>.>.>.>.;.t.t.=.a : 3 v =.S n n #.#.=.t.*.N a u w < < Q n.S.H.H.G.S.M.M.S.S.S.B.B.N.3.6.{ { [ U d i i i i i i s d d U U U U ( #.*.-.;.;.#.#.=.t.t.t.e.=.y.{.n p c p 0 0 k k k k k k k k k k h 6 5 5 5 5 5 5 5 5 5 5 2 2 c v M v v v n v n n n n n n n n M M n c c c c k n S =.=.$.$.;.>.d.8.>.>.>.8.c.(.v.oX+X$X+X+XoXoX+X+X+X&X*X(.9.&.$.$.$.;.>.;.=.$.$.$.$.$.$.$.=.=.=.$.=.=.u.p.p.j.k.k.p.u.=.v p 9 4 9 9 9 9 8 4 4 9 p a p 9 8 8 8 h h 8 8 5 5 8 8 q q q q k k p q 0 8 8 r c n N _ _ _ _ _ ( ( ( ( _ _ _ _ *.n n n n n c c c c c c c c c n N *.r.-.6.m.M.K.W.G.6.<.( #.;.a.$.=.l.l.f.a a n a v v v v v v v v v v v v v v v v v v v v v a v n v S =.u.=.S S $.=.=.$.=.$.$.$.k.<Xj.4 a q 0 c p 0 n w.j.j.d.u.t.d.d.d.t.d.t.*.v 0 0 k k k k 0 0 0 0 8 0 0 0 0 0 0 0 0 k k k k 0 q a a =.{.{.d.;.d u f n n n n n n n n a p a p a p p p ",
"a a a v n n n n v a 0 p c c p 9 j..X@X@Xl.;.$.#.S #.#.$.$.#.#.#.#.#.#.#.$.$.$.$.=.$.=.;.>.>.;.$.$.$.a 9 9 2 8 8 8 8 2 8 8 8 8 8 0 4 v l. X>.>.&.,.>.>.=.=.=.$.=.D D S v v v n F F n n n n M v v c n v a v S =.>.>.>.>.>.>.>.>.u.;.u.t.n 3 : p *.n a a S *.#.#.*.n p u i L P H o.M.H.aXgXqXH.D.S.S.D.G.H.W.E.A.C.C.C.6.1.<.) Y U L L L L i i I I I U ( ( #.-.-.-.=.t.j.l.{.j.t.=.e.}.n c c c k c k k k k k k k k k h 8 6 5 5 5 5 5 5 5 5 5 5 5 2 c v M v v v n v v v v v v v c c c c c c c k k q v *.;.t.=.#.$.$.$.$.#.S Z Z #.#.a S =.d.k.l.v.v.v.v.+X+Xc.&.} $.>.>.>.;.=.$.=.;.=.=.=.$.=.=.e.t.u.u.t.u.u.p.u.u.u.=.*.n a 4 2 4 9 0 0 p 0 8 4 2 4 8 0 p 0 9 9 0 h h k 8 8 5 8 0 k k k k k k p q 0 8 8 8 c n N N _ _ *._ ( ( ( _ _ _ _ _ n n n n n n c c v v v c v v v n D w.t.a.4.N.B.G.W.U.6.4.( ( ;.;.#.;.d.k.d.a a n a v v c v v v v v v v v v v v v v v v v v n v v n v v D S *.$.$.$.$.$.=.=.$.$.S d.<Xj.4 a q 0 0 k c c v j.d.d.d.u.d.u.u.t.t.t.e.n 9 8 k k k k 0 0 0 8 8 0 8 0 0 0 0 0 8 0 0 0 0 0 0 a a a D *.n d a a S n n n n v a v a v a a a a a a p ",
"a p p a v v v c v c p p v n c p .X@X.X Xd.$.=.#.#.#.#.$.$.*.#.#.S #.#.#.$.$.$.$.=.=.=.;.>.;.=.$.$.$.a 9 9 2 8 8 8 8 2 8 8 8 8 8 k 9 v k.v.8.9.9.,.,.>.>.;.=.=.=.D D S n v n n S F n n n n M v v c n v a a S $.;.>.>.>.>.>.>.>.d.;.d.=.p ; : n e.n n n a a #.=.;.( < L W 2.n.O.S.D.qXjXMXgX7XD.+.H.7XwXuX0XK.Z.B.E.Y.A.C.6.3.7.1.W Y Y Y I I I U I U ( ( #.#.( #.=.;.d.l.z.t._ c w.j.n c c c c c k c k k k k k k k h 8 5 5 5 5 5 5 5 5 5 5 5 5 5 c v M v v v v v k k k k c c c c v k k k k 0 k 0 a n =.e.=.$.=.t.=.*.S n n n S n n n n a S #.;.u.f.h.v.#Xv.&.$.$.>.>.;.$.#.#.$.=.$.$.=.=.=.=.t.u.j.j.i.i.i.u.e.=.a 9 a a 9 2 2 4 8 8 8 8 8 8 0 p 0 a v v c 0 0 0 8 8 8 5 5 5 8 0 k k k k k k p q 0 8 8 8 c B N N _ _ *._ ( ( _ _ n n _ _ n n n n n n c c v v v c v v n n *.r.j.z.4.N.B.F.E.U.7.4.( s -.-.#.;.k.l.l.d a n v n n c v v v v v v v v v v v v v v v v v n n n S v v S =.=.$.$.$.$.$.$.=.=.$.S u.<Xk.4 a q 0 8 c v c 2 t.t.d.d.d.u.t.;.t.t.t.t.D 9 8 0 0 k k 0 0 0 8 8 8 8 0 0 0 8 8 8 0 0 0 0 q 0 q p 9 a a a d n d a a v v v v n n n c n *.D n c n n ",
"a p 9 8 9 p c v a p c v 9 2 9 D k. X@Xl.k.k.u.#.#.#.#.#.*.$.;.t.$.$.$.$.$.$.$.$.=.=.=.=.;.;.;.;.=.D a 9 2 8 8 8 8 8 2 9 8 8 8 8 8 9 v =.u.>.>.9.,.,.>.=.=.=.$.=.S S n v v v n n M n v v M M n n M M M v v d S >.u.>.>.>.>.>.>.u.d.=.n 4 4 a n n n n n n a #.;.5.<.<.2.V.G.0XqXgXzXBXBXBXBXjXiXqXaX0XH.J.0XJ.F.M.B.Z.Z.Z.B.B.B.P.7.' <.<.Y L I 4.) ( ( U U ( ( ( *.n a p p p a a N w.m 8 h 8 h h h h h h h h h h k 8 8 5 5 5 5 5 5 5 5 5 5 5 5 5 8 k v N N v v c k k k k k k k k k k c k 8 8 k 8 2 9 D w.*.D *.*.*.*.*.n n n *.n n n n n v a n #.t.$.l.#Xv.d.$.$.>.>.;.&.$.&.$.$.$.$.=.t.u.d.u.u.j.k.j.i.e.n 9 2 0 9 9 9 9 4 2 2 2 2 6 8 8 0 c c 8 0 0 p c 0 0 0 6 5 5 5 5 1 8 0 q q q q q q q q k 8 2 6 r B N N _ _ *._ _ _ _ #._ _ _ *.*._ n n a c n n n n n v N N n n n _ r.s U 3.Z.G.Z.N.%.( ( ( *.-.;.;.d.k.d.d a n v v v v v v v v v v v v v v v v v v v v v n n M n v v S =.=.$.$.$.$.$.$.=.D $.S u.#Xj.9 q q k k k k 0 0 n t.u.u.u.u.u.u.t.u.j.j.e.n 9 9 8 0 0 0 8 8 8 8 8 8 0 0 0 0 k k 0 0 0 0 q q a 9 v a n n S n n n n n N N N N N N n n v c c p p 0 ",
"2 4 8 8 8 4 2 2 9 2 2 4 4 2 9 S j.{. Xl.k.k.j.u.$.$.*.*.$.$.$.$.$.$.$.$.$.$.$.$.=.=.=.=.;.;.;.;.=.D a 9 2 8 8 8 8 8 2 9 8 8 8 0 9 9 v =.>.$.&.:.:.:.$.$.$.$.$.*.D S F v v v n n n n v v M M n n M v v v v a S =.>.>.>.>.>.>.>.>.u.#.4 : 9 n n n n n n n a #.d.f.C.m.m.S.8XgXZXVXGXGXGXVXBXjXjXhX0XJ.D.D.D.S.M.O.M.M.M.B.V.V.B.B.7.<.Y T I I I ) ) ( I s s s b n n a p u p p a c N w.m 8 h 8 h 8 h h h h h h h h k 8 8 6 5 5 5 5 5 5 5 5 5 5 5 5 8 k v M n v c c v v c c k k c c c k c c 0 0 k 0 1 4 n *.*.*.*.*.e.w.*.n n n n n n n n n n n n #.;.#.;.k.k.d.>.$.&.$.$.$.$.$.=.=.=.u.j.j.u.u.j.{.i.t.D v p 9 a a 9 9 0 0 9 8 2 2 1 2 2 6 8 8 0 0 0 0 c c c k 8 8 5 5 5 5 5 1 8 0 q k q q q q q q k 8 2 1 8 m b N _ _ _ _ _ _ _ #.*.*.*._ N N n c n n n c v v v v a v n n c p b 4 U 6.Z.Z.Z.6.-.*.( ( *.=.;.;.d.k.d.d a n v v v v v v v v v v v v v v v v v v v v v n n M v v v F =.=.$.$.$.$.$.$.=.*.=.S u.@Xi.9 q q k k c c 0 0 v *.t.;.u.u.;.u.;.;.u.d.u.D a 8 0 0 0 0 8 8 8 8 8 8 0 0 0 0 k k 0 0 0 q q q a a v n n S S S n n n v v c c a p p p p p p 0 0 9 9 ",
"4 2 2 4 p n e.t.e.=.*.n 9 ; 4 d #.u.k.k.k.l.k.d.;.$.$.$.=.=.$.*.$.$.$.$.$.$.$.$.$.=.=.=.=.;.;.;.=.D a 9 2 8 8 8 8 8 2 8 8 8 8 0 9 9 d $.>.$.} } $.$.$.S S S S S S S F v v v v n v v v v v v v M c v v v a a Z $.>.u.>.>.>.>.>.>.$.p : : a *.*.n v a a a a #.j.I.A.Z.K.0XjXVXLXLXPXPXPXLXVXjXjXfXD.D.S.M.M.D.G.G.G.G.S.V.n.n.n.m.' <.' Y I I ) ) ( I s s i i s s a a p w p p c n N *.m 8 8 8 h h h h h h h h h h k h 8 6 5 5 5 5 5 5 5 5 5 5 5 5 5 k c m v c c c v c v v k c c c c k c k k k k 0 6 8 c N N *.*.D w.D S #.S n a n n n n n n n n n *.#.n #.;.d.k.;.$.#.#.#.#.;.>.d.l.d.u.j.k.k.t.*.c c c p 0 9 0 9 0 0 0 0 8 8 5 2 1 1 1 5 5 5 5 5 8 k k k k 8 8 5 5 5 1 5 1 1 5 0 k k k k q q q q k 8 2 1 4 c B N N _ *.*._ #.( *.-.*.*.n n n v c n n v c c c c c v n c p 2 2 4 , U 6.A.Z.C.7.-.*._ _ *.=.;.t.d.k.d.d a n c v v v v v v v v v v v v v v v v v v v c M M n n v n F =.=.$.$.$.$.$.$.=.=.=.D u. Xu.9 q q k k k c p 0 a S *.$.;.;.;.;.=.$.;.u.j.e.n 0 0 k 0 0 0 0 8 8 8 8 0 0 8 0 k k 0 0 0 q q c c a v v v v a a a a a a p a a a p p 9 9 9 9 9 8 8 8 ",
"n n *.e.t.t.u.u.j. X$X#Xu.u , $ 4 a #.u.k.l.k.u.;.$.#.#.=.;.;.=.=.=.=.$.$.$.$.$.$.$.=.=.=.=.;.;.=.D a 9 2 8 8 8 8 8 8 9 8 8 8 8 9 9 v $.>.} Z } Z Z S Z S S S S D D S v v v v n v v v v v v v v c v v v v a d S u.d.>.>.>.>.8.u.d 9 4 a =.e.*.S n a a a a #.j.T.A.G.uXhXBXGXLXLXPXPXPXLXVXjXqX8XH.G.S.S.H.pXbXbXaXW.B.o.Q Q Q 2.Y <.1.4.5.5.4.4.U I s s r r p p p a p p p a n n N *.c 8 8 8 h h h h h h h h h h h h 8 8 5 5 5 5 5 5 5 5 5 5 5 5 5 8 0 c c c c c v v v k k k c k c k c k k k k h 8 8 c n D w.w.*.n n #.=.$.#.S S S n a n n n n a *.=.n a S t.l.d.>.=.#.#.;.d.k.k.d.k.l.j.$.d a a 8 8 0 a a a p 0 0 0 0 0 8 8 5 2 1 1 1 1 1 1 1 5 5 8 8 k h 8 5 1 5 1 1 1 1 1 1 8 k k k k q q q q k 8 2 1 7 r b N N _ *.*.*.*.-.-.*.*.n n n n n n p a c c v c c c 9 9 3 ; # ; 3 4 ( 6.U.Z.m.<._ *._ _ *.=.;.;.d.k.d.a a v c c c v v v v v v v v v v v v v v v v v v M M n n n n F *.=.$.$.$.$.$.$.=.=.=.*.u. Xe.9 9 0 k k k 0 0 9 9 v S *.*.#.#.$.#.#.*.u.i.t.D n k k 0 0 0 0 0 8 8 8 0 0 8 0 k k k k k k c c a a 9 9 9 9 9 9 9 9 9 9 p p p a a p 9 9 p a c v v n ",
"e.=.e.=.=.t.d.j.u.u.d.k.l.d.=.#.9 9 u S =.k.k.f.p.t.$.$.$.=.;.t.=.=.=.=.$.$.$.$.$.$.$.=.=.=.;.;.=.D a 9 2 8 8 8 8 8 8 8 8 8 8 8 9 q F =.,.&.Z } } Z F Z S S #.$.*.D S v v v v n v v v v v v v v c v v v v a a d >.d.d.>.>.d.d.>.u 9 a =.j.j.=.n n a a s s #.d.h.I.Y.E.0XgXBXGXLXGXLXPXLXBXgXeX8XpXwXR.H.wXbXmXbXbXQ.m.Q T P T T Y <.6.T.T.g.4.( ( ( s a s p p p a a a a p c c n M N c 8 8 8 h h 8 h h h 8 8 8 8 h h h 8 8 6 5 5 5 5 5 5 5 5 5 5 5 8 k c c m v v c m m c c c l l m c m m k k k k k 0 c n D *.D n #.;.8.8.9.f.9.>.#.d a d d d d n $.d.=.S n *.j.l.k.d.;.u.j.l.l.j.j.t.#.n a p 8 4 p p p p 0 p p p 0 0 0 0 8 8 2 2 5 5 5 5 5 5 5 5 1 1 5 6 5 5 1 1 5 1 1 1 1 % 1 8 q q q k q q q q k 0 5 1 1 4 c N _ *.=.r.-.-.-.-.*._ n a a a c n c c c p 0 2 2 1 ; ; ; * 1 2 1 4 ) 6.Z.N.2.<._ *._ _ *.-.t.t.d.j.d.a a v c c c v a a a a v v v v v v v v v v v v c n M n M M n n *.*.*.$.$.$.$.$.*.*.=.S u.l.e.a 0 0 k k k 0 0 9 9 a S #.S S S S S S #.t.t.e.w.e.k k k k k k 0 8 8 8 0 0 8 0 0 0 c v v v c q 9 9 4 9 a a 9 9 9 a a a a p p p 9 9 a c n n D =.e.t.",
"e.=.=.*.*.$.=.;.>.;.>.>.d.d.d.d.#.d 9 9 d =.d.l.k.p.u.=.$.$.=.=.=.=.=.=.$.$.$.$.$.$.$.=.=.=.=.;.=.D a 9 2 8 8 8 8 8 8 8 8 8 8 8 9 9 F ,.>.&.} } } } F F S $.$.$.$.D S n v v v n v v v v v v v v M v c n v a a f =.d.k.k.k.k.d.=.a p n t.}.k.=.a n n a a p n ;.d.g.I.A.Z.7XjXVXVXZXZXGXVXjXeXfXgXmXbXwXR.W.wXQ.R.Z.m.W T T L L i Y 5._.%XT.-.U s ( N n b b b c c c n n c a c m n M N c 8 8 8 h 8 8 h h h 8 8 8 8 h 8 8 8 8 8 5 5 5 5 5 5 5 5 5 5 5 8 k c c m v n m c c c c c l l m k m m k k k k 5 2 2 2 c n *.$.v./.(.b.b.(.(.^.9.>.$.#.Z d d d $.j.j.;._ n t.l.l.l.l.{.{.l.u.=.n n a p 9 0 a a 9 9 p a p 0 8 8 0 0 0 0 8 8 2 2 5 6 6 5 8 8 8 8 1 1 1 5 5 1 1 1 5 1 1 1 1 1 1 8 q q q k k q q q k 0 8 1 1 7 c N _ *.=.r.-.*.*.*._ N b p p p p p p 8 8 2 2 2 2 2 a n n _ w.n 1 3 -.6.C.3.<.) _ _ _ _ *.-.;.t.d.j.d.a a v a c c c a a a a v v v v v v v v v v v v c n M M M M n n *.*.$.$.$.$.$.$.D *.$.S u.l.*.a 0 0 k k k k 0 9 9 p S #.S d d S Z S #.=.=.*.w.t.c k 0 0 k k 0 8 8 8 0 0 8 0 0 0 N n v c c q 9 9 a v D D D n n D n n n n n n n n *.*.=.w.e.t.t.t.",
"=.=.=.$.$.$.$.=.=.>.d.8.>.>.8.d.u.=.S a a d $.u.p.p.p.u.=.$.$.$.;.;.=.=.=.$.$.$.$.$.$.$.=.=.=.=.=.D a 9 2 8 8 8 8 8 8 8 8 8 8 8 9 9 F >.>.&.} } } } F F S $.$.=.$.$.S S v v v n v v v v v v v v M c n S n a a a S >.v.v.v.v.>.S d n *.=.t.t.*.a n n n a p d =.;.;.8.0.m.H.hXBXVXjXjXBXjX8XrXqXgXmXwXR.S.M.o.E R R T T I I I U ( 5.T.%XT.-.s s a n n N n n n v c c a c c p p c m v M k 8 8 8 h h 8 8 h h h h 8 8 8 8 k k 8 8 5 5 5 6 5 5 5 5 5 5 5 5 8 0 0 0 0 p k k k 0 0 0 k k k 0 k k 8 8 k 8 1 2 8 p *.u.l.oX+X&X(.(.^._.`.`.(.v.f.8.&.Z d d #.8.k.d.=.#.#.l..X.X{.{.j.e.n c 4 9 p a c c c c 0 p 9 8 8 8 9 9 9 9 0 0 8 8 2 2 8 8 8 8 h h k k 5 5 1 1 1 1 5 5 5 5 1 5 1 1 5 0 q q q q k k q q 0 0 8 1 % 1 r B N _ =.=.*._ _ N b b p r 4 4 8 p 3 2 8 c n *.t.i.}.{.{.}.{.*.1 3 -.6.N.2.<.) _ N _ _ *.-.;.;.d.j.u.a a v a a c m c c a a v v a a c c v v a a a a c n M M M M n n =.=.$.$.$.$.$.$.D =.$.S u.d.D a 0 0 k k k k 8 8 9 9 n *.S d S S S S $.$.=.D D w.c k 0 0 k k k 8 8 8 8 0 0 0 0 0 N M v c c k 9 9 v n =.e.e.*.*.e.*.*.=.=.=.e.e.e.e.e.e.e.e.e.e.e.",
";.;.=.=.$.=.;.;.;.>.>.&.>.>.8.>.u.u.>.$.d 9 9 a =.u.j.i.t.=.=.=.=.;.;.;.=.=.$.$.$.$.$.$.=.=.=.=.;.D a 9 2 8 8 8 8 8 8 8 8 8 8 0 9 9 F ,.,.&.Z Z Z F F F #.$.=.=.=.$.S S v v n n v v v v v v v v n n n S S d a a f >. X#X#Xv.>.f Z *.=.*.D n n n n n n a p a #.=.$.;.1.3.G.hXCXCXjXhXmXgXD.S.0XqXwXR.B.V. .! H H H L U U I U -.t.#X#Xl.#.s d n a n n n n n n v v p p a p p p c m v M k 8 8 8 h h 8 8 h h h 8 8 8 8 8 k k 8 8 5 5 5 5 5 5 5 5 5 5 1 1 5 2 5 1 1 2 1 5 5 1 1 1 & & & & 5 5 % & 5 & c D t.j.@X#X#X$X(.(.c.^.^.^.^.`.(./.^.c.8.&.$.&.#.$.j.j.d.#.( d.@X@X.Xj.=.n p p a p 0 0 0 0 k 0 9 9 9 9 9 9 0 0 9 9 0 0 8 8 2 2 8 8 h k k c c c 8 8 5 1 1 1 5 5 5 5 5 5 5 1 5 0 q q q q q k q q 0 0 5 1 X 1 z B N N *.*._ N n a u w 4 4 4 u p p *.=.t.j.{..X@X@X@X@XoXj.y.n X 3 4.s.6.2.<.%.( N _ _ *.=.;.;.d.j.u.a a v a a c c c c c a a a a c c c a a a a a v c M M M M M n n =.=.=.$.$.$.$.$.*.=.=.D u.p.S 9 0 0 k k k k 0 0 9 9 v *.S n S #.#.#.$.;.=.S n D v k 0 0 k k 0 8 8 8 0 0 0 0 k 0 M n v c v a q q q n =.t.e.=.e.=.e.e.e.e.e.e.e.e.*.=.=.=.e.e.t.t.",
";.;.=.=.=.=.=.=.;.;.>.>.>.>.>.>.;.;.;.;.$.S a u u n $.t.t.t.e.=.t.;.$.$.$.$.$.$.;.&.$.$.$.&.:.>.u.$.v 9 2 8 8 8 8 8 8 8 8 8 8 q q p d f.>.} Z Z Z $.$.F $.F $.$.F S S S F n M M c c c c v v v v v n n S S n v v a S $.f.v.d.[ Z #.*.S n n n n n a n a a a a #.d.;.&.{ 3.G.aXmXMXwXaXmXiXH.F.B.B.R.V.N.N.T ~ L i I { -.&.;.t.l.,X#X}.=.n n n n c n n n n n n n n c c p p p p p c M c h 8 8 h h h 8 8 8 8 8 h h h h h 8 8 8 8 8 5 5 5 5 5 5 5 5 5 1 1 1 1 1 1 1 % 1 1 % % % % % % 6 5 5 & % O +   w.{.{.}. Xl.@X*X&X(.^.c.^.].`._.^.^.^.^./.(./.f.u 9 #.u.d.=.a t. X#Xd.d p p p p 0 0 p p p p p p 9 8 8 8 8 8 0 0 8 8 8 8 8 8 6 5 k c c m c k k 8 8 1 1 1 5 1 5 5 5 5 8 8 8 8 8 2 q q q q k q k k l k 8 5 1 1 6 1 M c p p p p 9 4 4 u u u #.=.d.l.l.l.{.oX X{.l.z.r.-.-.-.*.p * * %.g.0.6.1.U ( -.=.;.=.=.t.;.u.k.k.n a v a v v c c c c c v v v v a a a v v v v n M M M F F n n n D e.u.$.S =.=.*.=.$.*.$.=.=.D N 0 0 k k k k k k 0 8 a S S S #.S S #.$.>.$.a a v n D n q c v 0 9 9 0 0 8 8 8 0 0 v c v v a a a q v D e.e.=.=.=.=.=.$.=.$.=.*.=.*.=.$.=.$.=.=.=.=.",
";.;.=.=.$.$.=.=.;.;.>.>.>.>.>.>.;.;.;.;.$.#.d a u a S *.*.=.=.=.=.$.*.$.;.u.u.u.u.>.;.&.&.>.8.f.u.$.v 9 2 8 8 8 8 8 8 8 8 8 8 q 9 9 Z l.h.:.&.} Z F $.$.$.$.$.$.$.F S F v v n M c M c c v v v v v n n S S n n n v v S $.u.;.Z Z $.*.S n n n n n a n a a a a #.d.5.&.&.1.G.aXmXMXpXaXMXgXH.S.m.3.2.W W <.' Y U I -.-.5.d.u.l.#X1X}.t.D n n n n c n n n n n n n n n n c c a a c c M c h 8 8 h h h 8 8 h 8 8 8 h h h h 8 8 8 8 8 8 5 5 5 5 5 5 5 5 8 5 1 1 % % % % % % % % % % % % O O O O % % % % 0 w.w.t.k.k.l.v.v.c.c.x.x.x.^.^.^.x.h.c./.v.>.Z f : #.d.d.=.n =.oX#Xd.a p p 9 p 0 0 p 0 9 p p p p 0 9 9 9 8 8 8 2 8 8 8 8 6 6 6 k k c c c k k 8 k 5 % 1 5 5 6 h 8 8 0 0 0 9 8 8 q q q q k k k k k 8 8 1 % 1 1 1 3 1 ; X ; 3 9 a S &.=.;.j.k.l.oX Xl.k.d.;.-.#.( _ ( ( _ n 4 X * -.g.0.6.1.U ( -.=.;.$.$.t.;.u.k.k.n v v a v v v c c c c v v v v a v v v v n n n M M G D M k q v D D =.=.$.*.S n D D D $.=.=.D N 0 0 k k k k k k 0 8 c S S S S S S S =.;.$.a a v n D n a a a 9 0 9 0 0 8 8 8 0 0 v v v v a a a q v D =.e.=.=.=.$.$.$.$.$.=.$.=.=.*.$.$.=.=.=.=.=.",
"=.=.=.=.=.=.=.;.;.;.=.=.=.=.&.$.$.=.=.;.=.$.#.S p u p a n n D D S n n S #.$.$.$.;.>.8.8.d.8.8.d.f.=.v 9 2 5 8 8 6 8 8 8 8 8 9 9 9 9 d v.v.f.>.>.&.$.$.$.F Z Z Z $.$.F S v v v v n n c v v v v v n n n n N N n n n v v n #.#.S #.=.*.S n a a n n a n a a a a S d.d.;.&.1.Z.pXmXmXW.sXMXmXH.M. .Y T T T Y 1.1.%.1.1.;.d.j.l.#X#X{.*.N n v n n n c N N N N N N N N n c c a p p c c M c h 8 8 h h h h h h h 8 8 8 8 h h h 8 8 8 8 8 5 5 5 5 5 5 5 5 8 8 5 1 % % % % % % % 1 1 1 5 5 1 1 1 1 % % % % 1 v v n =.;.u.f.>.h.b.(.).).(.^.x.h.h.h.9.$.f u f > #.d.d.=.#.=. XoXd.a 9 9 4 0 0 0 0 0 8 8 8 8 9 9 9 8 8 8 8 8 2 2 2 2 5 5 5 6 c c c c k 0 k 8 k 5 1 6 k 8 8 k 8 8 0 0 0 8 8 5 0 k k k k k l k k 8 5 1 X O 1 1 1 ; ; 1 p n t.j.j.l.oX@XoXl.l.l.d.a.=.#.d s p i b s s d n 2 X * ;.g.0.5.1.( ( -.=.;.$.;.t.;.u.k.k.n a v a v v v c v c v v v v v v v v v n F F D F G D G c 0 9 q D D =.e.S d d a D S S S $.=.D N 0 0 k k k k k k 0 8 c D S S S S S S $.;.*.v q v v D D v v a q a 0 0 0 0 9 9 0 q c v v v a a q 0 v D =.=.=.=.=.=.S #.#.#.#.*.*.*.*.*.*.=.=.=.;.;.",
"=.=.=.;.=.=.=.=.;.;.=.=.=.=.$.$.$.$.=.=.>.;.=.$.d a 9 9 p a v v a p u 9 p p u u u s #.&.>.d.k.k.l.u.S 9 2 5 8 8 6 8 8 8 8 8 9 9 a 9 f l.v.h.f.9.>.>.,.$.$.Z A A $.S S F v a a a v v v v v v d v n n n n N N n n c v n n n S *.=.t.*.n a a a a a a a a a a a n t.d.5.&.1.B.wXmXbXE.pXMXmX7XO.R L H L 1.6.6.6.5.d.5.8.d.k.#X#Xk.=.n n n n n n n n n n n n n n n n n n c c p a c c m c h 8 8 h h h h h h h 8 8 8 8 h h 8 8 8 8 8 8 5 5 5 5 5 5 5 5 8 8 5 5 5 5 6 6 8 8 8 8 8 0 0 0 c c k 8 8 5 2 2 8 v n n S S $.u.f.h.c.c./.(.^.c.^.h.f.>.[ u > 9 9 a #.=.d.u.#.=.v.#Xd.a 9 9 4 0 0 0 0 0 8 8 4 4 4 8 8 8 8 4 2 2 4 2 2 2 6 5 5 6 c c c k 0 0 k k 8 1 1 k c k 8 8 5 5 8 8 8 1 1 1 8 0 k k l k l k k 8 5 1 X X 1 r N _ w.t.j.{.@X#X X@XoX Xk.;.=.-.d d s u p i a s b a a n n 8 ; ; ;.g.0.1.1.%.#.#.=.;.=.;.t.;.t.k.k.n a v a v v v v c v c v v v v v v v v n n F M D M M c q 8 9 9 D D e.=.a a S S S n S S $.$.D n 0 0 k k k k k k 0 0 v D S S S S S S $.;.*.v 0 c v S D S v a q v 0 q q 0 9 0 q c c v v v a a q 9 a D =.=.=.=.=.=.S S S #.*.*.*.*.$.*.$.*.$.=.$.=.",
"=.=.;.;.;.;.;.;.;.;.;.;.=.=.$.$.$.=.,.,.,.;.>.;.$.S a p p p 9 9 9 9 4 9 9 p p u u u f s S $.>.d. Xp.D q 2 5 8 8 6 8 8 8 5 8 8 9 p 9 a l.v.h.9.8.>.>.>.=.$.$.} $.S S S Z d a a a v d v v v d d d v v n n n n n v v M n v v S e.d.=.*.n a a a a a a n a a a p n =.j.8.1.1.m.W.bXpXZ.E.mXmX0XM.R L L { %X-Xf.5.5.d.5.d.k.oX#Xl.*.n n n n n n n n N N N N N N N N N N n n c a c c c v c h 8 8 8 h h h h 8 8 8 h 8 8 h 8 8 8 h 8 8 8 5 5 5 5 5 5 5 5 5 5 6 8 h k c c v v v v c c c c v v v c c c c c 9 n D *.D S S $.f.h.f.>.&.&.:.8.+Xh.;.Z a 9 4 9 4 n =.*.;.j.;.=. X#Xk.d p 9 8 0 0 0 0 0 8 8 8 8 4 8 9 0 0 9 9 8 8 8 8 8 8 4 8 2 c c c c k k k k 1 % % 8 k 8 5 5 5 5 5 5 5 1 1 % 8 8 0 k k k k k k 8 5 1 X X 3 N {.{.@X@X@XoX Xl.l.l.k.d.#.d s s s s s s a a a a b b d ( n 8 ; ; -.g.0.1.;.#.#.#.*.=.$.;.t.;.t.j.j.v a v a a a v c c c c v v v v a a c v v v n n D c k k 0 0 q q D D $.S d $.u.=.F v v S *.*.D n 0 0 k k k k k k 0 0 v n D S S S S S $.;.*.a p c a n *.*.n a a v q a k q 0 0 c v c v v v a a q 9 a S =.=.=.=.t.=.S S S #.$.*.$.$.;.;.=.;.=.=.=.=.",
"=.=.;.;.;.;.;.;.;.;.;.>.>.>.>.>.=.,.,.,.,.>.>.;.;.$.S n a p 9 4 9 9 9 a n *.=.=.=.$.*.#.#.#.#.#.f.t.n 9 2 2 5 5 6 6 8 8 5 8 8 9 9 9 d v.v.f.8.>.>.>.>.>.>.>.>.>.F S S Z d d v v v v v v v d v v v v n n n n n v v v v a a *.j.l.=.#.n a a a a a a n a a a p n =.d.8.8.3.m.W.pXW.m.A.aXmX0XM.W L T 1.<X<Xf.8.8.d.j.j.oX@Xk.#.n n N N n n v n n n n n n n n n n n c a p 8 8 8 8 8 M c h 8 8 8 8 8 h h 8 8 h h h h h 8 8 8 h h h h 5 5 5 5 5 5 5 5 5 5 8 k c M M M M v v v v v v v v v v v v v n n v v n D D *.S #.S ;.d.>.Z #.8.l.l.u.$.d p 9 9 9 4 n t.=.=.j.k.=. X#Xl.#.a a 9 0 c c c c p p p p p a c v n v v v p c c p 0 8 8 2 c c c c k 0 k 8 1 % % 1 5 5 5 5 5 5 5 5 5 5 1 1 1 6 8 0 k k k k 8 8 5 5 % o 4 t.1X#X@XoX{.k.k.d.j.d.d.=.s u s d d d d d d a a a b a a n n 2 X * ( g.0.1.;.#.#.#.#.$.$.;.t.;.t.j.j.v a v a a a v c c c c v v v v a a a c v v v n M k 8 8 q k v v D D S S $.p.u.S S S S S *.*.D n 0 0 k k k k k k 0 c v n D S Z S S S $.=.*.a 0 c a v *.=.n a v v a a c c q k v v c v v v a a q 9 a n =.=.=.=.t.t.k.k.k.k.k.k.k.k.u.u.u.u.u.;.;.;.",
"=.=.;.;.;.>.>.>.>.>.>.>.>.>.>.>.,.,.,.,.=.=.=.=.=.=.=.$.S a 9 4 9 9 p v D e.t.u.t.t.u.d.u.;.*.#.$.S a 4 2 2 5 5 5 6 6 5 5 8 8 0 9 9 n v.v.d.>.>.u.u.u.u.>.>.>.>.$.$.S S n v v v v v v v v v v n v v n n F n v v F v a d S p.v.l.*.n v a n n v a a n n n v a n *.d.8.8.3.m.Q.pXZ.3.m.W.aXwXS.W T [ f.<X:Xl.h.d.k.oXl.{.j.#.a n n n n n c c c c c p p p p p p p p p p 8 8 2 2 6 2 m c 8 8 8 8 h 8 8 8 8 8 h h h h h h 8 h 8 h h h 5 5 5 5 5 5 5 5 5 8 k c M M M M v v v v v v v v v v v v v v v c n a v n S D S =.S #.u.$.a S k.v.#.#.S a 9 9 9 a 4 S u.d.=.j.k.8.oX$XoX$.n v p p c c c c c c v v n n n D D D N n v v v v c 0 8 2 8 8 0 0 0 8 8 5 % 1 1 % % 1 1 1 1 1 5 5 5 5 5 5 % 1 6 8 k k 0 0 8 6 5 5 % o 8 j.1X Xz.d.j.j.j.d.d.d.d.=.d s d d s s d d d s a a b b a n n 2 X * s 5.0.1.;.#.#.*.#.$.$.;.t.;.t.j.j.v a v a v a v c c c c v v v v v v v v v v n n k 8 8 0 k l v v D =.S S t.u.D v S S S S *.*.S v 0 0 k k k k k k 0 c v n *.S Z #.S S $.=.*.a 0 c v v D e.D v v v a a v a k c v n c v v v a a q 9 q n *.=.=.t.t.t.k.l.k.k.k.k.k.k.u.u.u.u.>.>.;.;.",
"=.=.;.;.;.>.>.>.>.>.>.>.>.>.>.>.>.>.=.=.=.$.$.$.$.=.u.t.S d 9 4 9 9 9 a n *.w.w.t.t.t.t.t.=.*.#.d p 4 2 2 2 2 5 5 6 6 5 5 5 8 0 0 q n {.l.d.d.d.k.k.j.p.u.u.>.;.=.=.$.S n v v v v v v n n n n n v n n n F n n v S a d S u. XoXl.#.n a a n n v a a n n n v a v *.d.8.8.0.m.Q.'.Z.3.3.E.pXwXF.| T { h.<X;XOX/.k.oX$XoXu.n a n n N n c c c c c p 8 c c c c c c c c n n c p p p 8 8 m c 8 8 8 8 8 8 8 8 8 8 h h h h h h 8 8 8 h h h 5 5 5 5 5 5 5 5 5 8 k c M M m c c c c c v v v v v v v v v v c c a q D D D D n =.=.S ;.=.p p S p v v p 9 q v a 9 4 *.t.d.d.d.j.k.oX*X@X;.*.n p a c c c v n n n n n N D *.D D n n n n N N v a 4 2 5 8 8 8 8 8 5 1 X 1 5 1 % % 1 % % % 1 1 1 1 1 1 % % 6 8 0 0 0 8 5 5 5 5 O o 8 {.1X{.d.;.t.d.f.d.d.d.j.;.d s s s s s a a a a a a b b a n n 8 = ; w 5.0.5.;.#.*.*.#.$.$.;.t.;.t.u.k.v a v a v c v c c c c v v v v v v v v v n n N 8 8 0 k l l v v n D S D e.$.v S D S S S *.D S v 0 0 k k k k k k k c v n *.S Z $.S S $.=.*.a 0 c v v D e.D v v v a v v v c v v N c v v v a a q 9 q n *.=.=.t.t.t.u.u.u.=.=.=.=.=.=.=.=.=.=.=.=.=.",
"=.=.=.;.;.>.>.u.>.>.>.>.>.>.;.;.$.$.$.$.$.$.=.=.$.$.=.=.=.S a 9 9 8 8 9 p p p 9 9 p p a c v v n v 9 4 ; 1 1 8 8 5 5 5 5 5 2 2 2 8 c *.e.=.*.*.=.e.=.=.*.*.*.*.*.*.*.D n v a a a v v v v v v v v v v n v v k q q v a a $.v.*X/.>.#.S n a a a v n a v n n a a n n =.d.8.5.C.R.E.C.3.3.Z.pXpXG.2.%.8.*X<X<X;X<X<X*Xd.=.n n n N n a N n v v n N N N c n D *.*.*.*.w.w.*.w.t.t.*.M n M N c 8 8 8 h h 8 h h h 8 8 8 8 h h 8 h k k h 8 5 5 5 5 5 5 5 5 5 5 8 h k k k k 8 8 8 0 0 p c c v v v m c c c c c k c D D D D =.*.*.S n v p p p 9 9 0 0 p p c p c *.u.d.u.u.u.>.*X*X Xd.n n a a c c c c c v n n n n n n n n v v v v v v v c 0 2 6 8 8 5 1 # X X 5 8 8 5 % % % % 1 1 1 1 1 1 1 1 & 1 5 8 8 6 6 5 5 5 5 & X X 8 *.z.a.=.5.j.d.d.d.d.d.j.d.#.s a a a a a a a a a a a a a a B 4 1 X > &.&.&.;.#.#.-.*.$.=.=.;.;.t.t.}.=.a a v a a v v v c c v v a a v v a v v S D G 8 0 k k k k l v D D D =.$.*.S S S S S S S S D v 9 0 h k k k k k c c 9 v =.S S S S Z $.;.*.a c a v v D =.D S n a v v n n n n n n v c c c a a a q n D *.=.=.;.t.u.u.;.=.=.=.=.=.=.=.=.=.=.=.=.=.=.",
"=.=.;.;.;.>.>.u.>.>.u.u.>.;.;.=.$.*.*.*.$.$.$.$.$.$.=.=.=.*.S a 9 8 4 4 8 p p p p p p p p p p p a 9 2 ; ; 2 2 8 5 5 5 5 5 5 2 5 8 k c c p 4 9 p 9 9 8 8 8 4 4 4 4 4 0 a v v v v n n n v l l k k 8 5 1 1 5 5 2 2 2 9 S k.*X;X/.;.#.n n a a a a v a v n n v a n a $.;.8.5.C.E.Y.C.5.3.A.pXpXG.2.%./.3X3X3X3XDX<Xk.#.S n n n n n n *.N n n N D *.*.N *.*.*.*.*.N N *.*.*.w.w.*.N N M M c 8 8 8 8 h 8 h h h 8 8 8 8 h h 8 h k k h 8 5 5 5 5 5 5 5 5 5 6 8 h k k k k 8 8 8 0 k k k c k k k 0 k 0 k 8 0 9 0 v n D D D D D S n n a a a 9 0 k k c c c c a *.u.d.u.>.>.>.oX@Xk.;.a a a a c c c c c v v n n n n n n n v v v v v v n v p 8 8 8 6 2 1 # X X 5 8 8 5 % % % % 1 1 1 1 1 1 1 1 1 1 1 1 5 5 6 6 5 5 5 & X ; 8 N -.-.t.d.j.d.d.d.d.d.j.t.#.s d a a a a a s a a a c n a a n 8 1 X 4 &.&.%.;.#.#.*.$.$.=.=.=.;.t.t.}.*.a a v a a v v v c c v v v v v v a v v S D G 0 k k k k k v v D D D $.D S S S S S D S S S D v 9 0 h k h k k k c 0 8 v =.S S S S Z $.;.D v a a v n *.=.D n n a v v n n D n n n v v c c a a a a n n *.=.=.;.t.u.;.=.=.=.=.=.=.=.=.=.=.=.=.=.=.=.",
"=.=.=.=.;.>.>.>.>.>.u.>.;.;.$.$.-.*.*.*.*.*.*.$.=.=.$.$.$.$.$.*.n p 2 3 8 p p 8 p p p p 8 9 8 8 v 9 4 2 ; 2 2 2 8 5 5 5 5 1 5 5 5 6 5 1 ; X ; 1 ; ; 1 1 1 1 1 # # # 1 1 8 q v N n n c k k 8 8 5 % O     O % O X X 4 =.@X<X$Xh.=.S n n v c c c v c v n n v v v n #.;.8.5.C.E.Y.C.q.5.A.'.pXG.<.%.+XJXDXJXJX,Xk.d d n n n N N D *.*.D N N D *.*.*.*.*.N N N N N n n n N N *.w.w.N M M c 8 8 8 8 h 8 8 h h 8 h 8 8 h 8 8 h k k h 8 5 5 5 5 5 5 5 5 5 6 8 h k k k k 8 8 h 8 k k k k 8 8 8 8 8 8 8 8 8 8 2 8 c D D N n n n n n n n n p k k k c c c p a D t.u.u.;.;.;.k.k.u.#.p a p a c c c c c c c v v v n n n n v v v v v v n v c 0 8 8 2 1 1 # % X 5 8 8 5 % % % % 1 1 1 1 1 1 1 1 1 1 & % & & 5 8 1 5 1 % O 1 8 p n _ *.d.j.d.d.d.d.d.j.;.( a n n a a a a s s a a v n a n B 4 1 X u ;.1.{ -.#.#.*.$.$.$.=.=.;.t.t.}.D 9 q v a v v v v v v v v v v v c a v v F D D M c k k k l v v D D D D S S S S D S D D S S D v 8 8 8 h k k k k c 8 2 S e.S Z S $.Z $.;.*.v a a v S *.=.S v v v v v n n D D n n v v c v v c a a v n D =.=.t.t.u.=.=.$.$.$.=.=.=.=.=.=.=.=.=.=.=.",
"=.=.=.=.;.>.>.>.u.u.u.>.;.=.$.#.#.*.*.*.*.*.*.*.=.$.$.$.=.=.;.;.=.n 8 4 8 p p 8 p p p p p p p p a a 9 2 2 2 2 2 2 2 1 1 1 1 1 5 % % % 1 ; ; ; 1 # % 1 1 1 1 1 # 1 1 # # 1 2 9 q 9 9 8 2 & % % % O O + +   X O O X 1 n l.oXT.8.&.n n n v a c a a c v n n v v n n n =.>.8.C.Y.Y.P.q.q.A.'.pXZ.<.%.v.JX3X3X*X;.d p n n v N *.w.*.N *.N n M N N N n N n p p c n n n n n n n D w.*.m m M c 8 8 h 8 h 8 8 h h h h 8 8 h h 8 h h k h 8 5 5 5 5 5 5 5 5 5 6 8 h k k k k 8 8 h h k k k k 8 8 8 8 8 8 8 8 8 8 1 1 k D *.D n n n n n n n n p k k k k c c c 0 N t.u.t.;.;.;.;.d.;.#.u p p a c c c c c c c c v n v n n v c c c a c v v v c a 8 8 2 1 1 % % % 8 8 8 1 % 1 1 % 1 1 1 1 1 1 1 1 1 & & % & & 5 6 8 8 1 X % 5 0 p b a n *.u.d.d.d.d.d.j.;.n a d d a a n a s s s n n n a n B 8 1 X p d.8.} #.#.#.#.$.$.$.$.;.;.t.t.k.n 9 9 a a v v v v v v v v v v v c a v v F D D D M k k k l v v n n S D *.$.D S D S D D S S D v 8 8 8 8 h k k k c 8 2 *.i.S Z Z $.S $.=.=.v a a v S *.*.n a v v v v n n N N n n n n v v v v a a v n D =.=.t.u.u.$.$.$.$.$.=.=.;.=.=.=.=.=.$.$.$.",
"=.=.>.>.>.>.>.u.>.>.>.>.;.=.$.#.*.*.*.*.*.*.*.*.*.*.=.=.=.;.;.t.t.*.a p a n b a p a p p p p p p a q 8 4 2 2 2 2 2 2 1 1 1 1 1 5 1 1 1 1 1 1 1 1 1 1 5 6 5 2 2 1 1 1 1 1 4 4 4 4 4 2 1 2 % & & & & O   @ @       X ; a =.j.d.=.#.n n n n c a a a c n n n v v n n a -.>.5.0.Y.Y.g.8.q.C.'.'.Z.| %.f.3X#Xd.#.a S S S n n N w.w.N M n n c c n n c c p 8 8 p m N n n D N n n *.*.m 2 c m k 8 8 h h h h h h h h h h h h h 8 h h k h 8 5 5 5 5 5 5 5 5 6 8 8 k k k k h h h h h h h k k h 8 8 8 h h h h k k 8 8 k D *.D n n n n n n a n p p p c p p 0 0 9 n t.u.;.;.;.;.;.u.;.#.p 9 9 c c c c c c c c c v v v a c c c c p p 0 p c c c a 8 8 6 1 1 % 1 1 8 8 6 1 1 1 1 % 1 1 1 1 1 1 5 5 & % & & & 1 1 5 5 5 % X X 8 m N b p a n *.=.t.u.d.d.d.;.n s a a n a a a b s s n n n n n n 8 % X a l.f.{ [ #.#.#.*.$.$.=.;.;.t.t.i.a 4 9 a a v v v v v v v v c c v a a a v n D D e.D c k 0 k v v n n D $.$.$.$.*.D D *.D S S D v 2 8 8 8 h k k k k 2 8 e.l.$.Z Z S S S =.=.n c c S D *.S v a a v v v n n D n n n N n n v v v a a v n D *.=.=.t.t.$.$.$.$.$.=.=.;.=.=.=.=.$.$.$.$.",
"=.=.>.>.>.>.u.u.>.>.>.;.;.=.$.#.#.*.*.*.*.*.*.*.#.*.=.=.=.=.=.=.;.*.n n n *.*._ N n n c a p p 9 q q 0 9 8 4 8 8 8 8 5 1 1 1 1 5 1 1 O 1 3 4 8 8 8 8 8 8 8 8 8 6 2 2 8 a n D S S a a v v v c c m k % @ @   5 5 1 1 1 9 #.;.;.=.#.n n n n v v c a c n n n n v n n a #.>.8.0.I.I.0.8.8.0.E.'.Z.<.%./.*X;.Z a a d n n n D N N n n n n c c c c c c p 8 8 c N *.*.N n *.N N n N n 8 ; 8 c k 8 8 h h h h h h h h h h h h 8 8 h h h h 8 5 5 5 5 5 5 5 5 6 8 h k k k h h k k h h h h h h 8 8 8 8 8 h h h k k k k k n D *.N n n n n a a a p p c c p p 0 0 p n t.u.;.;.;.;.;.d.;.#.p p 9 a c c a a c c c p c a a a c c c c p 9 9 0 a c a p 5 8 8 8 1 1 1 5 k k 6 1 1 1 1 1 1 1 1 1 5 5 5 5 1 & & 1 1 1 5 5 % % X . X 1 c N m c c c c v *.t.t.u.d.;.#.a a s n n a n b b a n n n n n n 8 % X a /./.&.#.#.*.#.*.$.$.=.=.;.t.t.e.p 4 a a a v v v v v v v v c c v v a a v n D D e.G M k 0 0 q a D D D =.$.$.D S D D *.*.S *.D v 2 8 6 8 8 k k k k 2 2 e.l.$.Z Z S Z S $.e.S c v D *.S n v a a v v v n n D D n n M n n v v v a a a v n S S *.*.$.S S S S S $.$.=.$.$.$.$.$.$.$.$.",
"=.>.>.>.>.>.u.u.;.;.;.;.;.;.$.#.#.*.*.*.*.*.*.*.#.*.-.-.*.#.#.-.-.*.#.#.*.=.=.*.=.=.*._ n n v c v n n n v v v v c p 8 5 1 1 1 5 O O 1 6 p n n b r 8 8 6 6 2 2 2 2 8 a D t.j.j.u.*.D D D D G D D e.c 1 5 M y.y.D n n D $.=.;.$.#.S N n n n v c c v n n n n n n n a #.>.5.0.P.P.5.8.8.3.Y.'.A.{ %.$XoX$.Z Z d a a n n N N M n B n n n v n n v a p c n N *.*.*.N n *.*.*.N c 8 1 1 8 c h 8 8 k h k h h h h h h h h h h 8 h k k h 8 5 5 5 5 5 5 5 5 8 8 h k h k h 8 k k k 8 8 8 8 8 8 8 8 8 8 8 h k k k c c 0 0 v *.n N n n n d d a p p p p p p 9 9 p n t.u.t.;.;.;.;.d.u.$.p p 9 a p p a a p p p p v a a a a a a a a p 0 0 a c a p 1 8 c 0 2 1 5 8 k k 6 1 1 5 5 1 5 1 1 1 5 5 5 5 5 5 & & & 5 6 8 8 8 5 % X X 4 B m m v c p 9 v S =.;.d.u.#.d d a n n n n n n n n n n n n n 8 % X s $X+X:.#.S *.*.*.#.$.=.=.;.t.t.*.9 9 v a q v v v v v v v v c c v v a a v n D D e.G G k 8 8 0 q n S D *.$.$.D S D *.=.$.S *.D v 1 2 5 8 8 k k k c 2 2 D p.$.Z Z Z Z S $.t.D v n =.*.n a v a a v v v n n S S S S M n v c v a a a 9 a a v a a n n d d d d n S #.#.*.$.$.$.$.=.;.;.",
"=.>.>.>.>.>.u.u.;.;.;.;.;.;.$.$.#.*.*.*.*.*.*.#.*.*.*.*._ _ #.*.*.*.*.*.=.=.*.*.e.e.e.r.=.=.*.*.D *.w.=.*.*.*.w.N v c 8 5 1 1 1 % 1 8 m *.=.*.N a p 8 8 2 2 2 2 1 4 v =.j.k.u.=.S S D D D D n n D q 9 v e.j.j.u.i.j.k.>.=.$.$.#.S N N n n n v v v n n n n n n n a *.>.>.8.P.g.5.8.8.0.Y.'.U.{ %.oXoX>.S a S S a D N n N N *.N N N n n n n n c p *.*.w.*.N n n n N D *.N p 1 1 8 8 k 8 6 h k h k h h h h h h h h h h 8 h k k h 8 5 5 5 5 5 5 5 5 8 8 h k h h h 8 k k k 8 8 8 8 8 8 h k k k k k k k k m c 8 2 0 D n n n n n n n n p p p p p p 9 9 p S t.u.u.>.>.;.;.d.u.$.a a 9 c 0 p p a p p p p v v c c c a a a c a p a a c c c 1 0 v c 2 1 5 k k k 8 1 1 5 5 1 5 1 5 1 5 5 5 5 6 5 & % % 1 8 0 G G G m 1 ; 8 N B c c v c 0 8 8 *.$.d.d.*.n n n n n n n n n n n n n n n n 8 1 X s $X;X8.#.S #.*.#.#.$.$.=.;.t.t.S 9 9 v a 9 v c v v v v v v c c v v a a v n D D e.G D l 8 8 9 q a v S D *.$.$.$.*.*.$.$.D *.D c 2 5 5 8 8 k k k c 5 # v e.S Z S d d S $.t.*.n D =.$.n a v v a a v v n n S S S S n M M c c a p 9 4 9 p p p p p a a a a a a n S S *.*.$.=.=.;.t.t.",
">.>.,.=.=.=.>.>.$.$.$.;.>.>.$.$.#.*.*.=.=.=.*.*.*.*.*.*.*.*.*.*.*.*.*.*.*.*.*.*.-.-.*.*.*.*.*.*.n *.*.=.*.D n v 9 4 2 8 8 2 1 2 5 8 0 *.u.t.e.*.p 9 4 4 8 4 4 3 9 2 a u.j.u.=.$.S F S S D D D D n 9 : S p.j.i.u.=.=.;.;.;.=.$.$.#.D S n n n v a n n n n n n n v n S $.>.8.5.8.d.8.5.1.I.'.C.%.1.#Xl.$.S S n n S D N N N N D N N n n n n n n M M _ N N B m c m B N N c p 8 5 1 1 1 2 8 0 8 8 k c 8 8 8 8 h k k c k c c c k k 8 5 5 5 5 5 5 5 5 5 8 8 8 h k k k k 8 8 8 8 h h h h k k k k k k k k m M c 5 % X 5 N n n n n n n n n n p 8 8 p 0 8 8 9 n e.t.t.;.>.;.u.>.d.;.a 9 a a c c c c a a a a v v a a a a a q c v v v v k q 0 2 k c k 1 % 5 k k 8 5 1 1 1 1 1 5 5 1 1 5 6 8 8 8 % % 1 1 8 M G D N N N *.w.e.e.n a p p p p a c n #.=.=.=.#.n n *.n n n n n n n n n n n N 8 X ; n oXoX&.[ #.$.;.$.$.$.$.;.;.;.=.a 9 v v a v a v v v a a a a v v c c v c c n n n D D M c k 0 0 9 v n S D D D #.$.$.S S D D *.D c 1 5 8 6 8 h k h k 8 2 9 v S n a d d S *.=.=.=.*.S S v a a a d n v S S S v v F S M c k c m c 9 8 2 2 2 2 2 1 4 q 9 9 a a v v v v a a a a v n S D ",
"S S S $.$.=.>.>.>.;.=.=.;.;.&.$.*.=.=.=.=.=.w.r.*.*.*.*.*.*.*.*.*.*.*.*.*.*.*.*.*.*.*.*._ *._ *.*.*.*.n n a p 8 4 8 0 p a a 4 1 1 6 0 *.i.t.e.*.p 4 4 4 4 4 4 3 4 2 v u.j.e.$.S S S S S D D D S v 9 : S j.p.u.=.$.$.$.=.=.$.$.#.S S n n n n n a n n n n n n n v v S $.>.8.8.d.8.8.5.5.I.%XP.%.;.$Xl.=.S n n n n D N N N N D N N N N n n n n M M N N N N M B m c M M m 8 6 1 1 1 8 c c c 8 8 8 c 8 8 8 8 h k k c c c c c k h 8 5 5 5 5 5 5 5 5 5 8 8 8 h k k k k 8 8 8 8 h h h k k k h 8 h k k c c k 5 % 1 1 5 c N n n n n n n n n p 8 8 p p 9 9 9 n e.t.t.;.>.;.u.>.d.;.a 9 a a c v c c a a a a c c v c c c c c q q c c c k q q 5 8 k 8 1 1 5 k k 8 5 1 1 1 1 1 5 5 1 1 5 5 8 8 8 1 % % 1 8 M M c p a n *.e.t.u.*.#.n p w p p a a n n N n n n n n n _ n n n n *.n n N _ N 8 X X n l.j.#.#.[ #.;.$.$.$.$.;.;.;.*.9 a *.D a a a v v v v v a a v v v v c v v n n M D D N n v q q 0 v v D D D D #.$.$.S S D D *.D c 1 5 8 7 8 h h h k 8 2 9 n S n a d d S *.=.=.=.*.S v v a a a v d v S S S v d v n M m m m m 0 2 3 2 9 n n n v q 9 0 9 9 9 q c v v a v v v v v n n ",
"p a a n S $.$.=.u.;.$.$.=.;.;.=.*.=.=.=.*.*.*.*.*.=.=.=.=.=.=.=._ _ _ _ ( ( ( _ _ _ _ _ _ _ _ _ n n a p 4 4 9 9 2 c *.e.t.t.v # 1 6 0 *.j.u.t.*.9 4 4 4 4 4 4 2 2 2 a u.u.=.S S S S S S D D D D v 9 9 =.j.u.e.S S D *.$.$.$.$.*.S n n n D n n n n n n n n n n v v S $.;.5.8.d.d.8.5.1.P._.P.%.;.$Xl.=.S n n n S D N N N N N N N N n n n N N M M N n B M N M m c c c c 8 6 2 6 8 M M M M 8 6 8 c k 8 8 8 k k c c c c c k k 8 5 5 5 5 5 5 5 5 5 5 8 8 h h k k k k 8 8 8 8 8 8 k k k k 8 8 h k k c 8 5 % X % 1 5 c N n n n n n n n n p 8 p a p 9 9 9 n e.t.t.;.;.;.>.>.k.>.a 9 a a v v c c a a a a c c v v v v v v c c v v c c q q 5 6 5 5 1 5 8 k k 8 5 1 5 5 1 1 5 5 5 5 5 5 8 8 8 1 % % % 8 M M 0 0 a v S =.e.t.t.=.*.n n a p p a a b b b b n n n n n n n n *.*.n n N _ *.8 X o n d.=.S #.[ #.$.$.$.$.$.$.;.;.*.9 D i.e.a 9 q v v v v v v v v v v v c v v n n n D D D D n v k 0 v v D D D D S $.$.S S D D *.D c 1 5 7 5 8 h h h k 8 2 9 v S n a d n S #.=.=.=.*.a a a a a a v a v v v v v a v n m m M M c 2 : : a *.u.j.j.u.=.n v c p 9 8 9 a c a a n n n c a a ",
"a a a a v v S Z S #.$.$.;.=.=.$.*.=.*.*.*.*.*.=.*.*.*.*.*.*.*.*.*.#.#.#._ _ _ _ N N n n N N n n 4 4 4 9 p p a a c w.j.j.}.}.e.2 2 6 0 *.j.j.t.*.9 4 4 8 9 9 4 4 ; ; a e.u.D S S S S S S D D D D v 9 9 =.i.e.=.S S S S D D *.*.*.S n n n S D S n n n n n n n n v v S $.;.;.5.d.8.8.5.1.0.Y.g.%.;.oXj.*.n n n n *.D N N N N N N M N n n n N n M M N M m m B B m m 8 8 8 6 2 6 c m w.w.N m 0 8 8 0 k k k k k k c c M m c k h 6 5 5 5 5 5 5 5 5 5 5 8 h h h k k k k 8 8 h 8 8 k k k k k k k k h 8 8 % 1 % O % % 5 v N n n n n n n n n p 8 p a p 9 9 9 n e.=.;.;.;.;.>.>.k.u.a 9 a a v v v c a a a a c c c v v v c c v v v c q 0 9 9 5 5 5 1 1 5 8 c k 8 5 1 5 5 5 5 5 5 5 5 5 8 8 8 8 1 % X % 8 c c c c v n n *.*.*.=.=.=.=.=.*.n n n n n n n n n n n a u p n *.*._ n n N *.*.0 X X *.d.=.S #.#.#.#.$.$.$.$.$.;.=.*.a e.}.e.a 9 a v v v v v v v v v v v v n n n n n n D D D D n c k v v D D D S S $.$.S D D D D N 0 1 5 5 5 8 h h h 0 8 2 9 v n n a d d n S *.=.*.D a v v n F n n n v v n n v v n n M M v c 4 3 9 n t.u.p.u.p.d.p.u.=.*.n a p 9 p p a a a c c c a a ",
"v v v a v a a p a a n #.*.$.=.;.=.=.=.*.*.=.=.r.*.*.*.=.=.=.=.=.*.*.*.*.#._ n n n n n n n v c a p 9 4 4 9 a n D t.y.y.e.e.j.t.p 5 6 8 *.j.j.d.*.4 9 9 p a a p 9 ; # a e.e.#.S S S S S S D D D D n q 9 D t.=.D S n n S S S D *.*.D n n n S D S n n n n n n n n v a n #.;.;.5.5.8.8.8.1.6.Y.g.<.;.l.u.#.n n n D *.*.D N N N N M n n n n N n n M M N M v M M v m c 6 6 5 5 6 c M w.w.N m c c 8 8 8 k k k k k c c m M c c k 8 5 5 1 5 5 5 5 5 5 5 5 h h h h k k k k 8 8 8 h k k k k k k c c k 8 5 1 X % 1 % % % 8 n N n n n n n n n n a 8 p a p 0 0 9 n =.=.=.;.;.;.>.>.k.u.a 9 a q c c c c c a a a c c c c v v v v v c k 0 8 8 2 2 1 1 1 1 1 5 k c k 8 5 5 5 5 5 5 8 5 5 5 5 6 8 8 8 5 % X X 8 c k c c n N *.*.=.=.=.-.-.*.=.=.w.e.*.n n a a a n N w 4 4 p n n n n n N N *.*.p X o n d.;.#.#.$.=.#.$.=.$.$.$.;.$.#.S u.j.e.v q v v a a v v v a a a n n n v v v v v n n D D N M c k v v D D D D S #.$.S *.*.D D M 8 1 5 7 5 6 h h h 0 8 2 9 v n n a a d n S D D S n v n N D D D D D v c v v v n n M M M c 2 ; 4 *.l.f.u.>.u.u.u.d.l.d.t.=.D n a p p p p p p p a a n ",
"v v v v v a a a p a a a n S =.t.e.=.*.n N n N n _ _ *.*.*.*.*.=.*.*.*.#._ n n n n n n c c a p 9 p p p p a n w.t.e.=.*.n c D D 8 6 6 8 *.}.l.d.*.4 9 p v n n n v 4 2 a *.=.D D S S S S S D D D D n q 9 D e.D D D D S D S S D *.*.*.D n n S D D S n n n n n n n a a n #.=.;.;.5.d.8.8.1.5.I.g.%.;.d.=.S n n n D *.*.D N N N N M n n n n N n n M M n M N N M m c 8 6 5 5 6 c M D w.G M k 8 c c c 8 k k k k k c m M c c k 8 8 5 5 5 5 5 5 5 5 5 5 5 h h h h k k k k 8 8 k h k k k k k k k k 8 5 1 % % & % % 1 1 8 v N n n n n n n n n a 8 p a a 0 0 9 n =.=.$.=.;.;.>.>.k.u.a 9 a q c c c c a a c a c c c c k k q q 0 9 8 2 2 2 2 2 5 5 1 1 1 8 k M k 0 5 5 5 5 5 5 8 8 5 5 5 6 8 8 k 1 % X O 5 k 0 c v n *.*.=.=.t.-.-.-.-.=.=.e.e.t.=.*.n b p 4 4 ; 3 p a n a a a n b n _ D 0 ; X a t.;.#.$.;.>.$.$.$.$.$.$.;.$.#.D u.u.*.v a v v a a v v v v a a n n v c v v v v v v n n M v c k v n D D D D D #.$.S *.*.D D M 6 1 5 5 5 5 h h h 8 8 8 9 v n v a a a d n n n a a 0 k c c c c c c c c c c M M M M 8 8 8 2 ; 4 =. Xk.>.>.k.h.d.d.k.d.u.t.*.S n v a a p a p a a n n ",
"a a a c a c c c a a c a v n *.=.*.S n a p p p p p p a a a a v v n n n n n n n n n v a a p p p p 9 a n *.e.=.*.*.D n n n a c c 2 8 6 4 *.l.{.j.*.9 p a n *.*.*.D v 9 a D *.D D *.S S D D D D S S v 9 9 S e.S S S *.#.D S S *.*.*.*.*.n n n *.S S n n n n n n n a a v *.=.;.;.5.8.8.8.1.1.P.0.%.;.;.$.S S n n n *.*.D N n N N M m n n n n n n M M v N D N M c 8 8 6 6 8 c M G w.N M c 0 8 c c c 8 c k k k c c M M c k k 8 5 5 5 5 5 5 5 5 5 5 5 5 h h k k h h h h 8 k h h k k k k c k k 8 5 1 1 1 1 1 % 1 5 5 5 0 N n n n n n n n n p 8 p a p 0 0 9 n =.$.$.$.;.;.>.>.k.d.n 9 a q c c c c a c a a c c a a q 9 9 9 2 2 2 4 4 9 a c 8 2 1 1 5 0 c m c 0 6 2 2 6 8 6 8 8 8 5 6 8 8 8 k 1 O O % 1 8 8 c v N *.*.=.=.;.#.-.-.=.e.=.=.=.e.=.=.*.n p > ; 3 p n n a p a a a a b N M 8 ; ; p *.*.$.;.=.;.#.$.=.$.$.$.$.$.S n t.e.*.D a c v a a v v c c c v v v c v c c c c c c v v c c k k c v D D D S S *.S S *.*.D N v 5 1 5 5 5 5 8 h 8 8 8 8 9 a v v a a a a a v a 9 9 1 1 1 1 5 5 1 1 O X X X 1 1 1 1 & 1 2 2 ; 4 S k.>.>.d.f.h.f.8.>.;.=.*.#.n n #.#.n n n a a a a p ",
"p a a a a a a c a v n n n n n N v a p p p a a n p p a a a n v v c c v v n n n n a a p u 9 u p p *.*.*.*.*.*.D N *.c v N a a c 0 8 5 4 *.}.{.j.*.9 p a N =.e.=.*.D a a D D D D *.D D D D D D S S a 9 9 S =.S S n =.*.*.#.#.*.*.$.=.*.S n n S S n n n n n n n v a q v S $.;.;.5.8.8.8.1.1.P.g.1.;.;.$.#.S S n n n *.D N n N n M m n n n n n n M M M D G M c 8 8 8 8 8 c M w.w.N M v c k k c c c c c k k k c c M M c k 0 8 8 8 5 8 5 5 5 5 5 5 5 5 h h h k h h h h k k h h k k k k c k 8 1 1 1 1 1 1 1 1 1 5 1 2 0 N n n n n n n n n p 8 p a p 0 0 9 n =.$.$.$.;.;.>.>.k.d.n 9 a q c c c c a c c a v a a q 9 9 9 4 2 2 4 9 a n D *.c 5 % 1 8 c v c c 0 8 2 5 6 8 8 8 8 8 8 6 8 8 8 c 1 X O % 1 8 8 0 c n *.*.=.=.t.-.#.#.#.*.=.e.e.=.*.*.*.#.n p w n n n a a a a n p p c M M 8 1 : a n #.$.;.#.S S $.=.$.$.$.$.$.S v =.=.e.D a a v a a v c c v c c v v v v c c k k p p q q k k k k c v D D D D D *.S S *.*.D N m 5 1 5 5 5 5 8 h 8 8 5 8 9 c v v a a a a a a p 9 2 O O O O O O O O . .   X O % % O 8 8 5 1 ; 4 *.l.f.h.h.f.h.v.c.f.*.#.n a n #.*.t.*.*.#.#.n a p u ",
"9 p p p 9 9 p a a a v v n v v c v a p p a a a a n v a a p a a v a c c c c a a a a p p p a #.;.d.j.t.=.*.S S D n n n n n v c a 0 6 2 2 S {.l.l.*.p p n n *.*.*.*.*.*.c p n *.D D D D D D D D D S 9 4 9 v *.*.D D =.*.*.D S S D D *.*.S S *.*.S n S n n n n n n v v v n #.=.;.a.d.d.8.5.5.6.0.5.;.d.u.*.S n n *.*.n n n n n n M n M n c c c v N N w.*.M c 6 5 6 8 6 c D w.w.G M m v m c c k 8 k k k k k k c c c c 5 6 6 5 8 8 8 5 5 5 5 5 5 5 8 8 k k k k h h h h k h h h k c c m 5 5 5 1 1 1 1 1 1 5 5 5 5 5 8 0 N n n n n n n n n c p 8 0 p p 0 8 a D =.;.$.$.;.>.u.k.k.#.9 a 9 q q q c a a v v 0 0 9 8 4 2 2 2 a c v N D *.*.*.c 6 1 2 0 c c c c 8 8 6 8 0 k c 8 8 8 8 8 8 8 8 6 8 X @ 1 c c c a n D *.=.=.=.=.-.-.-.-.-.-.-.-.*.*.*.*.=.=.-.-.=.=.*.#.a a a n r r p c c 6 1 1 p n #.#.$.$.#.$.=.;.;.;.$.$.#.n v *.t.t.D v a q 0 p a c c c c p c c c c c c c c p 0 k k k k k k k c n D D S S $.$.S S D *.N k 1 1 1 5 5 5 6 8 8 8 8 8 9 0 a a a a v v a v v a 4 5 5 5 5 5 1 1 1 1 1 1 1 1 1 1 1 6 5 5 1 # 3 S j.d.h.v.v.OX/.8.#.#.d s #.=.u.;.#.#.#.#.#.#.#.d s ",
"S n a p 4 4 9 p p a a a a a a a a n n n v a a p a a p a a a a v v v c c a a p p p a n #.;.d.j.k.t.e.*.S S S D n N n n n v v a 0 6 2 2 S {.{.l.*.p a n n *.*.*.*.*.*.v p n *.D D D D D *.*.D D D v 0 9 c D D D *.D D S S D D D D *.*.S S *.*.S n S n n n n n n v v v n #.=.;.a.d.d.8.5.5.0.0.5.;.d.u.*.S n n *.*.n n n n n n M M N n c m n *.w.w.N M c 8 8 8 8 k 0 M w.w.w.N v m v m c c k 8 k k k k k k k k c c 5 5 6 6 8 8 8 8 5 5 5 5 5 5 8 8 k k k k h h h h h k k c c c k k 5 5 5 1 1 1 1 1 1 5 5 5 5 5 8 0 N n n n n n n n n c p 9 0 p p 0 8 a D =.;.$.$.;.;.>.d.d.S 9 a 9 c c c q a q 9 9 4 4 8 9 p a c v v v n n n n n v c 6 1 2 0 c c c c 0 8 6 8 k k c 8 8 8 8 8 8 8 8 8 8 X o 1 c c m a n D *.=.=.=.=.-.-.-.-.-.-.-.-.*.*.*.=.=.=.-.-.=.=.*.*.*.#.n n r 4 4 r 8 5 1 1 9 n #.#.$.$.#.$.$.;.;.;.$.$.#.n v D e.e.D v a a p a c c c c p 0 c c c c c c c c k 0 k k k k k k k c n D D S S $.$.S S *.*.N k 1 1 5 5 5 5 8 8 8 8 8 8 0 q a a a a v v a v v p 4 1 5 5 5 8 5 5 1 1 5 5 5 5 5 5 7 8 8 8 6 2 4 n t.u.k.v.oXv.d.[ f d d #.=.t.d.;.=.$.#.a #.;.j.d.;.",
"@X Xk.t.#.a 9 4 u p p p p p a a p a a a a p a v a a a a a a a a v a a a a a n n #.$.u.k.l.h.f.d.=.*.D n n n N n n n v v n v a 0 6 2 2 S {.l.l.*.a a n n D *.*.*.*.*.n a c v N N v n n n n n n n M k 0 k c M N D D D D D D D D D *.*.D D D D D n D n n n n n n n a v n #.=.;.a.d.d.8.5.5.6.8.8.;.d.t.*.S n n S D n n n n n n n n n n m N w.t.e.w.m c k 8 8 8 8 8 M w.w.w.N m m v v m c c k 8 c c c c k k k k k k 8 8 6 6 8 8 8 8 5 5 5 5 5 6 8 8 h h k h k k k k h k c c c h 8 5 5 5 5 1 1 1 1 1 1 5 5 5 5 5 8 0 n n n n n n n n n v p p 0 p p a p a S =.;.$.$.;.;.;.d.u.n 4 a q c c c q q 9 9 9 p p a a c v n n n n n n v c a p c 8 1 2 0 c c c c 0 8 8 8 0 p c 8 8 8 8 8 8 8 8 8 8 X   5 c m M c n D =.=.=.=.=.=.=.=.=.=.=.-.=.*.*.*.*.*.*.$.$.*.*.#.#.#.*.#.n p 4 3 3 5 1 1 2 9 n *.#.$.$.#.$.$.;.;.=.$.$.#.S v S *.*.n v a c c c c c c c 0 0 k k k k k k k k c c c k k k k k 0 k v D D S S $.$.S S *.*.N k 1 1 5 5 5 6 5 8 8 8 8 0 0 q a a v a v v a v v a 8 1 5 5 5 5 5 1 1 1 1 5 5 5 6 8 8 k 8 6 1 ; 3 S d.j.k.v./.k.$.Z Z f [ ;.d.d.8.u.>.>.#.#.&.k.#X#XoX",
"$X$X$XoXv.j.;.$.9 9 9 9 u p a d v v v a a a a a p a a a a a a a a 9 9 9 a *.u.k.k.k.l.l.k.8.$.#.#.D n n n n n N n n v v n v c 0 2 2 2 S l.l.l.=.a n n n D #.#.#.*.*.n p 4 8 0 p p p q a a a p a k 8 5 5 5 8 k k c c c c k 0 0 9 *.*.*.D D D D S D n n n n n n n a a a #.=.;.a.d.8.8.5.5.8.8.8.;.d.t.*.S n n S S n n n v n n n n n n N w.t.w.N m p p c 0 8 8 8 k w.w.w.N v m m m v m c c c 8 c k c c k k k 8 8 8 5 5 5 5 8 8 8 5 5 5 5 5 5 8 8 h h h h k k k k h k c c c k 8 1 1 5 5 5 5 1 1 1 1 5 5 5 5 5 5 8 9 n n n n n n n n n n c p 0 0 p a a a S $.=.$.$.;.$.;.u.u.d 4 9 a q q k c a a v v n n n n v c c c c v v v c c c c v 8 1 2 0 c c c c 0 8 8 0 0 p 0 8 8 8 8 8 8 8 8 h 8 O . 5 M M M c n *.*.=.=.=.=.=.=.=.=.-.=.=.=.*.*.*.*.*.*.$.$.-.*.n n n ( #.#.b r 4 1 1 1 1 2 9 n *.#.$.$.#.$.$.=.;.$.$.$.#.S a n n n v a a a c c c c c p 0 8 0 0 0 0 0 0 k k k k k k k k k k 0 k v D D D D *.$.S S D *.N k 1 5 5 5 5 5 6 8 8 8 8 0 0 k a v v a v v a v v a 8 6 6 5 2 5 1 6 8 1 1 1 1 5 5 6 6 5 8 8 4 3 4 #.j.;.l.oX/.>.d f d $.>.h.v.v.l.l.l.d.k.h.v.oX+X$X$X",
"$X$X*X*X+X+X#X#Xv.l.f.>.$.#.S S a a p a v v a 9 a a a a p p 9 p 9 a S ;.d.k.l.l.v.l.k.d.;.$.Z d n n n n n n n N n n v v n v c p 2 2 3 S l.l.l.=.n n n n S #.#.#.*.*.N p 1 1 1 1 8 8 8 4 4 8 9 9 8 8 5 5 1 1 5 5 1 1 1 1 1 % % # *.*.D D n n n D D n n n n n n n a a a #.=.;.;.d.>.>.5.5.5.5.8.>.u.;.*.S n n S n N n n v v n n M N D w.w.*.n c 8 0 0 k 8 8 0 v D y.w.M M m m m c m m c c p 0 k k c c k k 8 8 5 5 5 5 5 8 8 8 5 5 5 5 5 5 6 8 8 h h h k k k k k k c c k h 8 5 1 1 5 5 5 5 5 1 1 1 5 5 5 5 5 5 8 9 v v n n n n n n n n c p 0 0 p a c n n *.=.$.$.&.#.;.>.;.n 4 a v c c v v v v v v v v v v v v n v c v v v v n n n v 8 1 2 p c c c c p 0 0 0 p p 0 8 8 8 8 8 8 8 8 8 8 % O k M M N v N *.=.=.$.=.=.=.=.-.-.-.-.=.=.-.-.-.-.*.-.*.*.=.-.*.#.n d n n _ b r 6 5 1 1 2 9 n *.#.#.#.#.$.$.$.=.$.#.$.*.S v a a a 9 9 0 q c c c c c p 0 8 0 0 0 8 h h k k k k k c k k k k k 0 c N D D D *.$.S S D *.N k 1 5 5 5 5 5 6 8 8 8 8 0 0 k v v v a v v v v v v 8 2 2 6 2 5 2 8 8 6 6 8 8 8 8 8 8 2 8 9 4 $ ; u &.;.k.v.f.$.[ $.>.oX#X*X*X*X*X*X*X/.#X*X*X+X+X+X+X",
"&X;X;X<X<X;X&X#X;X;X*X$X#XoXoXoXt.*.a p a v a a a p 9 9 9 a v n >.>.d.d.k.l.v.v.d.>.=.#.S Z Z S n n n n n n n N n n v v n v c a 2 2 3 n l.l.l.=.n n n n n #.#.#.*.*.*.c 2 1 2 1 2 2 1 1 2 2 4 4 1 5 5 1 % % % % % # % % % 1 1 2 *.*.*.D n n n S S S n n n n n n v a a S =.;.;.;.>.>.5.5.5.5.8.>.u.;.*.S S n S n N n v v c v n M e.e.*.N v a 0 8 0 0 8 8 0 M w.i.y.G m c m M m c m m c c k 0 k k k k k h 8 5 5 5 5 5 5 5 5 8 5 5 8 5 5 5 5 8 8 h h h k k k k k k c k 8 5 5 1 1 1 5 5 5 5 5 5 5 5 5 5 5 5 1 5 8 8 v v n n n n v v n n v p 0 0 p a v n n *.$.$.$.&.$.;.;.>.S p a v n n n v v v v v a a c c v v n n n n n v v n n n n 0 2 2 p c c c c c 0 0 c c p 0 8 8 8 8 8 8 8 8 8 8 % 1 c M M N n D *.=.=.$.$.=.=.=.=.=.=.=.=.=.=.=.-.-.-.-.*.*.*.=.t.=.*.( n n *.N B c 8 5 1 2 9 n *.#.#.#.#.$.#.$.$.#.#.$.$.#.S v a 9 9 9 0 q c c c c c c k 0 0 0 0 0 k k k k k k k k k k k k 0 0 c n D D D #.$.S S D *.N k 1 5 5 5 5 5 6 8 8 8 0 k k k v v v a v v v v n v 9 ; 1 2 2 1 1 1 2 6 2 8 4 6 2 6 2 2 9 a a 9 u &.v.oX+X+Xv.h.v.*X<X<X<X<X<X<X<X:X:X*X*X*X*X*X*X*X*X",
"&X;X<X3XDX4X;X+X&X&X*X*X*X*X*X*X@Xk.=.n v a p 9 a p 9 9 a D t.d.k.h.h.h.h.f.f.d.;.$.#.Z d S S S n n n n n n n N n n v v n v c a 2 2 3 n {.l.v.=.#.S n n n S #.#.*.*.*.D c c c 8 8 6 6 2 2 4 4 9 5 h k 2 1 1 1 1 5 2 2 2 2 8 c c D *.*.D S n n *.S n n n n n n n v a a S $.;.;.;.>.>.8.5.5.5.8.>.u.;.$.S S S n n N n v c c c n N e.*.n a 0 9 0 0 0 8 0 c N e.y.i.N M c c m M m c m m c c k 8 k k k k h 8 8 5 5 5 5 5 5 5 5 5 5 5 8 5 5 5 5 8 8 h h h k k k k k k k h 8 5 1 1 5 5 5 5 5 5 5 5 5 5 5 5 5 5 1 5 8 8 v v v v v v v v n n n p 0 8 0 a n n n *.$.$.#.$.$.;.;.u.=.v v v n n v v v v v v c c c c c a a a n n n v v v n n N 0 2 8 c c c c c c p c c c p 0 8 8 8 8 8 8 8 8 8 8 1 5 M G M M n D =.=.=.=.*.=.=.=.;.;.=.=.=.=.=.=.=.-.-.*.*.*.*.*.=.=.=.*.#.n _ N M M m 8 1 1 9 n #.#.#.#.#.#.#.$.$.#.#.$.$.#.*.S a 9 9 0 q a c c c c c c c k 0 0 k k k k k k 0 0 k k k k k k 8 8 k n D D D #.$.S S *.*.N k 1 5 5 5 5 5 5 5 8 8 k k k c v v v a v v v v n v 9 2 4 8 4 4 4 c n n n n n v v c c n $.k.oXoX#X;X3X3X3X3X3X3X3X3X3X3X3X3X3X<X:X*X*X:X*X*X*X*X*X*X*X",
">X;X:X:X<X:X&XOX+X+X&X*X*X*X*X*X,X,X1X#X@X.Xk.j.t.*.S v n *.t.d.8.q.9.9.9.8.>.>.;.$.#.S S n n n n n S n n n n n n n v v n v c a 2 2 3 n {.l.v.=.#.#.S n n S #.#.*.*.w.w.N N D M M v m c c v n n w.y.y.G N N D D D D N v n D w.e.D *.*.D S n n *.S n n n n n n n v a a S $.;.;.;.>.>.8.5.5.5.8.u.u.;.*.S S n n n N n v c c c n N N v 8 4 8 9 8 8 8 8 c D i.|.y.w.M c c c m M v m m m c c k 0 k k k h 8 8 8 5 5 5 5 5 5 5 5 5 5 5 8 8 5 5 5 8 8 k h h k k k k k k 8 8 5 5 1 5 5 5 5 5 5 5 5 5 5 5 5 5 5 5 1 5 8 8 v v v v v v v v n n n c 9 8 0 a n n n *.$.$.#.$.=.>.>.d.t.S n v c c v v v v v v a a c c v n n n n v c c v v n n N 0 2 8 c v c c c c c c c c p 0 8 8 8 8 8 8 8 8 5 5 1 8 D G M M N *.=.=.=.=.*.=.=.=.;.;.=.=.=.=.=.=.=.=.-.-.*.*.#.#.#.#.*.*.#._ n N N N M k 2 1 9 n #.#.#.#.#.#.#.$.$.#.#.$.$.*.t.D v 9 9 a c v p c c c c c c c k k k k k k k k 0 0 k k k k k k 8 8 k n D D D S $.S S *.*.N k 1 5 5 5 5 5 5 5 5 k k k k c v v v a v v v v n v 9 p a p p c *.j.@X1X1X1X@X@X@X.X.X,X<X<X3X<X;X;X:X:X:X<X3XJXDXDXDXDXDXDX3X<X;X*X*X&X*X:X*X*X&X*X:X"
};
