/* XPM */
static char *a4323a36e7cf4a0cb2aca47fea97578581TXcwBRj8xqL1rn[] = {
/* columns rows colors chars-per-pixel */
"512 512 256 2 ",
"   c #1C150D",
".  c #1D190E",
"X  c #17130B",
"o  c #1C1612",
"O  c #1E1A14",
"+  c #1E1B19",
"@  c #151311",
"#  c #120D09",
"$  c #231A0E",
"%  c #261A0C",
"&  c #201712",
"*  c #241C14",
"=  c #2A1E15",
"-  c #241D19",
";  c #291F19",
":  c #301F15",
">  c #1D2210",
",  c #28220E",
"<  c #262115",
"1  c #2B2216",
"2  c #26211A",
"3  c #2C241B",
"4  c #2E291D",
"5  c #292916",
"6  c #322516",
"7  c #332A16",
"8  c #31261C",
"9  c #332A1D",
"0  c #3A2D1D",
"q  c #3A2A17",
"w  c #3B311E",
"e  c #36311D",
"r  c #2D3019",
"t  c #252423",
"y  c #2C2522",
"u  c #2D2A23",
"i  c #2D2C2A",
"p  c #272729",
"a  c #312721",
"s  c #342C22",
"d  c #3A2E23",
"f  c #332D2B",
"g  c #3A2E2B",
"h  c #312728",
"j  c #2E3129",
"k  c #363124",
"l  c #3B3224",
"z  c #34312D",
"x  c #3C342B",
"c  c #3E392D",
"v  c #3B3926",
"b  c #2D2E31",
"n  c #322F31",
"m  c #382F30",
"M  c #2E3133",
"N  c #353333",
"B  c #3B3533",
"V  c #3D3A34",
"C  c #363639",
"Z  c #3A363A",
"A  c #3C3B3B",
"S  c #363938",
"D  c #201E22",
"F  c #42341E",
"G  c #45381E",
"H  c #42301C",
"J  c #412F23",
"K  c #423524",
"L  c #443A25",
"P  c #4A3C25",
"I  c #42362B",
"U  c #443B2C",
"Y  c #4A3D2B",
"T  c #493625",
"R  c #513E29",
"E  c #413632",
"W  c #443C33",
"Q  c #4A3E33",
"!  c #423D3B",
"~  c #493E39",
"^  c #423737",
"/  c #513F33",
"(  c #3E413B",
")  c #3B4329",
"_  c #4C422D",
"`  c #4A4128",
"'  c #53442D",
"]  c #59452D",
"[  c #55492E",
"{  c #5B4A2E",
"}  c #524226",
"|  c #454135",
" . c #4C4334",
".. c #44423C",
"X. c #4C443A",
"o. c #4D493C",
"O. c #4D4936",
"+. c #534534",
"@. c #594633",
"#. c #544935",
"$. c #5B4C34",
"%. c #52463A",
"&. c #544A3C",
"*. c #5A4D3C",
"=. c #59473B",
"-. c #5D5135",
";. c #56513E",
":. c #5C513D",
">. c #5C563A",
",. c #535132",
"<. c #624D36",
"1. c #624E3B",
"2. c #684F39",
"3. c #625236",
"4. c #63533C",
"5. c #69553C",
"6. c #64593D",
"7. c #6A5B3D",
"8. c #685737",
"9. c #6A5536",
"0. c #6F613E",
"q. c #3D3D41",
"w. c #383940",
"e. c #413F41",
"r. c #483F40",
"t. c #3E4143",
"y. c #434343",
"u. c #4A4543",
"i. c #4D4A43",
"p. c #444549",
"a. c #4C4B4B",
"s. c #484849",
"d. c #534641",
"f. c #544C42",
"g. c #5B4D42",
"h. c #524D4B",
"j. c #5A4B47",
"k. c #555143",
"l. c #5C5343",
"z. c #5E5945",
"x. c #54524C",
"c. c #5D554A",
"v. c #5D594B",
"b. c #57584A",
"n. c #4D4D51",
"m. c #464B51",
"M. c #524E52",
"N. c #4E5154",
"B. c #535353",
"V. c #5A5554",
"C. c #5C5A55",
"Z. c #55555A",
"A. c #5C5B5B",
"S. c #58585A",
"D. c #4E514A",
"F. c #614E44",
"G. c #635443",
"H. c #695644",
"J. c #645944",
"K. c #6A5B44",
"L. c #63554A",
"P. c #695749",
"I. c #655B4B",
"U. c #6B5C4B",
"Y. c #715D45",
"T. c #715E4C",
"R. c #745B44",
"E. c #645C52",
"W. c #6B5D52",
"Q. c #625C5A",
"!. c #715E53",
"~. c #725F59",
"^. c #5D6159",
"/. c #6D6145",
"(. c #67604D",
"). c #6C614D",
"_. c #696347",
"`. c #736344",
"'. c #73634C",
"]. c #79644D",
"[. c #7B6B4C",
"{. c #766849",
"}. c #656152",
"|. c #6D6252",
" X c #63625D",
".X c #6C665A",
"XX c #736453",
"oX c #7A6653",
"OX c #746954",
"+X c #7B6B54",
"@X c #736559",
"#X c #756A5A",
"$X c #7B6C5B",
"%X c #7A675A",
"&X c #7D715C",
"*X c #7D7155",
"=X c #7D714C",
"-X c #5C5D62",
";X c #595C63",
":X c #615E63",
">X c #5E6165",
",X c #636364",
"<X c #6B6A65",
"1X c #64656A",
"2X c #6C6B6C",
"3X c #686768",
"4X c #746D66",
"5X c #7D7362",
"6X c #75726B",
"7X c #6C6D71",
"8X c #676B73",
"9X c #6D7277",
"0X c #747373",
"qX c #797878",
"wX c #706F70",
"eX c #82734D",
"rX c #826D54",
"tX c #816E5A",
"yX c #886E54",
"uX c #837254",
"iX c #83725C",
"pX c #8A755C",
"aX c #8A7658",
"sX c #957B5C",
"dX c #856B4D",
"fX c #837462",
"gX c #8B7A64",
"hX c #887967",
"jX c #947D64",
"kX c #847C75",
"lX c #806E62",
"zX c #988369",
"xX c #88837B",
"cX c #978875",
"vX c #918670",
"bX c #A58968",
"nX c #AB9275",
"mX c #9E845F",
"MX c #CEA57C",
"NX c #797C82",
"BX c #837E80",
"VX c #7D8286",
"CX c #888887",
"ZX c #97938A",
"AX c #999896",
"SX c #8E8E8F",
"DX c #A49B91",
"FX c #ADA598",
"GX c #B1AEA9",
"HX c #9C9F9F",
"JX c #C5B7A1",
"KX c #CBC6B2",
"LX c #F1C79F",
"PX c #E1E0D8",
"IX c #BEBDC4",
"UX c #7F807D",
/* pixels */
"q q q 0 0 0 0 q d 0 0 q 0 0 0 0 0 q 0 K K 0 q 0 0 H 0 6 q H F H q q 0 w K K K K T T T T T H q q 0 J 0 6 6 q 0 q 0 0 0 0 0 6 6 6 = 6 q q 6 : : 6 6 6 : : 6 6 6 6 = 6 q 9 9 8 8 8 6 8 q 6 6 6 8 9 8 6 8 d d 8 1 1 8 9 9 9 6 1 1 = 6 6 6 : : 6 q d d 0 9 8 8 8 8 9 9 6 : = : 6 6 6 d 0 q q q q q q 6 6 0 d d 9 6 9 6 9 d d 8 6 d I T K d K K J J K I J d d K K K 0 l l 0 0 0 0 d l 0 0 d d d l d d l d l K K K l d d I I d q 8 9 9 d 9 9 9 d d d 9 d d s 9 9 9 9 8 8 8 8 8 8 9 q q 6 6 6 6 9 0 F 0 0 0 9 6 8 9 q = 6 q 9 9 8 q 0 0 d d d d d d d d K K l d l l l l l K l l l l l l l l l l K K K T K T T K K K K L @.Y K L Y Y K 0 9 l U Y I d 9 8 8 v Y L L _ +._ L P Y ' _ T Y +.&.&. .K 9 9 0 w 9 l x l 9 4 4 4 4 s 9 9 0 l K K ' @.+.P Y @.@.P P ' @.' ' ' @.@.L P P K K U K 0 l Y +. .L w w 0 U I I T Y Y K F 0 F T T K J J K d K l d 0 l l 0 l 0 0 0 d d s 9 1 1 1 1 1 3 s s s s s s s 3 ; * 3 y u s 3 3 3 s 8 8 6 1 8 9 d l v v l 0 0 0 0 0 l 0 8 8 0 l l 0 6 6 w l 9 9 0 8 v l l l d 9 8 9 8 8 3 3 s s s 3 8 s 8 8 3 3 3 8 8 6 6 0 K L K 0 0 7 6 q 0 q q 0 ",
"q 6 6 q 0 0 0 q 6 6 q 0 q q q q T K T T K 6 6 0 H H H 0 H K K H G G K K K K K I T K K K T K H H H K J 0 0 0 0 q 0 J K K J 0 q 6 0 0 q q 6 6 : = 6 6 6 6 6 6 6 6 q 9 q 8 8 8 8 8 6 9 9 9 8 q 9 9 9 9 s d d s 8 8 d s 9 6 = = 1 6 6 0 0 0 q q 0 K U l 9 8 8 0 9 8 = 6 9 9 8 6 : 6 0 0 d d d 0 K K K d 0 0 0 0 d J I J d K I I I T K 0 0 K K K K T I J d d l w 0 0 l l l l l l K K d d d d d d d d d d d l K K K l q 9 q 6 6 0 d l I l d d d d d d l l d d d d d 9 8 8 s 9 9 9 9 0 0 0 0 q 0 0 0 q 9 6 6 0 0 0 d d 9 0 d d d d d d d d d d d d d d d d d d d w l K K K l l l l K K K l l l l l F F T K K K K K L L Y K F F Y ' ' Y U I l 0 8 8 8 8 9 d l v  .:.#.` ' ' +.@.@.+.@.$.Y _  .Y v 9 6 6 7 9 s s 8 4 3 4 3 4 4 1 8 l U L @.$.$.@.*.H.H.$.$.4.4.$.$.5.H.5.H.K.G.*._ U Y  .U  .&.+.Y L L v T K K T Y Y L F w F K K J d J J I U I K l K l 0 l d d d d d d d 3 1 1 = = 1 1 3 1 1 1 1 1 1 3 3 3 3 3 3 s s 3 < 3 3 8 9 9 9 9 9 9 0 9 0 0 l l v l k 9 4 8 k I _ U I _ _ L v v 0 d 0 9 s s 9 9 s s 8 3 3 3 8 s 8 8 8 8 3 3 8 s s 9 9 0 K Y  .Y T q 7 q 0 0 q q 0 ",
"K J 0 0 K K H q 6 q 0 0 0 0 J K / +.+.+.K q q K K H H F T T K F Y ' ' ' T K K K J K K K K T T Y R T K K K H 0 H 0 K T K H K J 0 q 6 6 6 q J J J K J J H H 0 q 6 0 0 q q q q q q q 0 d d 0 0 0 d d d d K l d 9 9 K d 0 6 6 6 9 d d I Y Y K K I Q +.U 0 9 l K K l q d d d 0 q q 0 Y Y Y T K J I Y Q T 0 0 0 0 K T @.Y Y +.=.=.+.Y T K K K T T I I I I I I T K K F K J K K H 0 0 0 d d K d d 0 d d d d d d d l l l 0 q 6 6 0 I Q Q +.Q I K K K K K l d d 0 d d 0 d 9 d x K d d l I q 0 0 0 0 l l 0 0 6 q K K 9 d Y d 0 0 d K K K d d d d 0 d 0 0 0 0 0 l l 0 0 l K Y Y Y U T K K K L L K K K K K w P T K K Y ' +.' @.' P P ' @.$.@.#._ K 0 0 0 l l d 0 w Y $.>.#.` $.$.4.4.*.@.@.*.$.-.4.-.+.L w 0 0 8 8 9 9 4 3 4 8 9 9 9 l Y +.+.$.$.4.5.H.`.`.K.H.7.3.-.5.K./.H.K.G.4.4.+.U U  . .%.&.&.+. ._ U Y P K K Y Y K q F F K d d x K I I U U K K K l 0 w l l l g d d d 8 8 1 = = < 1 1 1 < < < 1 1 3 3 3 3 3 4 8 3 3 < 9 d l I I K l 0 l v K I U _  . . . .Y I l v  .&.+. .&.&. .Y U v 0 9 8 0 s 9 s l l 9 3 8 8 3 8 s s 9 s 8 9 9 d l K L Y  .@.#.@.#.P P Y Y T H q H ",
"Y T T T T T K K J J J K K T / @.$.1.1.$.R K T R F q q T Y Y P P @.$.*.@.R K 0 q 0 T T K H T R R 1.R K K K q q 0 0 K T 0 0 T T K q q 0 F Y +.=.=.$.=.+.R Y P K K q q q 0 0 d 0 0 d d d d d d l l d d d d d 0 d d Y I K d 0 d I Y I Q =.%.+.Q +.&.=.Y K K T  . .Y Q Y Y T I Y +.+.=.@.Q T T T +.@.@.+.Y Y Y Y L K +.@.*.1.$.@.@.@.+.Y T T T K K T T Y +.+.Y Y Y Y T T T T K K 0 0 d 0 K J d 0 d K K l d d d d l l Y U I I Q +.=.=.=.+.+.Y Y Y Y T 0 0 q 9 q q q q d d K K K K K I 0 0 0 0 l K K l K l K T d q 0 I d 0 9 d K K d 0 0 0 0 0 d l l K l T U T v w L Y +.+.+._ ` Y P P Y ` _ ` _ ' _ Y ' ' ' +.$.-.4.4.4.$.' ' @.$.*.$.4.-.#.+.+._ T L L Y #.:.4.-.-.4.3.3.4.3.4.3.$.4.@.@.$.-.-.$.@.@.U w 8 0 e 4 3 8 s l l L _ #.$.*.4.3.4.7.K.K.H.H.H.7.4.3.5.K.K.5.K.4.$.G.J.G.+.U  . .+.&.*.$.#.+.+.' R Y ` ' P K K F 0 0 d K I I d K K d 0 l K l l K K l d d d d d s 8 3 1 3 3 3 8 8 8 8 3 3 1 1 3 4 9 8 3 3 9 l Y Y  .+.@.+.+. .+. .+.#.&.#.&.&.#.&.*.&.+. .+.&.#. .&.&.+. .#. .v l l l l d d l d 9 8 d s 8 8 d d l l v I I U Q  .+.&.&.=.=.=.@.@.@.*.$.@.' P P ",
"K T T T K H K T T K K T / =.*.*.4.1.1.1.$.] @.<.R F H R ' ' ' ' <.-.*.+.T 0 q q H R +.Y T P ' @.1.R T P T 0 q q H T Y F T R ' P P R ' @.@.$.4.4.G.1.$.@.' ' R Y K l 0 0 0 0 0 0 l l 0 0 l l K K J J J 0 0 K T T Y Y Y T T Y / @.Y Q  .%.%.=.&.=.=.#.+.+.@.#.=.=.=.=.@.@.F.P.P.F.Y P T Y @.-.G.K.*.*.*.*.*.@.' L +.*.G.4.=.' ' +.@.' T I T K K T I Q @.=.@.@.#.=.#.#.@.+.' Y T T K K K K K d K T K K l l l K T U +.+.@.&.=.@.+.+.+.+.+.@.@.@.+.Y 0 0 0 q 0 q 0 q J 0 0 K K K K l l l d 0 d v K K U Y Y K 9 6 0 K U l 0 l K l 0 9 0 0 l K K U Y Y Y _ +._ U L Y ' ' ' ' ' ' @.@.@._ @.$.-.4.6.4.-.@.$.4.5.G.4.5.5.K.3.4.3.H./././.H.K.K.G.*._ T w K Y @.$.' P } { $.$.3.4.3.5.5.5.H.3.3.3.4.$.$.-.#.U 0 0 0 9 8 8 8 l U _ #.-.4.4.5.3.3.7.7.3.3.5.7.H.7.7.7.K.K.7.K.H.5.5.'.XX*.K U U Q %.g.G.l.:.=.$.*.$.@.*.4.-.Y L K l I U W W d d d 0 l K L L T T K l d d g g l d 9 8 8 8 9 s s s s 8 8 8 8 8 s 0 9 9 0 L  .&.&.&.&.&.&.#.=.$.&.#.&.#.&.#.+. ._ +.&.$.&.#.&.&.&. .&.&.&.&.:.&. .Y Y U I l d l 0 0 l U I w 0 w 0 l I  .+.&.&.*.@.@.*.$.$.@.@.$.] @.$.<.4.4.$.@.",
"R +.+.Y K 0 F T Y P Y +.1.G.G.*.1.<.<.<.<.1.1.<.$.] ' ] @.$.@.$.4.@.' K H 0 H F Y $.1.R T ' $.$.] R R ' ' T H H F P ' ' ] @.] R ] ] $.$.$.$.<.3.4.$.] ' ' ' R ' ' Y K q 6 9 0 K l w l l K K K K K T T T T Y +.+.R +.+.+.@.=.=.=. . . .%.&.*.*.*.:.l.G.:.*.*.=.*.=.4.J.J.J.G.@.T K K _ *.K./.U.K.4.4.$.@.@.@.' P @.$.$.@.+.' ' Y @.' T T T K K K I Y +.@.@.#.=.*.$.$.$.$.=.@.@.@.T F 0 K K K d K K K K K U T  .+._ +.@.&.+.T T T T P R ' @.+.+.' T K K F K F K F K K F K T Y T K 0 q 8 6 8 l v K Y +.+.K 9 9 l T +.U K T U K l l l l K U Y _  .+.+.@.#.@._ _ ' @.$.[ [ [ [ [ @.@.$.4.6.6.J./.K.4.-.5.K.G.4.$.$.$.4.4.3.5.K.K././.4.3.4.4.@.` K F P ` ' ' } } P } 3.3.3.3.3.3.3.3.4.{ ' { $.$.$.4.>.+.L w w w 0 9 6 v +.$.4.5.H.5.H.7.7.H.H.7.7.H.5.H.K.K.H.H.H.H.4.K.K.4.5.U.J.+.K K I  .g.G.L.I.4.K.K.H.5.H.K.K.:.#. .Y  .+. . .l l l K Y  .+.Y  .Y K l K K x x l d d d s d d l x l d l l I Q  .Y v 9 w _ >.J.J.:.$.#.+.' +.+.@.#.#.#.#.#.+.+._ #.@.+.@.#.#.#.@.&.#.#.&.#.&.&.&.&.+. . .Y v s 0 9 v _  . .Y I L U _  .&.&.&.&.*.#.$.*.*.*.$.$.$.$.1.<.4.5.K.5.4.",
"4.5.G.$.' P Y ' @.@.$.4.G.H.4.$.<.$.$.$.<.<.<.<.<.<.<.<.<.1.<.@.' P F q 0 G Y ' $.4.$.P P $.3.<.] ] ] $.@.R T P R ' ] ] ] ] ] ] ] ] ] ] @.<.2.4.2.<.$.] ] ' R R ' ' Y F q 7 0 K K K T Y Y Y T K T R +.' ' +.=.@.+.@.$.1.1.*.$.$.&.&.&.&.&.*.l.G.G.G.G.4.1.$.*.*.*.K.U.G.+.P K 0 @.$.G.U.'./.5.$.@.@.@.' ' +.+.' @.@.+.' +.@.+.` +.' Y Y Y I K K T Y +.@.=.@.@.$.@.@.@.@.@.@.@.$.Y K F T P K K F T P T T Y _ @.#.+.' +.+.Y K K K F G Y ' +.@.@.@.' R R P Y P P P P P Y ' +.@.+.+.T K 9 1 3 s x I  .+. .U w 0 U +.$._ U Y Y L T T L P Y Y _ _  ._ @.@.@.@.[ ' @.@.$.$.{ [ [ [ $.$.5.K.J.4.4.6.6.-.$.-.-.$.@.[ ' ' ' ' [ [ { { $.$.-.3.3.4.4.$.' P 4.7.K.7.7.7.7.8.Y.`.Y.7.8.8.8.<.G H q G } { 3.K.5.-.` w w L U K w _ G.J.H.7.H.H.7.7.7.5.3.7.7.7.3.5.7.7.7.7.7.7.3./.K.7.G.U.).P.Y T K U  .&.g.G.H.`.`.H.5.H.K.H.K.4.#. . . .Y U 0 0 K T @.:.$.+.=.R T J K K K d l l l l l l l l U U U Y  .#.&.*.#.` L ` $.J.J.G.-.#.$.@.@.@.@.@.$.$.*.$.-.*.*.*.4.4.-.$.*.$.$.$.:.#.#.#.#.#.&.+.$.&.*.*.+.U d 9 w _ &.&.&.#.#.+.*.:.:.:.*.$.&.&.-.-.4.4.4.4.5.4.5.K.K.5.5.K.7.4.",
"H.H.H.5.4.4.5.H.4.4.4.4.4.1.$.$.<.<.<.<.$.$.$.$.] <.1.$.$.1.<.] G F q q G ' ' @.4.4.] F P <.5.{ 2.2.<.<.] ] ] ] <.] ] ] ' R ] <.3.<.] { <.5.5.7.5.5.3.2.<.] } P P _ ' Y F 0 0 0 K P ' #.$.@.Y K T ' $.$.=.$.$.@.$.*.4.4.4.4.1.*.&.&.*.#.+.+.*.G.4.-.1.*.4.4.1.*.1.U.).@.F 0 Y @.K.`.'.OX`.K.-.@.+.@.#.+.' #.=.=.+.=.=.+.' +.@.@.@.+.+.@.+.Y T K +.@.=.@.@.@.@.@.$.$.@.@.@.@.@.@.$.' P ' +.Y P P Y R ' ' _ ' +.@.*.@.+.+.Y K K K F T P ' ' @.$.$.@.@.' ' ' ' ' R R R ' @.@.$.$.*.G.*.Y d 8 s l l &.+. .Y L w Y -.$._ P Y Y T U  .Y _ _ _ _ _ _ ` ' ' ' ' [ [ @.[ [ [ [ [ { >.5.K././.J.-.$.>.-.[ @.' ' ' ' ' ' ' { { $.-.-.3.5.7.7.8.7.K.`.K.$.' $.K.[.{.`.`.{.`.{.[.{.{.{.{.{.`.`.3.} } ' [ -.7.5.5.+.K K  .#._ L #.K.K.7.3.3.5.4.5.3.-.-.3.3.3.7.5.7.7.7.7.7.7.5.5.5.5.5.5.G.G.#.Y K K I U  .@.5.H.H.4.4.H.K.K.J.$._ U L v w 7 6 6 0 Y *.K.4.+.*.' K 0 d K J d K K I I I K K K K U  .&.$.$.&.+.@.$.-.-.$.$.-.-.$.-.-.>.4.4.4.-.4.4.4.5.5.G.K.K.4.4.5.5.5.5.4.5.K.:.:.:.$.$.:.&.*.*.l.l.*.Y l 0 L #.:.$.&.:.G.:.:.:.:.:.:.:.G.G.5.5.5.5.K.H.5.5.4.K.K.5.4.5.7.7.",
"5.5.5.5.5.5.5.5.4.4.4.4.4.4.3.<.4.3.4.3.4.3.4.<.1.<.<.1.1.@.R F F q q K P } ' @.@.@.{ { $.<.<.{ { { { { { { { { ] ] ] } ] { <.9.9.{ ] { 9.9.9.7.9.5.7.5.3.{ ] } ' ' +.' Y T F 0 K ' @.' ' +.R F P ' @.$.$.$.$.] <.<.1.4.1.<.<.$.&.&.&.&.&.#.@.@.*.@.@.$.$.@.<.H.U.G.+.0 q P 4.K.'.'.`.`.K.-.$.@.#.#.@.=.=.=.=.=.=.=.#.@.@.=.=.=.*.=.=.@.@.Q T K @.=.=.#.@.$.$.$.$.$.$.$.$.@.@.@.$.$.$.$.@.@.+.' P ' +.' Y ` +.@.+.@.@.@.@.' ` Y R ' ] $.$.<.<.4.4.4.4.4.4.4.<.<.1.1.1.1.1.4.1.:.G.G.G.*.Y d d I &.*.*.Y 0 K #.>.$.@.+._ _ _  . ._ _ _ +.+.+.' ' @.[ @.@.[ @.$.-.3.-.3.5././././.'.4.$.-.4.-._ P G G P ' { $.-.-.5.5.5.7.7.7.0./.7.8.8.7.K.7.3.{ 3.5.7.7.7.`.`.`.`.{.{.{.{.{.`.{.Y.`.K.5.-.$.3.7.5.K.4.` Y #.$.+.L :.K.4.3.$.$.$.' ' ' ' ' { { ] ' ] { @.$.$.3.3.$.3.3.$.$.@.$.4.@.+.T K K U U K *.5.K.U.K.H.K.K.).:.K 0 v L U _ K F F L ' $.@.@.' Y K F 0 0 K K K U U U U L U U _ _  .+.#.#.#.+.@.[ $.-.3.4.4.4.4.4.4.6.5.5.5.5.5.5.5.5.5.5.5.5.5.5.5.5.5.H.H.K.G.K.J.K.>.>.l.l.:.:.:.:.l.*.Y 0 _ #.:.:.$.:.>.:.$.J.K.:.#.:.>.>.4.4.4.5.5.5.5.5.7.7.5.5.7.7.7.H.",
"H.H.H.H.7.5.5.5.3.4.4.4.4.4.4.4.3.4.3.<.3.<.<.<.@.$.<.<.$.R T 0 q q F P P P ' $.3.3.3.{ { { { ] <.{ { { { { { { <.{ ] ] { <.5.7.5.{ ] <.9.9.9.7.7.7.7.9.<.{ ] ] ' +.@.@.' Y P F P +.$.@.@.@.' G P ] $.$.{ { ] ] <.<.$.$.$.] ] ] #.#.#.#.@.+.+.+.` ` ' @.$.4.5.`.K.' 0 0 ' 4.K.K.H.5.5.K.K.-.[ @.@.@.#.#.=.=.=.=.=.=.=.=.@.@.@.@.@.@.@.#.=.+.Y I +.@.$.$.$.-.-.$.$.$.$.$.$.$.$.$.$.$.$.$.@.] ' ' P ' +.' Y ` +.@.@.@.*.*.*.$.@.@.@.$.<.2.<.4.4.5.4.<.<.<.<.<.<.<.<.<.<.<.$.$.@.@.=.$.l.l.%.U x I Q Y Y l 0 ` -.>.@.@.@.@.@.#.+.+.+.' ' +.@.$.-.4.6.5.5.K.K.K././././.`.`.{.{././.4.$._ L w w w L @.$.$.3.4.5.5.5.7.7.7.7.7.7.7.7.7.8.8.8.7.8.$.{ 4.4.3.5.8.8.7.7.0.0.`.{.`.`.`.`.K.Y.K.8.3.$.$.$.5.K.4.' _ :.-.@.L :.4.-.$.{ } } ' ' ' ' ' ' ' ' ' ' ' ' ' ' ' ' @.$.$.@.{ ' @.$.G.*. .K l K l d T ' 4.K.K.G.-.$._ L w l _ +.+.:.' ' ` ' @.$.@.[ $.@.' ` Y Y Y ' l l K L U _ _ _ #.#.#.$.:.:.-.$.3.5.7.0././.K.K.6.6.3.>.3.3.>.>.5.5.5.5.5.5.5.H.H.K.K.K.K.K.K.K.K.J.J.>.-.:.:.:.:.$.*.*.:.$._ l _ #.:.$.#.$.$.$.#.:.$.Y F P #.:.$.*.-.4.4.4.5.5.5.5.5.5.7.H.K.K.",
"5.5.5.4.4.4.4.4.4.4.4.3.3.3.<.3.<.$.$.$.$.$.$.$.$.1.$.@.Y K 0 q q G Y ' } } { 3.Y.7.8.<.{ { { { ] ] ] ] ] ] ] ] { ] ] ] { 9.9.5.5.{ } ] ] } R } ] ] } } R P R R ' ' @.@.@.R P G P ] $.] ' @.' G P ' ] ] ' ' ' ' ' ' ' ' ] $.$.$.$.$.$.@.@.+.' ' ' @.$.*.5.K.K.K.@.0 6 ' K.'.K.H.$.$.$.5.K.4.$.@.@.=.=.=.=.=.&.=.@.=.&.*.*.*.*.=.@.@.@.=.&.+.Y T +.@.@.@.@.$.$.$.$.{ -.-.-.3.3.3.$.$.$.$.@.{ ' ' ' $.$.@.' ' @.$.@.@.@.$.$.$.$.$.$.$.$.$.$.$.$.<.$.$.$.$.$.$.$.$.{ { { { { @.@.@.+.+.&.:.l.&.Q U d q 6 6 0 #.K.-.$.$.$.$.:.$.#.+.$.$.$.-.4.K./.'.K.K.K./.'.{.OX{.[.uXuX+XoX[.'.K.$.[ L 7 , 7 L $.5.5.5.H.K.K.K.K./././.K.K.7.7.7.7.8.8.8.7.5.-.@.3.3.3.3.4.3.3.5.5.7.Y.`.`.Y.Y.Y.K.K.K.K.5.-.@.[ @.-.@.P ` :.G.$.P $.-.$.@.' } } ' ' ' ' ' ' ' ' ' ' ' ' ' ' ' ' ' { { ' ' ' ' @.5.K.4.+.K K I U 0 w L _ _ _ U L 9 l K Y $.-.>.J.K.K.K.K.K.7.7.3.4.4.-.$.@.+.+.+.K K K U  .+.#.@.$.$.$.-.-.>.4.4.8.7.`.{.{.{.`.`.`./././._./._._.K.K.K.K.K.K.K.H.K.K.K.K.K.K.K.K.J.4.-.$.#.#.@.@.#.#.#.#.$.$.+.T _ @.#.#.+.+.@.@.#.$.@.L 0 F ' -.+.+.@.#.$.$.$.$.$.-.4.5.H.H.H.7.",
"$.$.$.$.$.-.3.3.4.4.3.$.$.$.$.$.$.@.{ { $.$.$.@.G.*.' T 0 q 0 0 K Y ' ' } } { 8.`.`.7.3.{ { { { { { { { { { { { { ] ] { 9.5.9.9.5.<.] } R R P R R R R R R R R ' R R ' ' ' R P G P ' @.' ' ] ' T P ' ] ' } ' ' ' ' R ' ' ] $.4.5.4.4.4.-.-.$.$.$.5.H.H.5.H.`.H.<.q q ` U.oXK.4.4.@.[ @.4.K.H.4.$.@.=.=.=.=.=.&.&.=.=.=.=.=.=.=.=.@.@.@.=.&.+.Y T +.+.+.' ' [ $.{ -.-.-.{ { $.$.{ { { $.$.$.$.$.$.$.4.4.-.$.@.@.@.@.@.@.@.@.@.@.$.{ { @.@.{ { { { @.@.{ { { { { { { { { { ] ' ' +.@.+.@.#.=.&.@.+.d % % 6 L $.4.-.-.$.$.$.$.#.#.+.$.-.4.K.K.K.K./.).J.5.K.K.K.4.3.H.{.oX'.K.K.K.$.#._ w , , L &.G.6.4.3.5.5.7.K.K.K.K.K.7.5.5.3.4.8.3.3.3.4.4.$.@.$.$.$.$.$.$.$.$.<.3.4.3.5.7.K.K.K.K.K.K.K.5.*.@.` ' P w w +.l.:.+.>.4.$.$.{ ' { ' ' ' ' ' ' ' ' ' ' ' ' ' ' ' ' ' ] [ ' ' ' ' @.@.H./.4.Y l K U l l w w l l 0 9 7 K _ @.>.6.5./.+X+X*X*X+X[.[.[././.K.7.3.-.$.@.+._ Y _ +.#.#.@.' [ $.-.4.5.K.K.{.{.[.uXuXuX*X[.`.`./.`.'.{.`.'.'././././././././././././.K.K.K.K.4.$.@.#.@.+.+.+.+.+.+.#.$.#._ ' @.#.#.+.+.@.@.+.$.$._ P Y +.#.+.+.+.+.+.+.@.+.' ' $.3.4.4.4.4.",
"@.$.$.$.$.$.-.4.4.4.$.$.$.$.$.$.$.$.@.$.$.*.1.*.*.+.T 0 q 0 J K P P Y P } { 8.7.`.`.`.8.3.{ { { { { <.<.{ { $.$.] ] { 3.5.5.3.<.$.] R ' ] ] ] { <.$.$.{ { ] ] ' R R R ' ' ' R R R ] ] ] ' ] ' P P } ' ' ' ' ' ' ' ' ' ' ' @.$.4.5.3.5.3.5.5.3.5.5.H.H.H.U.K.@.K % P K.oX`.4.@.@.@.@.@.$.5.K.5.4.@.=.=.@.@.@.@.@.*.=.=.@.+.+.@.@.@.@.=.=.=.=.+.Y @.@.$.@.@.$.$.{ { { { { { { { { { { <.3.3.3.3.5.4.4.4.3.4.$.@.' $.$.$.$.$.$.$.$.$.$.$.$.$.$.@.@.@.{ { { @.@.{ { { { @.@.{ { @.@.+.+.+.+.+.@.=.=.Q = % K @.-.-.-.-.$.[ [ @.$.$.-.G.G.K.J.J.J.J.K.K.J.-.$.[ ` F q -.K.`.H.5.G.:.#.+._ l , , e _  .:.-.-.3.4.4.5.5.4.3.-.-.-.$.$.{ { { { { $.@.+.' @.@.@.+.+.+.@.@.$.$.$.$.<.4.7.K.K.H.H.K.K.K.K.4.$.$.` 0 w _ #.#.&.J.K.4.5.-.' ' ' ' ' ' ' ' ' ' ' ' ' ' ' ' ' ' ' ' ] ] ' ' ' { ' 4.K.4.+.T q 6 9 9 0 l v l 0 1 9 L _ @.4.K./.[.{.{.[.[.[.[.[.[.[.[.[.{.{./.H.K.4.$.@.@.@.$.@.@.' @.-.3.7.K.`.`.[.[.[.[.[.[.[.[.[.{.{.{.{.{.'./.'.).)./././././././././.K.K.K.K.4.>.-.:.-.-.$.@.@.#.@.+.+.#.@._ +.+.@.#.@.+.+.@._ +.+.+.+.+.+._ +.O.+. .+._ _ _ Y _ +.#.$.$.$.$.",
"@.@.@.@.@.@.@.@.@.@.@.@.$.$.$.*.$.$.$.$.4.-.*.*.T K 0 q 0 K K T Y P ' ' { 8.`.{.`.{.{.`.0.0.7.9.3.3.3.3.3.3.3.3.5.5.7.Y.`.`.7.5.$.] @.] @.$.<.<.<.<.<.2.1.<.$.$.<.<.$.$.] ] R P R ' ] ' R ' R P G P } R ` ' ' ' ' ' ' ' ' @.3.4.5.5.8.8.7.7.7.7.H.K.K.K.K.$.F % 0 @.'./.4.*.@.+.@.@.@.@.-.5.K.5.$.@.@.+.+.+.+.@.+.+.' ' +.@.@.$.G.*.*.=.=.+.Y T +.$.4.G.5.5.3.-.3.3.3.3.3.3.8.8.3.8.3.5.7.7.K.K.H.3.4.5.H.5.3.@.3.-.$.$.$.$.$.$.3.3.3.4.4.3.$.$.3.3.3.3.3.3.3.3.$.$.$.$.$.$.$.$.+.$.*.$.@.@.$.=.*.d q +.4.-.-.-.-.-.$.-.-.4.K.J.*.$.@.+.' +.@.#._ ` ` ` P F 7 , ' $.4.*.$.*.#. .K L l 1 $ < 8 l +.@.$.$.-.-.-.$.$.$.{ { { [ [ [ $.$.$.$.$.$.=.@.=.$.=.=.@.@.@.$.@.@.@.@.@.$.4.G.G.4.4.4.J.J.J.J.)._.$.L w `  .` U #.:.J.K.3.{ ' @.+.' ' ' ' ' ' ' ' ' ' ' ' ' ' ' ' ' ' ' ' ' ' ' ' ' @.*.=.T 1 = * * = < < 1 1 d U _ _ $.5.K.`.0.`.`.`.`.0.0.0.`.{.{.{.`.`.`.K.G.4.*.$.$.$.$.@.@.-.5.7.K./.`.`.`.`.`.{.{.{.[.[.uX[.[.{.`./.7.5.5.6.6.4.4.4.4.4.K.K.K.4.4.4.4.4.4.4.4.4.6.6.4.4.$.:.-.$.#.#.+.+.+._ _ _ _ Y Y Y Y T L T Y Y Y U _ _ _ ` U L L L Y _ ' @.#.#.@.@.",
"' ' ' ' ' @.@.@.@.@.@.$.@.@.@.@.[ [ @.@.@.+.' Y 0 0 0 0 0 d l K P ' @.-.5.`.{.{.`.`.`.`.{.{.`.0.Y.Y.K.7.7.7.7.7.K.Y.`.`.`.`.K.K.4.1.*.$.$.$.@.@.' ' @.$.1.4.1.$.4.<.<.<.<.$.} P ' ] ] ' ' ' ' R P ' ' ' ' ' @.' ' ' @.@.-.4.G.7.5.9.8.8.8.8.7.7.K.H.K.4.+.w 6 % +.G.'.K.*.*.$.#.#.@.@.@.$.4.K.5.4.-.@.+.' @.@.$.+.@.@.*.4.5.K.K.K.G.=.+.Q Y T T Y #.4.G.K.K.K.7.`.0.0.0.0.0.0.0.7.7.7.7.7.7.7.K.K.3.@.3.K.K.7.3.$.$.$.$.$.$.$.$.4.-.-.4.4.-.$.@.$.$.$.$.$.$.$.$.@.@.@.@.@.@.@.@.' @.@.@.@.@.$.=.=.I I +.$.$.-.-.>.3.4.6.4.>.$.#.K w 0 q 7 7 7 q 7 w L ` ' ` P L P Y Y Y Y P K l l 0 8 3 1 = < 8 K L ` ' @.@.@.' [ ' ' ' ' ' ' ' [ ' ' ' ' +._  . .+.+. .Q Y _ _ Y P Y P P P Y Y _ _ _ _  .+.+.+.:.4.:.` ` #.#.U v _ +.#.4.-.{ $.@.=.+.+.' +.+.+.+.+.+.+.+.+.+.+.+.+.' ' ] ] ' ' ' ' Y +.4.G.*. .l s 3 * $ & & * l U T Y $.5.5.7.`.0.0.0.0.0.7.7.7.7.7.0.7.7.7.H.K.J.4.4.*.$.*.-.4.5.K.`./.`.`.`.{.[.eXeX=X[.{.{.8.8.3.-.$.{ [ ' @.@.+.+.+.@.+.@.#.#.$.$.$.$.$.$.$.$.-.-.-.-.-.4.4.K.J.K.4.4.:.*.#.+. .+. .Y Y Y Y Y T U T Y Y Y Y Y Y U U U U L _ _  .+.+.+.@.+.",
"' +.+.@.@.$.*.*.$.$.$.$.@.@.+.+.Y P Y Y Y L K w 0 0 d 9 6 8 d I K ' 4.H.K./.`.0.`.`.`.7.7.8.3.{ $.$.$.@.{ ] ' ' } ' ' R P P P P T P P T K K K F K F F K P P P T Y ' @.*.5.5.<.] $.*.$.$.$.$.$.@.@.-.4.4.:.:.:.-.4.4.G.G.G.K.J.H.7.7.7.7.H.H.H.H.4.$.+.Y 9 % 1 0 4.K.'.K.4.@.@.@.@.$.$.$.$.4.5.5.5.4.$.@.{ $.$.3.7.7.K./.K.K.K.H.*.@.Q T T T Y Y Y ' @.$.4.K.'.{.{.{.`.`.`.0.0.0.`.`./.K.7.7.7.7.H.@.P ' 3.H.7.3.-.-.3.3.3.3.3.-.4.-.-.>.>.-.$.+.P P P P Y Y Y Y P P P P Y Y Y Y Y Y T T Y +.@.+.+.Q Y Y _ $.4.-.-.>.4.4.$.` w 7 w w l w 0 0 9 7 9 K _ $.l.l.*.$.*.=.@.@.+._ T U Y 0 1 1 8 3 = % % 6 w U _ +._ ` Y Y ` Y P P P P w w w 0 0 q 9 9 0 0 d 9 q 8 8 9 7 q q q 6 6 1 1 6 6 6 6 1 6 8 8 0 U  ._  .k.:. . .O._ ` ' _ _ [ 4.$.=.+.+.@.@.@.+.+.+.+.' ' ' ' +.' ' ] @.] ] ' ' { @.' +.*.G.P.I.z.k. .x 8 = $ 9 l K Y -.K.K.K.`./.0.0.0.0.0.0.0.0.0.7.7.K.K.K./.K.J.G.-.-.-.-.K./.{.+X{.{.{.[.uXuX+X{.`.5.$.[ ' } ' ' [ [ [ [ ' ' ' _ _ [ [ +.[ [ [ [ +.[ +.[ _ ' ' _ _ [ #.:.G.K.).).).).).U.I.l.*.*.*.+.+.+.+.+.+.+. ._  .+. . . . . . . . . . . ._ _ ' +.+.",
"+.@.@.=.@.@.+.Y R +.=.=.=.@.Y T U U Y Y U x d 9 d 9 8 < = < 1 6 w ` 4.5.>.6.6.$.' ` P P L L K l l w 0 0 0 0 q 9 9 9 6 6 6 6 6 9 6 6 6 6 6 6 9 9 9 9 6 6 9 9 9 9 0 0 d l U Q  . .+.+.=.%.+. .Q  . . . . .+. . . . . .+.+.%.#.&.&.&.&.=.+. .Q Y U l d l I 8 & 1 Y '.`./.K.H.5.3.4.5.K.7.3.3.K.K.5.8.8.8.7.`.`.`.`.[.{.{.`.8.3.{ ' P P L L L L L L P Y ` ` ` ' -.K.`.{.[.[.{.`.`.`./.K.4.:.:.*.#.+.K 0 q K +.5.K.0.7.7.7.7.7.7.7.K.J.J.G.:.&._ K 0 9 9 9 0 0 9 9 9 s s 9 9 s s s s 9 9 9 9 d l l l K K Y @.+._ #.$.4.@.' P K K F l l l d 9 9 8 8 8 d K Q  .+. .+.+. . . .+.#.#.#.#. .U v 0 8 1 = = = = 1 8 8 0 8 3 8 7 7 7 7 7 6 6 1 1 1 1 1 < < 1 1 1 1 1 ; ; 1 1 < < < < < < < < 3 3 3 3 3 3 3 3 3 3 3 8 s x I W  .#.&.#._ ` _ ' -.4.-.[ ' $.@.' [ ' ' ' ' ' ' ' } } ' ' ' ' ' [ ' ' ' @.$.4.4.4.4.6.J.K./.K.L % 6 0 l T #.G.I.J.K.J.J.J.J.5.5.5.4.6.K.K._.)._._././././.).'.'.'.OXOXOXOXoXoXoXoX*XOX/.4.@.` _ [ +.' _ _ [ [ ' _ [ [ [ [ ' ' O._ _ _ _ _ O.+.+.+.#.&.$.:.:.:.:.:.l.z.J.I.U.).U.K.G.G.G.*.&.@.+.+.Y Y Q  .+.+.+.+.+.+.+.+.+.+.+.+.&.#.&.@.@.@.+.+.",
"0 0 0 0 0 q 6 6 = 6 q 0 0 d 0 0 d s d s s 8 8 3 8 3 < = = = < 1 6 G #.-.-.>.-.L 7 6 6 6 6 6 8 1 8 8 8 8 8 8 8 8 8 8 8 3 1 1 8 8 1 1 1 8 6 8 8 8 8 8 8 8 8 8 9 9 8 8 8 8 s s d s 8 8 s s 8 8 8 s 8 8 9 9 9 8 8 8 3 3 8 8 8 8 8 8 s s 8 8 3 3 1 1 s 8 3 8 1 1 W l.5.7.'.{.{.K.-.[ -.7./.K.K./.`.K.{.{.{.{.[.{.{.`.7.8.8.3.{ } G G L L L L L P P Y P Y Y P P ` +.$.7.7.7.8.4.-.$.$.P L v l l l 0 8 8 1 1 9 Y 4.`.[.{.{.{.{./._.6.6.:.&. .I l 8 1 1 8 8 8 8 8 8 8 8 8 8 8 8 8 8 8 3 8 8 3 8 8 s s s 0 q K +.+.T T T T T T K K K K l d s s 8 8 3 3 3 8 d x I I x x I I I I I Y _  .+.` L v 0 8 1 = = & * = = < 1 < < 1 1 1 1 1 1 1 1 3 1 1 1 1 1 1 1 3 ; ; ; - - - ; 1 1 1 1 2 1 1 1 1 1 3 3 3 3 3 3 3 3 1 1 1 3 8 8 l I  . ._ ` _ ' $.5.K.4.-.-.{ ' ' ' ' ' ' ' ' ' ' ' ' ' [ { { { $.$.$.$.$.$.$.$.{ { -.3.0._.$.F 6 7 0 l U  . . .U L L L L L L L U Y _ _  . . ._ #.+.+.+.#.#.#.#.#.#.#.#.#.#.#.&.&.:.k.:.&.#.#.#. . .#.+.+.+.' ' +.+.#.#.#.+.+.+.;.;.:.:.:.:.>.>.&.&.&.#. ._ Y U _ _ _  . . . . .U I I K l d 0 0 9 q 0 0 0 0 d d K K K K K K K K l l l w 0 0 0 0 ",
"1 = = = = % % % % % % % % = = = 1 < = = = = < < = = = = = = = 1 , w [ >.>.>.' q 6 7 7 9 9 9 9 d 8 8 8 8 8 8 8 8 3 3 8 3 3 1 1 3 1 1 1 3 3 8 8 3 8 8 8 8 8 8 8 8 3 3 1 1 3 3 1 1 < < < < < 1 3 8 3 3 3 1 1 < < < 3 1 3 3 1 1 1 1 3 3 3 3 3 3 3 3 3 1 1 = 1 d %.E.).K.K.-.+.L 0 6 L @.J.K.J.K././.'.{.oX+XoX'.`.K.3.4.4.-.{ ' } P Y Y Y Y Y Y _ _ _ _  .+.+.#.$.$.4.-.@.` L w 6 , 6 6 1 1 1 1 = = 1 1 1 8 0 Y -._.4.4.4.-.$.[ Y L v w 8 1 1 1 1 1 1 1 3 3 3 3 1 1 1 1 1 1 1 1 1 1 3 3 1 1 3 3 1 1 6 % 9 Y  .U K 0 q q 0 0 0 0 0 0 9 8 8 8 3 1 1 1 < 3 9 s 8 8 8 8 s 8 8 8 0 w L L L L L l 8 < = = = = = = = 1 < < 3 3 1 1 1 1 1 1 3 3 3 3 1 1 1 1 ; ; ; = ; ; ; ; 1 1 1 1 1 1 1 1 1 1 1 1 1 1 1 1 3 3 1 ; ; = < < < 8 l L U ` ` ` @.4.H.4.-.-.$.@._ ' [ [ ' ' ' [ [ [ [ @.$.$.$.-.5.4.4.5.5.H.K.5.7.7.6.K./.'.4._ 6 7 9 8 8 9 9 8 1 1 1 1 1 1 1 1 $ % = < 1 1 1 1 1 1 1 1 1 1 1 1 1 1 1 1 1 1 1 1 7 0 K U Y Y _ _ _  .&.:.:.;.;.:.l.l.>.>.>.>.:.:.#.&.#.O. ._ Y Y L K v l 0 9 9 9 8 8 8 8 8 7 6 6 1 1 1 1 1 1 = = = = = = 1 = 1 1 6 6 6 6 1 1 1 1 1 1 1 1 = = = = ",
"1 1 = = = = 1 1 6 6 = = = = = = = = = = = = < < = = = = = = < < 1 w +.6.4.-.` 7 7 q 0 0 9 9 s d 9 9 9 9 9 9 9 9 1 3 8 8 3 1 1 1 1 1 1 1 1 1 1 3 3 3 8 8 8 8 8 8 3 3 3 1 3 3 3 3 3 8 s s s s s l s s s s s s 8 8 3 3 3 3 3 3 3 3 3 3 3 3 3 3 3 3 1 3 1 1 3 s W  .Q U w 9 6 1 6 6 1 l Y  . . .+.+.+.+.@.$.*.$.$.=.*.*.:.:.4.:.*.*.$.&.&.&.#.#.#.+.&.#.&.&.*.*.$.&.w 0 7 6 6 6 1 = 8 8 1 1 3 3 3 3 ; 3 8 9 9 0 w L w w w 0 7 7 1 1 , , , 1 1 1 1 1 1 1 1 1 1 1 < 1 1 1 1 1 1 1 1 1 3 1 1 1 1 1 1 = % % 6 Y Y K l 0 0 0 q q q 9 6 6 q 8 8 8 3 3 3 3 < 1 3 1 1 < < 1 < = * $ 1 7 7 7 v v L l 8 = = = = = = < 1 3 3 3 8 8 8 8 3 3 3 3 8 8 8 3 3 3 3 3 1 1 1 1 1 1 3 1 1 1 1 1 1 1 1 1 1 1 1 1 1 1 < < 1 1 1 1 1 1 1 1 = 1 1 0 l v v v P [ 4.4.4.$.' P F P [ $.$.$.$.-.4.4.5.6.K.K.H.K.K.K.K.K././././.`.'.'.'.'./.-.` 1 6 6 1 1 < < < < < = = < = = = = = = = < < = = < 1 1 = = = = * 1 1 1 = = = = = 1 1 1 1 8 8 0 0 v U  .&.:.:.:.:.#.#.+._ _ ` U U L v v w 9 7 1 1 1 1 1 , 1 1 1 1 1 1 1 , 1 % = = 1 1 1 1 1 = 1 1 = = = = = = = = % % = = = = = = 1 1 1 = = % = = ",
"= = = = = = = 1 = = = = = = = = = < < < < < < < = = < 1 1 < = = % q _ :.$.' L 7 7 7 9 9 8 8 8 9 9 8 8 8 8 3 3 3 3 8 8 8 8 3 1 1 1 1 1 1 1 1 1 1 1 3 8 8 8 8 3 3 3 1 < < 1 1 1 1 3 8 s s s s s s s s s s s s 8 8 3 3 3 3 3 3 3 3 3 3 3 3 1 1 1 1 = 1 1 = 1 3 3 1 = = = 1 6 1 8 3 = 1 8 3 1 < 1 = 1 1 6 8 9 0 d l U U Y Q  .+.+.+.*.&.&.&.&.%.%.+. . .Y Y Y U K d = = % % 1 1 1 1 6 1 1 1 1 1 1 ; ; ; a 8 9 9 9 9 9 q 6 1 = = = 1 1 1 1 3 1 1 < = 1 1 1 1 1 1 < 1 1 1 1 1 1 1 1 1 1 1 1 1 1 1 < = $ % q I K 0 0 0 d 0 9 q q 8 6 1 9 8 8 3 3 3 3 3 1 1 1 1 1 1 1 1 = * = = 1 7 7 1 9 w l 0 3 = * * & & = = 1 3 3 1 8 8 8 8 8 8 8 8 8 8 8 8 3 3 3 3 3 1 1 1 1 1 3 1 1 1 1 1 1 1 1 1 1 < < < < < < < = = 1 1 1 < < < 1 1 < 1 4 9 9 9 0 L $.5.K.-.P 7 q F ' -.4.4.K.K.K._.K.K.K.K.K.K.K.6.4.>.>.>.:.$.$.-.-.-.-.:.+._ 6 1 1 < < 1 1 1 ; ; ; ; 1 1 ; ; 1 1 3 3 3 3 3 3 1 1 3 3 1 1 1 1 1 1 1 1 3 3 3 1 8 8 1 < = 1 1 1 1 8 l I  . . ._ L v v w 9 8 7 6 7 7 8 8 8 8 8 8 1 1 < 1 < 1 1 1 1 1 1 1 < 1 1 1 1 1 1 1 1 = = = 1 1 1 = = = = = 1 1 = 1 = 1 = 1 = 1 = = = = = = ",
"= = = = = = = = = = = = = = = = = = < < < = = = = < < 1 < = = = % 7 Y :.#.` L 0 q 0 0 0 s 9 d d 8 8 8 3 3 1 1 1 8 8 8 8 8 3 1 1 1 1 1 1 1 1 1 1 1 1 3 8 8 8 3 1 3 1 < < < < < = < 3 8 s s 8 4 3 8 8 8 s 8 8 8 8 8 8 s s s s s s s s s 8 3 1 1 1 1 1 1 = 1 1 1 ; 3 3 a 3 y 1 - * 3 ; ; * * = ; = < = = = = = 1 1 1 3 3 8 8 8 s s d d d l l d d d 0 9 9 8 8 8 1 % 9 8 1 = ; ; = * 1 1 3 ; ; 1 1 ; y 3 ; ; 8 s s 9 d 9 8 = = ; a a 8 8 3 1 < < 1 1 3 1 1 1 < < 1 1 = = = = = = = = = = = = < < = = % = d K q 6 8 8 6 6 6 6 6 8 8 8 8 8 8 3 3 3 8 3 1 1 1 1 1 1 1 1 = = < 8 l l w 9 7 8 9 8 < = * * & & = = 1 3 3 1 3 3 3 3 3 3 3 3 3 3 3 3 3 1 1 1 1 1 1 1 1 1 1 1 1 1 1 1 1 1 1 1 1 1 < < < 1 1 1 1 < < < < < = = 1 < < 1 1 1 1 1 7 q K ` @.$.+.P L _ $.-.:.-.*.$.$.#.&.+.+._ _ _ Y L L L L L L L G F F F L L _ _ 0 8 < = < < < 1 ; ; ; ; 3 3 1 1 - ; - - - - ; ; ; ; ; ; ; ; ; ; = ; ; ; ; ; ; ; 3 3 1 1 1 1 < = < < 1 8 l v l 0 l w 0 0 9 9 8 8 8 8 8 8 8 8 8 8 1 1 3 1 1 3 8 8 3 1 1 1 1 3 3 3 6 6 1 1 1 1 1 1 1 1 1 = = = = = = = = = = = = = = = = = = = = = ",
"6 1 1 = = = = = 6 6 1 1 = = = = = = = = = = = = = 1 < 1 1 1 = = 1 1 L &.&._ L 9 7 7 7 8 8 8 8 8 8 8 8 3 8 3 3 1 3 8 8 8 3 1 1 1 1 1 1 1 1 1 1 1 < 1 3 8 8 3 1 1 3 3 1 1 1 1 1 1 1 3 s s s s 8 8 8 s s s s s s s 3 3 3 3 3 3 3 3 3 3 3 1 1 ; ; ; 3 1 ; 3 3 3 3 3 3 3 ; 2 ; 3 y y 3 1 ; 1 y y y u 3 3 1 1 1 1 1 1 ; ; ; = = = = ; & * * = = = = = = = = = < < = = = = ; 1 3 y a a 3 3 3 3 3 3 3 3 a y 3 3 3 8 s s s 8 1 = - ; y y 8 8 1 1 1 3 8 8 3 1 1 1 1 1 < 1 ; ; ; ; ; ; ; ; ; ; ; ; 1 ; = * * 8 I d = = 1 = = = = 1 1 8 8 8 3 3 1 1 1 1 1 1 1 1 1 1 1 1 1 1 ; = 1 8 l v l 0 1 1 1 1 = * * * = = = ; 1 3 3 3 3 3 3 3 3 3 3 3 1 1 1 1 1 1 < < < < < < < < < < 1 1 1 1 1 1 1 1 1 1 1 1 3 1 3 3 3 3 < < < < < < 1 1 3 3 1 1 1 1 6 1 1 7 l U  .+._ _  ._ Y L K v l w w w e 9 9 9 8 7 9 9 w w w w w w 0 0 0 w v I x 8 = = = ; = < ; ; y y 3 3 3 3 y y 3 3 y 3 y y 3 3 3 3 3 3 y y 3 3 3 3 3 3 3 a 1 1 1 1 1 1 1 < 3 1 1 3 8 8 9 9 8 8 8 8 8 8 8 8 s s 8 8 3 1 1 < = < 1 1 3 3 8 8 1 3 1 1 1 1 1 1 1 1 1 1 1 1 1 1 1 1 < 1 < < < < = = ; = ; = = = ; < ; < ; < ; < ",
"= = = = = = = = = = = = = = 1 1 1 < = = = = < 1 < < 1 1 1 1 1 1 1 = l +.&. .v 7 9 9 8 8 8 8 8 3 1 1 1 1 1 1 1 1 3 3 8 8 1 1 < 1 1 1 1 1 1 1 1 1 < < 1 8 8 3 1 1 1 1 < < 1 1 1 3 < 1 3 8 3 3 3 8 3 3 8 8 8 s s 8 8 8 8 3 3 3 3 3 3 3 3 3 3 3 3 3 1 = ; 3 3 1 ; 1 3 3 3 3 3 3 3 1 3 1 3 3 3 2 ; 2 2 1 3 3 3 3 3 3 3 3 3 3 1 3 3 1 1 1 1 1 3 1 1 1 1 1 1 1 ; < 1 1 ; ; 3 3 ; = ; ; 1 1 3 1 1 1 3 3 ; ; 1 1 1 8 8 s 3 1 ; * - ; 3 3 a 8 s 9 8 8 3 1 3 1 1 1 = = < < 1 1 1 1 1 1 1 1 1 1 1 1 1 1 * & * 9 I d = 1 8 % = = = 1 6 8 1 1 1 1 1 1 = 1 < 1 1 1 1 1 1 1 1 = ; = = 3 s d 0 7 1 % % % * * * & 1 = = = = 1 1 3 3 3 3 3 3 3 3 3 7 7 1 1 3 3 1 1 < < 1 1 < < 1 1 1 1 1 1 1 1 1 1 1 1 1 1 3 3 3 4 1 < < < < < < 1 = < 3 4 3 3 3 3 1 1 6 6 9 7 9 0 0 9 6 6 1 6 1 1 7 7 8 8 9 0 0 e l e e e w w e 0 0 0 0 l d 0 d l I s = * ; 1 < < ; ; ; ; ; 3 3 3 ; ; ; ; ; ; ; 3 ; ; ; ; ; ; ; ; ; ; ; 1 1 1 1 3 s 3 1 1 1 3 3 3 1 1 3 1 1 3 s d s s s s 9 s s s 8 8 8 8 3 3 3 1 3 3 3 3 3 1 1 < 3 3 3 3 1 1 1 1 < < < < < < < = < < < < < < < < ; ; ; ; ; ; ; = = = = = ; ; ; ; ",
"= = = = = = = = = = = = = = = = 1 1 < < 1 = = = 1 1 1 1 1 1 1 1 < < 8 Y g. .0 8 9 9 8 8 8 8 8 3 3 3 3 3 3 3 3 3 < < < < < < < < 1 1 1 1 1 1 1 1 1 1 1 3 3 1 = = = 1 1 1 1 1 1 1 < < 1 1 3 3 3 3 s s s s s s s s 3 3 3 3 3 1 2 2 2 ; = = * = = 2 2 1 2 1 1 1 1 1 1 3 3 2 2 2 2 2 2 2 3 3 3 3 2 2 2 2 2 2 2 2 2 2 3 3 3 3 3 3 2 1 ; ; ; ; ; ; ; ; 3 1 3 1 3 1 3 1 ; ; ; ; ; 1 1 1 1 1 3 3 3 3 3 3 1 1 1 1 3 3 8 s 8 < = = = 3 3 1 a 8 a 8 a 3 3 3 1 1 1 = = = = = 1 1 1 1 1 1 1 1 = 1 3 1 = o     3 d d 3 = = 1 = = = = < 1 1 1 1 1 1 = = = 1 1 1 1 1 1 1 1 1 1 1 = = = < 1 < < 1 < 1 = = & & * = ; ; 1 1 1 3 1 1 3 1 3 3 3 3 3 3 1 1 1 1 < < < 1 = = < < 1 1 3 3 3 3 3 3 3 3 3 3 1 1 3 3 3 3 3 3 3 1 1 1 1 1 3 3 < < 1 1 1 1 1 1 < 1 1 1 1 3 8 8 1 1 1 1 1 < < < 1 1 7 4 4 8 9 9 0 0 s k k k 0 0 l l l s d l l l x s 1 & * = 2 2 ; 1 1 1 1 ; = = = = ; 1 1 1 1 1 1 < < < < < < < < < 1 1 1 1 1 1 3 3 3 3 3 3 3 3 1 1 1 1 1 1 s s s s s s s s s s s s s s s 3 1 ; 1 ; ; 3 3 3 3 3 3 3 3 3 3 3 3 3 1 1 1 1 1 1 1 1 1 1 < < < < = = ; ; ; ; ; ; ; ; ; ; ; ; ; ; ; ; ",
"= = = = = = = = = = = = < < = = = = = = = = = = 1 1 1 1 1 1 1 1 = = 3 I &. .0 8 8 8 8 8 8 8 8 8 3 3 3 3 3 3 3 3 3 3 3 3 3 3 3 3 1 1 1 1 1 1 1 1 1 1 3 3 3 3 1 1 1 1 3 3 3 3 3 3 3 3 3 3 3 3 3 3 s u u u u s s s y 3 3 3 3 1 1 1 ; = = = * * = = 2 1 2 1 1 1 1 1 2 2 2 2 2 2 2 2 2 2 2 3 3 2 2 2 2 2 2 2 2 2 2 2 2 2 2 2 2 2 2 2 3 3 3 3 3 3 3 3 3 3 3 3 3 3 3 3 ; < ; < 1 1 1 < 1 3 3 3 1 1 1 1 1 1 1 < < 3 8 s 8 3 = = = 1 1 ; 3 3 3 3 3 3 y 3 1 1 1 1 = = = = 2 2 2 2 2 2 2 2 1 1 1 < * o o & 1 s s 3 = 1 1 = = = = < 1 1 1 1 1 = = = = 1 < < 1 1 1 1 1 < < < = = = = 1 1 < < = = & $ $ & = = ; ; ; 1 1 1 1 1 3 1 3 3 3 1 3 3 1 1 1 1 < < < < = = = < < 1 1 1 1 1 1 1 3 3 3 3 < 1 1 1 3 1 1 1 < < < < < < < < 1 < 1 1 1 1 3 1 1 < 1 1 1 1 1 1 1 1 1 1 < < 1 1 4 4 4 8 9 8 s 9 s s s k s s s 0 s s s s s s s s x s 1 * = < 1 < = = 1 1 1 1 1 1 < < 1 1 < < < < < < < < < < < < < < 1 3 3 3 3 3 3 y 3 3 3 3 3 3 3 3 3 3 1 1 3 s s 8 8 s s s s s a a y y 3 1 ; = = * = 1 3 3 3 3 3 3 3 3 3 3 3 3 1 1 1 1 1 1 1 1 < < < < = = = = = ; ; ; ; ; ; ; ; ; ; ; ; ; ; ; ",
"= = = = = = = = = = = = < < < < ; ; = ; ; 1 1 1 1 1 1 1 1 1 1 1 = = 1 l Q I 8 1 3 3 3 3 3 3 3 3 1 1 1 1 1 1 1 1 3 3 3 3 3 3 3 3 1 1 1 1 1 1 1 1 = ; ; 1 1 1 1 1 3 3 3 3 3 3 3 3 3 3 3 3 3 3 3 3 3 3 3 3 3 3 3 3 3 3 3 3 3 2 2 ; = * = * * * * = 2 2 2 2 2 2 1 1 3 3 3 3 3 3 3 3 < 2 2 2 3 2 2 < 2 2 3 3 3 3 3 3 < < 2 2 2 2 2 2 3 3 1 1 3 3 3 3 3 3 3 3 3 3 3 3 1 1 1 1 < < 1 1 3 1 1 1 1 1 1 1 3 1 = = = 3 8 k s 4 < < = = < = 1 3 3 3 3 3 3 3 1 1 1 ; = = = = 1 1 1 1 1 1 2 1 3 1 = & o o o * * 3 s 3 1 3 1 1 1 1 ; 1 3 3 1 3 = = = = ; ; ; = 1 1 ; ; ; ; = = = = ; 1 1 1 = = & & & $ & * = = ; ; 1 1 1 1 1 1 1 1 1 1 1 1 1 1 < < < < < < < < < < < 1 1 1 1 1 3 3 3 3 3 3 3 3 1 1 3 3 3 3 3 3 < < < < < < 1 1 1 1 1 1 1 1 1 1 1 < 1 < 1 < 1 < 1 1 1 1 1 3 3 3 4 4 4 4 3 4 3 4 4 4 8 8 s 8 s 8 8 8 s s s s s s s 3 = * O * * * = = < < < 1 1 1 1 1 1 < < < = < < < < < < < < < < < < 1 1 3 3 3 y y y y 3 3 3 3 3 y 3 3 3 1 3 3 8 8 8 8 8 8 s s a s a y 1 ; ; = ; * = 3 a 3 1 ; 1 1 1 1 1 1 1 1 1 1 1 1 < < < < < < < = = = = * = ; ; ; 2 2 2 2 ; ; ; ; ; ; 2 2 ",
"= = = = = = = = = = = = = = = = = = = ; 1 1 1 1 1 1 1 1 1 1 1 1 1 1 ; 3 l s = = = = = < = = = = 1 1 < < < < < < 1 1 1 1 1 1 1 1 ; ; ; = ; ; ; ; & & * * * * = = ; 1 1 1 2 2 2 2 2 2 < < = = = = ; ; ; ; ; ; ; ; ; ; ; ; ; * * * * = * * * * * * = = ; ; = 2 2 2 3 3 3 2 3 3 3 3 < < 2 2 3 2 2 2 2 2 3 3 3 3 2 2 < 2 3 3 3 3 3 3 1 1 1 1 2 2 3 1 3 3 3 3 3 3 3 1 1 1 1 1 1 3 3 3 < < < < < < < < < = = & & = 3 s s 3 < = * = = = 1 1 1 3 3 3 3 3 3 1 1 1 < < < < 3 3 3 3 3 3 3 3 1 = &     o & * & ; 3 3 1 1 1 ; 3 1 ; ; 1 1 3 1 = = = = ; 1 ; = ; ; ; ; ; ; = = ; ; 1 1 1 1 = * & * & & & * = = ; ; ; ; 1 1 1 1 1 1 1 1 1 1 < < < < < < < < < < 1 1 1 1 3 3 3 3 3 3 3 3 3 3 3 3 3 3 3 3 3 3 3 3 1 < < 1 3 3 3 3 1 1 1 1 1 1 1 1 1 < 1 < 1 1 1 < 1 1 1 1 3 1 3 3 3 3 3 3 3 3 3 3 3 3 3 3 u 4 u 3 8 8 s s s 8 4 4 1 < * * O O O . & & * = = = = = = = = = = = = < < 1 < 1 < 1 < 1 < < < < 1 1 1 1 3 ; 3 ; ; ; ; ; 1 3 1 1 1 ; ; = 3 3 3 3 3 3 3 3 3 s s y ; * ; ; 1 = = 3 s y ; * = = = = = = = = = = = = = < < < = = = = = = = = = ; ; ; 2 2 2 2 ; ; ; ; ; ; ; 2 ",
"* * * * * * * * & & * * * * * * * * * = = 2 2 2 ; ; ; = = = = = ; = & = 3 < $ $ * = = = & = = = = * * * * * * = = * = * = = = = * * * * * * * * * * ; ; * * * - * * * * * * * * * * * * * * * * * - + + + + * * - - - - - - + + * * - - * * * * * * * * * * - * * * * * * * * * = = = ; 2 2 2 2 2 2 2 2 2 2 2 2 2 2 2 2 2 2 3 2 3 3 3 3 3 3 3 3 2 2 2 2 2 2 2 2 < < = < < < < < < * * < * * O O o * * * o * < 2 2 < * o o O * * ; ; ; ; ; - * = 3 3 1 ; ; 2 < < 2 2 2 2 2 2 2 2 o o o o o o + + o * ; ; ; 2 3 ; 3 ; ; ; ; 3 3 3 = = = < 1 1 2 = 2 2 ; ; < < = = = = = 2 1 = * & & & & & o o & & * * * * * * = = = = = = = = = = = = = = = = = = = = = ; ; ; 1 1 < < < < < < < = = < < < < < < < = = = = = < 1 1 = = = = = = = = = = ; = ; = ; = ; = ; = ; 2 1 1 3 3 3 3 3 3 3 3 3 3 3 3 y 3 y 3 1 1 3 1 1 < = * * * * * < * . . & & & & & & & $ & & & * = = = < = < = < = < = < = < = < < < = = ; ; ; ; * * * * * * * = = = * * < < < < < < < < 2 1 3 1 * * * ; 2 = = 3 s 3 = & * & * & & & & * * * * * * * * * * * * * * * * * * * * * * * * * * * * * * * * * ",
"& & & & & & & & & & & & & & & & o & & & & * * * * * * * & & & & * * & & = = $ = = = = = * = = = & $ & & & & & * & & & & & & & & * * * * * * * * * ; ; ; * o * * * * * * * * * * * * * * * * * * - - * + * * - - - - - - - - - - * * - - - * * * * * * * * * - - * & * & * & * & * & * * * * * = * - - - - - - - * - - - 2 ; 2 * 2 2 2 2 2 2 2 2 - - - - - - - - & & & & * * * * * * O O O O O O o + * * + + + + + o o o o   o o * * o o o o o o * * & o o o $ & o o o o o + o o     o o + * o o   o * * * * = * ; * * * ; ; ; ; = = * = < 2 = = = = = = = = = = & & & & * & o   . . .           o o & & & & & & & & & & $ $ $ $ $ $ & & $ $ $ $ & & & & & & & & & $ $ . . .         . $ $ $ . . & & & $ & & & & & & & & & & & & & * * * * * * * * * * * * * ; ; = = = ; ; ; ; ; ; ; ; ; ; ; ; = & & & & . .     X X . . . . . . * * * * * & * & o o & & * = ; = = = = = = = = = * * = = = = * * * - * * * * * * o o & & * * & & $ $ & $ & & & & o & & & & & * = * * = 3 3 1 = * $ $ $ $ $ . . $ o o o o O O O O o & O o O O O O o o O O O O O O o o O o O O O O ",
"& & & & & & & & & & & & & & & & & o & & & * * = * * * * * * * * * = &   * = & = * * & & * & * & & & & & * * = = = * * * = = = = * * - * * * * * * ; 3 3 ; * * * < < * * * * * * * * * * * * * * + * + + * - - - - - - - - - - - * * - - - - * * * * * * * * - - * * ; * - * - * * * * * - * ; ; - - - - - - - - - - - - - - - - + + + + o + + + * + + + * * * * & & & & & & + + + + + + + + + + + + - + + o o o o o o o o o o o o o o o o o o o o o             o o o o o o o o o o o + * * o   o o o o o o o * & o o * - - - * = * & & * = * * & & * * & & & & o o o & * * o o o o o & o o o o o & & & & & &   & & & & $ $ $ $ $ $ $ $ & & & & & o & o o o o o           X X X                 & & & & & & & & $ $ $ $ $ $ $ & & * * * * * * * - * * * * * * * * * * * & & & & & & * & & & o o             . . . . . . . . < 5 * * - * - * - * o * * * - * - ; ; ; ; ; ; ; ; ; * * ; ; ; * * * * * * * * * * * * & . & * = * & $ $ $ $ $ $ $ &     o & * = 1 3 < 1 3 4 3 = & * & & & $ & & & & * * O O O O * * o o o * * * * O o o o o O O O O o o o o O O O O ",
"& & & & & * * * & & & & & & & & * * = * = = = = 2 2 2 2 2 2 2 2 = 1 * o & * & < $ $ & & & & & & & * * = = = < = < < < < < < < 1 = ; ; ; - * * * ; 3 s u y 2 3 3 2 < < * * * * * * * * * * * * * + o + + + * - - - - - - - O + + * - - 2 2 - - * - - - - - - - - - * * * * * * * * - - ; ; ; ; 2 2 2 2 2 - - - 2 - - - - - - - - + o o o o o o o o + + + o o o o * * * * * * + + + + + + + + + + - - - - + o o o o + - - + + o o o o o o * + * + * + * o & o & * o o o o o o o o + o o * * * o   o o o o o o o o o o o o - - - * * & o   & & & * o o o o o o . . * & & & * * * & o o * * * = = = * * * * * * & & * * * * * * * * = & * & & & & & * * * * * * * * & & & $ . .     . $ & & & & & & * * * * & & & & $ & $ $ & & = * * * = = ; = 2 2 2 2 2 ; ; ; ; ; 2 2 ; ; = * * * * * * * * * o o & o . . $ * * * < < . . . < 4 k o + * * - - ; - * - * + - - ; ; ; ; ; ; ; ; ; ; ; ; ; ; ; ; - * ; ; ; ; ; ; < = 2 = * * = = = & & * * * & * * & * & & = 3 4 s s s s s s 3 * . & * * * * * * * * * * * * * * * * * * * * < < < < * * * * * * * * * * * * = = = = ",
"* * * & * * * = ; = * & * * = = * ; ; ; ; ; 2 2 ; ; 2 2 2 2 ; ; 2 2 *     * = * & < 1 * * * * * = * & & = 1 3 1 3 3 1 1 3 3 3 1 = = = * & & * * 3 u s u 2 2 2 2 2 2 ; ; * * + * O .   O < < O o . . o O * * * * 2 2 2 O O O + + 2 + * * - 2 2 2 2 - + + - 2 ; - - - ; - ; - * * 2 2 2 2 ; ; ; ; - 2 2 2 2 2 2 2 2 2 2 2 2 - - - + - - - - - + + + + + + + * - * * O * O * * - - * * * * * * + O o + 2 O + + - + - + + + + + + + + - - - - + - + - - - * - O + + o * * o o = ; * * + * 3 2 o   o o o o o & & & & & & & & & - - - o o * * < < * * O * * * * * * * * ; ; 2 3 2 * o o o * * ; ; ; ; ; - * * * O * * * * * o * o * * * * ; - ; - * * ; - ; - ; - ; * * * * & & & * * = * & * * = = = 3 3 2 ; * * & & = * * & * * < = = = < < ; 1 ; ; 3 ; = * ; ; 2 2 3 3 1 2 1 2 = < * * * * & * & & & . . o . O 5 s v k 5 > > 5 5 5   o * * + o o o - O * 2 2 * * 2 * * * * ; = 2 2 3 1 1 1 3 2 ; ; ; - * * + * * - + + o * * * * * ; ; = ; = * * * 2 2 < 2 3 s l I c x z u 2 * * < < < < < < < < < < 2 3 3 2 < < 2 < < 5 5 2 2 2 2 < < = * * * = = = = * * & * & & ",
"* * * * * * * = ; = * & * = = = ; ; ; ; ; ; 2 2 ; 2 2 2 2 2 2 2 2 2 * o o * < * * < 3 < * < * * = = = = 2 1 3 1 3 1 1 1 3 3 3 1 = = & & & * < 2 u u u y 2 2 2 2 1 1 2 ; * * + * * * O O O O O o O * 2 2 2 2 < * 2 + + O O O + + + + + + - 2 2 2 ; * * * ; 2 2 ; 2 2 2 2 2 - - - 2 2 2 2 2 2 ; ; 2 2 2 2 2 - - - 2 2 2 2 2 - - - - - - - - - + + + + + + * * * * - * * * < < 2 2 * * * * * * O O o 2 2 * + O + O - - + + + + + + + O - - + + O O - - - - O O O O o * & o & = ; * o * ; 3 ; o o o o o o & & & & & - * - & & & - - * O O * * * * * * < < < 2 2 2 2 2 2 2 3 3 2 * o o o * * ; ; ; * - - * * + + * - * + + + + * - - - - - - - - - * - - - - - - - - * * * = = = = = ; = * * = = 2 2 3 3 3 3 2 2 2 2 = = * & * = < < < < < < 1 1 1 1 1 ; = * ; ; 2 2 2 2 2 2 2 2 2 2 * * * * * * * < 1 < * * O O < 4 4 s r 5 < > > > o o o o o o o o + O 2 3 3 2 2 3 2 2 2 2 2 1 1 1 1 1 1 1 1 1 1 2 2 ; - - - * - - - - ; - 2 2 2 2 - 3 3 3 3 2 2 ; 1 1 2 2 3 4 s l x x x s 3 < < 2 2 < < < < < < 2 < 2 3 3 2 < < 2 < 5 5 5 2 2 2 2 < < = * * = = = * * * * * & * * ",
"* * & & * * = = ; = * * * ; < 2 ; ; ; ; ; 2 2 2 ; 2 1 1 3 1 3 2 2 2 < o O * * * < 2 3 < < < < * * = 2 1 1 2 1 1 2 1 1 3 3 3 3 3 = = & $ & = 3 4 k s 4 3 2 2 2 2 3 3 2 ; * + O * 2 3 2 O . O < O < 2 3 u 4 2 < * 2 2 + + + + O O + + + + - - 2 2 * * * - 2 2 3 2 3 2 3 2 2 2 2 2 2 2 2 2 2 2 2 2 2 2 2 2 - - - - 2 2 2 2 - - - - - - - - - - - + + + + * - * - * - * * < < < 2 2 2 < * * * * * * 2 2 2 2 - - - + 2 2 - + + + + + + + + + O O O O + + - - + - O O o & * & * * = * o ; 3 3 * & o o o & & & * * - * - ; - * & & & * * O o o O * * < 2 2 2 2 3 3 3 3 3 3 3 3 3 ; * o o o * ; ; ; ; * - * * + + + * * + * + + * * - ; - - - - ; - - - ; 2 2 2 2 - - - = < = = 2 1 1 1 2 ; * * = 2 1 1 1 1 1 1 1 1 1 1 = = * * = < < 1 < 1 1 1 1 1 1 1 1 = = * * = = = 2 2 2 2 2 2 2 2 2 2 2 2 2 2 3 3 3 3 1 < < * < 2 2 k z k 5 > . . O o o o o o o o o O 2 u u 2 2 2 = 2 2 2 1 1 1 1 1 3 3 3 3 3 3 3 2 2 2 2 2 2 2 2 - - - - - - 2 2 3 3 3 3 3 3 3 3 1 1 1 < < 1 3 4 s s s 4 3 < < 2 3 3 2 2 2 2 3 3 < 2 3 3 2 < < 2 < 2 5 5 2 2 2 2 < = = * = = = = * * * * * & * * ",
"* * * * * * = = 1 = = = = 2 1 2 2 2 2 2 2 2 2 2 2 3 3 3 3 3 3 3 2 2 2 * * * < < < 3 3 3 3 3 < < * = 1 3 1 = 2 1 2 1 3 3 3 3 3 3 3 3 3 3 3 4 s k k u 3 2 2 2 2 2 3 3 3 ; * + o O 3 u 4 < O 5 2 < * 2 3 u 4 2 * O * O O + + 2 + O 2 2 + + - - 2 - + * - 2 2 2 3 3 y 3 2 2 2 2 2 2 2 2 2 2 2 2 2 2 2 2 2 2 2 - - - 2 2 2 2 2 2 - - - - - - - - - - + + * - - - - * * * * * * * < < 2 2 < * * * * * 2 2 3 2 2 2 2 2 y 2 - - + - + O - - O O O O + + + + - - - - + - & * * * * * * * o 3 s 3 & o o o & & * * * ; ; ; ; ; ; ; * * * & & o o o * * 2 2 2 2 2 2 3 3 3 3 3 3 3 3 2 = * o o * * ; 2 ; = * * * * * * * * * * * * * - - 2 2 2 2 2 2 2 2 - - 2 2 2 2 2 2 2 2 = = * * = 2 1 3 1 2 * * = 2 1 3 3 3 1 1 2 ; = = = = < < < < 3 3 1 1 3 3 3 3 1 1 1 = = = = = = = * 2 2 2 3 3 3 2 2 2 2 3 3 3 3 3 3 1 3 3 3 2 2 3 5 k z k 5 > > > * O o o o o o o O * 2 u u u 2 - = = 2 1 1 1 1 1 3 3 3 3 3 3 3 3 3 3 3 y 3 3 3 3 ; ; - * * * - - 3 3 3 3 3 3 3 1 1 3 3 1 1 < < < 3 3 3 3 < < < 2 3 3 3 2 2 3 3 3 < 2 3 3 3 2 2 3 2 2 3 3 3 3 3 3 < = = * = = = 1 = = = * * * * * ",
"* * * * = ; ; ; 1 1 ; = 1 1 1 1 1 1 1 1 1 1 1 1 3 1 3 3 3 3 1 3 3 3 1 1 = * = < 3 4 4 4 4 4 3 < = = 1 3 1 = = < = < 1 3 3 1 3 3 9 0 s s k k l l 4 3 2 2 3 4 3 2 3 3 2 2 * * * * 4 4 2 O < 5 5 > . O < 2 2 < * O * O O O 2 2 2 2 2 < < < * * * < o * 2 1 3 3 3 3 3 3 3 1 1 1 1 3 3 3 1 1 2 2 2 2 2 2 2 2 ; ; ; ; 2 2 2 2 2 2 - ; ; ; ; ; * * * * * * ; ; 2 ; ; ; 2 = < = 2 2 2 1 3 3 1 = = = 2 2 2 2 2 2 3 3 3 3 u 3 2 - - - - - - * * + * * * * * * * * - - - * * ; * * * o * * ; s s 1 o o o o * * * = = = ; ; = = 1 1 ; = & &   & * = 2 1 3 3 3 1 1 1 1 1 1 1 1 1 1 2 = * & & & * * = ; = * * * * * * = = = * = = = 2 1 1 1 1 2 1 1 1 1 1 2 2 1 1 1 1 1 1 1 1 = &     & * < 3 1 = = * = 1 1 3 3 3 1 1 < = = = < < < < 1 1 3 3 8 8 8 8 8 8 8 3 1 1 = = = 2 = = = ; 1 1 3 3 3 3 3 3 3 3 3 3 3 3 1 1 3 3 3 3 4 2 4 u 4 4 5 5 r u O < 2 * o   o * 2 < 2 3 s k u 2 1 1 1 3 3 3 3 3 3 3 3 y u u 4 4 3 3 u u u u 3 3 1 1 1 = = = 2 2 3 3 3 3 3 3 3 3 3 3 3 3 3 1 3 3 3 3 3 3 3 3 3 4 3 3 1 1 3 3 3 3 < 3 3 3 3 3 3 3 1 1 1 1 3 3 3 3 < < = = = = 1 1 = = = = = = = = ",
"* = * = ; ; 1 3 3 3 1 1 1 3 3 1 3 3 3 3 3 3 3 3 3 3 3 3 3 3 3 3 3 3 3 1 < * = 3 8 9 8 4 4 9 4 1 < = = 3 1 = * = = 1 3 8 3 3 3 4 8 8 9 0 s s 9 9 4 3 2 3 4 4 4 3 3 3 3 2 < * * < < < O < 5 5 < . . . . O O O * O 2 2 O O 2 2 2 2 < < < < * * * < o * 1 3 3 3 3 3 3 3 3 3 1 1 1 1 3 3 1 1 1 2 2 2 2 2 2 2 2 2 2 2 2 2 2 2 2 2 2 2 2 ; ; ; ; ; ; ; ; ; 2 2 2 2 2 2 3 3 1 1 3 3 3 3 3 3 1 1 1 1 3 3 < * * 2 3 3 3 y s u 2 - - - - - ; - * * * * - ; - - - - - - - - 2 ; ; ; * o * ; u s s ; o   o * ; = = = ; = 1 < = 1 3 3 3 1 = & & * < 1 3 3 3 3 3 3 3 3 1 1 3 1 1 1 1 2 = * * * & * = = = = * & * * = = ; ; = = = < 2 1 3 3 3 3 1 1 1 1 3 1 1 1 1 3 3 3 3 3 1 1 1 = = & = < 3 8 1 < = = 1 1 3 3 3 3 3 1 3 3 3 3 3 3 3 3 4 4 8 8 q q 8 8 8 8 8 8 3 1 1 1 2 2 2 = ; 2 1 3 3 3 3 3 4 3 3 3 3 3 3 3 3 3 3 3 3 4 3 < 4 < > > 5 k z z . 2 u 4 * o o * 2 < < 3 z x k u 1 1 1 1 1 3 3 3 3 3 y s u u u 4 u u s s s s s s 3 3 1 2 = 2 2 1 u u u u s s u u 3 4 s s 8 3 4 4 4 4 4 4 8 8 s s 3 3 3 3 3 3 3 3 3 3 4 4 3 3 3 3 3 3 3 3 3 3 3 3 3 1 1 < 1 1 1 1 1 < < < < = = = ",
"= = = = 1 1 1 3 s 3 3 3 3 3 3 3 y 3 3 3 3 3 3 3 3 3 3 3 3 3 3 3 4 3 3 1 = & < 3 s s 9 4 8 9 9 4 3 = = 3 3 = = < = 1 8 s 8 8 8 s 1 1 1 7 4 4 7 4 4 4 4 4 4 4 4 4 u u 4 3 2 2 2 2 < < 2 s k 5 5 5 < O . . . o * 2 u 2 - * ; 2 2 2 * * < < * * * < * < 1 3 3 3 3 3 3 3 3 3 3 3 1 1 3 3 3 1 1 1 1 2 2 2 2 2 2 3 3 3 3 3 3 2 2 2 2 2 2 2 ; ; ; ; ; ; 2 2 1 3 3 3 3 3 3 3 3 3 3 3 3 3 3 3 3 3 3 3 3 3 < * * 3 u 3 3 3 s u 3 2 - - - - 2 - - * * - - 2 2 2 2 2 2 - ; ; 2 ; ; ; * o ; 3 k s 3 * o   * 2 1 < < < 1 < 1 < < < 1 3 3 3 1 1 1 1 3 3 3 3 3 3 4 4 4 3 3 3 3 3 1 3 1 1 = = 2 1 * * = 2 = = * & * = = 2 1 2 2 = 2 2 1 3 3 3 3 1 3 3 3 3 3 3 3 1 3 3 3 3 3 3 3 3 3 3 3 3 8 8 8 s 3 1 1 1 3 3 8 8 3 3 3 3 8 8 8 8 8 4 8 8 8 8 9 8 9 9 9 9 9 9 9 8 8 3 1 1 1 1 1 = < 1 3 4 4 4 3 3 3 4 3 4 3 3 3 3 8 8 4 3 3 4 3 < < O . > 4 k k 4 O 2 u s 3 * o o < 2 2 2 u k x k s s 3 3 1 1 3 3 3 8 4 4 4 4 4 3 s s s s s s s s s 4 3 1 < 1 1 3 s s s s s s s s 4 s s s s 8 8 s 8 4 4 8 9 9 8 8 8 4 4 4 4 4 8 8 4 4 8 8 4 4 4 4 4 4 4 4 4 4 4 4 3 3 3 1 1 1 1 1 1 1 = = = = = = ",
"= = = 1 1 1 3 3 s s 3 3 3 3 3 3 s u u u u y 3 3 3 3 3 3 y 3 3 3 s 3 3 1 = & < 4 k k 9 4 8 s 9 8 3 < = 3 8 < = < = 3 8 s s 8 s 0 8 8 8 4 8 8 9 9 s 9 4 4 4 4 4 4 u u u u 3 3 4 4 4 4 s c c r 5 4 5 < . . . O 2 2 s u 2 * ; 2 2 2 * < < < * * * < * 2 3 3 3 3 3 3 3 3 3 3 3 3 3 1 3 3 3 1 1 1 1 2 3 2 2 3 3 3 3 y 3 3 3 3 3 3 3 3 2 2 ; ; ; ; ; 2 3 3 3 3 3 3 3 3 3 3 3 3 3 3 3 3 3 3 3 3 4 4 4 4 3 < < 4 u u u u k u 3 2 ; ; 2 2 2 2 - * * - 2 2 2 3 2 2 2 2 2 ; 2 ; ; ; * * 2 s x u ; * o   * 3 1 1 < < 1 < < < 3 3 1 1 3 3 3 3 8 4 3 3 3 3 3 4 s s s 8 8 4 4 4 1 3 3 1 2 2 3 3 * = = 2 = = * & = = 2 2 1 1 2 2 1 1 3 3 3 3 3 1 3 3 3 3 3 3 3 3 3 3 3 3 3 3 3 1 1 3 4 8 s 8 8 4 3 3 3 3 4 8 s s 8 8 s 8 8 4 4 4 8 8 8 8 9 9 0 8 9 9 9 0 0 9 9 8 8 3 3 3 1 1 1 1 1 1 3 4 s s 3 3 3 4 4 4 4 8 s s 8 8 4 3 3 9 4 5 . O > < 4 s 5 O O 3 s k s 2 O   * 2 2 < 2 u k z c c k s s u s s 4 4 4 4 4 3 3 3 s s s s s s s s l s s 4 4 4 s s s s s s s s s s s s s s s s s s s s s s s s s 9 s s 9 9 9 9 s s 4 8 9 8 8 4 4 8 8 8 8 8 8 8 8 8 8 3 3 3 1 1 1 1 < < 1 = = = = = ",
"1 = = 1 1 3 8 8 8 s s 8 4 s s s s s u u u u 3 3 u u u u s u s s 3 s 3 1 < = = 8 s s 8 8 8 8 8 8 8 8 8 8 s s 3 < 8 8 8 s s s 8 9 8 8 7 7 8 9 9 9 0 9 9 9 8 8 9 s u u 4 3 2 2 2 5 2 k | | c e 5 5 5 < . . O < 2 2 f u y 3 1 1 1 < 2 2 2 2 < < = = = ; 1 3 3 3 3 3 y y y y 1 1 1 1 y 3 3 1 1 3 3 y 3 3 3 4 4 s s s 3 3 3 3 3 3 3 1 3 3 3 ; = ; 3 3 1 3 3 3 3 3 a s 8 8 8 8 8 8 8 8 s 8 8 8 s s s s s 8 8 8 4 s s s k s 3 2 1 1 1 ; 1 1 1 1 1 1 1 1 3 1 1 2 2 2 1 1 2 3 3 * * 3 f x s 3 & o + ; 2 1 1 1 3 1 1 1 1 3 1 3 3 3 3 3 3 4 3 3 3 8 8 8 3 3 8 8 s s s 8 8 8 3 3 1 3 3 3 3 1 * ; 1 1 = = = = = = ; 1 1 1 1 1 3 3 3 3 3 3 3 3 3 3 3 3 3 3 3 3 a a 3 3 1 3 3 3 8 8 8 8 s s 8 8 s s s s s s s s 8 8 8 8 8 8 8 8 8 8 8 8 0 0 0 9 0 9 9 9 0 d 0 9 8 8 3 1 3 3 3 1 3 < 1 8 s 8 8 8 s s s s 8 8 8 8 8 8 8 8 4 4 3 3 < < < 5 5 2 < > * 3 s s k x 3   & = 1 1 = * 3 l c c c l s s s s s s s s 3 3 8 s s s s s s s s s l l k s s s s s 9 s s s 9 9 s s s l l s s s s s s s s s s s s s 8 8 8 8 8 8 8 s s s s s s s s s s s s 8 8 4 8 8 s 8 8 8 3 3 1 1 6 1 1 1 6 1 = = ",
"1 = = 1 1 3 8 8 s s s 8 8 s s s s s s s u u u u u u y u s s s s 8 s 8 1 < = = 8 l s 8 8 8 9 8 8 s 8 3 8 s s s 8 8 8 8 s s s s 9 8 0 l l 9 8 8 0 9 9 9 9 8 9 9 s 3 3 2 2 < 5 5 5 5 k c k 5 > 5 e r 5 * O < 2 2 - 2 2 3 3 3 3 3 1 < 2 2 2 2 2 2 2 ; 1 3 3 3 3 3 3 y y a 3 3 1 1 3 3 3 3 3 3 3 3 a 3 3 3 u s s s s 3 3 3 3 3 3 3 1 3 y y 1 ; 1 3 3 1 3 3 3 3 3 a s 8 8 8 8 8 8 8 8 s 8 8 8 s s s 8 s 9 8 8 8 s s s l s 3 2 1 1 1 2 1 1 3 3 1 1 1 1 3 1 1 2 2 2 1 1 3 3 ; * ; u f k 3 ; & & - 2 2 2 1 1 3 1 1 1 1 3 3 3 3 3 3 3 3 3 3 3 8 8 8 8 8 3 8 s s s s s s 8 u 3 3 3 3 3 3 1 = 1 1 1 = * = = = = ; 1 1 3 3 3 3 3 3 3 3 3 3 3 3 3 3 y a 3 3 3 a 8 3 3 3 3 3 3 8 8 8 s s s s 8 s s s s s s s s 8 8 8 8 8 8 8 9 8 8 8 0 0 0 9 9 0 q 9 9 0 d 0 9 8 8 3 1 3 3 3 1 3 1 1 8 s 8 8 s s s s s 8 8 8 8 8 8 8 8 8 8 4 4 < 5 2 5 5 2 > O * 3 4 s s x s = o & = 1 1 = 3 s c W W c k s s l s s s s 8 4 s s s s s s s s s s l l k k k s s s s s s s s s s s s l x k s s s s s s s s s s s s 8 8 8 8 8 8 8 s s s s s s s 8 8 s s s 8 8 4 8 8 s 8 8 8 8 3 3 3 6 1 1 1 1 1 ; = ",
"1 < = 1 1 8 8 8 s s s s s s s s s s s s 8 8 8 8 4 4 s s 8 8 8 8 8 s 8 3 < = = 3 l k 0 8 9 9 9 9 9 8 3 3 8 0 s s 8 8 8 9 9 9 9 9 8 l U I l 8 8 0 8 9 9 9 s s s 4 3 2 2 2 2 < < 4 4 4 5 5 > > 5 e e 5 5 < 2 3 2 2 * - ; y y 8 3 3 = < 2 3 3 3 3 1 1 1 3 3 3 3 3 3 8 8 8 3 3 1 3 3 3 3 3 3 3 8 s s u u s u s u u u u u y 3 3 3 1 3 3 a a 3 1 1 3 3 1 3 3 y 3 y a s 8 8 8 8 8 8 8 8 8 8 8 8 8 8 8 8 s 8 8 9 9 s s s l s 3 < 1 1 3 1 1 3 3 3 3 3 3 1 3 1 1 1 1 1 1 1 3 ; o * y f k s + o & * 3 3 3 2 1 1 1 1 < < 3 3 3 3 3 3 3 3 3 3 8 4 3 3 3 8 8 8 8 s s s s 8 8 8 s 4 3 1 3 3 3 3 3 3 1 1 = * = = = = < 1 1 1 3 3 3 3 3 3 3 3 3 3 3 3 3 8 8 8 3 3 8 3 3 3 3 3 8 s 8 8 8 9 9 9 0 9 9 9 9 9 9 9 9 9 8 8 9 9 9 0 0 0 0 0 9 0 0 0 0 0 q q q 0 0 0 0 9 9 8 1 1 3 3 1 1 3 3 3 8 s 8 8 s s s s s 8 8 s 8 8 8 8 8 8 9 8 4 5 5 2 4 2 < O . < 3 3 3 s l k 4 $   & = 1 1 1 3 k c | W x k k l k k k s s s s s s s s s s s k k l l l l l l l l k k k s s k k l l x c l k s s s s s s s s s 0 0 9 9 8 8 8 8 8 8 9 0 0 0 0 8 8 8 9 9 8 8 8 3 8 8 9 8 8 8 8 8 9 8 6 1 1 1 6 6 = = ",
"1 1 < 1 3 8 s s s s s s s s s s s s s s s s 8 8 8 s s 4 8 s 8 8 s s 8 3 3 = & 3 l l 8 8 4 9 9 9 9 8 1 1 8 8 0 s 8 8 9 8 9 9 9 9 8 l U U l 8 8 0 8 8 9 9 s s s u u 2 2 3 2 < 5 k v 5 < 5 k ) e r r 5 5 2 2 2 2 3 ; ; 3 3 8 8 3 1 < 2 3 4 4 4 3 3 3 3 3 8 3 3 8 3 3 8 s 8 3 3 8 s 3 3 8 s s s 8 8 u u u u s u u u u u y y 3 3 3 1 3 s s y 3 3 3 3 1 3 3 y y y a 8 s 8 8 8 8 8 8 8 8 8 8 8 8 8 s s 9 8 8 8 s s s s l s 3 1 1 3 3 3 3 3 3 3 y 3 3 1 3 3 3 3 3 1 1 1 2 & o ; s x s 3 o o & = 3 3 3 2 1 1 1 1 < < 3 3 8 3 3 3 3 3 3 3 8 8 3 3 3 3 3 8 8 s s s s 8 8 s s s 3 3 1 1 3 3 3 3 1 < = = = < = = 1 1 3 3 3 3 3 3 3 3 3 3 3 3 3 3 8 8 8 8 8 3 3 3 3 3 3 8 8 8 8 8 9 8 s s 0 0 9 9 9 9 9 9 9 9 9 9 9 0 0 0 0 0 0 9 0 0 0 0 w w q 0 0 0 0 0 0 9 9 8 1 1 3 3 1 1 3 1 3 8 s s 8 s 8 8 8 8 8 8 s s 8 8 8 8 8 8 4 4 3 3 2 4 2 < O O 3 3 3 3 s l x l 1 &   & = 1 1 1 4 k I W I x k k s k k k s s s s s s s s s l l l l l l l l l l l l l k s s k l x x x c x l s s s s s s s s s s s 9 9 9 8 8 9 8 9 0 0 0 0 0 8 8 8 9 9 9 8 8 3 8 8 8 8 8 8 9 8 9 9 8 6 6 1 6 6 6 = ",
"1 1 1 1 8 s s s s k l s s k s s s s s s s s 8 8 4 4 4 s s s s s s s 3 1 1 = $ 3 l l 9 8 8 8 9 9 8 8 8 8 8 8 8 8 8 8 8 0 0 0 0 9 9 0 l l d 9 8 8 8 8 s s s s s s s 3 2 2 2 < 4 v c r r ) ;.O.) r 5 5 5 < * * 2 y y 3 3 3 8 8 9 8 < 3 3 s s s 4 3 3 3 8 8 8 8 8 8 3 8 8 8 8 8 s s 8 s s s s 8 3 3 a a s a a a a a 8 y y y 3 3 3 1 3 s s 3 3 3 3 3 1 3 y a a a a 8 8 8 8 8 8 8 8 8 s s s s 9 9 9 s 8 8 9 9 0 9 9 9 l s 8 3 1 1 3 8 3 3 y a y 3 3 1 3 3 3 3 1 1 ; ; * o o 3 l x y * o o * * ; 2 3 1 1 1 1 1 1 1 3 8 s 8 3 1 1 1 3 3 8 3 3 3 3 3 8 8 s s s s s 8 8 8 s s 4 3 1 1 1 3 4 3 1 = = = < < 1 1 1 3 3 3 3 3 3 3 3 3 3 3 3 3 8 8 8 8 8 8 8 8 3 3 3 3 8 8 s s 8 8 8 0 0 0 0 0 0 0 0 0 0 0 0 0 9 0 0 0 0 0 9 9 9 9 0 9 e e w w q 0 0 0 0 0 q 9 9 7 6 1 1 6 1 1 3 1 3 8 s s s s 8 8 8 8 s s s 8 8 8 8 8 8 4 3 3 3 3 2 2 4 3 2 2 3 3 1 1 3 s c c s <     & = < 1 < 4 l I W W x s s s s k k k k k s l l l l l l l l l l l l l l l l l k 0 s k l x x x c c l s s k l l s s 0 0 s s 9 9 8 8 8 8 9 9 0 0 s s 0 9 9 9 8 8 8 8 8 3 8 8 9 9 9 9 9 9 0 0 8 8 6 1 6 6 6 1 ",
"1 1 1 1 8 s s s s l l s s k s 8 s s s s s 8 8 8 4 4 s s s s s s s s 3 < 1 = = 3 v l 0 8 8 8 9 8 9 9 0 0 0 0 8 8 8 8 8 0 0 0 0 0 9 9 8 9 9 9 9 8 8 8 8 s s s s s 4 2 < < < 5 r k 5 r v O.O.) r 5 5 5 5 < . o 2 y y y 3 3 3 8 9 s 3 4 4 s s s 8 4 3 3 8 8 8 8 8 8 3 8 8 8 8 8 s s s s s s 8 8 3 3 a a s a a a a a s s a y 3 3 3 3 y s s 3 3 3 3 3 1 3 3 s s a a 8 8 8 8 8 8 8 8 8 s s s s 9 9 s 8 8 9 9 0 9 9 9 9 s s 8 3 1 1 3 8 y y y y y 3 3 1 3 3 3 3 1 ; = = o o 2 s x s ; o * * * * - 2 3 3 3 1 1 1 1 1 3 8 s 8 3 1 1 1 1 3 3 3 3 3 3 3 8 8 s s s s s 8 8 8 s s 8 3 1 < 1 1 3 3 < = = < 2 2 1 1 3 8 3 8 8 3 3 3 3 3 8 3 3 3 3 8 8 8 8 8 8 3 3 3 3 8 8 s s s 8 8 8 8 8 8 0 0 0 0 0 0 0 0 0 0 9 8 0 0 0 0 9 9 9 9 9 9 9 9 w 0 9 0 w w 0 0 9 9 9 7 6 1 6 6 1 1 3 1 3 8 s s 8 s 8 8 8 8 s s s 8 8 8 8 8 8 4 3 1 3 2 2 4 4 4 4 3 3 3 3 1 3 s x W I s =     & = 1 < 3 8 x W W c l s s s s k k k k l l l l l l l l l l l l l l l l k k k k s k l x x x x c l s s k l l s s 0 8 0 0 s s 0 0 0 0 s s 0 s s s s 9 9 9 9 0 8 8 8 3 8 8 9 9 9 9 9 9 0 0 9 8 6 1 6 6 6 6 ",
"1 1 1 3 8 s s s s l l s s k s 4 s s s s 8 4 4 4 8 s 8 s s s s s s s 1 = < = = 8 x l d 0 0 0 8 8 8 9 0 0 0 0 8 8 8 8 0 0 0 0 0 0 d 9 9 9 8 s s 8 s s s s s s s s 4 u 4 < 2 4 4 5 > 5 k ) e 5 , 5 v k 5 < * * 2 y y y 3 1 3 8 9 s 8 4 8 8 4 4 4 3 8 8 3 3 8 3 8 8 8 s 8 8 8 8 8 8 s 8 s s 8 8 8 3 3 3 3 8 8 8 8 8 8 8 8 8 3 3 3 3 8 s s 3 1 1 1 1 < 1 8 s s 8 8 8 8 8 s s s s 8 8 8 8 s s s 9 s 0 8 9 0 0 s s 9 9 s s s 8 3 3 3 3 8 8 3 3 3 1 1 1 1 1 1 1 < = & & o = s x k 3 * * = = ; = ; 2 3 3 3 3 3 1 1 3 y s s y 3 3 1 1 3 3 3 8 8 8 8 9 9 s s s d s s 9 9 8 s s s 3 1 < < 1 3 1 = = < 1 1 1 3 3 8 8 8 8 8 8 8 8 8 8 8 8 8 8 3 8 3 8 8 3 3 3 3 8 8 8 s s s 8 9 8 8 8 8 8 8 0 s s 0 0 0 0 d s 9 9 9 9 9 9 9 9 9 9 9 9 9 9 9 0 7 0 l l 0 0 9 9 9 7 6 6 6 6 1 1 1 < 1 8 s 8 8 8 8 8 8 8 8 8 8 8 8 8 8 8 8 8 4 3 3 3 2 4 u u u u 4 8 8 3 3 s d c W l 8 = & & & < 1 < 3 s x I I c x l k s k k k k l l l l l l l l l l l l l l l l k k l l k k l l x l l c l s f l x l d s 9 9 9 9 s s s 9 9 9 s s s s s s s 9 s 9 9 9 9 8 8 8 8 8 9 9 8 8 9 9 9 9 9 8 6 6 6 6 6 6 ",
"1 3 1 3 8 s s s s k l s s s s 4 s s s 8 4 4 3 3 8 8 8 s s s s s s s < = < = = 8 x v l l d 0 0 8 8 8 8 8 8 8 9 0 8 8 0 0 0 0 0 0 d d d 9 s 8 8 s s 8 8 8 s s s s s k s 2 3 4 5 . 5 5 r r 5 > 5 e O.| k 5 2 3 y y y y 3 3 3 8 9 8 s s 8 8 4 3 3 3 8 8 3 3 3 8 3 3 8 s s 8 8 8 8 8 8 8 8 8 8 8 8 8 3 3 3 8 8 8 s s 8 8 8 8 3 3 3 3 s s s 3 1 1 1 1 < 1 8 s s 8 8 8 s s s s s s 8 8 8 9 s 8 8 9 0 9 9 9 0 0 s s 9 9 s s s 8 3 1 1 3 8 8 3 3 1 3 3 3 1 1 1 1 ; = & o o 1 k B f ; * * * = ; ; 2 2 3 3 3 3 3 1 1 3 y s a y 3 3 1 1 3 3 3 3 8 8 9 s s 9 s d d s 9 9 9 8 3 4 s 3 1 = < < 1 = = = < 1 1 1 3 8 8 8 8 8 8 8 8 8 8 8 8 8 8 8 3 3 3 3 3 3 3 3 8 8 8 8 s 8 s s 8 8 8 8 8 8 8 0 s s 0 0 0 0 0 s 8 8 9 9 9 9 9 9 7 8 9 9 9 9 9 0 7 0 l l 0 0 9 9 9 7 6 6 6 6 1 1 3 < 1 8 s 8 8 8 8 8 8 8 8 8 8 8 8 8 8 8 8 8 8 4 4 3 3 4 4 u u u 8 8 8 8 3 8 s l W c d 8 =   $ = 1 < < 3 8 k c W I x l k k k s s l d d l l l l l l l l l l k l k k l l l l l l x l k l x l s f l x v l s s 8 8 8 s s 0 0 9 9 s s 0 0 s s s s s 9 9 9 9 8 8 8 8 9 9 9 8 8 9 9 9 9 9 8 6 1 6 6 8 8 ",
"3 3 s s s s s s s s s s s s s 8 s s 8 8 8 8 8 3 3 4 8 8 4 8 s s l 3 = = = = 1 8 I x d d K l 9 0 9 9 8 8 8 9 9 0 9 9 0 0 0 0 0 0 d d s 0 9 9 0 8 8 8 s 8 s s s s k k s s s 4 4 1 5 5 r e 5 > , r O.v 5 < < 3 y 3 3 3 3 3 8 s 9 s 8 8 8 8 8 3 3 3 s 3 1 3 8 8 3 3 s s 8 8 8 8 8 3 s s 8 3 3 3 8 8 3 3 8 8 8 8 8 s 8 8 3 3 3 3 8 8 8 a 3 3 3 1 3 3 1 3 a u u u 4 8 8 8 8 8 8 8 8 9 8 9 8 9 9 9 9 4 9 9 0 0 9 9 s s s s s s 4 3 3 3 s 8 8 1 1 3 3 y y 3 ; - * * o   1 3 c W 3 o - - - - - - 3 3 1 3 3 3 3 3 3 3 3 3 3 3 1 1 3 3 8 8 9 9 q 9 0 l 0 9 0 0 0 0 9 9 9 9 8 4 4 4 3 3 3 3 3 < = = 1 3 3 3 8 8 8 3 4 4 3 3 3 3 8 8 8 4 4 3 3 3 3 3 3 3 3 3 8 4 8 8 8 8 8 8 0 0 8 8 8 8 8 8 9 9 9 0 l v l 0 8 9 9 9 0 0 0 0 7 9 9 9 9 0 9 9 l l l w 0 9 9 8 8 8 1 1 1 1 1 3 3 1 1 3 s s s 3 8 8 8 8 8 8 8 8 8 4 8 8 9 9 4 3 4 4 3 3 3 4 4 9 8 8 8 8 8 8 8 8 W x l s 4 = $ $ = = ; 1 1 8 s l I W I I Y v s v v K K l l l l l w l w w l l l l k k k k k l x x l x c c l l l l x x x k s 8 8 s s s 8 8 9 0 s s 0 s s s s s s 0 0 9 8 8 8 8 8 8 8 8 8 9 9 0 9 9 s 9 8 1 1 6 8 8 ",
"8 8 s s s s s s s s s s s s s s 8 s s s 8 4 3 3 3 3 8 8 8 s s s g 3 = = < = < 8 l l 0 d K K 0 l 0 0 0 8 8 8 9 9 9 9 0 0 0 0 0 0 d s s s 9 9 0 9 8 8 8 8 9 9 9 9 k s s s 9 9 9 4 e k v ) e 5 5 e | k 5 $ = 3 y 3 3 3 3 3 8 s s 8 8 8 8 8 8 8 8 8 s 3 3 3 8 8 8 3 s s 8 8 3 3 8 3 s s s 8 8 3 3 3 3 8 8 8 8 8 8 s s 8 3 3 3 3 8 8 a a 3 3 1 3 3 3 1 3 y u u u 4 u 8 8 8 8 s s 9 9 9 9 9 9 9 9 9 9 e e 0 0 9 9 s s s s s s 4 3 3 3 s 8 8 1 3 3 y y y 3 ; - + + + o 3 8 W c 2 + - - - - - - 3 3 1 3 3 3 3 3 3 3 3 3 3 3 1 1 3 8 s 8 9 9 6 9 0 0 0 9 0 0 0 0 9 9 9 9 8 9 8 9 9 9 s s 3 3 < 1 3 3 4 3 8 8 8 3 4 4 3 3 3 3 8 8 4 4 4 4 3 3 3 3 3 3 8 8 4 8 8 8 8 8 8 8 0 0 8 8 8 8 8 8 8 s 9 0 w v v w 8 8 9 9 9 9 9 9 9 9 9 9 9 0 w w w w w w 9 9 8 8 8 8 8 1 1 1 3 3 3 3 2 3 s s s 3 8 8 8 8 4 8 8 8 8 8 4 8 9 9 4 4 4 4 3 3 3 3 4 4 8 8 8 8 8 8 8 8 I W I s 3 3 =   & = ; 1 1 1 3 8 l x x x U I I  .Y Y U T K K l l v l l w k k k k k k k k k k l l l x c c x l l l x x x k s s s s s s 9 8 8 0 s s s s s s s s s s 0 9 9 9 8 8 8 8 8 8 9 9 8 8 9 9 s 9 8 3 3 3 8 8 ",
"8 s s s s s s s s s s s s s s s 3 s s s 4 3 3 3 3 8 8 8 s s s l s 1 = 1 1 < 1 8 l l 0 d L K l K l l 0 0 9 8 8 8 9 9 9 0 0 9 0 0 s s s s 9 9 0 0 9 9 8 8 9 9 9 9 s s 9 9 9 s e e e v | | v 5 5 r v 4 < $ = 3 u u y 3 3 3 s s s 8 8 8 8 s s s s s s s 3 3 8 8 8 8 3 3 3 3 3 3 8 3 8 8 s 8 8 3 3 1 8 8 8 s 8 8 8 8 s 8 4 3 3 4 4 8 s a 3 1 3 3 3 1 3 3 u s u u u u 8 8 8 8 s s 9 9 9 9 9 9 9 9 9 9 e e k s 9 9 s s s s s s 4 3 3 3 8 8 8 3 y y y y ; - - + o + * 2 4 l W l - * 2 - - 2 - - 3 3 1 3 3 3 3 3 3 3 3 3 3 3 1 1 3 s s s 9 9 7 9 0 0 0 9 0 0 0 0 9 9 9 8 8 8 9 0 k k k k 8 4 3 3 3 8 s s 8 8 8 8 4 4 4 4 8 8 8 8 8 8 8 8 3 3 3 3 8 8 8 8 8 8 8 8 8 8 8 8 0 0 8 8 8 s 9 9 8 8 8 8 w v v w 8 8 9 9 9 9 9 9 0 9 9 9 9 0 w w 9 9 w w 0 9 9 9 0 8 8 1 1 1 1 3 3 3 3 3 s s 4 4 8 8 3 3 4 8 8 8 8 8 4 8 9 9 4 4 4 4 4 3 3 4 4 4 8 8 8 8 8 8 8 8 l  . .l 8 s 3     & = 1 1 1 < 3 4 s s l x x Y *.@.+.Y U U T K l v v l l l k k k l k l k k k l l l x c x x l x x x x x x k s s s s s 8 8 9 0 s s s k s s s s s s 0 0 9 9 8 8 8 8 8 8 8 8 8 8 8 8 s 9 8 8 8 8 8 8 ",
"s s s s s s s s s s s s s s s s 8 8 8 4 3 3 3 3 8 8 8 8 8 s k l a ; = 1 3 1 < 3 x l 0 l U K l l l l 0 0 9 8 8 8 9 9 9 0 0 9 9 8 s s s s 9 9 0 0 9 s s s 9 0 0 0 s s 8 8 9 s e e r v | | k 5 < 5 k 4 < , 1 4 s s y y 3 3 8 s s 8 8 8 8 s s s s s s 8 3 3 3 3 3 8 3 3 3 3 3 3 3 3 8 8 8 3 3 3 3 3 8 8 s s s 8 8 8 8 8 4 4 3 4 8 8 s 8 1 1 3 3 3 ; 3 3 u s u u u u 8 8 8 8 9 s 9 9 9 9 0 0 0 0 9 9 k e k s 9 9 s 9 s s s s 8 3 3 3 3 3 8 8 y y y y ; - + o o + 2 3 s I W s * - 2 - - 2 - - 3 3 1 3 3 3 3 3 3 3 3 3 3 1 1 3 8 s s s 9 9 9 9 0 0 0 0 0 0 0 0 9 9 9 0 4 8 9 s k k s s 8 8 4 4 4 s s s 8 8 8 8 8 4 4 4 8 8 8 8 8 8 8 8 8 8 8 8 8 8 8 8 8 8 8 8 8 8 8 9 0 0 8 8 8 s s 8 8 8 8 8 0 v v w 8 8 9 9 9 9 9 9 9 9 9 8 9 8 9 9 7 9 9 w 0 9 9 9 0 0 8 1 1 1 3 3 3 3 3 3 u s 8 4 8 8 3 3 4 8 8 8 8 8 8 8 8 8 4 4 8 8 4 4 4 4 4 4 8 8 8 8 8 8 8 8 4 U  .I l l 8 1 $ & * = 1 1 3 3 < 8 8 8 8 8 v &.&.+.Y U U U K l v v v l l l k k l l l k k k s s l l x x x x x x k z x x l s s s s s 8 8 8 0 s s s s s s s s s s 0 0 0 9 9 8 8 8 8 8 8 8 8 8 8 8 s 9 8 8 8 8 8 8 ",
"s s s s s s s s s s s s s s s s s 8 < < 3 3 3 3 8 8 8 8 s s l l y ; = 1 3 1 < 1 I l 0 l U L l l l l 0 0 8 8 8 8 8 8 0 0 0 8 8 8 9 9 9 s 9 9 0 0 s 0 0 s s s 0 s k s 9 9 9 s k e r v | c k 5 5 r e 4 5 < < 3 u s 3 3 3 3 8 s s 8 s s s s s s s s 8 8 3 3 3 3 3 8 3 3 3 3 3 3 8 8 s 8 3 3 3 3 3 8 8 s s s s 8 8 8 8 8 4 4 4 8 8 s s 3 1 1 3 3 3 ; 1 3 4 s u u u u 4 8 9 9 s s s s 9 s s k 0 9 0 9 s s s 0 9 9 s s s s s s s 4 3 3 3 3 3 8 a y y 3 - * o o o * 3 u l Q W 3 * 2 2 - - 2 - 2 2 3 1 3 3 3 3 3 3 3 3 3 1 1 1 3 8 s s 8 8 8 9 9 0 0 0 0 0 0 0 0 9 9 9 0 8 9 9 k s s s s s s s s 4 4 s s 8 8 8 8 8 8 8 4 8 8 8 8 8 8 8 8 8 8 8 8 8 8 8 8 8 8 8 8 8 8 9 9 0 0 9 8 8 8 s s 8 8 8 8 0 v v w 9 9 9 9 9 9 9 9 8 8 9 9 7 6 1 , 7 7 9 e 0 9 9 9 8 0 8 1 1 1 1 < 3 3 3 3 3 u 4 4 8 8 3 3 8 8 8 8 8 8 8 8 8 8 8 8 9 9 9 8 8 8 8 8 8 8 8 8 8 8 8 8 1 l  . .I 0 9 9 = & X   = 3 3 3 < 3 1 1 < < s  .@.+.Y T T U K l l l l l l l l l l l l k k k s s k l x x l l x x z x x x x l s s s s 9 9 8 0 s s 9 e k k s s 9 0 s 0 0 9 9 8 8 8 0 0 0 8 8 8 8 8 s 9 8 8 8 s s s ",
"s s s s s s s s s s s s s s s s k 4 < < 3 8 8 3 8 8 8 8 8 s k l 3 ; = 1 3 1 < 3 x l 9 d U U l K l 0 0 8 8 8 8 8 8 8 8 0 8 8 8 8 9 9 9 9 9 9 0 0 s s s s k k s s l l s s k k k k 4 k v k 4 4 5 e 4 4 1 5 3 3 3 3 a 3 3 a 8 s s 8 8 8 8 s 8 s s s 8 8 8 3 3 3 3 8 3 3 3 3 8 8 8 8 8 8 3 3 3 8 8 s 8 8 s s 8 8 8 8 8 8 8 4 4 8 s s a 3 1 1 3 3 3 1 1 3 u s u u u 4 8 8 9 9 s s s s 9 9 s s s 9 9 9 s s s s 9 9 s s s s s s s s 3 3 1 3 3 s a 3 ; ; * o o o * 3 u s x  .x < * 2 2 2 - 2 - 2 2 3 1 3 3 3 3 3 1 1 1 1 1 1 1 3 s s s 8 8 8 9 9 0 0 0 0 0 0 0 0 0 0 0 0 s s k k k s s s s s s s s 4 4 s 8 8 8 8 8 8 8 8 8 8 8 8 8 8 8 8 s s s s 8 8 8 8 8 8 8 8 8 9 9 9 0 0 9 8 8 8 s s 8 8 8 8 0 v w w 9 9 0 9 9 9 9 9 7 8 9 9 7 1 , % 7 9 9 w 9 9 9 9 8 0 8 1 1 8 8 1 3 3 3 3 3 3 3 4 8 8 3 3 8 8 8 8 8 8 9 8 4 4 8 8 8 9 0 0 0 8 8 8 8 8 8 8 s 8 8 8 4 e | &. .l 9 l 3 = X X $ < < < < 3 < < < = 8  .+.' ` Y Y Y L K l l l l k l l l l l l l k k s s s l x x l l x x z z z x x x k s s s 8 9 9 0 s s 0 e k k s s 9 9 s s 0 0 9 9 8 8 0 0 9 9 8 8 8 8 8 8 8 8 8 s s s ",
"s s s s s k s s s s s s s s 8 4 s 4 3 3 8 s s 8 8 8 8 8 8 s s l s 1 * = 1 = < 8 I l 9 d U L w l 0 8 8 8 8 8 8 8 8 8 9 0 9 9 8 8 8 8 8 8 9 9 0 0 s s s s k k k k l l s l k k k k 4 4 4 4 4 5 4 e 4 4 4 3 3 3 3 3 s a 3 a s s s a 3 3 3 3 8 8 s s s s s 8 3 3 8 s s s 8 8 3 8 8 3 3 3 8 s s s s s 3 8 s s 8 4 4 8 8 8 8 3 8 8 s s 3 3 3 1 1 3 3 3 1 3 4 s u u u 4 4 4 9 s s s s s s s s s s 9 9 9 s s s s s s s s s s s s s s 3 < 1 3 3 8 3 3 ; * + o   * 3 s s s c Q k = - 2 - 2 - 2 - 2 2 3 1 3 3 3 3 3 1 1 1 1 3 3 3 3 s s s 8 8 8 8 0 0 0 0 0 0 0 0 0 0 0 0 0 s k k k s s s s s s k s s 4 s s 8 8 8 8 8 8 8 8 8 8 8 8 8 8 8 8 s s 8 8 8 8 8 8 8 8 8 8 0 0 0 0 0 9 8 8 8 8 8 8 8 8 8 7 9 v w e 0 0 0 0 0 0 9 9 8 9 9 9 7 6 1 1 9 9 w w 9 9 9 9 8 0 0 1 1 8 8 3 3 3 3 3 3 3 3 4 8 8 4 4 3 8 8 8 8 8 9 8 4 3 8 9 8 8 9 0 0 0 9 8 8 s s s s 8 8 8 4 4 c &.;._ v v l 3 & X   $ = = 3 3 < 3 3 < 8  .+.' ` _ Y T L K l l k s s s s s k k l l k k s s s k l x l l l x x x z x x x l k s s 8 8 9 0 s s s s s s s s s s s s s s s s s 8 0 0 9 9 8 8 8 8 8 8 8 8 s s s s ",
"s s s s k k k k s s s s s s 4 4 8 8 8 8 s s s s s 8 8 8 4 8 s l s 1 * = < = < 3 U I 0 d L K 0 0 8 8 8 8 8 8 8 8 8 8 9 0 0 0 8 8 8 8 8 8 8 9 0 0 s s s s k k k k s s s s k k k s 4 4 4 4 4 4 9 k 4 4 4 4 4 4 8 s s a 3 a s s a a 3 3 3 3 3 8 s s s s s s 8 8 s s s s s s 8 8 8 3 1 3 s s d s s 8 3 8 8 8 8 4 4 8 8 8 8 3 8 8 s s 3 3 3 3 1 1 3 3 1 3 u s u u u 4 4 4 9 s s s s k s s s s s 9 s s s s s s s s k k s s s s s s 4 < 1 3 8 8 3 1 * o o     * u k l s I W s * 2 2 + t - 2 - 2 2 3 1 3 3 3 3 3 1 1 ; ; 3 3 3 8 s s 8 3 8 8 8 0 0 0 0 l 0 0 0 0 0 0 0 0 0 s s s s s s k s k l k s s s s s 8 8 8 8 8 8 8 8 8 8 8 8 8 8 8 s s s 8 8 8 s s 8 8 8 8 0 0 0 0 9 9 8 8 8 8 8 8 8 8 8 7 9 w w 9 0 0 w w w 0 0 9 0 9 9 9 8 7 7 7 9 w w e 9 8 8 9 9 l 0 8 6 0 s 8 3 3 3 3 1 3 3 8 8 8 4 4 4 8 8 8 8 8 9 8 3 3 8 9 4 8 8 0 0 0 9 8 s s s s s 8 8 8 1 1 l &.l.;._ U x l 3 $ X X $ = 3 3 < 3 3 = 3 Y _ ' ' ` Y L K K l l k s s s s s s k k l l k s s s k l x l l l x x x v x x x l k s s 8 8 9 0 s s s s s s s s s s s s s s s s s s 0 0 9 9 8 8 8 8 8 3 3 8 s s s s ",
"s s s s k s k k s s s s s 8 3 3 8 8 s s s s 8 s s 8 8 8 s s s s s s = = 1 < = 1  .I d d l 0 9 7 9 9 9 9 8 8 9 9 8 8 8 8 8 8 8 8 8 9 9 9 s s s s l s s s s k k k l l l k k s s s s k s s s s k k s u 4 4 9 s 9 4 8 8 3 8 s s a 3 3 3 8 8 3 3 8 s s s 8 8 8 s s s s s 8 8 3 3 1 = 1 s x c x s 8 3 3 8 8 8 8 3 8 s 8 4 3 3 8 8 8 8 3 3 3 3 3 3 3 3 1 3 u y 4 3 4 4 s 9 s s s s s k s s s s s s s s k s s 8 4 4 8 s s s k k s 9 4 4 3 4 3 < &   * * *   o 3 s s s l Q x s < ; 2 2 2 2 2 2 2 3 3 ; ; ; ; 3 3 1 1 3 3 ; 1 1 3 s s s 3 8 8 8 9 9 s s d s s 9 9 9 0 s s s s k k k s s s s k k s s s 8 8 8 8 s s 8 3 8 8 8 8 8 8 8 8 8 8 8 8 8 8 8 8 9 9 8 8 8 9 9 0 0 0 0 9 9 9 8 8 8 8 8 8 8 9 9 w w w 9 9 9 9 9 9 0 0 8 8 8 8 9 9 9 9 9 9 w 9 8 8 9 0 w 9 1 1 0 v s < 3 3 3 3 3 3 3 3 8 s s 8 3 3 8 s s s 8 8 3 3 8 8 8 8 8 0 0 0 0 9 s s s s 8 8 8 8 4 1 7 v  .&. .v W I l 3 $ X   $ = < 3 3 < = 8 I +.' @.' Y L U U v l l s s s s s l s s k k s s s k s k x x l k x x x x x x x l l s s 9 8 8 9 s s k k k s s s s s s s s s s s s s 8 8 8 8 8 4 3 3 3 3 3 8 s s s s ",
"s s s s s k k k s s s s s 4 3 3 8 8 s s s s 8 s s s s 8 s s 8 8 s s 1 ; 1 = = 3 X.I d 0 0 9 9 7 9 9 9 8 8 9 9 9 8 8 8 8 8 8 8 8 9 9 9 9 9 s s s l s s s s k k k l l k k k k s s k k s s s s k k s u 4 4 9 s 9 4 s 8 3 8 s s a 3 3 3 8 8 3 3 8 s s s s s s s s s s s s 8 1 1 1 3 s l c x s 8 3 1 3 8 8 8 8 8 8 s 8 4 3 4 8 8 8 8 3 3 3 3 3 3 3 3 1 3 y u 4 4 u 4 s 9 s s 8 s s s s s s s s s s s s 8 8 8 8 s s s s s s s s s 4 4 3 3 < * o o * * o   = s k s s x | x 3 = ; 2 2 2 2 2 2 2 3 3 1 1 ; ; 3 3 1 1 3 3 1 1 1 3 s s 8 3 8 8 9 9 9 9 s s s 0 9 9 9 s s s 0 s k k k k s s s k k s s s s s 8 8 s s 8 8 8 8 8 8 8 8 8 8 8 8 8 8 8 8 8 8 9 9 8 8 8 9 9 0 0 9 0 9 9 8 8 8 8 8 8 8 8 9 w w w w 9 9 9 9 0 0 9 9 9 9 9 9 9 9 9 9 9 9 e 9 9 9 9 0 l 8 1 1 d v 0 1 3 3 3 3 3 3 3 3 3 3 8 s 8 8 8 s s s 8 8 1 1 3 8 8 8 0 0 0 0 0 s s s s 8 8 8 8 8 8 1 1 9 L U v e I W W l 3 $   X $ = 3 3 < = 3 l +.' ' ' _ Y U U v l l s s s s s l k s l k s s s k s k x x l k x x x x x x x x l s s 0 8 8 9 s s k k s s s s s s s s s s s s s s 9 9 8 8 8 3 3 3 3 3 3 3 8 s s s ",
"s s s s s s s s s s s s 4 3 3 3 8 s s s s s s s s s s s s 8 8 8 y s 8 3 3 = = 8 &.W l 0 9 9 6 9 9 9 8 8 8 8 9 9 8 8 8 8 9 9 9 9 9 9 9 9 9 9 s s l s s s s k k k l l k k k k s s k k k k s s s s s s 4 4 9 s 9 4 8 8 8 8 s s a 3 3 3 8 8 8 8 8 s 8 s s s s s s s s s s 3 1 1 3 s c c x s 8 3 1 3 3 8 s 8 8 8 8 8 3 3 4 8 8 8 8 3 1 3 3 3 3 3 3 3 1 3 y u u u u u s 8 s s 8 8 s s s s k k s s s s 3 4 4 8 s s s s 8 s 9 s 9 9 9 8 3 < . . o & * *   & 3 l l s l I  .l 3 = 2 3 2 2 2 2 2 2 3 2 1 1 ; ; 3 3 1 1 3 3 3 3 1 1 3 3 3 3 8 8 9 9 8 8 9 s s s 8 8 8 8 0 0 0 0 s k k k s s k k k k s s s s 8 8 s s 8 8 8 8 s 8 8 8 8 8 8 s 8 9 9 9 9 9 9 9 9 9 9 9 9 9 q q 9 9 9 9 8 8 8 8 8 8 8 9 w w w w e 0 0 9 0 0 9 9 9 9 9 9 9 9 9 9 w w e e 0 0 9 9 0 8 1 9 v l 9 3 3 3 3 3 3 3 3 3 < 3 8 s s 8 8 8 8 8 8 3 1 1 3 8 8 9 0 0 9 0 0 0 s s s 8 8 8 8 s 9 7 1 1 8 9 8 7 d I  .W l <   X $ $ = 1 1 1 1 8  .' ' +._ Y Y U v l l s k k s s l k k l k s s s s s k x x l k x x x x x x x x x s s s 8 8 8 9 9 s s s s s s s s s s s s s s s s s 0 8 4 3 3 3 3 3 3 1 3 3 a s s ",
"8 s s s s s s s s s 8 4 3 3 3 3 8 s s s s s s s s s s s s 8 8 8 a s s s s 3 1 s &. .K d 9 6 6 9 9 9 8 8 8 8 9 9 8 8 8 8 9 9 9 9 9 9 9 9 9 9 s s l s s s s k k k k k k k k k k k k k k k s s s s s s 4 4 9 s 9 8 8 8 8 8 a s a y 3 8 8 8 8 8 8 s 8 s s s s s s s 8 3 3 1 1 1 s l l l s s 3 3 3 8 3 4 8 8 8 8 8 8 3 4 8 8 8 8 3 3 1 3 3 3 3 3 3 3 3 3 3 y u u u u 4 8 8 s s s s s s s s s s s s s u 4 s s s s 8 8 9 9 9 9 9 9 9 9 3 * X X * * o     1 s l l s v Y  .l < = 2 3 2 2 2 2 2 2 3 3 1 1 ; ; 3 3 1 1 3 3 3 3 1 1 1 3 3 3 8 9 0 9 8 8 8 9 s s 9 8 8 8 0 0 9 0 k k k k k s k k k k s s s s 8 8 s s s s 8 8 s s 8 8 8 8 s s 9 9 9 9 9 9 9 9 9 9 9 9 9 9 q q 9 9 9 9 8 8 8 8 8 8 9 e w w w w w w 0 0 0 9 9 8 9 9 9 9 9 9 9 9 w w 9 e w w 0 8 1 1 8 l v 0 8 3 3 3 3 3 3 3 3 3 1 1 3 8 8 8 8 8 3 8 8 3 3 3 8 8 9 s 0 0 0 0 0 0 s s s 8 8 8 8 8 s 8 4 1 1 1 7 7 1 0 x Y I s < $     $ < 3 1 1 1 U Y +.+._ Y T T I v l l l k k k k k k k k k k k s s f x x l l x x x x x x x x x l s s 9 8 8 8 9 s s s s s s s s s s s s s s s s k s 8 3 3 < 3 3 3 3 1 1 3 3 s s ",
"4 s k s s s s s s s 4 3 3 3 3 4 8 8 s s s s s s s s s s 8 8 8 8 s s 8 s l s s d &. .U l 0 7 7 0 9 8 8 8 8 9 9 9 8 8 8 8 9 9 9 9 0 0 0 s s s 0 0 l s s s s k k k k k k k k k k k s s s s s s s s s s 4 4 9 9 9 8 8 8 8 8 a a a y 3 8 8 8 3 3 8 s 3 8 s s s s s s 3 1 = = 3 s s l s s s 8 3 3 3 8 3 3 3 8 4 4 4 3 3 3 8 s 8 8 3 < 1 1 3 3 3 3 3 3 3 3 3 3 u u s s 4 8 s s s s s s 4 3 3 1 1 1 3 3 u s s s s s 9 9 9 9 9 9 9 9 9 9 3 . X . * * o   ; a d s 9 d I  .U s = = 2 3 2 2 2 2 2 2 2 2 ; ; ; ; 3 3 1 1 3 3 3 3 1 1 1 1 3 8 8 9 9 9 8 8 8 8 s s 0 8 9 9 9 9 9 9 s k k k k k s s k s s s 8 8 8 8 8 s s s s 8 8 8 8 8 8 8 s s 9 9 9 9 9 9 9 9 9 9 9 9 9 9 9 9 9 9 9 9 0 0 0 0 8 9 9 w w w w w w w 0 0 0 9 9 8 9 9 9 9 9 9 9 9 w w 9 9 w 0 9 7 $ 1 l I l 1 1 1 3 3 3 3 3 3 3 3 3 1 3 3 3 3 3 3 1 3 3 3 8 8 8 s 9 0 0 0 0 0 0 0 s 0 s 8 8 8 8 8 8 8 8 8 4 4 8 9 4 4 8 l I x 8 <   X   * 1 3 1 < 0 T +.+._ U T Y I v l l l l k k s k k k l l l l s s s x x l l x x x x x x x x x l l s 0 9 8 8 9 s s s s s s s s d d d s s s d d s s 4 3 3 3 3 3 3 3 3 1 3 3 u u ",
"4 k l s s s k s s s 4 3 3 3 4 8 8 8 s s s s s s s s s s 8 8 8 8 s s 3 8 l l s x  .Q U I l 9 9 9 9 9 8 8 8 8 9 9 8 8 8 8 9 0 0 0 d d s s s s 0 0 l s s s s k k k k k k k k k k k s s s s s s s s s s 4 4 s 9 9 8 8 8 8 8 a a y 3 3 8 8 8 3 3 8 8 3 8 s s s s 3 3 1 = = 1 s d l l s s s 8 3 3 3 3 3 3 3 3 8 8 4 3 3 8 s s 8 3 3 < 3 3 3 3 1 3 3 3 3 3 3 3 u s s s 8 9 s s s s s s < < * & & * ; 3 3 3 3 4 s s s k s s 9 9 9 9 9 9 < . X O * o o o 3 s d s 9 v Y  .x 3 * = 3 3 2 2 2 2 2 2 2 2 ; ; ; ; 3 3 1 1 3 3 3 3 3 3 1 3 8 8 8 8 9 9 8 8 8 8 s s 0 8 9 9 9 9 8 9 s k k k k k s s s s s 8 4 4 8 8 8 s s s s s s 8 8 8 8 s 8 s 9 9 9 9 9 9 9 9 9 9 9 9 9 9 9 9 9 9 9 9 0 0 0 0 9 9 9 e w w w w w 0 0 0 9 0 9 9 9 9 9 9 9 9 9 9 w w 0 9 9 8 1 1 % 0 I v 8 1 1 < 3 3 3 3 3 3 3 3 3 3 1 1 1 3 3 1 1 3 3 8 8 8 s s 9 9 9 9 9 0 9 0 0 s 0 9 8 8 8 8 4 8 8 8 8 8 8 0 0 8 8 s v x l 8 =   X & = 1 1 1 8 K Y +.Y U U Y I I l l l l k k s k l k l x c l s s s l x l l x x x x x x x l l l l s 0 8 9 8 9 s s s s s s s k d d d s s s d s s 8 4 3 1 3 3 3 3 3 3 3 3 3 3 u ",
"s l c k s s k s s s 4 3 3 3 4 s 8 8 s s s 8 s s s s s 8 8 8 8 8 s s 3 3 s s s x U U U U l 9 7 7 8 8 8 8 8 8 8 8 8 8 8 9 9 0 0 0 s s s s s s 0 0 s s s s s k k k e e k k k k l l s s s s s s s s s u 4 4 s 9 8 8 8 8 8 8 s a y 3 3 8 8 8 3 3 8 s 3 8 8 8 8 3 1 1 < 1 3 s d l l l d s s 8 3 3 3 3 8 4 3 8 8 8 8 4 3 8 s s 4 3 < < 3 3 3 3 1 3 3 3 3 3 1 3 u s s s s 9 s s 9 4 3 3 = * & & * * 2 2 1 1 1 3 3 4 s s s s 9 9 9 9 9 9 * .   * O . * 3 s d d s d Y  . .l 1 * 2 y 2 2 t 2 2 2 2 2 1 ; ; 3 3 3 3 1 1 3 3 3 3 3 3 3 3 8 s 8 8 8 8 8 8 8 9 s s 0 8 9 8 9 9 8 9 s k l k k s 8 s s s s 4 4 4 s 8 8 s s s s s s s 8 8 8 s s s q q 9 9 9 9 9 9 9 9 9 9 9 9 9 9 9 9 9 9 0 0 0 0 0 9 9 e w w w w 9 0 0 0 0 0 0 0 9 9 9 9 9 9 9 9 9 9 0 9 7 1 1 , 8 v I 0 1 1 3 < 3 3 3 3 3 3 3 3 3 3 1 3 3 8 3 3 3 3 a a 8 8 8 s 8 8 9 9 9 9 9 0 e 0 0 9 8 8 8 8 4 8 8 8 8 8 8 8 0 9 8 9 l v x l s =     & = 1 1 1 q K Y  .Y U U I v v l l l k k k l x k k x x l s s s l x l l x x x x x x x l l l l s 0 8 8 0 9 s s s s s s s s s s s s s s s s 8 4 3 3 1 1 3 3 4 4 3 3 3 3 3 3 ",
"s x c l s k k s s s 4 3 3 3 8 s 8 8 s s 8 8 s s s 8 8 8 8 8 8 8 s s 8 3 8 8 s x l I U U K 9 6 6 9 8 8 8 8 8 8 8 8 8 8 9 0 0 0 0 d s s s s s 0 0 s s s s s k k k k k k k k k l l s s s s s s s s s u 4 4 s 9 9 8 8 s 8 s s a y 3 3 3 8 8 3 3 8 s 3 3 8 3 3 1 1 = < 3 s x x l l l d s s 8 8 s s s s 8 8 8 s s s 8 3 8 s s 3 1 1 1 3 3 3 3 1 3 3 3 3 3 1 3 u s s s s s s s 4 3 < = = = = = 2 2 3 3 1 1 1 1 3 3 4 4 s s 9 9 9 9 9 s * . . o o   ; s s l s 0 v  .&. .s < * 1 y 2 2 y 2 2 2 2 1 1 ; 1 3 3 3 3 1 1 3 3 3 3 8 8 3 8 s s 8 8 8 8 8 8 8 9 s s s 8 9 8 8 8 8 9 s k l l k s s s s s 8 3 3 3 s 8 8 s s s s s s s 8 8 8 s s 9 q 9 9 9 9 9 9 9 0 9 9 9 9 9 9 9 9 9 9 9 0 0 0 0 0 9 9 9 w w w w 9 0 0 0 0 0 0 0 9 9 9 9 9 9 9 9 9 9 w 9 7 , , , l Y I 8 = 8 8 < 3 3 3 3 3 3 3 3 1 1 3 3 s s 8 3 8 s s s 8 8 8 8 8 8 8 8 9 9 9 9 e k 9 9 8 8 8 8 s 8 8 8 8 8 8 8 8 8 9 9 9 l x x l 3 & X   & ; 3 1 6 d U  . .U v I I v l l l k k l x x l k x l s s s s l x l l x x x x x x x x l l l s s s s s s s s s s s s s s s s s s s s s s 3 3 3 3 1 3 3 3 4 3 3 3 3 3 3 3 ",
"3 l c c s s s s s s 8 3 3 3 s s s s s s 9 9 9 9 8 8 9 8 9 9 9 9 9 9 9 8 8 8 9 0 l K Q Q d 6 8 9 8 8 8 8 8 8 8 8 8 8 9 s s s s s k k s s s s s s s s s s s s k k k k k s k k k k k s s s k k s 8 s s s s 8 8 4 4 4 4 4 u u 3 3 3 3 3 3 u u u u s s u 3 1 2 2 1 3 s k l l k s s s s s s s s s 8 8 3 3 4 s s s 4 3 s s s 3 1 2 1 3 3 3 3 3 3 3 3 3 3 1 3 3 s s s s s s s u 1 = = ; 2 2 2 2 2 2 3 3 2 ; ; ; < 1 3 4 8 9 s 9 s s s 3 o o & o $ = s l 8 l l 0 Y G.G.+.3 1 2 ; 2 3 3 2 2 2 2 2 2 2 3 3 1 ; 1 3 3 3 8 8 3 8 8 8 3 4 8 s 9 9 9 8 8 8 9 9 s s s s 9 8 9 9 s 9 8 s s s s s s s s s 3 3 3 3 8 8 9 0 s s s 9 9 9 9 9 9 9 9 9 9 9 9 9 9 9 0 0 9 9 q q 9 9 9 9 9 9 9 9 9 9 0 0 7 9 w w 9 7 9 e 9 9 9 9 9 9 9 e 9 9 9 9 9 9 9 9 9 w 0 , , 7 7 7 _ K 0 6 8 8 8 3 3 2 3 3 3 3 3 3 1 3 3 8 8 8 8 8 8 8 8 8 9 9 9 8 8 7 7 7 9 9 0 9 9 s s s 4 3 3 8 s s 8 9 9 9 9 0 9 9 9 0 0 0 s s I d <   X & 1 1 < < 8 l U W I x x x v l l l l l c s s x c l s s s s s k l l l s x x x x l l l l l k s s s s s f s s s s s s s s s s s s s s s s 3 3 1 1 3 3 3 3 8 4 3 3 3 4 4 3 ",
"3 k c x k s s s s s s 4 4 3 8 s 8 s s s 9 s 9 9 9 9 9 9 9 9 9 9 9 9 8 6 6 8 9 9 d l Q  .l 8 8 8 8 8 8 8 8 8 9 9 8 8 9 s s s k k k k s s s s s s k k s s s s k k k k k s k k k k l k s k l k s s s s s s 8 8 4 4 u u u u y 3 3 3 3 3 3 3 3 u s s 3 3 3 2 * = 3 k k l l l k k s s s s s s s s s s 4 8 s s s s s u s s u 3 3 3 3 3 3 3 1 1 1 3 3 3 3 1 1 3 s s s s f s s 3 2 ; ; ; ; ; ; ; 2 2 3 3 2 2 ; = < < 1 3 4 8 s 9 s s s 3 o . o & = 4 s l 0 0 0 U l.K.:.U 1 1 ; ; 2 3 3 3 2 2 2 2 2 2 3 1 ; 1 1 3 3 3 8 8 3 8 8 8 3 3 8 s 9 9 9 8 8 8 8 8 s s s 0 9 8 9 9 s s 8 s s s s s s s s 4 3 3 3 3 8 9 9 9 s s 9 9 9 9 9 9 9 9 9 9 9 9 9 9 9 9 q 0 9 9 9 9 9 9 9 9 9 9 9 9 9 0 0 0 9 9 9 7 7 7 7 9 9 9 9 9 9 9 9 9 9 9 9 9 9 9 9 9 l 8 1 1 , , 7 L U v 9 6 6 8 8 3 3 2 2 3 3 3 3 3 3 3 4 8 8 8 8 8 8 8 8 8 9 9 8 8 8 8 7 7 9 9 0 0 9 k s s u 3 a s s s a 9 9 9 q 0 9 9 0 0 0 0 s s I I s =     * * 1 1 3 s x W I x x c x x l l l l l s k c c s s s s s s s l l l k x x x l l l l l l k s s s s f f s s s s s s s s s s s s s s s s 4 3 3 1 3 3 3 3 4 3 3 3 4 8 4 3 ",
"1 s x x s s s s s s s 4 4 3 4 8 8 8 8 s s s 0 9 9 9 9 9 9 9 q q 8 6 8 6 6 6 6 8 q d Q  .l 8 8 8 8 8 8 8 8 9 9 9 8 8 9 s s k l l k k k s k k s k k k k k s s k k k k k k k k k k k k k k k k s s 4 4 4 8 9 8 s s 8 8 u u u 3 3 3 s u 3 3 3 3 s s 3 2 = * 1 3 s x l l l l k k k s s s s s s s s s 8 s s s s s s s s u 3 3 3 y 3 3 3 3 1 1 1 3 3 1 1 1 2 3 s s s s f s 3 2 ; ; ; * * = ; 2 2 2 3 2 3 2 ; = = < < 1 1 3 4 8 s s u 2       = 3 k l l s d I &.l.&.K 8 = ; ; 2 3 3 3 3 3 3 3 3 3 3 3 3 ; 1 3 3 3 3 3 3 3 8 8 8 4 4 8 s 9 9 9 8 8 8 8 8 0 0 s 0 8 8 8 8 s s s s s s s 4 4 s 8 4 3 3 3 4 8 9 9 9 s 9 9 9 9 9 9 9 9 9 9 9 9 9 9 9 9 9 q 0 q 9 9 9 9 9 9 q q 9 0 0 0 0 0 0 w 9 7 1 1 7 7 7 e 9 9 e 9 9 9 9 9 9 9 9 9 9 9 9 e 1 , , , 1 w  .v w 9 8 6 6 1 1 3 3 3 3 3 3 3 3 1 3 8 8 9 s 8 8 8 8 8 8 8 8 8 8 8 8 8 8 9 9 0 0 k k s u s s s s s s s 9 0 0 q 0 0 0 0 0 0 0 0 s x I W s =     & 1 3 1 3 s I I l c c x x l l l l s s l c l 8 3 s s s s s k l k k l l l l l l l l k k s s u u f f s s s s s s s s s s s s s s s s 8 3 3 1 1 3 3 3 4 3 3 4 8 s 4 3 ",
"1 s l l k s s s k s s 8 4 4 4 4 3 8 8 s s s 0 9 9 9 9 9 9 q 8 6 6 6 6 8 8 6 6 6 1 9 U Q l 6 8 8 9 8 8 8 8 9 9 9 8 8 9 s k l l l k k k k k k k k k k k k s s k k s k k k k k k s s s s s s s s s 8 8 4 8 9 8 s s 8 8 u u u 3 3 3 3 3 3 y 3 3 3 3 3 * o ; s c c k x l l l k l l l s s s s s s s s 8 s s s s s s s s 3 3 3 y y y 3 3 3 1 1 3 3 3 1 1 1 1 3 s s s s s y 3 ; ; ; * * * ; 2 3 3 3 3 3 3 3 2 = = < < < < 1 3 4 s s y *   X   < s l l 0 8 I X.&.Q 0 1 $ = = ; 2 3 3 3 3 3 3 3 3 3 3 3 3 1 1 3 3 3 3 3 3 3 8 8 8 4 4 8 s 9 9 9 8 8 8 8 8 0 0 s 0 8 8 9 8 s s s s 8 8 4 4 3 4 8 4 3 3 3 4 s 9 9 9 9 9 9 9 9 9 9 9 9 9 9 9 9 6 9 9 9 9 q q q 9 9 9 6 6 6 q q q 9 0 0 0 0 0 0 9 7 9 9 9 7 7 9 9 9 9 9 9 9 9 9 9 9 9 9 9 7 7 1 1 , % 1 v ` L w 9 q 8 8 6 1 1 3 3 3 3 3 3 3 3 3 3 8 8 s s 9 8 8 8 8 8 8 8 8 8 8 8 8 8 9 9 9 9 9 u u 4 u s s s s s s 9 0 0 q 0 0 0 0 0 0 0 s s s I W c 3 &   & = < 1 < 3 l x l x x x x x l l l s s l x s 3 3 s s s s s k l k k l l l l l l k k k s s s u u s f s s s s s s s s s s s s s s s s 8 4 3 1 1 1 3 3 3 3 3 4 4 3 3 3 ",
"3 s l c x k s s s s s s 4 4 3 4 3 8 8 s s s s s 8 8 9 9 q 8 6 6 q 8 8 9 9 9 6 6 6 8 l I 9 6 q 8 8 8 8 8 8 8 8 8 8 8 8 s s l l l k k k k k k s s s s s k k k k k s s k k k k s s k k s s s s s s 8 8 8 8 8 s s s 8 8 u u u 3 3 3 3 3 u u 3 3 1 2 = = 1 s c W c k x x l l l l l l s s s s s s s s 8 8 s s s s s s 3 3 1 1 y y y 3 y 3 1 1 3 3 3 1 3 1 1 3 u s s s y 3 2 ; 2 ; * & 2 1 1 3 3 3 3 3 3 3 2 < < < < < < 1 3 8 s s 3 o     $ 1 s l l 8 8 W &.W 9 1 1 < * * = ; 2 3 3 2 3 3 3 3 3 3 3 3 1 3 3 3 3 3 3 3 3 3 8 8 8 3 8 s 9 9 9 8 8 8 8 8 0 0 s s 8 8 8 8 s s s s 4 4 3 3 3 4 4 4 3 3 3 4 s s 9 9 9 9 9 9 9 9 9 9 9 9 8 8 9 9 9 9 9 9 9 9 9 9 9 9 q q q q q 0 0 0 9 9 0 0 9 7 9 l v k 7 5 7 7 7 7 9 9 9 9 9 9 9 9 9 9 6 6 1 < $ 1 v  ._ w 9 8 6 6 8 1 1 1 3 3 3 3 3 3 3 3 3 3 8 8 s s s 8 8 8 8 8 8 9 9 9 8 8 8 9 0 0 0 9 9 4 4 4 4 4 s s s s s 9 0 9 q q 0 0 0 0 0 0 0 0 8 l I I d 1 & $   = 1 < < 8 l l l x x x x l l l s s s s s s 8 s s s s s s l l k l l l l l l l l e s 9 9 u s s s s s s s s s s s s s s s s s s s 8 4 3 1 1 1 3 3 3 3 3 3 3 3 3 3 ",
"s l c W W x k k s s s s s 4 3 4 3 8 8 s s s s s 8 8 8 8 8 q 8 q 9 9 8 9 9 9 8 1 8 1 9 d 6 1 q 9 8 8 8 9 8 8 8 8 8 8 0 s s l l l k k k k k k k k s s k k k k k k s s k k k k s s k k k k s s s s 9 s 9 9 8 8 8 8 8 8 u u 4 3 3 3 3 3 3 3 3 1 2 = * y x W c l x c l l l l l l l k s s s s s s s s 8 8 s s s s s y 3 3 1 3 3 y y 3 3 3 2 2 3 3 3 3 3 1 2 1 3 u u u 1 1 2 2 2 ; = & 1 3 3 3 3 3 3 3 3 3 1 1 2 < < < 1 3 4 8 s s 2     $ < 4 l l l s I W I 8 = < < * = * * = 2 3 3 2 3 3 3 3 3 3 3 3 3 3 3 3 3 3 3 3 3 3 8 8 4 3 8 s 9 9 9 8 8 8 8 8 0 0 s s 8 8 8 8 s s s s 4 3 4 4 4 4 4 4 3 3 4 4 s s 9 s 9 9 9 9 9 9 9 9 9 9 8 8 9 9 9 9 9 9 q 8 9 9 9 9 9 9 9 q 6 6 6 q 9 9 9 0 9 8 e v U l 7 1 7 7 5 5 7 7 7 7 9 9 9 9 9 6 1 1 1 $ , v  .U v 9 9 8 9 6 6 6 1 1 3 3 3 3 3 3 3 3 3 3 3 8 8 s 8 8 8 8 8 8 9 9 9 9 8 8 8 0 0 0 0 8 4 4 3 4 8 8 s a s s s d 0 0 0 0 0 0 0 0 0 0 0 0 s s l I I s = &   $ = < < 3 s l l l l x l l l l l s 8 4 s s s s s s s s s k l k l l l l l l l l e 9 8 4 4 s s s s s s s s s s s s s s s s s s s s 8 3 3 3 3 3 3 3 3 3 3 3 3 3 3 ",
"l x W Q W l s s s s s s s s 4 4 4 4 8 s 8 8 8 8 9 8 8 8 8 9 9 d 9 8 8 8 9 9 8 1 8 1 8 9 3 1 8 8 8 8 9 9 9 9 8 8 8 8 s s s k l l k k k k k k k k s s s s k k k k s s k l l k s s k k k s s 8 s k s s s 8 8 4 4 3 8 8 u u 3 3 3 3 3 3 3 1 1 2 ; = s l W W B l x c l l l l l l k k k k s s s s s s s s s s s s u 3 3 3 3 3 3 3 3 3 3 2 = ; 3 3 3 2 3 2 = = 2 3 3 3 = 2 ; = = = ; 2 3 3 3 3 3 3 3 3 3 3 1 1 1 1 < < 1 8 s s s 3 ;   X $ 8 0 l l v x  .x 8 < = = = & ; * * * ; 2 2 2 3 3 3 3 3 3 3 3 3 3 3 3 3 3 3 3 3 8 8 8 3 3 8 s 9 9 9 9 8 8 8 8 9 9 s 9 8 8 8 8 s s s s s 4 8 s 4 4 s 8 3 3 3 3 s s s s s s s 9 s s s s s s 8 8 9 9 9 9 9 9 6 6 8 q 9 0 0 9 9 9 6 6 6 6 8 8 9 0 0 8 9 l l 4 < < r 4 7 5 5 7 7 9 9 9 0 0 6 6 = % % , e _ _ v 9 9 9 9 9 6 6 6 6 8 1 1 3 3 3 3 3 3 3 3 4 8 8 8 8 8 8 8 8 8 9 9 9 9 8 8 8 0 0 0 0 8 4 4 4 4 s s s 8 s s s s d 0 0 9 9 9 0 0 0 0 0 0 d 9 s x W x 8 < *   $ < 3 < 3 s s l l l l l l s s s s 4 s s s s s s s s s k l k l l l l l w e e 9 9 4 4 4 8 s s s s s s s s 8 8 s s s s s s s s s s s 8 3 3 3 3 3 3 3 3 3 3 s s ",
"x x W Q W l s s s s s s s s s u 4 8 8 s 8 s 8 8 s 8 8 8 9 9 d l 9 8 8 8 8 9 8 1 9 1 3 9 8 8 8 8 8 8 9 9 9 8 8 8 8 0 s s s k l l k k k k k k k k s s s s s k s s s s k l l k s s s k s s 8 4 s s s s s 8 8 4 4 3 8 8 u u 3 3 3 3 s y 3 ; = = = 2 Q W c c W W c k k k l l x l s s k k k s s s s s s s s s s s u 3 1 3 3 3 3 3 3 3 1 = & = 1 3 3 2 3 2 * * = 2 ; = = 2 = = * * 2 3 3 3 3 1 1 1 1 1 3 3 3 3 3 3 < < 3 9 s s u 3 *     < 0 l l l x W I 8 = 1 3 < 1 s ; * * * = 2 2 2 3 3 3 3 3 3 3 3 3 3 3 3 3 3 3 3 3 3 8 8 3 3 8 s 9 9 9 9 9 8 8 8 9 9 s s 8 8 8 8 s s s s s 4 s s 8 s s 8 3 3 3 3 s s s s s s 9 9 s s s s s s s 9 9 0 9 9 9 8 6 1 6 q 9 0 d 0 9 9 8 6 : 1 6 8 0 0 l 8 7 9 4 < , , k e e 4 7 7 9 9 9 0 0 9 6 1 = % X 9  ._ l 0 0 9 9 0 9 9 6 6 6 6 1 3 1 3 3 3 3 3 3 3 3 8 8 8 8 8 8 8 8 8 8 9 9 9 8 8 9 0 0 0 0 8 4 4 4 9 s s s 8 s 9 s s d 0 0 9 9 9 9 0 0 0 s s s 8 0 x W I l 8 3   X = 3 < < s s s l l l l s s s s s s s s s s s s s s s k l l l l l l w w e e 9 7 8 4 4 8 s s s s s s s s 8 4 4 4 s s s s s s s s s s s 3 3 3 1 3 3 3 3 8 k x ",
"s s s k k k s s s s s s s s s s s s s s 8 8 8 8 8 8 8 s s s d l 8 8 8 8 8 3 3 3 3 3 3 8 8 8 8 9 8 8 8 9 9 9 0 0 8 8 8 9 9 s k l k k k k k k k k s s s s s s s s s s k l k k k k k s s s s s s s s 8 8 8 8 8 8 4 4 s s 3 3 u u 3 3 2 = = & o u W W W V x x l k k s s s k k k k k k s s s s s s s s s s s 4 4 3 3 3 3 3 1 3 y 3 ; 1 2 = 2 3 3 3 1 3 1 2 2 2 2 2 ; 2 = * & = 3 3 1 3 3 3 3 3 3 3 3 y 3 1 3 3 < < 3 k 9 s k s = o   % 9 v l l I I c 1 1 1 1 1 1 3 3 ; ; ; * * * ; 2 3 3 3 3 3 3 3 3 3 3 3 3 3 3 3 3 3 3 3 8 8 8 8 8 8 8 8 8 8 8 9 9 8 9 s s 9 8 8 8 s s s s 3 3 3 s 4 4 4 4 4 4 4 8 s s s s s s s s 8 s s s s s 8 8 0 9 9 9 q 8 8 8 1 8 9 d 0 9 8 8 6 6 1 ; = 1 1 3 8 9 e 9 , , 5 v | v 4 5 4 9 9 7 0 0 9 6 1 % % % 0 Y  .v 9 0 0 9 0 0 9 6 6 9 0 9 9 9 s 8 8 8 8 8 3 3 3 3 3 3 8 s 8 8 8 8 8 8 9 9 8 8 8 0 s 0 3 < 9 9 8 s s s s s 8 8 9 s l w 0 0 0 0 0 0 0 0 0 0 0 0 0 0 v I I l s <     & < 3 1 s s s s l x l 8 s s s s s s 4 3 3 3 3 s s s k l d d l l w w w w 9 9 9 9 9 9 8 8 s s s s s s s s 4 4 8 8 s 4 4 4 8 s s s s s 4 4 3 < = 3 k c I c ",
"s s s s k k s s s s s s s s s s s s s s 8 8 8 8 8 8 8 s 9 s s s 8 8 8 8 8 8 3 3 8 8 8 8 8 8 8 8 8 8 8 9 9 9 0 0 8 8 8 9 s s k l k k k k k k k k s s s s s s s s s k k k k s s k k k s s s s k k s s 8 4 4 4 4 4 3 s s s s s s 3 = 2 = o = s V V W V c x l k k f s s s s k k l l k s s s s s s s s s s s 4 3 3 3 3 3 3 3 y y 3 ; = * = 2 1 3 3 3 1 1 1 1 1 1 1 1 1 1 2 = ; 3 3 3 3 3 3 3 3 3 3 3 3 3 3 3 1 < 3 9 k 9 s k s = o   = 8 v v x x x s 1 1 3 1 1 1 3 3 2 ; ; - * * ; 2 3 3 3 3 3 3 3 3 3 3 3 3 3 3 3 3 3 3 3 8 8 8 8 8 9 9 8 8 8 8 8 8 8 0 s s s 8 8 8 4 s s s 3 3 3 s 4 4 4 4 3 3 4 4 8 8 8 s s s s s s s s s s s 8 8 9 9 9 9 q 8 8 8 8 9 d d 0 9 8 6 6 1 1 ; 1 1 1 3 7 8 9 9 4 4 v | v k 4 5 4 9 9 8 0 0 9 1 % % 6 q L U U l 9 0 0 8 9 0 9 6 6 9 q 9 0 9 8 8 8 8 8 8 8 8 8 3 3 3 3 4 8 8 8 8 8 8 8 8 9 8 9 0 9 9 4 3 9 9 0 s s s s 8 8 8 9 0 0 w w w 0 0 0 0 0 0 0 0 0 0 0 0 l c c l s 3 $   $ = 1 3 8 s s s s l s 8 s s s s s s 4 4 4 8 s s s s s s d d 0 0 w w w w 9 9 9 9 9 9 9 8 s s s s s s 4 4 4 8 8 8 s 4 4 4 8 s s s s s 4 4 s s s l c c l s ",
"s s k k k k s s s s s s s s 8 8 u u s s s s 8 8 8 8 8 8 8 s 0 s 8 s s s s 8 3 3 8 8 8 8 8 8 8 8 8 8 8 9 9 9 9 s 8 8 9 s s s l l k k k k k k k k k k s s s s k k k k k s s s s k k k k k k l l l s s 9 4 3 3 4 4 s s s u 1 2 = * & * & * s W Q x c c l l f s s s s s s s s k k k k s s s s s s s s s s 4 4 3 3 3 3 3 3 3 y y 3 * & & * = 3 3 3 3 1 3 3 3 1 1 3 3 3 4 3 1 < 3 3 3 3 3 3 3 3 3 3 3 1 y 4 3 < 3 s l k 9 s k u &     1 s x x I x s = 1 1 1 1 1 1 3 2 2 ; ; * - * ; ; 3 3 3 3 3 3 3 3 3 3 3 3 3 3 3 3 3 3 3 8 8 8 8 8 9 9 8 8 8 8 8 4 0 s k s s 9 8 8 4 s s s 4 3 3 8 3 3 4 4 4 3 8 8 8 8 8 s s s s s s s s s s 8 8 8 9 9 8 8 8 8 8 8 9 d d d 9 8 6 1 6 1 1 1 1 1 3 3 4 8 9 9 8 4 k v k 9 4 4 9 9 0 9 9 8 1 1 % 1 0 K _ I l 0 s s 0 8 9 0 9 9 7 9 9 7 9 9 9 9 9 9 8 8 s s 8 3 3 < 3 3 4 8 8 8 9 9 8 8 9 s s 0 8 8 8 8 0 0 0 s s s s 8 8 8 8 0 0 e w w 0 0 0 0 0 0 0 0 0 0 9 9 l v v l l s < $ $ $ < 3 3 8 s s s s s 8 s s s s s s s 4 s s s s s s s s 0 0 0 0 0 0 0 9 7 7 9 9 9 9 8 8 s s 8 8 4 4 4 4 4 8 s s s 4 8 4 8 s s s s s s 4 s l x c c l s 3 ",
"s s s k k k s s s s s s 8 8 8 8 u u s s s s 4 4 8 8 8 8 8 s s s s s s s 8 8 4 3 3 3 4 8 8 8 s s 8 8 8 8 8 9 9 9 8 8 8 s s l l l l k k k k k k s k k s s s s k k k k s s 8 8 s k k k k k l l x x s s s 4 4 4 8 s s s 1 * & & * * = o * s W V x c l l k s s s s s s s s s s s k k k s s s s s s s s s s 4 4 3 3 3 3 3 3 3 y 3 ; o   o & 2 3 3 3 3 1 3 3 3 1 1 3 s s s s 3 1 1 3 3 3 3 3 3 3 3 3 3 3 y 3 < 1 s l l s 9 s s 3 & o & s l I I x s 3 = 1 1 1 1 1 1 3 1 2 2 ; ; * * ; ; 2 2 3 3 3 3 3 3 3 3 3 3 3 3 3 3 3 3 3 8 8 8 8 8 9 9 9 8 8 8 8 8 0 s k k s 9 8 8 4 s s s 4 3 3 4 3 3 4 4 4 4 8 s 8 8 8 8 s s s s s s s 8 8 8 8 8 8 8 8 8 8 8 8 8 9 9 d 0 9 8 1 1 1 1 1 1 < < 1 3 9 8 4 4 7 7 4 9 4 4 9 9 9 0 0 0 9 1 1 $ 1 9 K Y U l 8 9 s 8 8 8 9 0 0 9 9 0 9 7 9 9 9 9 9 9 8 8 8 8 8 4 3 3 3 3 3 4 8 8 9 9 8 8 9 s s 9 4 8 9 s k 0 s s s s 8 8 s 9 8 9 9 0 w l 0 0 0 0 0 0 0 0 0 8 9 0 0 l v l l d 8 < $ $ = < < 8 s s s s s s s s s s s s s s s s s s s s s s 9 0 0 9 9 9 9 9 7 7 8 8 9 s s s 8 8 8 4 4 3 4 4 4 4 s s s 4 8 8 4 4 s s s s s s s s k s s s s s ",
"s s s s s s s s s s s s s s s 8 u u u u u u 4 4 3 3 3 8 s s l l s s 8 8 4 4 8 8 3 3 3 4 8 8 s 8 8 8 8 8 8 8 9 9 8 8 0 s l l l l l l k k k k s s k k s s s s k k k k s s 8 8 s s s s k k l l l x s s s 8 4 8 s s s 3 & & * 2 1 2 * = s W W l s x k s s s s s s s s s s s s s s s s s s s s s s s s s s 8 4 4 u u 1 3 3 3 y 3 *     o = 1 3 3 3 3 3 u u 3 1 3 s f s l k 8 3 1 3 3 3 3 3 3 3 3 3 3 3 3 3 < 4 x c k 9 8 s s 1 & & ; x E W K s 3 1 = 1 1 1 1 1 1 2 1 2 2 ; ; ; = * * ; 2 2 3 3 3 3 3 3 3 3 3 3 3 3 3 3 3 3 4 8 8 8 8 8 9 9 9 9 9 9 9 8 s s s 0 8 8 8 4 8 s s 8 4 3 3 3 3 8 8 8 4 s s s s s s s s s s s s s 4 3 4 4 8 3 8 8 8 8 8 8 8 8 9 9 q 8 6 1 1 3 3 < < < < 3 3 4 4 3 4 8 0 0 9 4 8 9 0 0 0 9 9 8 1 $ 1 8 v I I l 9 4 0 9 4 8 0 0 w 0 0 0 0 0 7 q q 0 9 9 9 9 9 8 8 8 8 3 3 3 8 1 4 4 9 9 9 9 8 9 9 9 9 4 4 9 l l l 0 0 s 9 8 8 0 8 9 9 9 0 w l l d 0 0 0 0 0 0 9 8 9 9 0 e l v s l s 8 < $ $ = < 3 s d s s s s s s s 4 4 s s s s s s s s s s s 8 9 9 9 9 9 9 6 8 8 8 8 8 8 s s 4 4 4 4 4 4 3 3 4 s s s 8 4 4 4 4 4 s s s s s s s s s 8 4 8 s k ",
"s s s s s s s s s s s s s s s s u u u 4 u u 4 4 3 3 3 8 s s l l s s 8 8 4 8 8 8 8 8 8 8 8 8 8 8 8 8 8 8 8 8 9 9 8 9 s l l l l l l l l k k s s s k k s s s s k k s s s 8 8 8 s s s s s k l l k l k s 9 9 s s s s 4 < * = 2 = & o & s Q W x l k s s s s s s s s s s s s s s s s s s s s s s s s s s s s 8 s s u u 3 3 3 3 y 3 ;     & 1 3 u u u u u u 3 3 1 3 s s s l k s 3 3 3 3 3 3 3 3 3 3 3 3 y 3 1 3 k c l 9 9 8 s 8 1 & = a W W I d 1 = 1 3 1 1 1 1 1 1 2 1 2 2 ; ; ; = * * ; ; 2 2 3 3 3 3 3 3 3 3 3 3 3 3 3 3 3 4 8 8 8 8 8 8 8 8 8 8 9 9 8 9 s s 0 8 8 8 4 4 s s s 8 4 3 3 3 8 8 4 4 s s s s s s s s s s s s 8 4 4 4 4 4 3 8 8 8 8 8 8 8 8 8 8 8 6 1 1 1 3 2 < < < < 3 3 1 4 3 4 8 0 9 8 8 8 9 0 0 0 9 9 1 1 < 1 e v l l 9 7 8 0 9 3 8 s 9 w d 9 9 0 0 0 q q 0 9 9 9 9 9 9 9 s 8 3 3 3 3 3 3 4 8 9 9 9 9 9 9 9 4 4 8 s k l d 0 0 s s s 8 0 0 9 9 9 e w l l l d 0 0 0 0 0 9 8 9 9 9 0 l I d l l s 3 < = $ < < 8 s l s s s s s 4 4 4 s s s s s s s s s s s 8 9 9 9 9 7 6 6 8 8 8 8 8 s s s s s 4 4 8 4 4 3 4 8 s s 8 4 4 4 4 4 s s s s s s s s s s s s s s ",
"s s s s s k s s s s s s s s s s u u 4 4 u u 4 4 4 4 8 8 8 s s s 8 8 s s s s s 8 8 8 8 8 s s s s 9 9 8 9 8 8 8 9 8 9 s l l l l l l l l k k s s s k k k s s k k k s s s 8 8 8 s s s s k k k k k k l s 8 8 s s s 4 1 < = 2 = & & * s W | V k k k s s s s s s s s s s s s s s s s s s s s s s s s s s s s s s s s s 3 s s 3 u y 2 o o = 3 s s u u y u u 3 3 3 3 u s s s s s s s s 3 3 3 3 3 3 3 3 3 y 3 3 s x x s 4 8 8 8 4 2 & 3 l Q W x 8 = * = 3 1 1 1 1 1 1 2 2 2 2 2 ; ; * * * ; ; ; 2 3 3 3 3 3 3 3 3 3 3 3 3 3 3 3 4 8 8 8 8 9 9 8 8 8 8 3 3 4 8 9 0 9 8 8 8 4 4 4 s s s 4 3 3 3 8 8 4 4 s s 4 8 8 s s s s s 4 8 s s 4 4 3 3 3 8 8 8 8 8 8 8 8 8 8 8 1 1 1 1 3 2 5 < < < 3 3 1 4 8 3 7 9 8 1 8 8 3 8 8 s 9 9 < < 3 8 k k 9 9 9 8 8 8 8 8 8 8 9 0 9 7 9 0 0 0 q q q q 9 q 9 9 9 9 s 8 3 3 3 3 3 3 4 4 8 8 9 9 9 8 4 4 4 9 0 s l 0 0 0 s s s s 0 9 9 9 0 e w l l l d 0 9 0 9 0 0 9 9 0 9 9 l U v l s s s 8 < $ = = 3 s k s s s s s 4 4 8 s s s s s s s s s s s 9 9 9 9 9 8 8 6 8 8 8 8 8 8 s a s s s s s s 4 4 8 8 s s 8 4 3 3 8 8 8 8 s s s s s s s s s s s 8 ",
"s s s s s s s s s s s s s s s s u 4 4 4 u u 4 4 4 4 8 8 8 8 s 8 4 s s l l s s 8 8 8 8 s s s s s 9 9 9 9 8 8 8 8 8 9 s l l l l l l l l k s s s s s k s s s s s k 9 s s s 9 9 s s s s k k l l k k x s 8 s s s 8 1 = = = < = = 8 x X.Q W W c s u s s s s s s s s s 4 4 s s s s s s s s s s s s s s s s s s s s s s s s s s s s 3 * & = 3 s s s 3 3 3 3 3 s s s y 3 s s s s l l s 4 3 3 3 3 3 3 3 3 1 1 3 l c k 4 4 9 4 4 4 = * 3 c ~ c s 3 = = ; 1 3 1 3 1 1 1 2 2 2 2 2 ; ; = * * - ; ; 2 2 3 3 3 3 3 3 3 3 3 3 3 3 3 3 4 8 8 8 8 0 9 8 8 3 1 < < 3 4 8 9 8 8 8 8 4 4 8 8 s 8 3 3 8 4 8 8 8 4 s s 4 4 4 4 8 8 8 8 3 3 4 s s 4 3 3 3 8 8 8 8 8 q q 9 9 q 8 1 1 1 3 3 2 < < < < < 3 < 3 8 8 8 0 0 8 8 1 1 1 8 s s 9 = 1 8 s 9 8 4 4 0 9 8 3 8 0 s 8 8 8 8 6 7 9 w 9 0 0 q 9 9 9 9 9 8 9 0 8 8 3 3 3 3 3 4 4 4 4 9 s u 4 4 3 8 9 0 0 w 0 0 0 s s s 9 9 9 9 0 e e w l l l 0 0 9 0 9 0 0 0 0 0 9 9 l Y I l s s l s 3 = = $ < 8 l s 8 8 s s 4 3 4 s s s s s s s s 8 4 8 9 9 9 9 9 8 8 6 8 8 8 8 8 8 3 3 s s s s s s s s 8 s s s 8 3 3 3 8 8 8 8 s s s s s s s s s s s s ",
"s s s s s s s f s s s s s s s s s s s s s u u u 3 s s s u 3 3 3 s d x x d s 8 8 8 8 8 s s s l l x l s s 8 8 8 s 8 s d x l l l x l l l l d s s s d s d s s s s 8 s 4 4 4 s s s 4 s k l l k s k l g s s s a 1 = = = < < = = 8 Y &.X.Q c d s s s 3 s s s s s s 8 8 4 8 8 8 8 8 4 s s s s s s s s s s s s s s s s s 8 8 8 s s 8 3 ; & 1 s s 4 8 4 4 9 4 3 3 3 3 3 3 s s s s d s d s 8 3 8 1 < < < < $ 3 l c l 8 4 3 s 8 3 3 = * s ~ g s 3 ; = = ; 2 2 2 2 2 3 1 3 1 1 1 1 1 1 = & o & * ; 1 1 1 1 1 3 3 3 3 1 3 3 3 8 8 3 8 8 8 9 9 s 9 3 3 3 3 3 3 3 1 3 s k s 9 s 8 8 s 9 9 8 8 8 8 8 8 8 8 3 3 3 4 3 3 3 4 4 4 3 4 4 8 8 8 4 4 3 1 8 8 8 8 6 6 6 1 1 1 3 < = 1 3 < 4 4 3 3 2 * 5 < 1 4 9 9 9 8 7 5 9 1 e 9 1 d 1 < 8 s s 9 9 9 9 4 4 9 9 9 4 4 9 4 4 5 5 5 5 4 9 w w 0 9 9 9 9 9 9 9 9 7 7 7 7 7 3 3 3 4 4 4 u u u 4 3 4 9 e w 0 0 s s s d 0 0 0 0 8 8 0 l l l w w v v v 9 8 9 w w 9 9 9 0 0 l v U v e 9 k k 0 8 $ * = 1 4 s s s s k k s 4 4 8 s s 8 8 8 8 8 4 3 9 9 9 8 8 8 8 8 8 8 8 8 3 1 1 1 s s s s s s 8 8 8 8 8 s s s s s s s 8 4 4 8 s s s s s s s s s s ",
"s s s s s s s s s s s s s s s s s s s u u u u 3 3 3 s s u s s s l l l s s 8 8 8 8 s s s s d l l x l s s 8 8 8 s s s d l l l l l l l l d s s s s s s s s s s 8 8 s 8 4 4 s s s s s k l l k k l x x f f s a 1 = = < $ $ 8 Y &.#._ X.W l s s s s s s s s s s s 8 8 4 8 s s s s s s s s s s s s s s s s s s s s s s 8 8 8 8 s 8 1 = & 1 s s 4 4 4 4 4 4 8 8 3 1 3 8 s s s s d d d d d s 8 8 1 1 1 1 4 s v v k 8 8 8 s 8 3 = = 3 x W s u 3 ; = ; ; 2 2 2 2 2 2 3 3 3 1 1 1 1 1 = * & & & * ; 1 3 3 1 3 3 3 3 1 1 3 3 3 8 3 8 8 8 9 0 k 9 3 < < 3 3 3 8 4 4 s k s 8 9 8 9 9 9 9 8 8 8 8 8 8 8 8 8 3 3 4 4 4 4 8 4 4 3 4 4 8 8 8 4 4 3 3 8 8 8 8 8 8 8 8 8 3 < = = 1 < < 3 < < 1 3 < 5 < 1 5 4 4 4 7 7 r 5 1 9 8 1 8 < 8 s s s 8 4 4 4 4 4 s s 4 4 4 s 4 4 5 5 < 5 4 4 e w 9 9 9 9 9 9 9 q q q 7 7 7 7 6 8 3 4 4 u u u u 5 3 4 9 e w 0 0 s s l l d 0 0 0 8 8 0 l l l w l w l w w 0 9 9 w 9 9 9 0 0 d l _ L e 9 9 e 0 e < < * = 3 4 s s s s s s 8 4 8 8 s 8 8 8 9 8 4 3 8 9 8 8 8 8 8 8 8 8 8 8 3 3 3 3 s s s s s s 8 8 8 8 s 8 8 s 8 8 s s s 4 4 4 s s s s s s s s s s ",
"s s s s s s s s s s s s s s u u u 4 u u u y 3 3 3 3 4 s s s s l l l s 8 3 3 8 s s s s l l l l l l l s s s 8 8 8 s s k l l l l l l l l s s s 8 8 8 8 s s s s 8 8 s s 8 8 s s s s l k s s l l l l s s y 3 3 = = = $ 1 l  .&.;.#. .Q E g s s s s s s s s s s s a a s s s s s s s s s s s s s s s s s s s s s s s s a a 3 3 a 3 3 1 & ; s s 8 4 4 3 1 4 s 4 1 = 1 a s s s s s s s d l l s 8 8 8 9 9 x c x l 8 3 8 0 8 8 <   = l W l y 3 2 ; ; ; ; ; 2 2 2 2 1 1 1 1 1 1 ; 1 1 = = & & & & * 1 3 3 1 1 1 3 1 1 1 1 1 3 3 3 8 8 8 8 8 9 4 3 < 3 4 s s 8 4 8 k k s 8 4 0 9 9 9 8 8 8 8 8 8 8 8 8 8 8 8 8 8 s s 8 4 3 3 4 4 4 4 4 3 3 3 8 8 q q 8 8 8 9 0 s 8 < < 1 3 < 3 5 < < < < < 5 < 5 5 1 1 7 4 7 r 5 7 7 8 7 1 1 s d s 8 4 4 4 4 4 4 4 4 4 4 4 9 4 4 1 < < < 5 7 9 9 9 9 9 9 9 9 9 9 9 9 9 7 q q 6 8 3 4 4 u u u u 5 3 4 0 w w w 0 0 k k l l l l 0 9 8 9 k l l e l w e e w w 0 9 0 9 0 w d 0 0 w Y L v l e e e k 4 3 = * = 1 3 4 8 8 9 s s s 8 3 s 8 8 8 8 8 4 3 8 6 6 8 8 9 9 9 8 8 8 8 3 3 3 8 s s s s s s 8 8 s s s s s s s s s s 8 4 3 3 s s s s s s s s s s ",
"s s s s s s s s s s s s s s u y u s s s u u u u 3 3 u u s s s l l l s 8 3 8 s s s k l l l l l l l l s s s 8 8 s s s s l l l l l l l s s s s 8 8 8 8 s s 8 s 8 8 s s s 8 4 4 s s k s s k l l k s s 3 1 = = & = 1 8 W k.l. .L I | I x s s s s s s s s s s s s a a s s s s s s s s s s s s s s s s a a a a a a s s s a 3 3 y 3 3 1 & ; s s 8 4 4 3 < 1 4 4 1 1 3 s s s s s s s s l l l l l v x v c Y I x s 8 3 8 8 4 3 =   1 I I s 3 2 ; ; 2 2 2 ; ; ; ; ; 2 2 2 2 3 1 ; ; 1 ; = * &     & ; 3 3 1 1 1 1 1 1 1 1 1 3 3 3 8 8 8 8 8 4 4 3 1 3 3 4 8 3 3 4 s s s 9 8 s s 9 9 8 8 8 8 8 8 8 3 8 8 8 9 8 s s s 4 3 3 3 4 4 4 4 3 3 3 3 1 8 8 8 8 8 8 8 s l s 3 3 s 9 1 1 < 5 4 2 5 5 < 5 < < < 1 1 4 4 7 r v 7 7 0 1 8 d s s 8 4 u 4 4 4 4 4 4 4 4 4 4 4 4 5 < < 1 5 8 9 9 9 9 9 9 9 9 9 9 9 9 9 9 9 9 9 8 4 4 4 4 u p u 2 3 4 s l w w 0 0 k k l l l l e 9 8 9 0 k l k l w e 0 9 9 9 9 0 9 0 l l 0 0 k v v U U v l e s s 4 1 & & = 1 3 3 4 4 s k k 8 3 s 8 8 8 9 8 4 3 1 6 6 6 8 9 9 9 8 8 3 3 3 3 8 8 s s s s 8 s 8 8 s s s s s s s 8 s s 8 3 3 3 8 s s s s s s s s s ",
"s s s s s s s s s s s s s s y 3 s s s s u s s s u s u u u s s s s s s s s s s l s l l l l l l l l l s s s s 8 8 8 s s s l l x x l l s s s s 8 8 8 8 8 8 8 8 8 s s s s 3 3 3 4 s s s s l l l s 3 8 3 < = = = 3 s X.&.f.X.I k s l k f s s s s s s s s s s s s s u s s s s s s s s s s s s s s u u s a a a a a s s s s a a a 3 3 1 & = 3 s 4 4 4 4 < 5 3 3 3 y y a a s 8 s s s s s s s l x I I I I c x k 9 4 4 4 8 3 = & < s l s 1 2 - - 2 2 2 2 - - - - - ; ; ; ; 2 ; ; ; 2 2 ; ; * o   o * 3 3 3 1 3 3 3 3 3 1 1 1 3 3 3 8 8 8 8 9 8 4 4 3 1 1 < 4 4 4 9 9 s 9 8 s 9 9 8 8 8 8 8 8 8 3 8 8 8 9 s s s s 4 3 3 3 9 4 4 4 3 3 3 3 3 6 6 6 q 8 6 6 8 s l s 9 9 9 4 1 5 > 5 r 4 1 4 4 1 5 < < 1 3 4 4 5 ` ;.e 1 e < 8 s s s 4 4 s 4 4 4 4 4 4 4 8 8 9 9 9 4 4 1 7 8 9 9 8 9 9 9 9 0 0 9 9 9 9 9 9 9 9 7 8 8 8 4 4 u u u 2 3 4 s s l d 0 0 s s k k l l k 9 8 3 8 s s k 0 w l 0 8 7 8 8 d 0 s l l s s k e l U U x l k k l s 3 = & * 2 1 3 3 4 s k k s 4 s 8 4 4 s 8 4 3 1 6 6 8 8 8 8 8 1 1 3 3 3 3 8 8 8 8 8 s s s s 8 s s s s s s 8 8 4 4 4 3 3 3 8 s s s s s s s s s ",
"s s s s s s s s s s s s s u y 3 s s s s s s y y u s u y 3 3 u s 8 8 s s l l l s s l l l l l l l l l s s s s 8 8 8 8 8 s s l l l l s s s 8 8 8 8 8 8 8 8 8 8 8 8 4 s 4 3 1 1 3 8 s s s k k s 3 1 = < < 3 8 l I  .f.X.W l 8 8 0 k s s s s s s s u s s s s u s s s s s s s s s s s s s s s s s u u s a a 3 3 3 3 3 a a 3 a a 3 1 1 o * 3 u 4 4 4 4 < 5 2 4 u u u y a a 8 8 s s s s s s l l x l l s k s 8 4 4 4 4 4 3 & & 4 k s 1 2 - - - - 2 2 - - - - - - - - - - 2 ; ; ; 2 3 2 ; ; *     & ; 1 3 3 3 3 3 3 3 1 1 3 3 3 3 3 8 8 s 9 9 s k l l k 9 k s s 9 8 9 9 4 9 9 8 8 8 3 3 8 8 8 8 8 8 8 8 9 s 8 3 < < < 4 9 4 4 4 3 3 3 3 3 8 0 0 0 8 8 8 3 s s s s 4 4 4 4 5 . 5 k 4 4 v 4 1 1 1 1 3 4 4 4 5 ;.l.e 5 4 < 1 3 8 8 4 4 u 4 4 4 4 3 3 4 8 8 8 9 9 9 9 8 9 9 e 8 8 9 9 9 9 0 0 9 9 9 9 9 8 9 9 9 8 9 8 4 4 4 u u 5 2 4 s s s 9 0 0 s s s s s s k 8 3 3 3 8 s s 0 w l 0 8 1 8 9 0 0 0 l l s s l l l l k k k l x l k s 3 < = = = 1 3 4 8 s s s s s 9 4 4 8 8 4 3 1 6 6 8 8 8 8 8 < < < < 3 3 3 3 8 3 8 s s s s 8 s s s s 8 8 8 8 3 3 3 3 3 3 8 s s s s s s s 8 8 ",
"3 3 y u u s s s u s s s s u 3 3 3 y 3 3 y 3 3 3 3 3 y 3 3 3 3 3 3 3 s s d l s s s s s s s s s d l d s s s s 8 8 8 3 3 3 s s s s s s s 3 3 8 8 8 3 3 8 8 8 8 3 3 3 3 3 1 2 ; 1 3 s s s s u 3 3 1 = 1 9 l I Y  .&. .I x 8 3 3 s l s s s s s s s s s s s u u s s s s s s s s u u u s s s s s s u u s s y 3 3 3 3 3 3 3 3 3 y 3 1 = o * 3 u 4 5 4 s 2 5 4 4 4 3 y y 3 3 3 3 y a s s s s s s s s 8 8 s 4 3 3 3 4 3 3 = & = s s 1 = 2 - - - - - - - + - - - - - - - - 2 2 ; ; 3 3 1 1 ; * o     o ; 2 3 3 3 3 3 3 3 3 3 3 3 3 3 4 s s 8 8 0 l v I I I k k 0 4 4 9 9 8 9 8 8 3 3 3 3 3 8 8 8 8 8 8 8 8 8 3 < < < 3 4 4 4 3 3 3 3 3 3 8 9 0 0 9 9 6 1 1 8 3 4 s 4 5 4 k k > < k r e v 5 3 3 3 4 4 4 4 4 e ,.| r 4 < < < < 4 4 4 4 4 4 4 u 4 3 3 4 8 8 4 8 8 9 9 8 9 0 0 8 0 8 8 8 9 0 0 9 8 9 9 9 8 8 7 9 9 9 8 4 4 u 5 u u 2 3 u s s s 9 s s s s s s s s 8 3 < 3 8 s s 0 0 l 0 0 8 0 0 0 8 8 d d s s l l k 0 9 9 s k l k l l s 3 < = & < < 3 3 3 s s s s 8 4 4 s s 4 3 3 8 8 8 8 3 3 3 < < < < 1 3 3 3 3 y y a s s s s s a a a 3 3 3 3 3 3 3 3 3 3 s s s s s s 4 4 3 3 ",
"3 3 3 3 3 u s s u s s s s u 3 3 3 3 3 3 3 3 3 3 1 3 3 3 3 1 1 3 3 3 8 s s s s s s s s s s s s d l d s s s s 8 8 3 3 1 1 3 8 8 3 s 8 3 3 3 3 3 3 3 3 3 3 3 3 3 3 3 3 3 2 * * 1 3 s s s u 3 2 2 1 9 w L _ _ U U  .I l 4 3 8 s s 4 s s s s u u s s s s s s u s s s s s s s u y 3 3 s s s s s u u u s s a 3 3 3 3 3 3 3 3 3 3 3 ; * o + 2 u 4 5 4 k 2 4 u u 3 2 3 y y 3 3 3 3 3 y s s s 8 8 3 8 8 8 s 4 < < 3 4 3 3 o * 1 u 3 = = 2 - - - - - - * + - - - - - - - - 2 ; ; ; 1 3 3 1 2 = &     o * 2 3 3 3 3 3 3 3 3 3 3 1 1 3 4 s s 9 9 9 9 e k k k 0 0 8 1 7 9 0 9 8 8 8 3 1 3 3 3 8 8 8 8 8 8 8 8 3 1 = = 1 3 3 3 3 3 3 3 3 3 s s 9 9 0 q 6 1 < < 3 1 3 s 4 5 k | ) , > r r e v 5 4 4 4 4 4 4 4 4 k O.r 5 k < < < < 4 u 4 4 4 5 5 u 4 3 3 3 8 8 4 3 8 8 9 8 8 9 0 0 9 8 8 8 9 0 0 8 8 9 8 8 8 8 8 9 9 9 8 4 4 u 5 u y 2 3 u s s 8 8 8 s s s s s 8 s 8 3 < 3 8 8 0 0 9 0 0 s l l l 8 8 8 0 s s s s 9 9 9 s s 9 9 8 k l x l s 1 = $ = < 1 1 1 3 s k s 4 4 4 s s 4 3 3 8 8 8 3 3 3 3 1 1 < < 1 3 3 3 3 3 y a s s s s y y 3 3 3 3 3 3 3 3 3 3 3 3 s s s s s s 4 3 3 3 ",
"1 1 1 3 3 y s s s s s u y 3 3 1 3 3 3 3 3 3 3 3 3 3 3 3 3 3 3 3 s s s s s s s 8 s s s s s s s s s s s s s s 4 3 4 3 3 3 1 3 3 3 3 3 3 3 3 3 3 3 3 3 3 1 1 3 3 4 3 3 3 1 1 1 3 3 y y 3 = & * 3 k l l v v I I I c s s 4 3 3 3 u u y y y y y y y y u y y y u s u s s s s u y y 3 3 3 3 y u s s s s y y 3 3 3 2 2 2 ; 2 3 3 3 2 * o o O * 2 4 5 > > > 4 j u 2 2 y 3 3 3 3 3 3 3 3 3 3 3 3 3 3 3 3 3 3 3 2 3 4 4 2 * * 2 3 y 3 ; * * - - - - + + - + + + + + + + + + - - ; 2 2 2 2 - 2 - + o   o + - 2 3 3 3 3 3 1 1 3 3 3 3 3 4 s s 9 8 8 4 4 4 4 4 4 4 4 4 3 3 3 3 8 3 < 1 3 3 3 < 3 3 3 8 8 8 3 < < < < < < 1 3 3 3 3 3 3 3 3 3 3 6 6 6 6 6 ; ; ; 3 = 2 u 4 < e | ) 5 X > r r r v 5 5 4 4 4 4 4 4 5 , 5 5 < < < < < 2 4 u u 4 5 5 4 u 4 3 3 4 4 4 < 3 3 8 8 9 8 8 8 8 8 8 8 0 8 8 8 8 8 8 8 8 8 8 9 9 9 4 3 3 3 4 3 3 3 3 3 3 3 1 8 4 3 3 3 4 4 8 s 8 3 < 1 4 8 9 0 0 s s s s 0 0 s s s s s s s s 9 9 s s s s s s 8 s s l x k 3 = $ * = < < < 3 4 s s s 4 4 3 3 1 3 3 3 3 3 3 3 1 1 1 1 1 1 1 1 1 1 3 y s s s s y 3 y y y 3 3 3 1 3 3 3 3 4 s s s 8 8 4 3 3 3 3 1 ",
"3 1 1 1 3 3 3 y y y y 3 3 3 1 1 3 3 3 3 3 3 3 3 2 2 2 1 1 3 3 3 s s s s s s s s s s s s s s s s s s s s 8 8 8 s 8 8 3 3 3 3 3 3 3 3 3 3 3 3 3 3 4 3 3 < = = = = 3 3 3 3 3 3 3 3 2 = * & = 3 s k s 9 9 k l c l l 8 4 4 3 3 3 3 u u u u u u u u u y 3 3 3 y y y y y y y y 3 3 3 3 3 y y u s s s s 3 3 3 3 2 1 2 2 ; 2 2 3 1 ; * o o + o + 2 < > 5 j k j 5 2 2 2 2 3 3 3 3 3 3 3 3 3 3 3 3 3 3 3 3 4 3 3 3 3 3 2 * o * 2 2 2 * * * - - - - + + - + + + - - + + + + - - 2 2 2 2 2 2 2 - + o o o o o ; 2 2 3 1 1 1 1 3 3 1 1 3 3 3 3 4 4 4 4 3 4 4 4 4 4 4 4 3 1 1 1 1 < = < 3 3 3 1 3 3 3 3 3 1 < < = = = = = < < 1 < 1 1 1 1 3 3 3 6 6 6 6 1 ; = = ; * 2 4 4 5 4 v c 5 . 5 v ) c c 5 5 5 5 4 4 4 5 > > 5 5 > > < 5 2 5 5 5 5 5 5 5 2 4 4 2 5 3 3 1 < < 3 3 4 8 8 8 8 8 8 8 8 8 8 4 8 8 8 8 8 8 8 8 8 9 9 8 4 3 4 4 2 2 3 3 3 3 3 3 4 4 3 3 3 3 4 4 8 4 1 < < 3 4 8 8 8 8 8 8 8 8 8 8 3 3 3 3 3 3 s k k k k s s s s 8 8 s k l k s 3 $ & = < < < 3 3 s s s s 4 3 3 1 3 3 3 3 3 3 3 3 1 1 1 1 1 1 1 1 1 3 3 3 3 3 3 3 3 3 3 3 3 3 3 1 < < < < 1 3 4 8 3 3 3 3 3 3 3 1 ",
"3 3 1 1 1 2 1 3 3 3 3 3 3 3 1 1 2 2 1 1 2 1 1 1 1 1 1 1 3 3 y y 3 3 3 3 3 u s s u u u u u u u u s u 3 1 1 1 3 3 s s u 3 3 3 3 1 3 3 3 3 3 3 1 1 3 3 2 * & & o o & = 2 1 1 2 = & *     & 1 s s s 3 1 < 3 s l s 4 1 3 1 3 3 3 3 3 3 3 3 3 3 3 3 3 2 2 2 2 y y u u 3 3 3 3 3 2 ; ; ; 2 3 3 3 3 3 3 2 2 2 ; ; ; ; 2 2 2 2 ; = * o o + O   + < O + k V z 4 + O 2 2 - 3 3 3 3 - ; ; ; ; ; 2 1 1 3 1 3 3 2 < < 2 < + o + * 2 2 - + + + + + + + + O O O + + + + + + + + - - - 2 2 2 2 2 t - + o o o o X * ; 2 2 ; ; 3 3 3 3 3 3 3 3 3 3 4 3 3 3 3 3 3 4 3 3 3 3 < < < = = = = = 1 3 3 1 3 8 3 3 < = = = * = = = = = = = 2 2 1 2 1 1 1 1 1 1 1 1 < = = * + o = 1 3 5 1 4 r , . 5 v ) v r 5 5 5 5 5 4 4 r 5 r r r 5 > < r 4 5 2 5 5 5 5 5 < 2 2 2 2 4 4 2 < < < 3 3 3 4 8 8 8 3 3 8 8 8 8 s 8 8 8 8 8 8 8 3 3 4 3 3 2 2 3 3 2 3 2 3 3 3 3 1 1 < < < 1 1 3 4 3 1 < 1 3 3 3 3 3 3 3 4 4 3 3 3 3 3 1 3 3 y 3 s s s s s s 8 4 3 3 3 8 s s 4 3 & & & = 2 1 2 = 3 3 s s u 3 1 1 ; ; ; 1 1 1 1 ; 1 1 1 1 1 1 2 2 1 1 1 2 2 1 3 3 = ; 2 1 1 1 1 1 3 3 3 3 3 8 s s 1 1 1 1 1 1 1 1 ",
"3 1 1 2 2 2 2 1 3 3 3 3 3 3 3 3 1 1 1 1 1 3 3 3 3 3 3 3 3 3 y y 3 3 3 3 3 3 3 3 3 4 3 3 3 3 4 4 3 1 ; = * = ; 2 3 3 3 3 3 1 2 = 3 3 3 1 3 1 1 1 < < * * & & & *   o & * * & o   * o   * 1 3 3 1 < = = < 3 4 3 1 2 2 2 2 1 3 3 2 2 2 2 2 2 2 2 2 2 2 2 y u s s s 3 3 2 2 2 2 ; ; * * * * - * * * ; ; ; = ; ; ; ; 3 1 2 * & o     O +   o * o < z | z 2 . O 2 2 - ; - - - ; ; ; - ; ; 2 < 2 2 1 2 < * * * * * o o * - 2 2 - + + + + + + + O O O + o o o o o o o o + - - - - - - - - + o o + + o X o + ; 2 2 3 3 y 3 3 3 3 3 3 3 3 3 3 1 < 1 < 1 3 3 3 3 3 1 < = = = = * = 1 1 1 1 1 3 3 3 = = = < * = = 2 2 2 = = = = 2 2 1 2 1 1 < 1 = = = * * * * - ; = < 3 1 < < > > < r k r > 5 5 r j r r r k ) ) v r 5 5 5 r 5 5 5 5 j j 5 < > 2 2 2 5 5 5 4 < < < 1 3 3 3 3 3 3 3 3 8 8 8 8 s 8 8 4 3 3 3 3 < < < < < < < < 2 2 2 2 1 1 1 1 < < < < < < 1 1 3 3 1 3 3 3 3 3 3 3 3 3 3 3 3 3 8 3 3 3 3 3 y a 4 4 8 s 8 8 4 3 4 3 3 3 3 3 3 1 = & & & = = = = * 1 u s 3 1 2 1 = * = = = = = = 1 1 1 1 3 3 3 3 1 1 2 2 2 2 1 1 2 2 2 2 1 1 1 1 1 1 1 1 1 1 3 3 1 1 1 1 3 3 3 3 ",
"1 = = = = = = 2 1 1 1 3 3 3 3 1 3 3 3 3 3 3 3 3 3 3 3 3 3 3 3 3 4 4 4 3 3 3 3 3 3 3 3 3 3 3 3 3 2 < < * * * * * * * < < < < * * 2 2 2 2 2 2 2 2 * o o o o O * * * * * * o o o o * * ; 2 1 3 ; ; * 2 2 2 < 2 2 2 2 2 2 2 t t t t 2 2 2 2 2 2 2 2 2 2 2 2 y y u y ; ; ; ; ; - - - ; - - - - - - - - - - - - - - - 3 2 - * o o o o * + o o O . O s V k * o * 2 ; - - - - - - 2 2 2 2 2 2 2 ; - - - - * * * * * + O - - - - + + + + - + + + + + + + + + + + + + + + + + + + + + o o o @ X @ O + o X X o - 2 2 - - 2 2 2 2 2 2 2 2 2 = = = * * & & * = < 1 < 1 < 2 = & & & & = = = = = < 1 < * & = < * * = = = = = * = = = = = = ; < = = $ * & & * * - - ; * = 3 1 1 > , < , < 5 5 > 5 r r k r r v ) O.) r > > 5 5 5 + < 5 u j j 5 > < 2 2 2 2 2 + + O * < 3 3 3 1 < < < < 3 4 8 8 8 4 4 3 3 < < < = = 2 2 2 2 2 = = = = = = < < < < 2 2 2 2 2 3 2 3 3 3 3 3 3 3 3 3 3 3 3 3 3 3 1 1 3 1 1 1 1 1 3 3 3 3 4 8 s 8 4 4 4 3 3 1 1 3 3 1 1 =     o * = * & = 3 3 1 = = 2 ; ; ; 1 1 1 1 1 1 1 2 1 2 2 2 2 2 2 2 2 2 2 2 ; 3 3 3 3 3 3 3 3 1 1 3 3 3 3 3 3 3 3 3 3 3 3 3 3 ",
"= = * * * = ; 2 2 2 1 1 1 1 1 1 2 2 2 1 1 1 1 1 = = = = ; ; 2 1 2 2 2 2 2 2 2 2 2 2 2 2 2 2 2 2 * * * * * * o o o o O O * * * O * * * * * * * * O O o o o o o o * o o o   o o * * ; 3 3 2 ; ; ; - 2 y 2 - * - 2 - - ; 2 2 2 2 - - - - 2 - - - - 2 - + O - - - O ; ; ; - - - - - - - - - - - - - - - - - - - - - 2 2 - + o o + - ; 2 * o o . . < k 2 o . + o o o + + - - - - - - - - * + o o o o + O + O O O O O O O + + + + + + + + + + + + + + + + + + + + + + + + O o o o o o X X X @ o o o @ X o o - * * + o + + O O o o o o & & o   .         & & = = = * & $ $ $ $ $ $ . . $ * = * & & * = & * * * = * * & & & * * * * * = * < $ * O * - - - * & & & = = $ . > < > . . > . 5 5 r r 5 5 ) ,.O.r > X > 5 < > O > 5 u j 5 > > < > > > O . X X . O < < < < < = < < < < 3 3 3 3 3 1 < < * * * & * * * * * * * & & & & * * * * * < < 2 2 2 2 2 2 2 2 2 2 3 3 2 < < < < < < < < 1 < = = = = = 1 1 ; < 1 3 3 3 1 1 < = = = = < < < 1 = &     & & * * = 2 2 ; = = ; ; ; ; 1 1 1 1 1 1 2 2 2 2 2 2 2 2 2 3 2 3 2 2 2 2 2 2 2 2 2 2 2 3 3 3 3 3 3 3 3 1 1 1 1 1 1 1 1 ",
"1 1 2 2 2 2 1 1 3 3 3 3 3 3 1 1 1 1 1 1 2 1 1 1 2 2 = = = = = < * * < 2 2 2 2 2 3 3 3 3 2 2 2 2 * < < < * * * * * O * O o * O O * * O O O O o o * * * * O * * o * o o o o o o * ; 2 3 3 2 2 2 2 2 2 2 2 2 2 2 t - - - - 2 - - - - - 2 2 - - - - 2 2 - - - - - + ; - ; - ; ; ; ; ; ; ; ; ; ; ; ; 2 - - - - ; ; 2 - - - + o + 2 y u f y * * O . . < .   . o o o o + + + + - - - - - - * * * + + + O O O O o o O O - + + + + + - + + + + + + + + + O O O O O O O O + + O O O + + + o o o o o o o @ o X o o - 2 * * * * O o . . . o o o o o o o & & o o * = ; = * & & & * & & & & & * * & & & * = = * * * * * * * * = = = = = = = < < < < < * 2 2 2 ; - - = = = = 1 1 5 5 < > . . > 5 5 r r r > r ) ) r > > > > > . > < 5 5 5 > > > > > > > . X X . > + < 2 5 5 < < 1 < < < 1 1 1 1 1 < < < = < < 2 - - + + = = * & * * = = < < < < * * < 2 < < < < 2 < < 2 2 2 2 < 1 < < = = < 1 1 1 1 2 = 2 1 3 3 = ; 1 1 1 2 = * * = = = = * = = 2 = = &     o * ; ; = = = = = 2 = = ; 1 1 1 1 1 1 1 2 2 2 2 2 2 3 3 2 2 2 2 2 2 2 2 2 2 2 2 3 3 = < < 1 1 1 < < 3 3 3 3 3 3 3 3 ",
"8 8 3 3 3 3 3 3 3 3 3 4 4 3 3 3 8 8 8 s s s s s 8 3 3 1 < < < = = < 3 3 8 8 4 4 4 3 3 3 3 3 3 3 4 4 3 3 3 3 3 3 = = = * * * & * < < * * * * * * * * * * < < 2 < = = = * * * ; = 3 1 3 1 3 2 3 2 3 2 - 2 3 3 y 2 y 3 y 3 y 2 3 2 3 3 3 3 3 3 3 3 3 2 2 3 y u u u 3 3 3 3 3 3 3 3 3 3 3 3 3 3 3 3 2 2 2 ; ; ; 2 2 + * + o o * y f x B s 2 2 2 O . . . . * = = ; 3 3 3 3 3 3 2 2 2 3 3 3 3 3 3 3 3 3 3 2 2 2 2 2 2 * * + + - - ; ; 2 2 - - 2 2 - - + + + + - + - + + o o o + * * - 2 2 2 * + o o o o X X o ; 3 u 3 3 2 < * & $ $ $ $ $ $ $ & = = = = < 3 3 3 3 3 1 = = < < = = = < 1 = = $ = < 1 = < = = = = = = = < 1 < < < < 1 1 1 , , < < < 3 3 s a s d d q 9 l l 9 9 e 7 , > , 5 5 r v r > > > > > > > > 5 < > > 2 5 > > . > > + O O + > O > < 5 5 2 3 3 3 3 4 4 4 3 3 3 3 < < 3 3 3 3 3 3 3 4 u 3 1 1 3 3 3 1 < < < 3 3 3 3 3 3 3 3 3 3 3 3 3 1 < < < 3 3 3 < 1 1 < < < < < 3 3 3 3 3 3 3 3 8 3 3 3 3 3 1 < = 3 3 3 3 1 < = = = = = = $     . 1 2 = * = = < < 1 1 1 3 3 3 3 3 8 3 3 3 3 2 1 1 3 1 2 ; ; 1 3 3 s 4 4 8 s s s k s s d l l l l d s s s s s 0 s 0 ",
"P P P T Y T U U K K x v x x c I I L K L I U U I I I I I Y I v w 8 d I W I I U Y Y Y Y U L L L L U U U Y U U W W l s 8 1 = & * & < = * $ * = < 3 3 3 4 s s s s s s s s s s s s 8 y 8 a 3 3 1 1 1 1 3 s s s 8 8 8 s s s k s l l x x x x c c c c c l x c W W | | | W W W W W W W W W W W W W I I I I U l 8 3 3 2 * o   o O . 3 c Q &. .I s 4 < * & &   = x W x l x d s s g g l l l I c x v l l l l d l l l x l f s l u 2 = 1 s s s a a a a s s s s s s s s s a y 3 1 1 3 3 8 s s s l l l l l 8 1 $ $ X # X & 1 u k l k l l v K K K 0 9 w w w w v w L L L L L L L L L L L K K K K K L L L K K K K K K K K K L L L L L L K w w 0 0 0 q w w F F w K K K K T T K K 0 0 F F G L P P P P L L L L L w , $ > . . > 4 j s 4 5 2 + > . . . . #   * 4 s k k 9 9 9 s k k k k l l v x x l x x x x x x x x c I I I I I I U I c x l x I I x x x c x x I c x l x c x l l l l l v w L L L K K F l l l K T U U K d 9 8 8 8 0 l l l l w w l l l l v l l s 8 0 9 %   = $ < = & 1 8 l v 0 0 l l l l l l l l x x x k 8 1 1 < 1 1 3 s k l v I I v L  . . ._ _ +.+.+.+.' ' +.+.+.' ' ' ' ' ",
"] ] ] ] ' ' ' ' +._ Y Y Y Y W Y L L L U Y Y Y U Q Q Q  . ._ U L K I W Q  . ._ _ Y Y Y Y ` ` ' Y Y Y Y Y Y Y Q Q W W W x d 8 = & $ $ * < 1 3 4 4 s s s s s s s s s s s s s s s s s s s s s s s s s l l x x v x x c c c I I I I I Y Y W W W W W W W W  . . . . . . . . . .| | | |  . . . . . .|  .Q Y Y Y W I s 3 * o * < < l  .&.k. .I v s 8 3 ; ; 3 x  .%.Q U Q x x x x x x x x I I I c v v v x x x x x c c x l c d 8 3 s s s s s s a a s s s s s s s s a a a s 8 8 9 0 d l l l l l v v l w w 0 9 3 $ X   < s x I I I U U Y Y Y _ _ _ _ _ ' +.+.Y Y P P P L L L ` ` Y P Y P Y P L L P P ` ` _ ` ` ` ` ` ` ' ' ' ' ' ` ` P P P P G G G G P P P P P P P P T K K F q H G P R } } P ' P P P L F q 7 < < 2 4 k k 4 2 + < < > X X X . = 1 s l x v v l l l v l x c c c U U U U U Y Y Y I I I I I I Y U I L L L I L c v c I I I I c c I c c c c c c I I I I I U ` ` _ ' ' ' ' ' ' ' ' ' ' +.+.@.@.+.+._ U U Y U K K U U U U U L L L K K x l l v L w %   $ = = < s I Y _ T T T T Y Y U U U U U W  .W I c s s s d x I W W Y Y U U `  .+.+.' ' +.+.+.' ] { ] { ] ] ] ] ] ' ",
"] ] @.@.@.@.+.+.+.+. .Y Y Y U U Y P Y Y Y Y Q Y Q Q Y W Y _ U U Y Y Y Y  . .Y U T L P Y ' ' Y P ` ` _ _ Y Y Y Y Y Q  . .Y I l s < < < < 3 4 s s s k k k k s s s d d s d s s s s s s s s s s s l x x I I I I U W W W  . . . .|  . . . . . . . . .X.X. . . . . .X. . . . . . . . . .X. . . . . . . . . . .&.o.W s * X . < 8 W g.l.l.O.I x x s 8 1 1 l ~ %. .Q Y  .I I I I x x x x I I I I I I I I c c x c c I c c W c d s s s s s s s s s s s s g s s s s a s s s d d d l l l l l d l l l l l L Y  .U 9   X = k I I I I U U T T T L L U T Y Y Y Y _ _ _ Y Y Y Y Y _ ` _ ` _ Y Y Y T P Y Y ' ' +.+.+.' +.' +.' +.' ' ' ' ' ' ' ' ` ' Y T T Y ' ' R ' ' R P P P G G G G P } ' ' ' ' ' ' P P L L L L 4 s k k k u 4 < 5 4 4 5 O . O 5 k l c W W U I v U I U I W W W W U Y Y Y Y Y Y Y Y Y U Y Y Y Y Y U U I I I I I I U U U Y Y U I x | U I c U W W W I U Y  . .#.#.$.[ [ [ { { { @.@.@.@.@.@.@.@.@.$.*.:.*.#.Y U U _  ._ ` Y Y Y Y Y Q Y L U @.#.w   $ * = 8 I  .#.+.+.Y U U Y  .Y U U U Y  . . . . .Q Q W W W W Q Y  .Y U _  .+.+.#.+.+.@.+.+.' +.@.@.@.{ { { ] ] ] ",
"] ' ] ] ' ' +.' ' +.' Y Y U U L Y Y Y Y Y Y Q Y W W U U U U U U Y Y Y Y Y U T K K K K L P Y Y P ` ` ` ` P Y Y Y U U U U U Y Y  .x k 9 3 3 4 s k s s s k k s s s d d s d s s s s s s s s s d l x x x I I I U W W |  . . . . . .W W W W W W W  . . . . . . . . . . . . . . . . . . . . . . . . . . . .Y Y  .%.X.W <     < s  .l.l.;. .x c x s 1 = s I X. .Y U U U W W I I I I I I I I I I I I I I x x x x x c c c I x s s s s s 8 s s s s s s g g g s s s s s g d d d d d l d d l d d d l K U Q +.&.&.Y 1 X $ 0 I x I I I K T T T T K I T U L U U U T Y Y Y Y  . .Y Y Y Y _ _ ' ' Y Y Y Y Y Y Y _ +.' ' ' ' ' ' ' Y Y Y Y Y Y Y Y +.Y T T Y ' R Y ' ' ' ' R P P G P } ' ] ] ] ' ' ' ' P K L L P L c v k 9 s 4 4 4 k v c v u 4 s k U W W W W Y I I U U Y Y U W W W I U U U U Y Y Y Y Y Y Y Y Y Y Y _ U Y U U U U U U U I I U Y c l  . .| U U W W I Y W  . . . .+.+.' ' ' [ [ [ [ [ @.@.@.' ' ' @.$.G.l.:.+.Y L U Y _ Y Y Y Y _ _ _ +.+.' Y @.5.@.7 % % = s I  .#. .+.Y U L U T U K U U Y Y Y W W W X.X.X. .Q Y Y I Y v v _ +. ._ +.+.+.+.' ' ' +.+.@.@.@.{ @.[ ] [ ",
"@.@.@.@.@.@.@.@.@.+.+.' ' ' ' ' ' ` Y P T T Y Y Q Q Y Y Y Y _ _ Y  . ._ U K K T Y L K L Y ' ' ' ` ` ` P P P P P _ ` U U U U _ _  .Y I l s 9 9 8 s s s s s s s s s d s s s s s s d s d s l l c I I I U Y Y Y W | W  . . . . .W W W W W W W | |  . . . . . . . .|  . . . . . . . . . . . . . . . .+.+. .Y W X.f.f.s = $ < s  .k.f.X.I l x l 8 = = W X.%.Q U Y Y U I I I I I I I I I I I I I I I I x x l l x x x x l s s 3 8 s s s s s s s s s d d d d s s s d l x d d J d d d d d K d d K Q %.=.+.+.:.&.w   X 1 v I I U U I T T T T T Y T T T Y T I I T T Y Y Q Q R ' ' ' +.' +.+.R R R R R R Y Y ' ' ' R Y Y R R R Y Y P P P Y Y Y Q Q Q Y Y Y Y ' ' ' ` } P P P ' ' ' ' ' ' ' ' +.' Y P P P P U U l s 9 k l c v U U U U c v c c U W W Y Y U I L U U U U U U U I Y Y Y Y Y Y Y Y Y Y Y Y Y Y Y Y _ Y Y U U U U U I I c x I W I l  .O.&. .U I I I Q  . . . . .+.+.[ [ [ [ [ @.@.{ $.$.$.$.$.$.4.4.4.:.#._ _ ` Y L P L L L P ` _ +.+.@.$.[ [ 7.H._ % % = s d U +. .+.+._ Y T T Y Y Q Y Q Y Y Y W Q W W Q Q  . . .Y L 0 e U  ._ _ O.+.+.+.+._ +.+.+.#.@.@.@.@.@.@.@.",
"@.@.$.$.$.$.$.$.@.@.@.@.@.@.@.@.+.' Y Y Y T Y Y Y Y Q Y Y Y Y _ U _  . .U K K T Y T T T Y +.+.' ` ` ` ` ` ` ` ` _ _ _ _  ._ _ _ _  . . .W x l 0 s s s s s s s d s s s s s s s s s s s d l l c c I I U U I U W W  . . . . . . . .W  . . . . . . . . . . . . . .|  . . . . . . . . . . . . . . . . .+.+. . .%.g.l.I 4 * = 3 I  . .W x l x s 3 1 s %.&.%.Y U Y Y U I I I I I I I I I I Y Y Y U U I c c x x c c x x s s s 3 s s s s s s s s d d d d d d s s d d l x d d J J d d d d J d d K Q @.@.+.' -.4._ 1   % 0 l I U Y T T T T T T I T T T I T Y T Y T Y Y Y Y R R R ' ' ' +.' R R R ' ' ' ' ' R ' R Y Y R R ' Y P Y P P P P T Y Q +.+.+.R ' ' Y Y ` ` ` } } } P P ' ' ' ' ' ' ' ' ' Y Y P P Y l k e l U _ _ U I v v v I U c l U U Y Y Y Y U U U U U U U Y Y Y Y Y Y Y Y Y Y Y _  ._ _ Y Y _ _ U Y Y Y Y U U I I I I x I  .W x U O.k.&. .W W I W W W  . . .+.+.@.@.@.$.$.$.$.$.[ [ [ $.3.5.7.6.-.#.' ` _ ' _ ` ` ` Y Y ` ` ` _ Y R 3.4.$.5.`.4.6 $ = s 0 U &.&.+.+.+._ Y Y  .+. . . . .Q  . . .Q Q  . . . . . .I l v _ #.O. .+.#.#.#.#.#.+.+.#.$.$.$.$.$.@.@.@.",
"@.@.@.@.@.@.@.@.{ { @.@.$.@.$.{ $.@.+.' ' R Y T I T T T U U U T U Y _ _ Y L K K Y L K T Y +.+.' ' ' ' ' ' ' _ _ ` _ +.#.#.#.O. .Y  . . . . .Y I I x l s s s s d s s s s s s l l s s s d l l x x I U U I I I U W  . . . .|  . . . . . .X.X.X.X. . . .W W W W  . .X.X.X.X.X.X.X.X.X.X.X.X.X.X.X. . .+. . . .&.f.f.X.s = $ < s I x I x l l 8 < 9 W %.%. .Y U U L U Y I I I I I I I I I Y Y Y U I I I c c c c c x l s s s s s d s d d d d l l l d d d d d d d d d d d J J J J J J J d 0 0 J T / +.+.{ -.H.-.K % % 1 d K U Y T I T T T T T T T T T T T T T T Y T Y T Y P Y R R ' ' ' ' ' ' ' ' ' R R R R R R ' ' ' ' R ' ' ' ' R T F T T T Y Y ' ' ' ` ` Y Y Y ' ' ' P ' ' +.+.' ' Y Y ` ' _ Y Y Y Y l l v U U U U L v w 0 l L L v w U U Y _ _ _ U U U U U U U Y Y Y I I I Y Y Y U Y _ Y Y Y Y Y Y Y _ |  . . .| W U x U I x I  . .Y l  .k.k.&.&. .U U U W Q  . .+.+.' [ [ @.$.$.-.-.{ [ { -.5.7.7.5.-.$.[ _ ' [ ' _ _ _ _ _ _ ` ` ` ' P $.7.3.5.{./.0 % = 9 9 U g.&.#.+. . . . . . . . . . .Y Y  . .%.+.+.+. . . ._  ._  .#.$.#.+.#.#.#.&.&.&.&.&.&.$.$.&.&.#.#.#.#.",
"@.@.@.@.@.@.@.@.{ $.$.$.$.$.{ { $.$.$.$.=.+.Y T T T Y T U U U U U Y Y _ _ _ T T U T T T +.@.@.+.' ' ' ' _ ' _ ' +.+.+.+. . . . . . . . . . . . . .W I d s s s s s l l s l l l l l l l x c I I I W | W W Y Y W  .W W U U U W W W W  . .X.X.X. . .W U x l x Y  .X.%.%.%.%.X.X.X.X.X.X.X.X.X.X.X. .%.+. . . .&.k.&.l.I 3 = = s c x I l l s 3 = l f.X. . . .U K L U Y W U I I I I I I I I I I I I x c c c c c x l s s s s s l l d s d d x x x l d d d d d d d d d d d 0 H J J J K K K H H K P ' @.@.$.3.7.K.' 6 % % d I Q Q Y T T T T P P P P P P P T T P P T Y Y Y P P R R R ' ' ' ] ] ' ' ' ' ' ' ' ' ' ' ] { $.$.$.3.5.7.5.$.' P K F 0 F P Y Y Y ' ' Y Y Y Y ' ' ' +.=.*.$.+.Y P P Y Y Y Y Y Y Y L U U U K w w l l w w v L L v l U U U _ _ _ U U U U U U U U U U U Y Y Y Y Y Y Y Y Y Y U U I U U  . .X.O.X. .| W x I I x c  . .W e | &.k.l.l.&.Q  . . . . .+.%.@.' ' ' @.$.$.-.-.8.3.3.7.`.`.0.5.$.@.[ ' _ _ _ ' _ _ _ _ ' _ _ _ @.T ' 3.3.8.{.'.P % % 9 9 Y g.+.&.+. . .+.&.+. .+.+.+.+. . . . . . . . . .+.+.+.#.&.$.:.:.#.@.+.O.#.&.&.&.&.&.&.&.&.#.#.@.+.@.+.",
"+.+._ ' ' @.$.$.$.$.$.$.{ { { $.@.$.$.$.@.+.' ' Y Y T T U Y U I L L Y _ _ _ _ _ T U T Y +.+.+.+.+.' +.Y Y Y Y  ._ _  . . . . . . . .+.+.+.+.%.%.+. . .Q U I l s s s s s s s s s s l I W W W U W  . . . .| | W W W W W W W W W W |  . . . .W W W Y I I I W  . . .&. . . . . . . . . . . . . . . . . .+.+.+.+.*.l.*. .l = $ 1 l I c W l 1 < l  .&. . . .Y U U U U Y Y I I I I v v I I I I I I I I W I c I W I l s 8 s l x l l d s d d s s s s s s d d d s s d d l q H K P P P P P K F 0 G P @.$.$.{ 3.7.7.$.L 6 % 1 I &.=.Y T T K P P P P P P P P P P P P P P P P } ' ' ' ' } ' ' ' ' { { ' ' ' ' } ' [ { $.$.-.3.3.$.{ { $.3.8.5.@.' G q 7 q L ' L Y Q T T T Q I Y _ +.' _ _ +.+.+._ Y Y Y ' _ Y Y Y Y Y T L L L T L L L T U L L U U U U U _ _ _ L U _ _ L L U _ U U Y U U _ _ _ U _ _ U U _  . .I. .3 3 W c.f.W W U I I x I  .&.s l  .k.k.g.l.l.Q Y Y Y  . . ._ ' ' ' ' ' $.3.5./.0./.[.[.`.8.-.[ [ [ [ [ _ _ _ _ ` ` _ ' ' _ Y +.' } { 8.7.`.`.K.% % = d K l.$.&.&.+. . . .+.+. . ._  . .+. . . . . . . .+.#.#.#.$.$.$.@.+.+.#.#.&.&.&.&.&.&.;.&.&.$.#.#.#.#.+.",
"#.@.+.' ' +.' @.$.$.$.$.$.{ { $.$.@.' ' ' ' @.@._ Y T T Y Q Q Y Y L L Y _ _ _ Y Y Y Y Y Y Y Y Y Y / +.+.+.+. . . . . . .+.+.+.+.+.+.+.+. . . .Q  . . . .Q Q Y Y x x l l k s s s s l I W W |  . . . . . . . . .W W W W W  . . . . . . . .W Y U U W W U I W W W W Q Q  . . . . . . . . . . . . . . . . . ._  .+.*.l.&.U 3 & = s l l d 3 = 3 W k.L.&. ._ U K v K K I I I x v v l l l l l v v v v x l l l x c c g s 3 s s l l d s s s s s s s s d s d s s s s d d l T P Y R ' ' ' ' P P G P } ' @.@.3.7.K.7.4.=.l % % d  .&.+.Y T F G G G G P P P P G G P ` ' ' [ [ ' ' ' } } } } } } ' ' [ [ [ { { $.{ $.-.3.3.3.3.' } P P } } { 3./.7.4.{ P w 7 6 6 0 0 0 0 d s 9 0 0 0 w K Y @.$.=.@._ T P P P T Y Y T T L L L L _ Y T L L L L L L U U U U U U U _ _ U U L L L L U U U U U U U U L U U U _ &.>.l.X.c 3 < l X.f.X.Y I x I U W X.f.I s x &.l.k.*.&.$.#. ._ _ _  ._ ' [ { -.4.H./.'.{.{.[.uXuX`.{ } ` ` ` ` _ _ ' [ _ ' +.+.@.#.#.#.=.1.H.`.0.7.`.[.oXH % = 6 d *.l.*.*.*.*.$.&.#.+. . . . . . ._ Y _ _  ._  .+.#.#.#.#.:.:.$.#.+.#.#.&.&.&.#.#.#.#.#.&.$.#.#.#.#.+.",
"#.#.+.+.' ' ' ' @.{ @.@.$.$.{ { ] @.{ { ' ' ' ' Y Y Y  .+.+.Q U Y Y Y Y Y Y T U Y Y Y Y Y Y Y Y Y / +.+.@.+./ Q +.+.+.+.+.+. . .+.+.@.@.+.+. . . . . . .Q Q Q Y W Y I I x x v l l l x I W  . . . . . . . . .W W W W W W W |  .| W W W Y I I I I W Y Y W |  . . . . . .+.+.+. . . . . . . . . . .+.+.+._ _ +.&.*.l.g. .s = * 1 3 s 3 = < l &.L.L.l.&.+.Y L K L L U I I L K v v v l l l l v v l l l l l x c l s 8 3 s s l l s s s s 9 s s d d d d x x l l x x I U L P P P P P ' ' $.$.@.@.$.$.-.3.7.`.`.'.oXXX+.< & 3 W l.I.l.#.+.[ [ ' ' ' ' ' ' [ [ $.-.-.4.5.K.$.{ ' ' ' ' } } G G P P ' ' [ [ { { { { $.$.-.3.[ ' ' ' ' [ 3.7.3.3.6.4.$.` w 6 9 6 9 d d d d d 6 1 1 6 9 K  .&.*.$.@.+.Y L L P L L L L L L T T T K K K K L Y _ _ Y Y U U Y Y _  .Y U U Y Y Y U U U U U U U U U _  .#.&.:.l.l.*.s s 1 = 3 c X.f.o.X. . . .X.&.l.%.8 3  .l.J.G.l.l.$.#.+.#.#.*.:.4.5.K.`.{.[.+X+X+X[.uXaXuX{.3.[ $.#.$.$.[ [ +.#.+.&.$.$.&.$.l.G.U.'.'.{./.7.{.uXtX+.= % = 0 U g.&.&.&.&.&.&.&.&.&.&.#.@.@.+.+._ _ _ _ ' +.@.#.#.+.@.$.$.#.+.+.+. .O.#.O. . .O.+.&.$.:.$.$.$.@.' ",
" . . . .' ' ' ' ' ' @.@.$.$.$.$.' [ { [ ' ` P L _ +.@.*.&. .I l U  .&.#._ U U Y T L P P T Y ' ' R / +.+.+./ Y Y +.+.+. . . . . . . .+.+.+.+.+. .+.+. .Q Q Q Y Y  . . .W W Y I I v l l x I W W W W W W W W Y W W W W W W Y Y Y Y I U Y Y I I I Y c I I Y W W W W  . . . . . . . . . . . . . . . . ._ _ _ _ +.$.l.G.G.&.I 3 = = 1 ; = < s W &.&. .l.:.#.+.+. . ._  . . . . ._ _ Y Y Y Y Y Y Y U U W W c x l d s 3 s s l l l l s s d d d l x I I I x x x x I I I U Y Y Y ` ` ' +.@.-.-.4.-.-.-.-.4.8.8.K.K.K.I. .3 & = d &.I.J.4.-.-.-.-.:.-.:.-.:.$.#.$.#.@.@.@.' $.@.' ' +.' ' ` P P P ' @.$.@.@.@.[ @.$.$.-.4.4.' ' ' [ @.[ $.4.6.4.4.>.$.' L 0 7 1 = 8 9 6 6 8 6 1 1 1 6 0 K Y +.#.=.=.+.Y T P L L L L L L T K w w w K T Y _ +._ _ U L L L Y Y U U Y Y _ Y U L U U U _ _ _  . .&.:.z.I.I.l. .v < 1 < = = 8 I X.&.&.&.&.&.&.l.I.c.x < l  .J.).K./._.K.K.K./.XXoX+X+X*XuXuX*X[.{.7.5.5.7.7.7.5.6.5.J.J.J.J.6.G.K.).).).U.U.).XX@X@XU.K.K.`.`.`./.+XG.6 % % 9 8 U  ._ Y U U _ +.#.&.&.@.+.@.@.@.@.+.+.+.@.@.#.#.$.+.' ' _ _ _ _ _ _ _  . . . .#.+.$.:.>.>.:.-.$.@.",
"_ _ _ _  . . ._ _ ' +.' ' ' ' ' ' _ P L P ` ' $.>.G.G.&.Y l s s l U  .&.&.&.#.@._ Y Y P P Y Y ' +.+./ +.+.+.+.+.+.+.+.+.+.+.+.+.+.+.+.+._ _ Y Y Y Y Y Y Y Y  . .W W W W W W W W I x l l I I I I I I I I I I I I I I I I I I I I c I W W Y I I I c I U W W W W W Y Y Y Y Y Y Y  .Y Y Y Y  . . . ._ _ _ _ +.@.4.G.P.G.g.Q s 1 = ; * * 1 l W  .U v _ _ +.#.:.:.:.$.;.;.&.&.&.#.#.#.&.&. . . . . . .Q W c l s s s 8 s d l x x l l l l v I I Y  . . . . . . . . . . .*.*.:.l.:.:.G.G.4.J.J.J.K.6.K.K.5.5.5.K.*. .x s = & < v #.&.+. .+.#.+. .+. .+.#.*.&.&.#. ._ U U U L U U Y Y T v K K T Y _  .Y U T L T L U Y _ _ $.#.&.*.l.:.*.*.*.$.#.#.@.#.+.+.T 0 6 9 9 6 6 8 6 1 8 8 9 0 0 l K U +.+.' Y Y Y Y Y Y Y Y T U L T Y Y T U T Y Y  ._ _ _ T I l l l U Q  ._ Y Y Y O.+.+.#.#.:.:.>.>.l.J.).J.#.w , = 1 1 1 = 1 s l x I  .&.&.f.I.@X|.X.8 1 w :.)./.'.'.'././.`.'.'.{.{.{.'.`.7.3.@.' ` P P ' -.5.K.5.K./.).'.).).|.I.J.l.l.l.l.l.l.g.=.@.-._./.K.6.oXJ.9 $ % 8 $ 8 l l w 0 w v K U L L L L Y _ @.@.$.$.$.$.$.$.$.$.@.+.' ' _ ` ` ` L ` _ _ ' +.#.-.-.4.K.4.4.4.-.$.",
"#.#. . ._ _ _ _ Y Y Y L L L L L P P ` ' $.>.5.K.).K.:.U 8 < 1 8 9 9 0 U *.L.G.l.$.$.@.+.' ' ' ' +.+.+.+.+.@.*.*.*.*.-.:.4.G.G.J.G.G.G.*.=.#.+.+. . . .Y Y Y U U I I I I I U U U Y I x x x I I I x x x x x x x x x x x x x x x x x x I c x l l l c U  .X.&.&.&.&.%.&.*.&.+. . . .+.+.+.+.+.+.+.+.#.#.$.:.4.5.G.G.J.g.=.Q d 3 * * * & 1 d I I v v v L _ $.G.J.l.:.#.#.#.#.+. . . .Q Q Y Y U I I I c l d s s 8 8 8 s s d l d d s s d d l v I I U Y  . . . . .X.X.X. .+.&.&.&.&.+.+.&.*.l.l.:.:.l.G.7.5.4.>. .l s l 4 * $ 7 I  ._ _  . .Y I v l 0 0 9 8 8 8 1 1 1 = 1 1 8 8 9 8 8 1 8 8 q 9 9 8 1 = 1 1 = = = 1 1 1 9 6 6 9 d 0 8 6 6 6 q l U +.#.$.*.#.' _ Y L L L K v v v l l q 9 9 0 0 K F K P T Y Y Y Y Y Y U U T Y Y T L T U T &.$.:.l.&.Q l 9 1 d U  .+.+.#.$.;.:.:.>.l.J.J.I.J.J.z.l.#.L 1 % < 1 1 3 1 < < 3 < 3 l I I W &.I.j. .s % ,  .).'.{.{.{.`.`./././.`.`.K.K.7.4.$.' { [ [ [ -.5.K./.'././._.K.4.$.#.U K 0 0 d d d s K l K L ` [ 6.{.'.K.v $ $ 1 1 1 1 7 9 0 w 0 0 9 q 0 F L Y ' $.-.-.-.-.$.$.#.$.$.+.@.@.#.#.@.' ` L ` ` _ +.@.-.-.4.6.5.4.4.5.4.-.",
":.;.#. ._ _ _ _ L L I L I L Y Y _ [ >.J._._.K.6.J.:.U 9 < = 3 s 8 1 = 8 I +.*.l.J.G.4.-.$.$.$.$.4.4.4.4.5.5.5.G.5.5.4.4.5.5.5.K.K.G.G.4.4.4.1.G.*.*.*.=.@.+.Y Y  . . .W W W Y U Y I I I x x x I v v l l v v x x l l v v v v l v l l l l l l l v W  .O.&.&.X.X. . .+.l.G.l.*.&.&.l.l.l.*.*.*.*.$.&.&.$.-.*.$.@.+.Y I l d s ; * - *   * s I I v v v L _ #.:.$.+.Y v v v w v w w l 9 8 8 8 8 8 8 8 8 8 8 8 3 3 1 1 3 3 s s 8 8 8 8 1 1 1 8 8 8 9 9 0 0 0 0 0 0 9 9 8 s s s s 9 9 9 0 0 0 0 0 s l l G G F w 9 1 3 s s 2 * < l _ ' ` Y I x s 8 3 < < < < < < 1 < < < & * = * * * ; ; a s s a 3 ; = = = = = = = = = = = * * = = * * = & = = = 1 6 9 0 +.@.' ` ` ` ` P  .Q U I v l 9 6 9 6 6 6 q 0 F F l K K U U U K K l K K K l K U _ +.+.&.+. .I d 8 % 1 9 K U _  .+.` ` _ _ _  .O.+.#. ._ L w 1 , $ 1 ; 1 3 1 = = < < < 1 8 8 9 k x l s 3 $ % w -.6._././././.0./.`./.0.7.7.7.7.5.4.-.4.4.4.4.H.K.K.K.4.#._ Y K 0 6 9 6 6 1 1 1 1 1 s 9 8 7 7 w [ 6.J.J. .$ $ $ 1 1 1 1 8 e w w 0 0 K L ` @.@.$.-.4.-.-.$.$.$.#.$.$.@.' ' ' +.@.+.' _ _ _ [ ' @.$.-.4.4.4.4.3.4.4.-.",
"l.:.&.#. . . . ._ _  . . .&.:.l.J.J.J.J.J.>.>.:. .I 9 1 < 3 s d 1 1 = % % 6 Y *.G.G.G.K.K.K.K.K.K.K.U./.U.K.H.K.4.4.-.$.$.@.@.+.'  .+.+.@.=.1.G.P.U.U.P.P.J.G.l.k.;.&.&. . . .| I U U I v v v I l l l v v v v v l l v v v v l l x x x l x I  .X.&.&.&.X.I s 4 1 $ 9 Y &.l.G.G.G.J.G.G.G.l.*.*.&.Y _ _ Y U K q 6 6 = = = ; = * - & X & d  ._ L v L L `  .+.U 0 1 1 1 1 1 , 1 , 1 1 1 = < < < < < 1 1 3 3 3 1 ; = ; 1 3 1 1 < 1 < < 1 < < < < < < < < < < < = = = = = < = = = = = < = = = = = = 1 % % % % < s s s s 3 $ $ 8 L L 9 1 1 ; ; = ; 1 1 = = = = ; ; = = ; 1 1 ; ; ; 3 s s s a 3 * * * = * * * = ; = ; = * * * = * & * ; - - ; * * = 1 9 0 L Y L L ` ` L I v l d d l d 0 9 9 9 9 0 0 q 6 6 8 0 l l l l l v v x v l v Y  .0 9 8 1 = = * * * * = < 1 8 1 1 1 1 1 , 1 1 1 1 1 , , 1 , % % 1 1 = ; 3 1 = = 1 3 = = 1 1 < < < 3 = = $ % % w L _ [ ' _ ` G ` ` ` P L L ` ` ` ` ` ' +._ _ +.+._ K e 7 1 1 1 1 $ 1 1 3 1 < < 1 8 ; 1 8 0 0 7 q w :.k.&.1 $ $ 8 1 , 1 7 9 w v U U +.&.:.G.G.4.-.-.:.:.$.$.&.#.&.#.#._ L L L _ +.#.#.+.#.+.+.+.#.$.:.-.:.:.$.-.-.-.",
" . . . . . . . . . . . .%.&.&.&.&.&.&.&.X. .U c 8 1 = < 3 s s d s s 3 1 = = = 1 U #.J.).K.J._.'.K.J.G.:.=.@.+.+._ _ _ _ Y Y Y Y Y Q Y Y Y Y Y Y +.&.l.I.U.U.P.J.J.J.J.J.G.>.$.#._ _ Y L L L L U I I v v v v v v v v v v v v v v s x W Q  .X.X.Q X.W l 4 = . . = $ % w &.>.:.l.J.J.l.&. . .Q Y U l l s 9 8 1 < = = 1 1 1 3 3 ; & & X * x W Y I v Y  .O.| l 3 < < < = = = < 1 1 ; ; 2 1 2 1 1 1 1 3 3 3 3 3 2 3 2 3 2 3 2 3 2 3 3 3 3 1 1 1 1 1 1 1 1 1 1 1 1 1 1 ; 1 1 1 ; ; ; < 1 1 1 1 < < < 2 < < = = 1 y s g s s ; & * 3 8 < 2 ; ; ; - ; ; ; 2 2 ; ; ; ; ; ; ; ; ; 2 1 3 s s ; 2 = = = ; ; ; = ; ; ; ; ; ; ; - * - * - * - - - - - - - - * * < 1 8 l v L L I c x l s 8 4 3 3 3 8 8 0 8 3 < < < < 1 < 8 s l x l v l < = s Y x $ $ $ $ * = * * = = = = = = $ $ $ $ * $ = $ = = = < = < = < = < 1 1 1 1 1 1 1 1 1 1 < < < < 1 1 * ; ; &   * 1 8 1 1 1 1 1 , , , 1 1 1 1 1 7 7 7 1 1 1 1 1 1 < < < < < 1 < 1 1 1 < < 1 1 1 1 1 1 1 1 = < 1 8 0 l I X.X.l = = < < < 1 9 v  .&.g.:.k.:.*.*.&.&.#.&.&.&.&.&.&. . .Y l 0 6 1 8 l I Y  . . .O.O. . . . . . . . . .O.O.",
"8 9 9 9 s s s s s s s s s s s s s s s s s s 3 3 3 1 = < 3 s s k g g s a 3 3 1 1 = w #.J.).J.J.>.&.&.+.+. .Y Y U  . . . . . . . .X.X.X. . . . . .Q Y  .&.*.G.I.U.J.K.J.J.J.G.:.$.$.#.#._ ` L U U I I I I I I I I I v v v I Y Y Y &.X.Q I I Q  . .k s 3 = o   o = 1 % 7  .l.J.J.:. ._ L l s 9 8 3 3 3 3 3 1 1 1 1 ; 3 3 1 3 3 ; & *   < x I I U U  . .c s 3 < 1 1 ; ; ; 1 1 1 1 ; 3 3 3 3 3 3 3 3 3 3 3 3 3 3 2 2 3 3 3 3 3 3 3 3 3 3 3 3 3 3 3 1 3 1 3 3 3 3 3 3 1 1 1 1 1 1 1 1 1 1 ; ; 1 1 1 2 1 1 ; ; 3 y s s s s 1 & & 1 1 = 2 - - - - - - - - - - ; ; - - ; 2 2 1 3 3 3 3 3 2 2 2 2 ; 2 ; = ; ; ; ; ; ; ; ; - ; ; ; ; - - - - - - - - - - - = < 3 4 8 0 l l l s 8 3 < < = = < < 3 3 3 3 < < 3 < < 3 4 s k l 4 3 < $ $ 8 l 3 * * * * * * * * * * = * * * * * < < < < < < < < 1 < < < 1 2 2 2 1 1 1 1 1 1 1 1 1 1 1 1 1 1 1 1 * ; - & & * 1 1 1 1 1 1 1 1 1 1 < < < < 1 1 < < < < < 1 < < < < 1 1 1 1 1 1 1 1 2 1 1 1 1 1 1 1 1 1 1 1 1 3 8 s d Q X.x 1 * = < 1 9 v  .&.&.%. .U U I v l l l l 8 8 8 8 8 3 1 1 8 8 1 < 1 8 8 9 1 3 4 4 4 4 3 3 8 8 8 8 9 9 9 9 ",
"= = = = < < < < < < = = = = = = = = = 2 2 2 ; ; 1 = = 2 3 s s s l f s s s s 1 =   $ 1 0 v v l e U U U I I I I x x x x x I I I I I I I I I I I I x l l l v I Y  . .O. . . . . ._ #.#.#. . ._  . . . .X. . . . . ._ Y Y  .O.&.&.f.&.X.x s s x I c 1 = * & & o * < 1 $ 1  .J.J.&.U w 9 7 3 1 1 3 1 1 3 1 1 1 1 3 3 1 3 1 ; ; 3 ; * &   1 c I I Y  .Y l 3 = = = 1 1 ; 1 1 1 1 1 ; ; 3 3 3 3 3 3 y y 3 3 3 3 3 3 3 y 3 3 3 3 3 3 3 3 3 3 3 3 3 3 3 3 3 3 3 3 3 3 3 3 1 3 3 3 3 3 3 3 1 1 1 1 1 ; ; ; ; ; ; ; ; 3 y a 3 s 3 * & = = = ; ; 3 3 3 - - - ; ; ; ; - - - 3 2 1 3 3 3 3 2 = 2 2 2 2 2 2 2 2 ; - - - - - - - ; ; ; ; ; ; - - - - - - - - - - = = * = < < 3 8 3 3 1 < * & & & * * = = = < 1 1 3 1 1 3 8 s s s = & $ . * 8 s & & * & & * * * * * * * * * * & & 1 1 1 1 1 1 1 1 1 1 1 1 1 1 1 1 1 1 1 1 1 1 1 1 3 3 3 3 3 1 1 2 ; ; * o & = 1 1 < < 1 3 8 8 8 8 4 4 4 4 4 3 3 3 < < 1 3 3 3 3 3 3 3 3 1 3 3 1 1 1 1 1 1 1 1 1 1 3 1 1 1 1 1 1 1 3 l W c s = = < < 8 v Y Q U v l 0 9 8 1 1 1 1 1 1 < 1 1 1 1 1 1 3 3 3 3 3 1 < 1 < < < < < < < < = = = = < < < < ",
"= < = < = < < < = = = = = < < < 3 1 1 1 2 1 1 1 ; = = 2 1 3 3 3 s a 3 y a 3 1 * 3 = $   $ , , 1 1 1 1 1 1 1 1 < 1 3 1 3 3 3 3 3 3 3 3 3 3 3 3 3 8 3 8 1 3 1 1 1 8 7 6 7 8 8 8 7 6 8 9 9 0 l v v  . . .O.O.O. . .&. . .&.&.&.&.%.l d 8 3 8 s l s < = * * * & * < < % 9 #.l.&.U 7 7 6 1 3 8 8 s s 3 3 3 3 1 1 3 1 1 3 1 ; ; 3 3 ;   X 1 W W U Y Y 8 1 = = = 1 1 = 1 1 < < 1 1 ; ; 3 3 3 3 3 3 2 2 2 2 2 2 3 3 3 3 3 3 3 3 3 3 3 3 3 3 3 3 3 3 3 3 3 3 3 3 3 3 3 3 3 3 3 3 3 3 3 3 1 1 1 ; ; = ; ; ; ; = = ; ; 3 3 3 s a ; $ $ = = ; ; 3 3 3 3 - - ; ; ; ; - - 3 3 3 1 3 3 3 1 = * 2 2 2 = = = ; ; ; - - - - - - * - - * * * * - - - - - - - - - - 2 = * * = = < < = * * * * = * = * * = = 1 1 3 3 3 3 3 3 s s 3 =   X o = 1 8 3   * & * & * = * = * * * * * * * * 1 1 1 1 1 1 1 1 1 1 1 1 1 1 1 1 1 1 1 1 1 1 1 1 3 3 3 3 3 1 < = 3 - & o & ; < = 1 3 3 8 8 9 9 8 s s s s s s 9 9 4 4 4 8 8 8 8 8 3 3 3 3 3 3 3 1 1 1 1 1 1 1 1 1 1 1 1 1 1 1 = = 1 3 d c d 3 = = = 1 0 d 0 9 8 8 0 9 6 1 1 1 1 1 < < < < < 1 3 4 1 1 3 8 8 8 3 < < < < < < < = < 1 < 1 < 1 1 1 1 ",
"= = = = ; = ; = = = = = ; 1 1 1 1 1 2 ; = = = = ; = ; ; 2 2 2 = 3 ; * * ; 1 = * = = = < < < = = $ $ = = = * & * = = = = ; < ; 1 ; 2 = = ; = = = = < < < 1 < < < = = $ $ = < < < 1 < < 1 < 1 3 3 8 0 l x I I Y Y  . .W  . .W v 0 3 8 8 8 8 s s s = * * * O . o * = = d  . .K 0 1 9 8 8 3 3 1 1 1 3 3 1 1 1 = ; ; 1 1 ; = ; 3 1 ;   X 3 W  .I l s = = = < 1 1 1 ; 1 1 1 1 1 ; 2 2 3 3 2 2 2 2 2 2 2 2 2 2 2 2 2 2 2 2 2 2 2 2 2 2 3 3 3 3 3 3 3 3 3 3 3 3 3 3 3 3 3 3 3 3 3 3 3 3 3 3 2 ; ; ; ; ; - ; - - - ; ; ; 3 u s 1 & o * = 2 3 3 3 3 3 - ; ; ; ; ; - - 3 3 3 1 3 3 2 2 ; ; ; ; ; * * = = = ; - - - - - - * * * * o & * * - - - - 2 - - - - 2 2 = = = = = = * * * = = = = 2 * = 1 3 3 3 3 1 3 3 y s s 3 =   # # * 1 1 3 1   * * * * * * * * * * * * ; = * * 1 1 < < 2 2 2 2 1 1 1 1 1 1 1 1 1 1 1 1 1 1 3 1 3 3 3 3 3 1 < = ; * o o = ; ; = 3 3 8 8 8 8 8 8 8 8 8 8 8 8 8 9 s s s s s 9 8 4 3 3 3 3 3 1 1 1 1 1 1 1 1 1 1 1 1 1 1 1 1 < = = = = 3 d x s 1 & < 3 8 9 9 9 s d d 9 3 1 < < < < = = 1 1 < < 3 4 < < < 1 3 3 3 1 < = ; = = = = = 2 < 2 < 2 < 2 < ",
"; = ; = ; = ; = ; = ; = ; = ; = = = = = = = = = 2 2 2 2 = = * * ; * * & * ; ; = & & = ; = = = = 1 3 1 3 1 1 1 1 2 2 2 2 3 1 3 1 1 1 1 2 1 2 2 < 2 = = = = < 1 1 < < = = < 1 1 < 3 3 3 3 3 3 3 4 < < 1 3 8 8 8 8 8 8 8 l x v 8 1 8 s s 8 3 3 8 4 = * * * * o o * = = 9 l 9 8 9 9 8 3 1 3 1 1 3 1 1 1 1 1 1 1 3 3 ; 1 ; = ; 3 3 ; &   3 W W l 3 = < < 1 3 < = 1 1 1 1 1 1 1 1 2 2 3 3 2 2 2 2 2 2 - 2 2 2 2 2 2 2 2 2 2 2 2 2 2 2 3 3 3 3 3 3 3 3 3 3 3 3 3 3 3 3 3 3 3 3 3 3 3 3 3 3 2 ; = = * * ; ; - - - - ; ; 1 y s 3 = & & ; - 3 3 3 2 - ; ; ; ; ; ; - - - 2 3 2 ; ; ; ; 2 2 = = = * * * * * ; - - - - - - - - - * * - - - - - - - - - - - - = ; 2 2 ; = = * = = = = = = * * = 2 1 3 3 3 1 2 3 3 y u y 2 o X # # * y 1 ; = & * * * * * * * * * * * * ; ; ; * 1 1 1 < 1 1 1 1 1 1 1 1 1 1 1 1 1 1 1 1 1 3 3 1 3 3 3 3 1 < = = ; &   & = = ; 1 3 3 8 s s 8 8 8 8 4 4 8 8 8 9 9 8 8 8 4 4 3 3 3 3 3 3 3 3 1 1 1 1 1 1 1 1 1 1 1 ; 1 1 1 1 1 1 1 1 = 1 8 d l 3 = = 1 8 d d d d s s 8 1 1 1 1 1 < 1 1 1 1 3 4 8 8 3 1 1 1 3 3 1 1 3 3 3 3 1 1 1 1 = = = = = = = = ",
"; ; ; ; ; ; ; ; - ; - ; - * - ; 2 1 2 1 1 1 1 1 1 1 1 1 2 = = = ; - * * * * ; ; y 3 ; ; ; ; 3 y 2 < < < < < < < 2 2 2 2 2 2 - ; 2 2 2 2 2 2 2 < 3 2 < * * * 2 2 3 2 2 2 3 3 2 2 * * < 2 2 2 2 3 8 3 3 3 3 < < < = & = 3 l x l 8 s s 8 3 3 3 3 1 2 = * < * o + = = * 3 8 8 8 9 9 3 3 1 3 8 a a a 1 3 3 3 3 3 3 3 ; 1 ; = ; 3 3 ; =   1 l s 3 1 = 1 < < < = = 1 1 ; ; 1 1 3 1 3 3 3 3 t 2 2 2 2 2 2 2 2 2 2 2 2 2 2 2 2 2 2 2 t 2 2 2 2 3 3 3 3 3 3 3 3 3 3 3 3 3 3 3 3 3 3 3 3 3 2 ; ; ; = = * * - - - - - - * * = 3 y 3 = o & = 3 - - - - - ; ; ; - - ; ; - - - ; ; ; ; ; ; ; ; * * = = * * * * - ; ; ; ; ; ; ; ; - - - - - - - - - - - - - - - = ; 2 2 ; ; ; ; 2 2 2 2 ; ; ; - 2 2 1 1 3 3 3 3 y y y 3 ; o o       ; u 3 - - * * * - * * * & & * * * - ; ; ; ; ; ; 2 1 1 1 3 3 1 1 1 1 1 1 1 1 3 3 3 3 3 3 3 3 1 1 1 2 2 < = = * o   & = = ; 1 3 3 8 s s s s 8 s s s s s s s s 3 3 3 3 3 3 3 3 3 3 3 3 3 1 1 1 2 1 1 1 1 1 1 1 1 1 1 1 1 1 1 1 1 1 1 1 8 d s 1 * = 1 8 s d s 8 s 8 1 1 3 3 1 < < < < < < < < 3 3 3 3 3 3 3 3 3 1 2 2 ; ; ; ; ; 2 2 2 2 2 2 2 2 ",
"- - ; ; ; ; - - - - - - - - - - 2 2 2 2 2 2 2 2 1 1 1 3 1 2 2 1 - ; ; * * * - - - * * * - ; - ; 3 3 2 2 2 2 3 3 2 2 2 2 - - - - - - - - ; - - - 2 2 2 2 3 3 3 2 2 2 2 2 2 2 2 * y y u y y 3 y y 3 3 3 3 3 3 3 3 < = = 1 s k s 3 8 8 3 3 s s 8 1 2 = * * o o o + = & ; s s 9 8 < 8 8 3 3 8 3 3 1 3 1 1 1 1 1 1 1 ; 1 ; = ; 3 3 ; &   ; s 3 = = 1 < 1 = < 1 1 1 = ; ; 1 1 3 3 3 2 y 3 y t 2 2 2 2 2 2 2 2 2 2 2 2 t y y y y t t t 2 2 2 3 3 3 3 3 3 3 3 3 3 3 3 3 y y y y y 3 3 3 2 ; ; ; = = * * - - - - - - * * * ; 3 3 = & & * 3 - - ; - ; ; ; - - - ; ; ; - - ; ; 2 2 2 ; * * ; ; ; ; - * * * - ; ; ; ; ; ; - ; - - - - - - - - - - - - - - - 2 2 - - ; ; 3 3 ; 2 2 2 3 3 3 3 3 3 2 ; 2 3 y y y y y ; o     o   # + y - + o o * * * * * * o o * * * - ; ; ; ; * = = ; 2 2 1 1 3 3 3 3 3 3 3 3 3 3 3 3 3 3 3 3 1 1 2 2 ; = < = * o   * = = ; 3 1 3 s s s s s s s s s s s 4 4 3 3 3 4 4 4 4 4 4 3 3 3 3 3 1 1 1 2 2 1 1 1 1 1 2 1 1 1 1 1 1 1 1 1 8 3 = 1 s d s = = = 1 8 s s 8 8 3 1 1 3 3 1 = 3 3 3 1 1 < < < < < < < 3 3 3 1 3 3 3 2 2 2 1 1 2 2 2 2 2 2 2 2 ",
"- - - - ; - - - - - - - - 2 y y 3 3 3 3 3 3 3 3 3 3 3 3 3 ; ; * ; * - - - - * * - - - - - ; - - 2 2 2 2 2 2 2 2 - - 2 2 2 2 2 2 2 2 2 2 2 2 2 2 y y 2 2 2 2 2 2 2 2 2 2 2 2 2 2 t y y y y y y y 3 3 4 3 3 3 3 3 < < < 1 4 s s 8 4 4 4 8 s 8 3 3 * * * + o o o o o & ; 3 s s 3 1 3 3 3 3 3 3 3 3 = = 1 3 3 1 1 ; 1 1 1 1 3 1 1 1 & & * * = = < 1 = < = < < 1 1 ; 3 3 3 3 3 3 t t t t 2 2 2 2 2 2 2 2 2 2 - - - - - - - - - - - - - - - - - - - - 2 2 2 2 2 2 2 2 2 2 2 2 2 2 - - * * * * * * - - - - - - - - - - + + o o   o o * ; ; ; ; ; ; - - - - ; ; ; ; ; - ; ; ; ; ; - - - - - - - - - - - - - - ; ; ; ; ; - - - - - - - - 2 2 2 2 2 2 2 2 3 3 ; ; ; ; ; ; 3 3 3 2 2 2 3 3 3 3 3 3 3 3 3 3 s y - o o o o o o o o o * * & o * * * * o o o o - - * * - - - - ; = = = = = = = = = 2 1 1 1 3 3 2 2 2 2 2 2 2 2 2 < = = = * * & & o o o & * 2 1 2 1 3 3 4 s 4 u s s s s 4 4 4 4 s s 4 3 3 3 3 3 3 3 3 3 3 3 3 3 1 1 1 1 1 1 1 1 1 1 1 1 1 1 1 1 = 1 1 1 1 3 s l 8 < = < 8 k s s 8 3 < < 1 3 1 < < < < < < < < < < < < < 1 1 1 1 3 3 3 3 3 3 3 3 3 3 2 - - ; - ; ",
"- - ; - - - - - - - - - 2 3 y y 2 2 2 3 3 3 3 3 3 2 2 ; 2 ; ; * ; ; - - ; ; - - - ; - - - - - - - - 2 2 2 2 2 - 2 2 2 2 2 - 2 2 2 2 2 2 2 2 2 2 2 2 2 2 2 2 2 2 2 2 2 2 2 t t t y y y y y y y y 3 4 3 3 3 3 3 3 < 1 1 1 4 s s 9 4 4 4 4 4 3 3 2 * * * * O o o o o & - 3 s s 3 1 3 3 3 3 3 3 y 3 1 1 1 1 1 1 ; = 1 1 ; ; ; ; ; ; * * * = = = < < < = < 1 1 1 1 ; 3 3 2 1 2 2 2 2 2 2 - - - - - - 2 2 - - - - - - - - - - + + + + + + + + + + + + + + + + + + + + + + * + + + + + + + + + * * * + * * * + + + + * + + o o   o o * ; ; ; - ; ; ; - ; ; ; ; ; ; - - - ; ; ; ; ; ; - - - - - - - - - * - - - - - - ; - - ; ; ; ; - - 2 2 2 2 2 2 2 2 ; - - - - ; - ; 3 3 2 2 2 2 3 3 1 1 3 3 3 3 3 3 y ; & o o o o     o o o o o o o o * * * - - - - - - - - - - ; ; * * & * * * = = = = = = = = ; = * * = = = = = = 1 1 = = = & & & * & o o & = 2 1 & * = 2 < 1 1 2 1 1 1 1 1 1 1 1 3 3 3 3 3 3 3 3 3 3 3 3 3 3 3 3 1 1 1 1 1 1 1 1 1 1 1 1 1 1 1 1 = 1 1 1 1 1 a s s 3 = = 3 8 s s 8 3 < = < 1 < = < < < < < 1 1 1 < < 1 1 1 3 3 1 2 - - - - - - - 2 2 - - ; ; ; ; ",
"- ; - ; - - - - - - - - - 2 3 3 3 3 3 3 3 3 3 3 3 3 3 3 3 3 2 ; - - - - ; - - - - - - ; ; ; - ; ; 2 2 2 3 2 3 3 2 2 t 2 2 - - 2 2 2 2 2 2 2 3 3 2 y y y y y y y y y 3 2 3 2 2 2 2 3 3 y y y y 3 3 3 3 3 1 1 1 1 < 1 < < 3 s s 8 4 4 4 4 u 3 2 2 * * * O O O + + o & - 3 a s 3 1 4 3 3 3 3 3 3 3 3 1 1 1 < = = = ; ; ; ; ; ; ; ; * * * = = = < < < < 1 1 1 ; ; ; 3 ; ; 2 ; ; - - - - + + + - + + - - - - - + + + - - - - - - - - + * * + + * * * + + + + + + + + + + + + + + + + + + + + + + + + + + + + + + + + + + o o o o o * ; - ; - - - ; ; ; ; ; ; - - - - ; - - - - - - - * - - - - * * - * * * * - - - - ; ; ; ; - - - - 2 2 2 2 2 2 2 2 3 3 y y t t y 3 3 1 1 1 1 1 1 1 1 1 1 1 3 3 3 3 3 - o   o o o       o o o o o o o o o o o & * - * * * * * * - - * o o & & & * & & & & & & & & * & & * * * * * * = = = * & &     & o o o & * = 2 * = = = = = = = = = = 2 2 1 1 1 1 1 1 3 3 3 3 3 3 3 3 3 3 1 1 1 1 1 1 1 1 1 1 1 1 1 1 1 1 1 1 1 1 1 1 1 = 1 3 s s 8 < = = 1 8 s 8 1 = = = = = = = = = = = = = = 1 1 1 1 1 1 1 1 ; ; ; ; ; ; ; - ; ; ; ; ; ; ; ; ",
"- - - - ; ; ; ; - - ; ; ; ; ; ; 3 1 3 3 3 3 3 3 3 3 3 3 3 3 2 2 - - - - * * - - - - - - - - - - ; 2 2 2 2 2 2 2 2 2 2 2 2 2 2 2 2 2 2 2 2 2 2 2 2 t t y y y y y y y y 3 2 2 - ; 2 2 2 2 2 2 2 3 1 1 1 1 < < < < < 1 < < < 3 s 8 s 8 8 8 u 3 2 < * * O O O O O O * * - 3 a s 8 3 3 3 1 1 1 1 3 3 3 1 1 1 = = = = = = ; ; ; ; ; ; * * = = = = < < < < 1 1 1 1 ; ; 3 ; 2 ; ; ; - - - - + + + + + + - - - - - + + + - - - - - - - - - - - - * - - - - - - - - - - - - - - - - * * * + + + + o + + + + + o o o o + + + + o o o o o * - - * - * - - - - - - - - - - - - * * * * * * * * * * * * * * * * * * - - - - - ; ; ; ; ; - - - 2 2 2 2 2 2 2 2 - - ; ; ; t y 3 3 1 1 1 1 1 3 3 3 3 3 3 3 3 3 3 * & o   o o o o o o o o o o o o o o o o o o o o o o o o o o o o o                   o   o o o o & & & * & & & & & & & o         o o o o o & & = = = = = = = = = = = = < 2 1 1 3 1 3 3 3 3 3 3 3 3 3 3 3 1 1 1 1 1 1 1 1 1 1 1 1 1 1 1 1 1 1 1 1 1 1 1 1 = = 1 3 8 3 1 = = = 1 8 8 1 = = = = = = = = = = = = = * = = = = = = = = = ; ; ; * * * * ; ; ; ; ; ; ; ; ",
"- - ; ; - - 2 2 - - - - - - - - ; ; ; ; ; - 3 3 - - 3 - - - ; ; - - - - - - - - - - - - - - * * * * * * * & * * ; ; ; ; - - 3 3 1 1 2 2 = = ; = ; ; ; ; - - 3 3 y 3 3 3 1 2 ; ; ; ; 2 2 3 3 3 3 3 3 2 2 2 2 2 2 2 3 2 < 2 3 u u s s u u u 3 2 ; * O * * O O + O * - ; 3 3 s s 4 4 4 3 3 1 1 3 3 1 1 = = = = = ; = = = = ; ; ; ; - = = = = = < < < < < < ; ; ; ; 2 2 2 - ; - - - - - - - + + + - - - - - - - - - * + + + - + + + + + + + + + + + - - - - - - - - + + + + + + + + O O + + + + + + + o O o + + + + o + + o o o o + - * * * * * - - * - - - - - - - - - - - - - - - - - - - - - - - - - - - - - - - - - - ; ; ; ; - - - - + - - - - - - - ; - ; ; ; 1 1 1 1 1 3 3 3 3 3 3 1 1 < < = o o         o o     o o o o o o o o o o o o o o               o o o o                     o o o & & & o o o o o o o o o o o o o o . . . o o + * - * * * * * * * = = = = = = 2 2 3 3 3 3 3 3 3 3 3 3 1 1 1 1 1 1 1 1 1 1 1 1 1 1 1 1 1 1 1 1 ; ; 1 1 1 1 = = 1 1 1 3 3 1 = = 2 3 3 3 1 ; = ; ; ; < < < = = = = = = = = = = = & & = = * * = = = = = = * * * * = = ",
"- 2 2 2 2 2 2 2 2 - - - - - - - - - - - - - 3 3 2 2 3 3 3 3 - - - - - - - - - - - - - - - * * * * * * * & & & & * * - ; ; ; - ; 2 = = = * & * * * * - ; - ; - ; * * * = ; 2 1 2 ; = ; 2 2 1 3 1 3 3 3 3 3 3 3 3 3 3 3 < < 3 u s s s u u u 3 2 ; O O O O O O + O + * * ; 3 3 4 3 4 4 4 3 3 3 3 3 1 = = = = = ; 1 = = = = ; ; ; ; - - * * * = = < < < = = ; ; - - 2 2 - - - - - - 2 2 - - + + + + - - - - - - - - - - - - - - - - + + + + + + + + + + + + + + + + + + + + + + o o o o + + + + + O + o o o + + + + o o + + + + o + & & * o * * * * * * * * * * * - ; ; - - - - - - - - - - - - - - - - - - - - - - - - - - - ; ; - - - - - - - - - - - ; ; - ; ; 1 1 1 1 1 1 3 3 3 3 1 1 < = = * &   o o o o o o o o o o o o o o o o o o o o o o o             o o o o o                 o o o o o o o o o         o o o o o o & & o o o o o o o + * * * * - - - - 1 2 2 2 2 2 2 2 1 1 1 1 2 2 1 1 1 1 1 1 1 1 1 1 1 1 1 1 1 1 1 1 1 1 1 1 1 1 1 1 1 1 1 1 1 1 1 1 = 1 3 3 ; * ; 1 3 1 1 1 2 1 2 1 1 1 < < = = = = = = = = = = = = = = = * = = = = = = * * * * = = ",
"- - ; ; - - 2 2 ; ; - - * * * * ; ; ; ; ; ; ; ; - - 2 3 3 - - - - - - - - - + + * + + + + o o o = = = = = = * * * * * * & * * * * & & & $ $ & o * * * * * * * - o   & & = = ; < ; = ; = ; = = = 2 2 2 2 2 2 < < 2 2 < o o * 3 4 u 3 3 3 3 3 2 * + O O O O O O O + * & * 2 1 3 < 3 3 3 1 3 < 2 2 = = = = = = ; = * * = = ; ; ; ; - - * & & & = = = = = = ; = - * - - - - - - - - - - - - + + + + - - - - - - - - - - - - - - - - - - - - - - - + + + + + + + + + + + + + + + + + o o o o + O + + o o o o o o o o o + + + o o + + o o o o o o o * o o o * * * * * - - - - - - - - - - * - - - - - - - - - * * * * * - - - - ; ; - 2 t t t - - - - - - - ; ; 3 3 1 < < < < 1 3 3 3 3 3 < < < = = * & * = = = = = = ; = = = = = ; ; = = = = = = * * * * & & & * = = * * * * * * * * * * * * * * * * * * & o o                 o o o         o o o o o o + * - - - - 2 2 = ; = = 2 2 = = = = = 2 2 2 1 1 1 < 1 1 1 1 1 1 1 1 1 1 1 2 1 1 1 1 1 1 1 1 1 1 1 1 1 1 1 1 = 1 3 1 = * * = = 2 1 1 1 1 3 3 1 1 < < = = = = = = = = = = = = * * * * * * * * = = * * * * * * ",
"* * * & * * * * = * * & & & & * o o o o         & & & & & & & & & & & o & o & o &               $ $ $ & & & * & * * & & &       & & $ $ $ & &                       . $ & * = = 1 1 1 < = = = $ $ $ $ $ $ $ $ $ $ $ $   X $ = < 3 3 3 3 3 1 = * & o O O o o o o o &   $ = 1 = = 1 1 1 < < = = & 1 = = = = = * = & & & * * * = ; = * & & & & = = = = = = = * * * * + * + - * * * - - - * O O + + + + * + * + - - & + + + + + + + o o o o o o o o o o o o o o o o + + o o o o o o o o o o o o o o o o o o o o o     o & o . . o & &   o   & & & & & o & & & & & * & & & & & o & o & & & & * & & & & & & & & & & & * * * * * * * = * - - - - * * *     & & & * * = = = = = = < < < 3 3 1 < < < < < < 1 3 3 3 3 3 3 s 8 8 4 8 8 s s s s s s y 3 1 1 1 1 = = 1 1 1 1 1 1 1 1 3 3 3 3 3 3 3 3 1 1 2 2 ; = = = & &     X X X X X X X X X X X X X X X X # X X     o & o $ & $ & $ & & & & & * = = < < 1 < < < < < < < < < < < < 1 < 1 < = = = = = = = = 1 1 = < 1 1 1 1 < < 1 = * & & & * = < 1 1 1 3 1 3 3 3 3 1 1 1 1 = = = = = = * & = = * * = = = = = = = = * & & & ",
"d d l d d d d K K l l l I I I l I I I v K v l l l K T K T I T K I I K K K U Y Y *.Y l U #.&.+. .U L l l v l 9 3 d d l v  .&.&. .#.&.*.:.*.&.&.l.&.%.+. .I 0 9 0 0 k l s s s s u 3 s s 3 8 0 L +.$.$.$.-.K.K.K.K.K.4.4.-.-.4.4.4.G.K.:._ K K Y Q Q &.f.&. .Y I v Q I K I Y Y T 0 l K K K l l l x K I K K K I K d d l d d d d d d 1 1 1 < < < < 1 8 3 1 < = 1 1 3 y 3 3 3 a s a 3 8 8 s s s s s s k s s s l l l x x x s 4 3 s c | Y _  . .U v l l l s s l l s s s s s s 3 8 s s 8 s 8 s 8 8 8 8 0 d 0 d K +.=.+.T d 0 0 K H q q K 0 9 d d d d d d 0 0 d d d 0 d 0 d K T I d q q d 0 l d 0 I U T K F L P L L T Y Q Q I I Q T K K J I K d d d 0 d d d d K I K 0 0 0 d q 6 6 6 6 6 1 6 6 6 6 q q 6 6 9 9 s 9 9 8 9 8 9 8 8 3 8 3 3 8 8 3 s l l s 3 1 d d s 9 8 1 1 1 = 6 9 9 8 q d l U l 8 3 8 0 s s s 1 = 9 9 1 6 d I I K d d l I U l d d l d 8 9 I I d 0 l U U I I I K d K I I K x I I K d l K K w l l l l l l l v I d d l x l d l l 0 d K I K l K 9 0 0 9 8 0 0 0 U K d d l l d d K d d d d d d d s 8 8 9 d 8 9 l d d d l d d d l 0 q 9 0 d 9 d l s d d d d l l l ",
"d d d d d d d d 0 w l K l v K L _ _ Y Y U L L K T K 0 q 0 K T K T T T T T _ +.#.@.Y L ` @.@.$.$.G.#.U l w w l v l v Y  .&.:.&._ @.@.*.-.*.@.=.:.$.$.*.&. .K 0 0 0 9 9 9 8 4 3 3 3 s s 9 K _ #.-.-.3.3.3.7.K.K.7.7.5.3.3.5.7.7.7.K.5.4.$.+._ _ +. .&.*.&.+. ._ Y Y T K T Y R P F F F l d l x K I I I I K d d 0 q 0 K K 0 d d d s 8 3 1 < < < < 3 = = 1 3 8 8 3 3 1 3 8 8 3 1 1 < s s l l v l l l l l l c U  . . . . .| Y I U  .O._  .O. ._ U I L l 0 8 s d d s d l s 3 1 1 3 8 9 s 0 9 8 8 0 l K T T T Y @.=.=.+.Y P Y R P H H K K 0 0 0 J J 0 q q q q q 0 0 d J Y / +.R T 0 0 H T T H H T P F F ` ` ` P P F K K T K T T J T Y R Y T J J H 0 0 J J K K K J H 0 0 6 6 6 q 0 H H H P T K K F 0 6 6 9 9 8 8 8 9 9 8 0 0 0 0 0 d l l l d d K K d d d l d 9 1 = 1 8 q T T Y T T K T T Y I 0 9 d l v v l d 0 d 0 6 q 0 Y I I T T K K T T d 0 0 K K T T Y Y Y +.@.+. .+.T K J K K K I I K T T T K K F F w l 0 0 0 l l l d d d K d d d l K 0 0 l K l 0 l q q 9 9 w T  . .+.Y T K T T K K K J d d d d d d 9 0 l l K I l l d d 0 0 l l K K q 0 0 d d 0 d K 0 d d K K K l d ",
"0 0 9 0 l K l 0 w K U L l l L _ +.+.+.+.+._ _ _ +.' Y P ' +.' P ' +.+.+.#.$.:.4.4.*.@.$.$.$.$.4.>.$.@. ._ Y L K K Y #.:.>.4.:.@.-.4.4.5.4.$.@.*.$.$.:.G.:.=.@.#.L w 8 9 s 4 3 4 s l l v  .$.$.$.-.3.3.5.7.K.K.7.7.7.5.5.7.K.K.K.`.5.4.5.G.#. ._  .&.*.&.&.#.#.@.Y Y Y Y R R Y P K w 0 0 d I I I I I I K 0 d w w l l d d d d d d s 8 3 1 < 3 3 8 3 8 8 8 8 3 3 < 3 8 s s 8 8 8 s W  .X.&.&.#. . . . . . .+.#.#.#.+.&.&.&. . .+.&.O.#.&.#.#. . . .I l 9 s d d d l l s 8 s 8 3 8 9 9 0 l l v I Y  .R +.@.=.=.=.$.$.=.@.=.$.+.Y P R T T K K K K J 0 0 0 q 0 K T Y +.1.1.1.$.+.Y Y R T F q F R R P P $.$.$.{ ' K 0 q 0 K T J H T R ' +.Y K K J H 0 0 H K K H H T T K q q H K T Y ' ' +.+.' ' Y T T K 0 0 9 9 9 0 0 0 d d l l l l K K K d d d d d l K Y T l 9 9 0 K T T Q +.+. . .+.=. .Y K K U Y Y Y Y Y T I K T T Y =.Y Y +.Y T I +.@.+.T T Y R T K +.@.*.*.=.@.+.#.+.T K K K K I I K Y +.+._ _ ` Y T T T T K K 0 0 0 0 J K d 0 d K K 0 0 l l 0 l l U L K K Y &.&.&.=.+._ Y Y Y Y T d 0 0 0 0 0 0 0 0 K U K I Q Y K d 0 0 0 d l l l 0 l K l d 0 d l 0 0 0 d K l 0 q ",
"9 9 0 l T T T U Y _ +._ U T Y ' #.+.#.#.#.#.#.@.+.@.*.4.G.H.4.@.@.@.*.-.G.4.4.4.G.4.4.4.-.$.$.4.$.>.4.6.-.+.L w +.$.G.4.4.4.4.4.4.4.5.5.3.4.3.4.$.$.@.$.-.$.:.:.#.L 0 0 l s 8 s s x I Y #.$.@.{ $.-.3.3.7.7.5.5.7.7.5.5.7.7.7.7.K.5.3.7.K.:._ T Y  .+.&.*.*.*.$.+.@.+.' ' +.+.' T K w l I U W U d d d d d K K K K K l l K K g d x l 0 8 8 8 s d l l s 8 3 8 8 0 s s 8 8 s x Q X. . .#.#.&.#.+. .&.&.&.&.&.#.+. .+.#.&.&.#.#.+.#.#.#.#.&.&.&.&.&. . .U I x d s d s s l W U d 8 0 0 v U  .+.#.&.#.=.$.*.$.$.@.$.1.=.@.$.4.1.@.@.@.P T T P K K K T T K K T +.$.1.4.G.4.G.G.1.@.=.1.P F H P @.+.' $.$.4.4.*.' T 0 6 q Y +.T T R ' @.$.+.Y P T H 0 q 0 T T K K R +.R T Y R +.+.@.$.4.1.$.@.+.+.+.+.+.U K 0 9 0 0 d d d l d l l l d d d d d d K K T U Y Y Y Y Y Y +.+.T Q +.+.+.+.&.*.&.+. . .+.+.+.+.+.@.+.+.@.F.G.4.*.+.R ' +.' #.4.4.4.*.@.@.@.Y w @.*.4.4.$.+.+.@.*.+.Y T I K K I T +.=.=.#.#.@.@.#.=.@.+.Y T U T K d K K K d d K 0 0 0 l l K U Y +.+.+.&.&.&.+.Y +.+.+.+.+.+.+.+.K J 0 0 0 0 0 0 K K K l l I U I l d 0 0 l K l l K I U l 9 0 d d K 0 9 d K l 0 8 ",
"0 l T T Y Y  .+.+.@.#.+._ _ +.@.#.@.#.@.#.@.@.@.@.$.-.-.4.5.H.G.4.4.G.K.K.5.4.-.H.5.5.H.K.K././.K.K.H.4.$._ P K Y ' @.' ' ' [ [ @.$.3.4.3.5.5.5.K.5.$.-.-.$.$.-.4._ F w l l s d 1 K Y +.*.<.$.3.3.4.5.7.7.7.7.7.H.7.5.5.7.7.7.8.3.7.7.5.K.K.$.T K U Q &.g.l.G.G.*.4.4.$.$.*.4.4.$.+.Y Y +.%. .Q l d 9 d K Y Y K Y U K K K K g d x l 0 0 0 k l v x l d 0 l I W  .I l d l U +.*.l.&.#.#.+.#.+.#.+.+.+.+.#.&.#.@.+.+.#.&.#.#.#.&.#.#.#.#.#.&.&.&.&.&.&.&.%.W l s s s l W &.&.U v v L Y  .&.:.&.&.&.=.$.=.@.$.@.$.$.@.$.-.5.5.4.4.5.Y +.@._ L K L Y Y Y Y +.*.G.G.G.1.<.1.4.1.<.1.1.<.@.] $.1.@.@.4.$.$.$.+.P H 0 0 T 1.*.P R ] @.$.$.' R R R T H H T R +.R R @.@.' +.@.$.$.$.$.<.4.5.4.$.' ' ' ' ' +.Y K 0 q 0 0 l 0 l K K T K K 0 K T T T T T Y R Y Y +.+.+.+.+.@.+.%.&.=.@.+.@.&.*.$.=.$.*.$.=.#.@.*.F.F.J.U.P.*.Y ' ' ' +.4.K.H.4.5.4.$.$.-.@.Y -.4.-.*.$.@.@.@.=.@.+.Y Y K J J T / @.@.+.#.@.@.@.@.@.@.@.@.=.@.T K 0 K T K K 0 K K K K T Y  .+. .+.#.#.+.Y T T P P R +.@.@.+.+.Y T T K K K T K T w 0 K K d l T K 0 0 d I I I I Y  .Y K 9 9 l T +.U l K U T K l ",
"U Y  ._ _ ` _ +.@.' +.' @.@.$.$.$.$.$.@.@.@.@.@.@.4.H.K.5.H.H.H.H.H.K.H.K.3.4.-.5.3.3.5.K././.K.5.8.3.-.$.' P G L ' [ ' } } } } <.3.3.3.3.8.3.3.@.' ' ' $.3.4.5.5.@.L w l K K l 8 Y *.G.5.3.4.7.5.7.H.H.K.7.H.K.K.H.7.7.H.H.7.7.3.7.K.5.K.'.J.+.K K U  .*.l.L.I.K.K.K.G.5.H.K.H.J.4.$.&.=.&.+.Q Y U I T &.:.&._ $. .I K l d d d l l l l l l l v v v I Y  .+.&.&. ._ _ +.:.J.J.G.:.$.$.#.#.#.#.#.+.+.+.@.#.#.#.@.#.#.#.@.#.#.$.$.#.#.#.#.&.&.&.&.&.&.k.&. .I d 0 l Y &.&.&. . . .&.&.&.&.&.&.&.$.*.$.@.$.*.*.$.$.-.4.5.5.H.7.5.5.*.G.J.4.+.` +.*.*.*.*.4.G.G.G.4.1.<.<.1.1.<.<.1.1.1.1.1.1.@.@.4.$.@.' K 0 0 K Y ' H.$.G R ] ] 2.@.] ' @.@.' P T ' @.<.@.@.$.$.] @.@.@.@.@.$.3.3.7.4.$.' R R R R +.R T K 0 q 0 0 J K T Y Y Y T T T Y +.R Y ' ' ' ' ' +.+.+.+.@.@.+.%.&.&.&.&.$.*.l.:.4.4.4.-.*.$.=.G.P.K.J.4.+.P F ` @.@.4././.5.4.4.$.[ ' [ $.$.*.$.@.[ @.$.@.' +.+.+.+.Y I K K Y +.+.+.+.@.@.@.+.@.@.@.=.=.=.$.Y T K T T T K K T Y Y T T _ +.&. .+.+._ L w l K H F P ' +.+.+.' Y P P P P P P T P K T R ' T T Y K 0 0 0 d x I I &.@.+.T l 0 T +.*.Y K I T U U U ",
"' _ ' ' _ ` _ ' ' ' @.[ @.@.$.$.$.$.@.@.@.$.-.4.5.K.`.K.K.H.5.4.4.-.$.@.[ [ [ [ ' ' ' [ { { { { { { 3.3.8.4.' P $.5.K.K.7.7.8.8.0.`.`.7.7.7.5.3.G H H G } { 3.3.G.4.' K T  . .Y K $.J.K.H.3.4.7.7.H.H.H.5.5.5.H.H.H.H.H.K.K.K.7.5.7.K.5.7./.K.G.Y L K U  .&.g.l.K././.K.5.K./.K.K.G.$.+.+. .Y U K K U +.l.K.J.$.:.+.K l d d d x l l K K K K K l U Y  .#.&.&.&.#.&.#.$.:.J.J.G.:.$.$.+.@.@.@.$.@.-.-.*.$.*.*.*.$.4.-.*.$.*.*.*.-.-.$.#.#.#.#.&.&.&.&.*.*.*. .K d L +.:.$.&.$.:.$.:.:.:.$.$.$.$.:.-.-.-.4.4.5.5.4.5.5.5.K.7.7.5.5.H.K.U.H.4.-.G.K.G.H.K.H.G.5.4.4.5.<.<.<.1.<.<.<.{ <.$.$.<.<.@.1.@._ K 0 H T ' @.@.4.' G ' { ] <.<.@.@.<.<.] ] ] @.<.<.@.] ] ] @.@.@.' ] $.<.3.8.3.3.$.{ ] ' ' R R ' / T K 0 0 H K T / +.=.+.Y T T R +.+.' ' ' ' @.$.$.$.$.$.$.*.+. .+.+.&.$.:.G.4.4.4.4.4.4.4.$.*.G.P.G.@.P K K ' $.G.K././.5.$.4.$.@.' ' ' +.$.@.@.+.' ' @.#.+.+.+.+.@./ T K K +.@.@.@.@.$.$.@.$.$.@.@.@.@.@.+.@.+.Y ' +.' Y Y Y ' +.Y Y ' +.@.@.@.+.' P F F K F G P ' ' ' +.@.R R Y P P P P P R ' +.@.@.@.@.@.Y U l 9 8 9 l I &.%.+.+.L 0 T *.*._ U T Y T U Y ",
"+._ ` ` _ ' ' _ ' [ @.@.[ [ [ $.[ [ [ [ $.4.5.H.'./.5.$.@.$.4.$.` P G w w H G P P } { $.-.4.5.5.7.7.7.0.`./.3.@.5./.`.`.`.`.{.`.`.{.{.{.{.[.{.`.`.3.} } ' $.3.7.H.H.*.Y Y =.:.#.L $.K.K.K.5.5.K.5.5.5.3.4.3.4.3.5.5.5.H.K.K.K.H.K.7.7.5.3.4.5.G.=.Y K K I U Q +.4.K.K.4.4.K.K.K.K.*.+.T K K l l = 6 w Y :.J.J.4.:._ l 0 0 d K I K U U Y Y U K K Y Y  .#.#.#.#.+.$.$.$.$.-.-.-.-.-.-.>.>.>.>.>.4.5.4.4.4.5.G.K.K.H.H.G.G.G.G.5.4.G.:.$.&.$.$.*.&.:.&.&.*.l.&.U 0 K #.G.:.&.:.:.$.&.$.:.l.G.l.l.>.:.5.G.H.H.H.K.K.K.K.5.5.5.7.5.3.5.5.5.5.5.G.H.K.5.G.G.5.4.-.*.$.4.<.$.<.<.$.$.$.$.2.$.@.1.1.@.@.K 0 7 q K ' +.' $.3.' P <.3.] <.9.2.2.2.<.] ] <.] ] ] ] ] ' ] <.<.$.] { <.8.5.8.3.8.3.<.$.] R P Y +.=.+.T H H H T Y +.@.=.' T F P ' =.@.@.@.$.$.$.$.4.5.4.<.$.$.$.&.&.#.#.#.$.-.*.*.4.4.4.4.4.4.5.K.K.@.G q G +.'.`.'.{.{.K.-.@.#.+.+.=.*.@.+.@.+.#.@.+.+.@.=.#.@.#.=.=.+.Y I I +.@.=.@.@.*.$.@.$.$.$.@.@.@.$.$.4.*.@.$.@.+.+.+.Y +.+._ Y ' +.@.@.@.#.$.@.' Y Y P P ' ' ] @.@.$.@.' ' ' ' ' ' ' R @.@.' +.*.4.*.l.&.Y d 8 8 l I &. .+.@.Y w Y 4.G.@.Y +.+._ _ +.",
"` ` ' ' ' [ ' ' [ [ [ [ [ $.-.-.4.-.3.5./././.`.K.5.$.$.4.$.L 7 , 6 q G ` [ -.3.3.5.7.7.7.0.0.0.7.7.7.7.7.7.3.{ 7.7.7.7.7.0.`.`.`.{.{.{.{.{.`.{.Y.`.K.8.3.$.3.7.5.K.4.` Y $.:.+.L -.G.4.3.$.{ $.' ' ' ' ' @.@.+.' @.@.@.$.1.4.4.$.-.3.$.@.{ $.4.$.+.U K K l K K $.6.K.K.K.K.K.K.).*.K 0 K L U _ L w w L _ $.$.$.$.@.' _ U U U L 0 0 l K L Y _ _ #.+.+.+.@.#.@.@.$.$.-.-.>.4.4.4.4.4.4.6.5.6.6.5.5.5.5.5.5.5.5.5.5.5.5.5.5.7.H.H.G.J.J.J.G.:.l.G.:.:.l.l.l.:. .U +.$.:.:.:.:.G.l.$.J.J.:.#.$.l.>.4.4.4.4.4.K.5.5.6.6.6.5.5.5.5.5.K.K.H.H.K.K.K.K.G.5.5.5.G.G.G.5.5.4.<.2.4.4.2.<.1.<.<.<.1.@.R F F 0 0 T Y ' ' @.7.8.3.{ { <.{ { ] ] { { { { { { { ] ] ] ] ] <.2.4.$.] <.5.9.9.7.9.9.7.7.4.<.] ' R ] @.@.' R T F R ] @.@.@.@.' T R ] $.$.$.<.<.] <.<.<.3.3.<.<.$.#.#.&.#.#.#.@.@.*.@.@.@.$.$.3.H.K.K.' q q P 3.K.'.'.`.`.K.-.@.@.=.=.=.=.=.=.=.=.=.=.=.@.@.=.=.=.=.@.@.@.@.+.Y I @.=.=.@.@.$.*.$.$.$.$.$.$.$.$.$.$.$.$.@.@.' ' ' P ' ' P P @.*.@.$.$.$.$.$.$.*.*.$.$.$.$.$.<.4.5.4.4.4.4.4.4.4.4.4.4.4.3.1.4.*.*.G.J.G.*.Y l l I &.&.g.Q 6 L 4.$.$.@.' _ _  .+. .",
"' ' ' ' [ $.-.4.5.5.5.6.K._././././.`.'.{.{.`./.4.$.' P 0 7 7 7 ` ' $.3.3.5.5.7.7.7.7.7.7.7.7.7.7.7.8.8.7.8.3.{ 3.3.5.5.5.8.7.7.0.0.`.{.`.`.`.`.K.Y.K.7.3.$.$.$.4.H.4.` Y $.-.+.L $.4.$.$.{ ' ' ' ' ' ' ' ' ' ' ' ' ' ' ' ' @.+.$.$.$.$.' [ $.-.5.-._ K K U I K L ' >.J.J.G.:.$._ L 0 w _ +.#.>.' _ ` _ @.$.@.[ $.$.@.@.#.#.@.#.K L U Y _ _ +.+.@.#.$.-.:.-.>.>.5.6.K././._.K.6.6.4.3.3.4.3.>.3.5.5.5.5.5.H.5.H.H.H.K.K.K.K.K.K.J.J.J.>.:.$.:.:.$.:.:.:.:.$.+.U +.#.$.$.$.$.:.$.&.:.$.Y K Y #.:.-.-.-.-.>.4.4.6.4.6.5.K.J.J.J.J.K.K.K.K.K.K.H.H.G.5.5.4.4.4.4.4.4.4.3.3.3.2.<.<.$.$.<.<.$.R T H q 0 K P Y Y ' $.7.5.3.{ { { { { { { { { { { { { <.{ { { { 2.5.7.5.$.] <.5.9.9.9.7.7.7.5.2.{ ] ' R ] @.@.@.' R T R @.@.@.@.@.' T R ] $.$.$.$.] ] $.$.$.$.$.{ ] ' @.#.@.@.@.' +.' ` ` ' @.<.4.7.K.K.' q 0 ' 4.K.K.H.5.5.K.7.3.{ +.@.=.=.=.=.=.=.=.*.=.=.=.=.=.=.@.@.@.@.@.=.@.Q T +.@.$.$.$.*.*.$.$.$.$.$.$.$.$.$.-.3.$.$.@.@.' ' ' @.@.' ' @.@.@.$.$.$.$.$.$.$.$.$.$.$.$.$.<.4.5.<.<.<.<.<.<.<.<.<.<.<.$.$.$.@.@.#.*.l.*.+.Y I K Q U Y K q Y 4.4.@.[ [ @.@.#.#.+.",
"$.$.$.-.4.K./.'.K.K._./.{.{.OX{.+XuXiX+XoXoX'.K.@.+.P 7 % = w ' 5.5.K.K.K.K.K.K././.K.K.7.7.7.7.7.7.7.7.7.5.3.$.4.4.3.3.8.8.8.8.5.7.Y.`.`.Y.Y.Y.K.K.K.H.5.-.$.[ ' *.@.P Y -.6.-.` -.4.@.{ ' } ' ' ' ' ' +.+.' ' ' ' ' ' ' ' ' ' ' { { [ ' ' { $.5.K.4.Y l K T l 0 w L ` _ _ Y L 9 l K Y $.-.4.J.K.K.K._./.K.5.3.4.4.4.-.$.#.#.+._ Y Y _ +.@.@.@.' $.-.4.-.>.4.6.7.0.`.{.{.{.`.`.`./././././.K.K.K.H.K.K.H.H.K.K.K.K.K.K.K.K.K.K.K.J.:.$.#.#.@.@.#.#.#.#.$.$.#._ +.#.#.#.#.#.#.#.#.$.&.L 0 K +.*.+.+.+.#.#.#.-.-.:.-.4.6.J.J.J.J.4.G.4.4.4.4.4.4.K.G.4.-.-.-.-.4.<.3.<.$.$.$.$.$.*.*.$.+.Y K 0 0 0 K Y ' ' } { 3.K.7.5.{ { { { { ] ] { { ] ] ] ] { { ] { <.3.5.5.5.$.' } ] } } } } } } } R P R R ' ] @.@.@.] P T R ] @.] ] ] R T R ' ] ' ' ' ' } ' ' } ' ] { $.$.$.$.$.@.@.[ +.[ ' @.$.-.3.K.K.K.@.0 7 ' K.'.K.H.$.$.-.3.7.4.$.+.@.%.%.=.*.%.%.=.=.=.%.=.*.*.*.*.=.@.@.@.&.+.Y I +.@.@.@.@.$.$.$.-.-.-.-.3.3.3.3.$.$.$.$.$.$.@.@.-.4.4.4.$.@.@.$.$.$.$.$.@.@.@.@.$.$.$.$.$.$.<.<.$.$.$.$.$.$.$.$.$.$.@.] @.@.@.@.+.+.@.*.*.&.Y U l 8 = 6 K +.4.5.$.$.$.$.$.$.#.+.",
"$.-.4.K.K.K.K._./.K.5.5.J.6.4.-.K.{.oX`.K.K.G.$.@.' w 6 6 w #.J.5.3.3.4.4.5.K././.K.H.5.3.3.3.3.8.3.3.3.3.4.$.@.$.$.$.$.$.{ -.3.3.3.3.5.5.7.K.K.K.K.K.K.K.5.$.@.Y ' Y w K #.J.>.-.J.5.$.@.] ' ' ' ' ' +.+.+.' ' +.+.+.' +.+.' ' ' ' ' ' ' ' ' { $.K.K.$.L 0 0 l v l l w w l 0 9 7 K Y @.4.6.5./.+X+X*XuX*X=X[.{.`.`./.K.5.4.$.$.$.#.+.@.$.$.$.@.' @.-.>.4.4.6._.{.[.=X=XuX=X[.[.`.`./.`.'.{.'.'.`.`././././././././.K.K./.K.K.K.J.4.$.#.#.@.+.' +.@.+.+.@.$.#.+.@.#.#.@.#.#.#.#.+.=.=. .T Y +.&.+.'  ._ +.+.@.$.+.@.$.>.>.6.6.>.-.-.-.-.-.-.-.-.4.4.-.-.-.-.-.-.@.$.$.$.@.@.$.$.G.*.' K 0 q 0 0 K Y ' ' ' ' $.8.`.`.7.8.{ { { { { { { { { { { { { { { { 9.7.5.3.5.$.' } R R P P P P P R R R R } R R R ] ] ' R T ' ] @.] ] ] R T P ' ' ' ' ' ' R ' } } } { $.3.5.4.3.3.-.-.-.$.-.5.7.7.5.H.`.H.-.q q ` K.oXK.3.4.[ [ { 3.7.5.4.$.=.=.=.=.=.&.=.=.=.=.=.=.*.*.*.=.@.+.#.@.=.@.Q T @.@.#.+.+.@.$.$.$.{ { { { $.$.-.{ { $.$.$.$.$.$.4.$.-.4.4.@.@.$.$.$.$.@.@.@.@.@.$.$.$.$.$.$.@.] { { { { { { ] ] @.@.] ] @.] +.+.#.+.+.@.@.#.+. .d =   1 _ $.$.4.-.-.$.$.#.#.#.+.",
"4.4.K.K.J.K.J.K.K.5.-.$.[ ` F 7 $.H.`.H.5.G.4.@.@.Y 0 1 6 0 Y @.*.-.-.-.4.4.5.H.4.3.-.-.$.$.$.$.{ { $.$.$.@.@.' +.@.@.[ ' ' [ { @.$.$.$.<.4.7.K.K.H.K.K.K.K.K.4.=.=._ 0 w _ #.#.:.K.K.4.5.3.{ @.' ' ' ' ' ' ' ' ' ' ' ' ' ' ' ' ' +.+.' ' ' ' ' ' $.5.H.$.K 0 0 8 0 e l v v 0 6 9 L _ @.4.K./.{.{.[.[.[.[.[.[.[.[.[.[.[.{.{.`.`.G.4.*.$.-.4.-.$.$.$.-.3.5.7./.`.{.[.[.[.[.[.{.{.[.{.{.{.{.{.{.`.'.).)./././././././.).)._._.K.K.G.4.-.-.-.:.$.#.@.@.@.' ' @.@.+.#.#.@.@.@.@.+.+._ +.+.+.+.+.+. .+. . ._ _  . .' ` _ +.#.:.:.:.-.-.-.-.-.:.>.>.4.:.:.:.:.-.:.:.-.$.$.3.-.$.$.*.4.*.+.T 0 q 0 J K P Y Y P } { 3.K.Y.`.`.7.8.3.<.{ $.$.{ { { { { { { { { 3.8.8.3.{ $.] } } } ] ] { { { { { ] ] ] ' R R R R ' ' R P ' ' ' ' ' ' R P P ' ' ' ' ' ' ' ] ' ' ' [ { -.3.8.8.3.3.3.3.5.5.5.7.H.H.K.K.@.G % P K.oX/.4.@.@.$.[ [ $.5.K.5.4.$.=.=.&.@.@.@.@.*.=.=.@.@.+.@.@.+.+.@.@.=.=.@.+.@.=.*.@.@.$.$.$.{ { { { { { { { { { $.<.3.3.3.5.4.$.$.4.4.$.@.$.$.$.$.$.$.@.@.@.$.1.1.1.1.<.$.@.$.$.$.$.{ ] ] { @.@.@.@.@.@.@.@.@.@.@.+.+.+.@.@.I 8 % 0 $.4.$.-.-.{ [ [ @.$.$.-.",
"$.$.@.+.' ' @.@.` ` ` ` P F q , ' $.4.$.@.$.@.' Y K 0 1 % % 6 w ' ' $.4.4.-.$.$.$.$.$.{ [ [ [ [ $.$.$.$.$.$.@.@.@.$.@.@.@.@.@.@.@.@.@.@.@.$.4.G.G.4.:.4.J.J.J.J./.K.$.L K ` _ ` ` $.-.6.K.3.@.' +.' ' ' ' ' ' ' ' ' ' ' ' ' ' +.+.+.+.+.' ' ' ' ' } ' 5.K.@.K w $ = = = = 1 1 = d U Y ' $.5.K.`.`.`.`.`.0.0.0.0.`.`.`.`.`.{.`.`.G.4.*.$.$.$.$.$.3.-.3.8.7./.`.`.0.0.`.`.{.{.[.[.uX=X[.`.`./.7.5.6.4.6.4.4.4.6.6.J.J.J.6.6.4.4.4.4.4.4.G.G.G.G.>.$.-.-.@.@.@.[ _ +._ Y _ _ Y Y Y Y T U Y Y Q Q Y Y _ Y Y Y Y Y P _ _ ' @.#.#.$.$.#.#.$.$.$.:.-.-.-.:.-.-.-.-.:.:.$.-.4.4.*.*.*.*.T K 0 0 0 K K T T P } } { 8.`.`.`.{.{.`.`.0.7.5.3.3.3.3.3.3.3.<.3.8.7.`.`.`.7.3.$.{ ] ] ] { <.{ { { <.<.2.<.$.$.<.$.] ] ] ' P G } ' } } ' ' R P P P } P P ' ' ' ' ' ' ' [ { 3.3.8.8.8.8.8.8.7.7.7.K.K.K.K.$.F % 0 @.'./.4.$.$.@.$.$.[ { -.5.7.5.*.$.#.+.+.+.+.@.+.+.+.+.+.#.=.$.4.-.=.@.@.@.+.Y +.$.G.G.5.5.4.$.8.8.8.3.3.3.3.3.8.3.3.5.7.7.K.K.K.5.4.5.H.5.4.4.$.$.$.$.$.$.$.$.<.1.1.4.4.4.1.<.2.2.2.2.<.<.<.<.$.$.$.$.$.$.$.@.@.$.*.*.@.@.@.$.=.l 0 Y :.4.-.-.-.-.$.-.4.4.J.J.",
"F w 0 7 7 7 7 q 7 w G ` ' ` P P P P P P P P K F K w 9 6 = = 1 6 0 K ` @.@.@.' ' ' ' ' ' ' ' ' ' ' ' [ +.' _ _ +._ _ ' ' _ ` ` ` P P Y Y P P Y Y _ _ Y _  .+.+.#.l.G.:. .` +.+.` L _ ' @.4.$.' ' $.=.+.+.+.+.+.+.+.+.+.+.+.+.+.+.+.+.+.+.@.] ' ' ' } } -.K.K.$.+.l s 3 * & & * & l U T Y $.6.5.7.`.0.0.0.0.0.0.0.0.0.7.7.7.7.7.7.H.G.4.$.$.$.$.$.4.5.7./.`.`.`.`.[.[.[.=X=X=X[.{.8.8.3.-.$.{ [ ' @.@.+.+.[ @.+.@.#.#.$.$.$.$.$.$.$.$.:.:.-.-.-.4.>.J.K.6.4.4.-.$.$.+._ _  .Y U T Y Y Y U Q Q Q Q Y Y U U U U U L _ _  .O.+.+.+.+.+.+.+.@.#.&.=.=.$.$.*.*.*.$.$.$.@.[ @.@.@.+._ Y 0 0 0 0 0 d K K P ' $.3.8.`.`.{.`.{.{.`.`.`.Y.7.K.K.7.7.7.7.7.7.K.`.`.`.`.`.K.K.4.1.<.<.] { { ] ] ] ] <.2.4.1.<.4.3.$.$.<.@.} G ' ' ' ' ' ' ' R P ' ' ' ' @.[ ' ' ' { $.-.4.5.7.8.8.8.8.8.8.7.7.K.7.5.4.+.w 6 % ' G./.K.-.*.$.@.@.@.@.[ $.4.5.5.4.-.@.+.+.+.@.@.+.@.$.-.4.G.G.K.J.4.@.+.+.Y T T Y #.4.K.H.K.K.7.`.`.0.0.7.7.7.7.7.7.7.7.7.7.7.K.`.5.$.4.H.K.H.4.$.$.$.$.$.$.<.*.1.1.1.4.4.1.<.<.<.<.$.<.$.$.$.$.@.@.@.@.@.@.+.+.' @.@.@.@.@.@.@.*.I U +.#.-.4.-.-.>.4.6.4.4.$.#.",
"w w w w w 0 q 7 7 F ` -.>.>.-.$.*.@.+.+.+.` P L L w 6 1 6 8 1 % = 6 l U _ ' +.+.P ` ` Y Y P P L v w l w 0 9 9 9 7 9 9 9 9 7 7 7 9 q q 9 6 6 1 1 6 6 1 1 1 8 8 8 d U Y Y  .&.&._ _ _ U P ' ' ' @.4.$.=.+.+.@.@.@.+.+.+.+.' ' ' ' +.+.' ' ] ] ' ' } ' { $.3.7./._.J.J.k. .I 9 = $ 9 l K Y -.J.K.7.`././.`.`.`.0.7.7.7.7.7.K.K.K.`.U.K.J.4.>.-.-.4.6./.OX*X[.{.{.{.uXuX*X[.`.5.$.{ ' ' ' ' [ [ ' ' ' ' ' _ ' ' +.+.+.[ +.[ +.[ +.+._ +.+._ _ +.#.:.J.K./././././.K.K.G.$.$.=.+.+.+.+.+.+.+. .Q  .+. . . . . . . . . . . . . ._ _  .+.+.@.&.&.=.*.*.*.*.*.*.*.=.#.+.` Y P Y Y L l 0 0 0 0 9 6 8 d I L ' 4.5.7.`.`./.`.`.`.7.H.7.4.$.@.@.@.@.[ [ [ ' P P ` ` P P P P P P T T G G G F G G F G T P P P ' ' @.4.H.5.<.[ 3.-.$.3.3.$.$.$.$.4.4.:.:.4.4.-.4.4.4.4.4.K.K.H.7.8.7.7.7.7.5.K.4.$.+.P 7 % , 0 -.K.'.K.4.@.[ [ [ $.$.$.$.4.5.5.5.4.-.@.@.$.$.-.5.H.K./.`./.K.H.*.#._ T T T Y Y _ +.@.$.5.U.{.[.{.{.`.`.`.0.0.7.K.K.7.7.5.5.5.5.4.@.R ' 4.K.7.-.$.-.3.-.$.-.1.4.G.G.G.1.*.$.@.+.Y Y Y Y P P P Y Y Y Y Y T T L L Y T L L P ` ' +.&.K Y #._ @.4.-.-.-.4.4.$.' F 7 ",
"w e 0 9 9 9 9 7 w L _ #. . . . . . . .+.+.@.#.$._ ` w 9 1 1 = = % = 1 8 4 4 8 8 3 8 8 8 8 8 8 4 3 3 3 3 1 < < < 3 3 3 3 3 < < < < < < < < 1 1 1 1 1 1 3 3 3 3 3 8 8 8 8 s x I W  .O.&.#._ ` ` +.4.G.4.@.' ' +.' ' ' ' ' ' ' [ ' ' ' ' ' ' [ ' } ] } } { 8.7.8.-.8.8.7./.K.G.U % 8 9 l U  .:.J.J.J.J.K.J.J.G.4.>.4.J.J.K.).).).).).).).XXXX).'.OXOX+X+XOXoXXXOX+XoX'./.K.#._ ` _ +.+.+.' _ _ _ _ _ O.O.+.+.+.#.+.O.[ O.+.+.+.+.+.&.&.*.:.:.:.:.>.G.>.G.J.).).K.J.K.G.>.$.#.@.+. .Y _ _  .+.+.+.=.+.+.+.+.+.+.=.+.@.+.@.+.@.+.@.@.+.@.#.&.#.+. .Y  .+.&.=.&.+.T T K K U K K l d 0 0 9 8 1 1 1 8 8 w _ -.>.6._.>.` +._ Y U U K w 0 w w 0 0 9 9 7 7 9 9 7 6 6 7 7 7 6 6 6 6 6 7 6 7 7 7 7 7 7 8 9 9 0 0 K Y *.J.H.4.4.4.5.6.5.6.3.-.:.;.#.#. ._ _ _  . .O.#.&.&.&.&.+.+.+.+._ Y Y U K w l K 6 % 6 Y /./././.K.7.3.3.3.7.7.3.3.7.7.3.3.3.7.K.`.`.{.{.[.[.{.`.7.3.{ ' T P P P P P P P P Y ' ' ' ' 4.K.`.{.[.[.{.{.`.`./.K.5.4.4.*.=.@.I x 0 l @./.`.5.7.6.K.K.K.J.H.J.J.J.G.:.#.Y l 0 6 7 9 9 9 9 9 9 0 0 0 0 8 8 8 8 9 8 8 s d l l l K K _ #. ._ #.#.>.$.+.U K w w w ",
"0 9 9 8 8 8 8 8 9 w L U I v v v x x I L U _ ' [ _ ` L w 8 1 < < * = < 1 3 3 3 3 1 1 1 3 3 3 3 1 3 3 3 3 3 3 1 1 1 1 < < < < < = 1 1 1 1 1 1 3 3 3 3 3 3 3 3 3 y 3 3 ; 1 1 1 3 8 l I  . ._ _ _ _ @.4.G.4.$.-.$.' [ [ ' ' } } ` ` { { { [ ' { { { { { 3.8.8.7.8.3.{ { 8.7.K.K.$.l 9 0 l L U _ ' O._ _ Y U U U U U U U _  . . . ._ _ ` _  . ._ _  .#.#.#.#.+. . .O.&.;.;.#. ._  .#. . .#.#.#.#.#.+.#.#.#.#.#.#.#.#.#.#.#.#.+.+.O.#. . . ._ _ U L L _ ` ` _ +.+._ ` P L L K w w 0 0 7 9 9 0 0 0 0 d K K K K K K K K l d l d d d d 0 9 0 0 0 0 9 q 6 % = 6 q 9 9 q q 9 9 9 9 9 9 8 3 9 8 3 < < < 3 1 , G _ [ +.+.` w 9 7 7 8 0 0 s 9 l l d 0 0 0 0 8 8 8 4 1 1 1 6 1 1 6 6 6 8 8 8 8 7 8 8 8 8 8 8 8 9 9 q 0 I +.:.J.4.5././._.6.{ [ _ Y v w 9 8 9 9 1 1 1 7 8 8 8 8 1 8 8 8 8 1 1 1 1 = 1 1 1 1 I l./.`.'.{.`.7.3.$.$.7./.K.K.`.{.'.{.{.[.[.{.{.`.`.7.7.5.3.{ } P G K T T T P P T P P P P P P P ' $.5.5.6.5.6.-.$.$.P K K w l d 0 9 8 a 8 9 U G.'.oX{.{.'././.K.J.G.:.&. .I l 9 4 1 3 3 3 4 3 8 8 8 4 4 4 4 3 3 3 3 4 4 3 4 8 s s s 0 7 v  ._ Y Y Y K K l w w l l v ",
"8 8 8 8 4 4 8 8 1 9 e e 0 8 8 8 8 3 3 1 8 w w L L L L l 8 1 = = = = = 2 1 1 1 < 1 3 3 3 3 3 3 3 3 3 3 3 3 3 3 1 < < = = = = = < 1 1 1 1 1 1 3 3 3 3 3 3 3 3 1 1 3 3 1 < ; = = = 1 8 l L U ` ` ` $.4.G.4.-.-.$.' ' ' @.$.$.$.-.4.$.@.@.[ $.$.3.3.$.3.5.7.8.8.5.8.0.0.0.`./.'.K. .6 9 l v l l e e 8 8 8 8 8 8 8 8 8 8 8 9 8 8 8 8 9 7 7 9 9 7 7 7 w v v v w 9 7 7 9 w v v v L U _ I Y  .#.&.&.#.#.&.#.O. ._ _ _ _ U U U U L L v v l l w 0 9 9 8 7 9 7 9 9 w w 9 7 7 6 6 6 , , , , % % % % = 1 1 1 6 6 1 1 6 6 6 6 6 6 1 1 = = = % = = = = = % % % = = = 1 6 6 6 6 1 1 6 6 6 6 3 1 8 3 3 3 1 1 1 1 , w L ` U L w 7 0 0 0 0 s l l l d d d 0 0 0 0 0 8 8 8 4 1 1 1 1 1 1 6 6 6 6 6 6 7 8 9 9 9 8 4 1 9 9 8 1 6 l +.:.G.J.4.:.' P G G w l 0 8 1 1 1 1 1 3 3 4 8 8 3 3 8 8 8 8 8 8 8 8 8 8 8 8 9 l %.G.K.K.4.-.@.L 0 7 P $.K.K.K.K.K./.'.'.oXoX{.'./.7.5.3.3.$.@.' ` Y Y Y Y Y Y Y Y _ ' ' ' ' ' @.@.$.4.-.[ ` L w 7 , 7 6 1 1 1 1 = = = a s 8 9 U -.K.6.4.-.#.#. .Y U L l 0 3 1 1 < 3 < < 3 3 3 3 1 3 3 3 3 3 1 1 1 1 3 3 3 3 3 3 1 1 1 % 6 Y Y U l 0 9 9 0 0 0 0 0 0 ",
"8 8 4 4 4 4 8 8 1 7 8 8 3 1 < < = = = = 1 1 7 q w v v w 8 = = = = = = = < 1 1 1 3 3 3 3 3 4 3 4 3 3 3 3 3 3 3 3 1 1 < = = < 1 1 1 1 3 3 1 3 3 1 3 3 3 3 3 3 1 1 3 3 3 3 1 3 1 < = 1 1 9 l v v v _ $.5.5.4.$.' P L ` +.@.@.[ ' @.@.#.$.-.4.4.H.K.`.'.{.{.`././.`.{.0.K.7.5.K.>.` 1 1 8 0 s 8 3 3 3 1 1 1 3 4 3 7 1 3 3 3 3 3 1 1 7 7 6 1 1 7 7 9 v v l w 9 7 6 1 1 7 7 7 7 7 8 9 0 l L U  ._ _ _ Y U I v v l l v 0 9 9 8 8 7 6 1 1 1 1 1 1 1 7 7 1 1 1 7 9 9 7 7 6 6 6 1 1 , , , , , , 1 1 1 1 1 = = = = = = = = 1 = 1 = = = = = = 1 = = = = = = 6 6 1 = = = = = 1 1 6 6 6 6 8 8 8 8 3 3 3 3 1 1 1 w U _ U w 9 9 w 0 0 0 0 0 s s l d d 0 0 0 8 8 8 8 8 8 8 1 1 1 1 6 6 6 6 6 1 1 8 8 8 9 9 8 8 8 8 8 9 3 1 8 0 I $.&.&._ F q 7 7 7 7 9 0 0 9 8 3 8 8 8 8 s 8 8 8 9 0 9 9 8 8 8 8 8 9 9 8 8 9 d l 0 0 0 0 9 9 6 6 9 L +.+.Y Y _ _ +.+.@.@.@.$.@.$.3.>.4.-.4.-.:.:.=.&.*.&.=.#.@.#.=.#.@.#.*.$.=.#.w w 9 7 7 7 1 1 8 3 6 3 8 8 8 a ; s d 9 6 9 w L w w w e 9 8 8 8 7 7 3 1 3 1 1 1 < < < < 1 1 1 1 1 3 3 3 1 1 1 1 3 3 1 1 1 1 < = $ % 6 U Y l 0 9 d 0 d 0 0 9 8 6 ",
"8 8 4 4 4 8 8 8 3 3 3 8 3 1 < < 1 1 < 3 8 9 9 9 9 w w 0 3 = * * = * * = = 1 1 1 1 1 3 3 3 1 < < 3 3 3 1 1 1 1 1 1 1 1 1 1 1 1 3 3 3 3 3 3 3 3 1 1 1 3 3 3 3 3 3 < 1 1 3 3 3 3 3 < 1 1 1 8 9 9 7 7 L $.K.H.-.P w w P @.-.:.4.4.K.K.)./.).'.'.'.'.'./.K.6.-.$.@.@.' } ' ' ' $.$.P 6 1 1 8 s 3 1 3 3 3 3 3 3 3 3 3 3 3 3 3 3 3 3 3 8 8 8 6 1 8 l K I v l 0 0 8 8 8 0 9 0 9 8 7 1 1 8 8 0 w l l v v l w 0 9 8 8 8 8 0 9 9 8 8 8 8 8 8 8 8 8 8 1 1 1 8 7 8 8 9 0 0 e 9 9 6 6 6 1 1 1 6 6 1 1 1 1 1 1 1 = 1 = = = 6 6 = = = = = = 1 1 = = = = = = = = % % = = = = = = 1 1 1 1 1 1 1 1 1 3 3 3 3 3 1 1 1 9 v U v 8 7 0 8 8 9 0 0 d d l l l 0 0 9 8 8 8 8 0 0 0 9 8 1 1 6 6 6 6 6 6 6 1 7 1 1 1 7 8 9 0 8 8 8 3 1 < 1 1 v | &.&. .L w 9 4 8 8 8 8 8 8 3 3 3 3 3 3 3 1 1 3 3 3 3 1 1 1 1 < 3 3 1 1 3 1 = < < 1 1 8 8 0 s 8 9 d s 9 8 8 6 6 6 6 6 7 q 0 w L L Y _  .+.+.+.&.&.%.&.=.+.%.+. . .Y Y Y U l 0 1 < * = 1 3 3 3 = = < < 1 3 3 y 1 8 s s 0 9 9 7 q 7 8 8 8 8 8 8 8 8 s 8 8 3 < = 1 1 1 1 1 1 1 1 1 1 1 1 1 1 1 1 < < < < 1 1 = = $ % 9 U I 9 9 9 9 9 q 8 8 6 8 6 ",
"8 8 8 8 8 8 8 8 8 8 8 8 8 3 3 3 ; ; 1 8 s l l w 8 9 0 8 3 = * * & * = = * = = = 1 1 3 1 1 1 1 1 1 1 1 1 1 1 1 1 < < 1 1 < 1 1 3 3 3 3 3 3 3 3 1 2 1 1 3 3 3 3 3 3 3 3 3 3 3 1 1 3 1 1 1 1 1 1 1 1 7 G ` @.@.' Y P _ $.4.K.J.P.K.J.z.G.z.l.:.$.&.+._ L w w w w w 0 0 w F L @.-.[ w 7 1 3 a 3 3 y 3 3 3 3 3 3 8 8 3 3 3 3 3 4 8 8 3 8 9 8 8 l I Y I l s 8 8 8 8 8 s 0 9 8 8 8 8 8 8 8 8 8 8 9 9 0 9 8 8 8 8 8 8 8 8 8 8 8 8 9 s 9 8 8 8 8 8 8 8 8 8 8 8 8 8 9 0 w 0 0 9 8 6 6 1 1 6 8 6 6 6 1 1 1 1 1 = = = = = 6 = = = = 1 1 6 6 = = = = = = = = = = 6 6 6 6 6 6 = = = = = = = = 1 1 3 3 3 3 1 < 1 8 d l 0 1 8 0 8 0 d l l l l l 0 0 0 9 8 8 8 4 8 0 0 0 9 6 1 1 8 8 8 8 8 8 8 6 1 1 1 1 1 1 8 0 s 8 3 3 3 3 3 3 3 s I  . .W W W U c l 8 3 3 3 8 8 8 8 8 8 8 3 3 8 8 8 8 8 8 8 s 8 8 8 3 8 9 8 8 8 s s s s 8 3 1 a 8 3 3 3 3 3 1 1 1 = $ % % , 1 1 1 6 7 8 8 9 8 d d l l l l l l 9 8 8 8 8 1 1 $ 3 3 1 = = = = * 1 1 3 3 y y a s s s 8 8 0 w e 9 w e 0 9 8 8 s 8 8 8 3 3 3 3 3 1 1 1 1 1 3 3 1 1 < < 1 < = = = = = = = = < < = = & = d I 9 8 9 9 8 8 6 8 6 8 8 9 ",
"8 8 8 3 3 8 8 8 8 8 8 8 8 3 3 3 ; = = 1 8 d l 0 8 8 3 1 < = * * & = 1 = * & * = 3 3 8 8 4 4 1 1 < 1 1 1 1 1 1 1 < < < 1 1 3 3 3 3 3 3 3 3 3 3 1 1 1 3 3 3 3 3 3 8 8 3 3 3 1 1 1 1 < 1 1 1 1 1 1 7 7 6 7 w L _ +.+.+._ Y L v w w w e 0 9 7 7 7 1 w e 9 9 w w l l d d w w F ' -.$.` w , 1 1 3 y y s 8 s 8 a 3 3 8 8 3 3 3 8 8 8 8 3 8 8 9 l U W I x d s 8 s 9 s 9 s 8 8 8 8 8 8 8 8 8 8 8 8 8 s 8 8 8 8 9 s 8 8 8 1 1 3 3 8 8 8 8 3 3 8 8 8 8 s 9 8 8 8 8 8 8 0 l l 0 0 9 8 8 3 3 8 8 3 3 3 1 3 6 1 1 1 = = = = = 1 1 = = 1 6 6 6 6 6 6 6 6 6 6 = 1 = = = = = = = 1 1 1 1 1 1 1 1 1 1 3 3 3 3 1 1 1 8 s 8 3 1 8 8 3 8 9 9 8 8 3 3 8 8 8 8 8 8 8 8 8 0 0 0 8 1 1 1 8 8 8 8 8 8 8 8 1 1 < < 1 3 8 8 s 8 3 3 8 s s s 3 3 3 8 s x W | X. .W x s s s s 3 3 3 3 a 3 3 3 3 3 3 3 3 3 8 8 9 8 1 1 3 3 3 8 ; 1 3 a s s s s s a y 3 a a a 3 8 8 3 1 1 < < < = < < < < 1 = = = = = = = = = = * $ % $ = < < < & * 2 1 3 3 3 3 3 s s s s s s s s s 8 8 9 9 9 9 9 9 4 4 3 3 3 3 3 1 1 1 1 3 8 a 1 3 3 3 3 1 1 1 < < < < < < = = = = = < < < = & $ 3 x l 1 1 8 1 8 8 8 8 8 8 8 8 ",
"8 8 3 3 3 3 8 3 8 3 8 8 8 3 1 1 3 1 = 1 8 s d 0 8 1 < = = = * & = 1 3 1 * o & ; 3 3 3 8 8 7 7 1 < < < 1 1 1 < < < < < 3 3 3 3 3 3 3 3 4 4 3 3 1 1 3 3 3 3 3 3 4 3 7 3 1 1 1 1 1 = < 3 3 3 3 3 3 6 6 6 7 w w w w L w 9 6 6 6 6 7 7 7 1 1 1 7 9 9 4 8 9 e e k l l x d d 9 0 ` $.[ +.w , $ 1 3 y u y 3 3 3 3 3 3 3 3 3 3 3 3 3 3 3 1 3 3 s I  .W l d s 9 9 s s s 8 d s 8 8 8 8 8 8 8 8 8 8 s 8 8 8 8 8 8 s 8 8 3 1 3 3 8 8 8 8 s s 8 s 8 8 8 8 8 8 9 9 8 8 8 8 0 l 0 0 9 8 8 8 3 3 1 1 1 1 1 1 1 1 6 1 1 = = = = = 1 1 = = = = = = = = 1 1 = = = = 1 = = = = 1 6 6 = = = 1 1 1 3 3 8 3 8 8 8 3 3 3 1 8 8 1 = < 3 1 1 8 s s s 8 8 8 1 7 7 8 8 8 8 8 8 0 0 0 6 1 1 1 9 9 9 q 9 9 8 8 3 3 3 3 4 8 8 8 3 3 3 8 u u 4 3 s u u u s s k k I I I I c s 3 1 3 3 3 s s s a 3 8 8 3 3 1 1 3 3 8 3 8 s s 8 8 s s s s 3 3 3 a s 3 3 y 8 a 3 3 s 1 1 3 3 3 1 1 1 3 3 8 8 8 8 1 1 = < = = = & & & = = = < = < 1 3 2 1 y 3 1 = = < 1 1 3 3 1 1 3 3 3 4 s s 9 8 9 9 9 8 4 3 y y y u a 8 8 s 8 3 3 1 1 3 1 3 1 1 1 1 < < < < < < < < < < < < 1 < = & * s I d 1 3 s = 1 1 3 3 3 3 3 3 ",
"3 3 3 3 y s s s y y 3 3 3 3 3 3 1 1 = 1 1 3 3 < 3 = $ & = = = = 8 d I 3 * ; & * 3 3 3 8 8 1 1 1 1 1 < < < < < < = = = 1 8 8 8 8 3 3 3 3 4 4 3 3 3 3 3 3 3 4 3 3 3 1 7 7 7 1 3 3 3 3 4 4 8 8 8 8 7 7 7 9 w L U K 0 9 6 1 1 1 1 1 1 1 3 4 4 8 9 9 9 9 9 8 8 8 8 s s d d d 9 w ` +.#.` 7 . * - t y y y y a y y 3 3 8 3 3 s s 3 3 1 1 1 8 I Q Q c d s s s s s s s s s s 8 8 8 8 s s 3 s s s 8 3 8 s 8 8 s s s s s 8 s s s s s 8 3 1 < < 3 s s 8 8 8 8 8 8 8 8 8 8 8 8 8 8 8 8 8 8 8 3 3 3 3 3 3 3 3 6 1 6 6 = = = = 1 6 = = 6 1 = = = = = = = = = = = = = = 6 1 = = 1 1 1 1 1 1 1 1 3 3 3 3 1 1 3 3 s 1 = 1 s d s 3 = 1 8 d s 8 3 8 8 8 8 8 8 8 8 0 7 1 1 1 1 1 1 1 8 9 9 8 8 6 3 8 8 8 s s 8 3 4 0 4 4 u u u u u u u u u u u u u u s s l I W c s 3 1 3 s s a y y a 3 3 3 3 3 1 1 1 3 3 8 8 8 8 8 s 8 8 8 4 4 4 3 3 8 8 s s s 8 8 8 3 3 3 3 3 3 3 1 1 1 3 s s f s 4 < < * * 1 = & = = = & & = < 3 3 3 3 3 3 3 3 4 4 3 3 3 4 4 4 3 1 3 3 4 4 4 4 4 4 4 4 4 3 y y y y a 8 8 3 3 3 3 3 1 1 1 1 < < < < < < 1 1 1 1 3 3 1 1 3 8 1 = * = 8 x x 8 < 3 s 3 8 8 8 8 8 8 8 8 ",
"y 3 3 3 y s s s y s a 3 3 3 3 3 1 1 < 1 3 3 3 1 1 = = = = = 1 3 s I Q s * = * * 1 1 3 8 8 1 1 1 = = = = = = = < = < < 1 8 8 8 8 8 4 4 4 4 4 3 3 4 3 3 4 s 4 4 3 3 7 7 4 7 7 3 3 3 4 4 8 8 8 8 8 7 7 7 7 w L L v 9 6 1 1 1 1 6 1 3 4 4 4 8 9 8 9 9 s 8 8 8 8 s s f g g d 9 9 w L _  .v = & ; ; y y 3 y a a a a y 8 3 3 8 8 < < < = < 8 l W c l s s s s s s s s s s s 8 8 8 8 s s 3 s s s 8 3 8 8 8 8 s s s s s s s s s s s 8 3 1 1 < 1 8 s s 8 8 8 8 8 8 8 8 8 8 8 8 8 8 8 8 8 8 8 8 3 3 3 3 3 3 1 6 6 6 6 1 = = 6 1 = = 1 6 6 = = = = = = = = = = = = = = = = = 1 1 1 1 1 1 1 3 1 1 1 3 3 3 1 1 1 < 1 8 x I l 3 8 3 3 s 9 8 8 8 8 8 8 8 8 8 8 9 8 8 7 7 8 8 7 7 9 8 8 8 8 8 8 8 3 8 s l s 8 8 8 4 4 u u u u u u u u u u u u u u s s s l c c l s 3 3 a a y y y y a 8 8 3 3 1 1 1 3 3 8 8 8 8 8 8 4 4 4 4 4 4 4 4 8 8 8 8 8 8 4 4 3 3 y y y y 3 3 3 3 3 y s s 3 1 = < * * 1 < * 1 = = * * 2 1 3 3 3 3 3 3 3 4 4 4 4 4 4 4 4 4 7 1 1 3 4 4 4 4 4 4 4 4 4 3 3 y y y y 3 3 3 3 3 3 3 1 1 1 1 1 1 1 1 1 1 1 1 1 1 3 3 3 3 8 8 1 * = 1 s l l 8 1 8 s 8 8 8 8 8 8 8 8 8 ",
"3 8 3 3 8 8 8 8 8 s 8 8 8 3 3 3 1 1 1 3 3 3 3 1 < = = = = = 3 l l Y &.l = = * = = = 1 3 8 1 1 1 = = = = = < < < 1 < 1 3 8 8 8 8 8 8 8 8 4 4 4 3 8 4 8 8 s s 4 3 3 7 4 8 8 4 3 3 4 4 4 8 8 8 8 8 7 7 7 9 e v v l 8 1 1 < 1 1 3 8 8 8 8 8 9 9 9 9 s s s 8 4 s s s s f s s 9 9 9 e L O.Y 8 = ; ; ; ; 3 3 y a s s s 3 3 3 3 < = < 3 = < 3 s s s s s s s s s s s s s s 8 8 8 8 s s s 8 s s s 8 3 8 8 s 8 8 8 s s s s s s s s s 3 1 = 3 < < 8 s s s s 8 8 8 8 8 8 8 8 8 8 8 8 8 8 8 8 8 8 8 8 3 3 3 3 6 6 6 6 6 6 6 1 6 1 = = 6 6 1 = = = = = = = = = = = = = = = = = 1 1 = = 1 1 1 1 1 1 3 3 s a 3 = * < 8 d W X.I < d 3 < 1 s s 8 8 8 8 0 9 8 8 8 8 8 8 7 7 7 7 8 8 9 8 6 8 8 9 8 3 1 8 s l l 8 4 8 4 4 4 8 8 8 s s s s s s s s u s 8 8 8 s d l x l a 3 3 3 3 3 y y 8 8 8 8 a 3 3 3 3 3 3 3 a a y 3 8 8 8 8 8 8 8 8 8 8 8 8 8 4 4 4 8 s s y y y y y 3 3 y y y 3 1 = & < * . = = * 2 = = = 2 3 3 3 3 4 4 3 3 4 7 4 4 4 4 4 7 7 7 7 1 3 3 4 4 3 4 8 9 4 3 3 3 3 3 y y 3 3 3 3 3 3 3 3 < < < < 1 3 3 3 1 1 1 1 3 3 3 3 8 3 3 1 = % 1 s d s s 8 3 3 3 3 8 8 8 8 8 8 8 8 ",
"8 8 3 3 3 8 8 s s s 8 8 8 3 3 1 1 3 3 3 3 3 3 1 = * & = = 1 s x v  .*.v = = & ; * = ; 1 1 1 1 1 = = = < < < 1 1 3 3 3 8 8 8 8 8 8 8 8 4 4 4 3 3 3 3 4 s s s 8 4 3 4 8 8 8 8 8 8 8 8 8 8 8 8 8 8 9 7 7 8 9 w w 0 8 1 1 1 3 8 8 8 s 9 s 9 9 9 9 9 s s 4 4 u u s s a a a s 9 0 9 8 w U Y l s = & ; ; ; 3 3 y 3 3 3 3 3 < 1 = = 8 l < < < 3 8 8 s s s s s s s s s 8 8 8 3 3 3 8 8 s 8 8 s 8 8 8 8 8 s 8 8 8 8 8 8 8 3 3 3 8 8 3 < = 1 = = 8 d d s 8 8 8 8 8 8 8 8 8 8 8 8 8 8 8 8 8 8 8 8 8 8 8 3 8 6 8 6 6 6 6 6 6 6 6 = = = 1 = = = = = = = = = = = = = = = = = = 1 1 = 1 1 1 1 1 8 8 3 s s s 3 = % 8 d v  .f.U = s 3 = < 8 s 8 8 8 8 0 0 0 8 8 8 8 8 8 8 8 8 8 8 9 8 1 6 9 9 8 1 1 3 8 d s 8 8 8 s s s s s s s s s 8 s s s s s 8 8 8 8 8 s s l x s s 3 3 3 3 y y 3 3 3 8 a a a a 3 3 3 3 3 3 3 3 4 7 4 8 8 8 8 8 8 8 8 8 8 4 7 3 8 s 3 y y y y y y y y y 3 1 = = 1 4 1 & * * * = = = = 1 3 3 3 3 3 3 3 3 3 7 4 4 4 7 4 4 4 7 3 1 3 4 4 4 3 3 8 9 4 4 3 3 3 y y y 3 1 3 3 3 3 3 3 1 1 < 1 3 1 3 1 3 3 8 8 8 8 3 3 1 3 1 < = = 8 l l 8 3 8 s 3 1 3 8 8 8 8 8 8 8 8 ",
"8 8 8 8 8 8 8 8 s s 8 8 8 3 3 3 3 1 3 4 4 3 3 < = . . * 3 8 k v v _ :.I = * $ ; * * = < 1 1 1 1 < < 1 1 1 1 1 3 3 8 8 8 8 8 8 8 8 4 8 4 3 3 3 < < < 3 4 s s 9 4 3 4 8 8 8 8 8 8 8 8 8 8 8 8 8 8 9 7 7 9 9 9 0 0 8 8 3 3 8 s s s s 9 s s s 8 s s s s s s s s s s s s 3 8 8 0 9 9 9 l l I c 1 & = ; ; 1 3 1 1 1 1 1 < = = = 1 v  .4 < * < 3 4 8 s s s s s s s 8 8 3 3 3 3 3 3 3 3 s s s 8 8 8 4 4 s s 4 3 3 3 3 1 1 1 3 3 3 3 < = 1 = 1 s x l 9 8 8 8 8 8 8 8 8 8 8 8 9 9 9 9 9 9 8 8 8 8 s 8 s 8 6 6 6 6 6 8 8 8 6 6 1 = = 1 = = = = = = = = = = = = = = = = = = = = 1 1 6 6 3 3 8 8 3 a a 3 1 = 1 w v K  .k.Y % < 1 < < 3 8 s s 8 8 0 0 0 8 8 8 8 8 8 8 8 8 8 8 9 8 6 6 9 9 3 < 3 1 3 8 8 3 4 s 8 8 8 8 8 8 8 8 8 8 8 8 8 8 8 8 4 8 8 8 s s s l d s 3 3 3 3 3 3 3 y y y u u y y y y y 3 3 3 3 3 4 8 8 8 8 8 8 8 8 8 8 8 8 8 3 3 8 3 3 3 y 3 y y y y y 3 1 < < < l W l 1 1 1 = = = ; ; 3 y y y 3 3 3 3 3 3 3 3 3 3 1 3 3 3 3 1 1 3 3 3 3 3 3 8 s 8 8 8 8 3 3 3 3 3 3 3 3 3 3 3 3 1 1 3 1 3 7 3 4 8 8 8 8 8 8 8 8 1 3 3 < < 8 l W k 3 < 8 8 3 3 8 8 8 8 8 8 8 8 8 ",
"8 8 8 8 8 8 8 8 s 8 8 8 8 8 3 3 1 1 3 4 4 3 < < * . . < 8 k l v L +.l.U 1 * $ ; * * = = < < = 1 1 1 1 1 1 3 3 3 3 8 8 8 8 8 8 8 8 4 4 4 3 3 < < < = < 3 4 8 4 4 3 3 4 8 8 8 8 8 8 8 8 8 8 8 8 8 9 7 7 9 9 8 8 9 8 8 3 3 8 8 s s s 9 s s 8 8 s s s 8 s y s s a s s s 8 8 8 8 8 8 8 0 s I W s = < = ; ; ; 1 = = = < = = 1 8 w Y &.s 1 * = 3 4 4 8 8 s s s s 8 4 4 3 3 3 3 3 3 4 3 s s 4 4 8 8 4 4 3 3 3 3 3 3 < < < < < 1 3 3 1 < 3 1 8 d l d 8 3 8 8 8 8 8 8 7 7 7 8 9 9 9 9 9 9 8 8 0 0 s s 8 8 1 6 6 6 6 8 8 8 8 6 1 = = = = = = = = = = = = = = = = = = 1 ; ; = = 1 6 6 8 8 8 8 8 3 1 1 ; ; < 0 v L I #.l.Q $ % = 1 < < 1 8 s 8 9 0 0 8 8 8 8 8 8 8 8 8 8 9 9 8 8 8 8 8 8 1 < 3 < < 3 3 3 4 s 8 8 8 8 8 8 8 8 8 8 8 8 8 8 8 8 4 8 9 9 s 8 s s d s s 3 3 3 3 3 y y y y y y 3 3 y y y 3 3 3 3 3 8 8 8 8 8 8 8 8 8 8 8 8 8 8 3 3 3 3 3 3 3 3 y 3 y 3 3 ; = < 3 3 W X.W 3 1 1 = = = = ; 1 y y y 3 3 1 3 1 1 3 1 3 1 3 3 3 3 1 1 1 3 3 3 3 3 3 8 8 8 8 8 3 3 3 3 3 3 3 3 3 3 3 3 1 3 3 3 3 4 4 8 8 8 8 8 8 8 8 8 8 8 8 8 3 8 d I W 0 3 < 3 8 8 4 8 8 8 8 8 8 8 8 8 ",
"8 8 8 8 8 8 8 8 8 8 8 8 8 3 3 3 1 1 1 1 3 1 < = $ $ < 4 k l v L ` -.J._ 1 = & = - - = = = = = = 1 1 1 1 1 1 1 1 1 8 8 8 8 8 8 8 s 8 8 4 3 3 < < < < < < 3 3 4 3 3 3 4 8 8 8 8 8 8 8 9 9 8 8 8 8 9 7 8 9 0 8 8 s 8 3 1 1 1 3 3 3 8 8 8 8 8 8 s s 8 8 y y s s s s s 8 9 9 8 8 8 8 s v l l I I 0 3 * - = ; ; = = < < = < 8 l v _ #.l 4 < < < < 3 4 4 8 8 8 8 8 4 4 3 3 4 4 4 4 8 8 s 8 4 4 8 8 4 4 3 3 3 4 3 3 1 < < < < < 3 4 4 4 8 8 8 s d 9 8 8 8 8 7 8 7 7 7 7 7 7 9 9 9 9 9 9 8 8 8 8 8 3 3 1 1 6 6 6 6 6 6 8 9 6 1 = = = = = = = = = = = = = 1 1 1 1 6 6 6 6 = ; 1 8 8 9 8 8 8 8 3 ; = = 3 s v v L _ :.J. .1 $ = < = = 1 8 9 9 0 0 0 8 8 8 8 0 9 9 9 9 9 9 9 8 8 9 9 8 6 1 < < < < 4 8 8 8 8 8 8 8 8 8 8 8 8 8 8 8 8 8 8 8 8 8 9 0 9 8 8 8 8 s s s 3 1 1 1 1 3 3 y y y y 3 3 y y y 3 3 3 3 1 8 8 8 8 8 8 8 8 8 8 8 9 8 8 8 3 3 3 3 3 3 3 3 3 3 3 3 ; = 3 s l W &. .3 < 1 = & = = = 1 3 3 3 3 3 1 1 1 1 1 3 3 3 3 3 3 y y 3 1 1 3 3 8 3 3 3 8 8 8 3 3 3 3 1 3 3 3 3 3 3 1 1 1 8 8 8 8 7 7 8 8 8 8 8 8 9 8 9 9 8 9 8 8 8 d l l 1 < < 1 3 4 8 8 8 8 8 8 8 8 8 8 ",
"8 8 8 8 8 8 8 s 8 8 8 8 8 8 3 4 1 1 1 3 3 3 < = $ = 3 0 l l v L [ 4._. .8 1 $ = ; = = = = = = = 1 1 1 1 1 1 < 1 1 8 8 8 8 8 8 s s s s 4 3 3 1 < < < < < 1 3 3 1 3 3 4 4 8 8 8 8 8 8 9 9 9 8 8 8 9 7 8 0 0 8 8 s 3 3 < = ; 1 1 1 8 8 8 8 8 s s s 8 8 3 y s s s u 3 4 9 s s 8 8 8 l W I 8 v  .I 8 & = ; ; < < < < < 1 1 0 v U U  .l 9 3 < = = < 4 4 8 8 8 8 4 4 4 4 4 4 4 8 s s s s 8 4 4 s 8 8 3 < 1 3 4 4 4 3 < 1 < < 3 4 8 s s s 9 9 s 9 8 8 9 8 8 7 8 7 7 7 7 8 8 9 9 9 9 9 0 8 8 8 8 3 < = = 1 1 1 1 6 6 6 6 9 6 1 = = = = = = = = = = = = = 1 6 6 6 6 1 6 6 1 1 6 8 8 a a a a a 3 ; * = s x v F L _ G.I.+.8 $ = = % * < 3 8 0 0 0 9 8 8 8 8 9 9 9 9 9 9 9 9 6 8 s 8 8 1 = < < < 1 8 s s 8 8 8 8 8 8 8 8 8 8 8 8 8 8 8 8 8 8 8 8 8 8 8 8 8 s s s s 3 < = = < = 2 1 3 3 u s s y y y 3 3 3 1 1 8 8 8 8 8 8 8 8 3 3 8 8 8 8 8 8 8 8 8 8 3 3 3 3 y 3 3 ; < 8 l I  .&. .8 < 3 3 < = = = ; 3 3 3 3 3 3 1 1 1 1 3 3 y 3 3 y a y y 3 1 3 3 4 8 3 3 3 1 3 1 3 1 < 1 1 3 3 3 1 1 1 1 1 9 8 8 8 8 8 8 8 8 8 8 8 9 9 s 0 s 0 8 3 8 8 8 1 = = = = < 1 3 3 8 8 8 8 8 8 8 8 ",
"4 4 4 8 8 8 8 8 8 s s s 8 4 4 4 3 3 3 4 3 2 * * * 1 d l l w L ' 4.5.H.:.U 1 $ = < = * & = 1 1 1 3 3 3 3 1 1 1 < 3 3 3 3 3 3 3 3 3 3 3 3 4 3 2 2 3 & = 3 = 1 9 % 1 1 1 1 1 8 4 1 4 3 4 3 3 3 3 3 8 8 8 8 4 4 4 3 3 = < 1 = = = . = = < 3 3 4 8 s s s u 4 s s s s 4 4 4 s 8 3 8 s l W W s s W | x 1 < & * 2 1 1 = = 3 l U L K P #.I 8 < 1 3 = = 3 s 8 4 4 4 4 4 5 4 4 4 4 8 9 s s s s s s s 8 3 1 1 < 1 8 8 3 1 3 3 = = < < 8 9 3 9 0 0 9 8 9 9 6 8 6 6 8 8 q 6 1 4 4 8 u s s 8 4 3 3 3 3 < = = & $ = 1 1 1 1 3 8 6 6 6 1 = = = = = = ; 6 6 6 ; ; 1 8 8 8 8 1 1 1 1 1 1 1 3 a a a s 3 & & < s l l w P ' *.K.K.-.+.1 % = = = = ; 3 k 0 9 8 9 9 9 8 0 9 9 8 9 9 s s 3 3 3 3 3 3 2 < 1 < = < = = 1 6 8 8 8 3 3 8 8 8 8 8 1 4 8 4 4 1 8 8 8 4 8 8 8 s 3 3 3 3 1 < = = < $ $ < 3 1 1 3 y y 3 3 3 3 3 3 3 3 3 3 8 8 8 8 3 3 3 8 8 3 3 3 8 q 9 9 3 3 3 3 u 3 = < 8 l v K _ #. .0 1 3 8 1 1 = * = 1 3 3 ; 3 3 3 3 3 3 3 y 3 3 3 3 y u a y 3 4 8 4 8 4 8 s 3 < = < 3 < = = % 1 1 $ % 1 1 = 3 3 8 8 8 3 3 < 8 4 3 4 8 8 8 4 3 4 8 3 1 4 3 1 * = 1 = * < < = < 1 3 4 8 4 8 8 ",
"4 4 4 8 8 8 8 8 8 8 8 s 8 8 4 4 3 3 4 u y ; * * 1 9 d l K P +.4.4.<.4.J.&.0 $ $ < < * * * 2 3 3 3 3 3 3 3 1 1 1 3 3 3 3 3 3 3 3 1 3 3 3 3 2 2 < = & 3 8 1 6 q 1 9 9 8 9 0 0 9 8 0 0 0 8 8 8 s s 3 3 3 4 4 4 4 4 s 4 s s 8 8 s 8 3 1 2 2 1 3 8 s s s 4 4 8 8 s 4 4 4 4 s s 3 8 s x  . .x s x c k 3 < * * = = = = 3 s I U L L ' :. .l 1 8 8 < * 1 3 4 s s 4 4 4 4 4 4 4 4 8 9 s s s s s s s 8 8 3 3 1 1 8 s 3 1 3 3 = < 3 < 3 9 8 9 0 0 0 9 0 9 8 9 9 9 9 0 0 9 8 3 4 u 4 u 4 4 4 3 8 8 0 s 8 s s < 1 1 < < 1 3 8 6 6 6 1 = = = = = : 1 6 6 6 ; ; 1 1 8 8 3 3 3 1 1 1 3 8 a a a a 3 * & = 4 k l l P ' $.4.5.5.-.$.0 % $ < 1 = ; y s 9 9 9 8 8 9 9 8 8 s s s s s s 3 1 1 1 3 3 3 2 = = = = 1 1 8 q 8 8 8 3 3 8 8 8 s 0 8 8 8 9 9 8 3 3 3 3 3 3 3 8 s s s s s 8 3 3 8 1 1 < = = = 1 y y 3 3 3 3 3 3 3 3 3 3 4 4 3 4 3 3 4 4 3 3 3 3 q q q 8 3 3 3 3 2 2 3 8 d v K K ' @._ 0 1 3 8 3 3 < = = ; 3 1 1 3 1 3 3 3 3 3 3 3 3 3 3 3 u u 4 4 8 8 4 4 4 4 8 3 < < < < = < 3 d 0 0 8 6 8 9 9 9 9 9 9 s s s s s 8 4 4 8 8 s s 4 s s 4 4 s s 8 8 6 1 < 1 3 3 < < 1 3 4 8 4 8 8 ",
"4 4 4 8 8 8 8 8 4 8 8 8 8 4 4 4 4 3 3 3 3 = * = 9 d d 0 K ' *.5.*.' +.K.J.U 1 $ < < = = * ; 1 3 3 3 3 3 3 1 1 1 3 3 8 8 3 3 1 3 3 3 3 3 3 3 2 2 * 1 x W K l T K w w w l l l 0 9 0 0 0 0 0 8 8 8 s 0 s s k k k k s 8 s 0 3 8 s 3 s 3 = * 1 3 8 s s s 8 8 8 8 8 8 4 4 4 s 8 3 8 s l W  .x s 4 s s u 3 < * & = < 1 d I Y U T Y @.4.#.L 9 0 9 1 < < < 3 s s 4 4 4 s 4 4 4 4 9 s s s s s s s s s 8 8 8 3 4 s s 3 3 2 = & 3 x x l K l q 0 l l l l l 0 9 9 0 0 0 0 9 8 k k k k k s s s 8 9 s 0 8 8 8 9 s 3 < = = < 1 8 6 6 6 1 1 = : : ; ; 6 6 6 6 1 ; 1 1 3 3 3 3 3 3 1 1 3 a a a y y * & * 3 s l l l ' $.4.4.-.-.4.G.Y 1   = 3 = - y 4 8 9 s 8 8 8 0 9 9 9 9 9 9 s s 3 1 < = 1 3 3 3 2 = & & 8 l I l x x x x x K I I l w 0 0 0 0 0 0 k k s s s s s s s 0 s s s 0 s 8 8 0 s 3 < = = = y y 3 3 3 3 3 3 3 3 3 4 3 3 3 3 4 4 4 3 3 4 3 3 9 8 8 6 3 3 3 3 = 1 s l I U U L ' @.+.w 1 1 3 3 3 1 1 = ; ; 1 1 3 1 1 1 1 3 3 3 3 3 3 3 3 3 3 4 8 8 8 8 4 4 4 8 3 3 3 < * = 4 v l l l K K 0 0 l l l d 0 0 s d l s 0 8 8 8 8 s 8 8 8 8 8 8 8 s 8 x d 8 8 s s 3 < < < 3 4 8 8 8 8 ",
"4 4 4 8 9 8 8 8 4 4 8 4 8 8 4 4 4 3 3 3 ; * = 3 d d d 0 T +.*.@.' T P $.G.#.0 $ $ $ = < = = 1 3 3 3 3 3 3 3 1 1 8 8 8 8 3 3 1 1 3 3 4 8 4 4 3 < < k X.&. .U T L U U U I U L K K K L K v l l 0 0 8 8 8 4 8 7 3 7 s 8 s 9 3 9 l s s 3 * & 1 u s 8 s s 8 8 8 8 8 8 4 8 8 8 8 8 8 s 8 k l k 4 5 3 4 k s 1 = * < 8 d I U T T T @.4.G.&.U w 9 0 8 3 3 < 3 4 s 4 4 s s s u u u s s s s s s s s s s s 8 s s s s s 4 3 < = * s %.&.+.T l U U U U U U U U K K K K K l 0 9 8 8 8 8 8 8 3 8 d l s 9 9 7 9 0 x s < * = = 1 8 6 6 6 1 1 = : : 1 6 6 6 6 6 1 1 1 6 3 3 3 3 a a 3 3 3 a y y 3 3 * * 3 l l 0 l U @.$.4.$.[ @.-.J.&.l $ & = = ; 3 < 4 9 9 8 8 8 0 8 8 9 9 9 9 8 8 8 8 3 8 8 s s s 3 < = = d  .@. .Y U U U U U U U U I L K K v v v 9 9 8 8 8 8 8 8 0 0 0 0 0 0 0 0 1 0 l 8 1 < ; = y y 3 3 3 3 3 3 4 3 4 4 3 3 3 3 8 4 4 3 3 3 3 3 8 8 6 3 3 1 1 = = 3 l I U L U Y +.@.+.K 6 1 3 3 3 3 1 1 * = ; 3 1 1 1 1 3 3 3 3 3 3 3 3 3 3 u 4 8 9 8 8 4 4 4 4 4 4 4 < * < k  . .Y T Y Y U T U Y U U L I I I I I v d 0 s e d k 9 0 s 0 9 0 s 9 s 8 8 l x s < < * < 3 4 8 8 8 8 ",
"4 4 4 8 9 9 9 9 8 8 8 4 8 8 4 4 s 3 1 < = = 1 s d d d l Y =.@.P P K K Y $.:.Y 8 $ $ * < < = ; 3 3 3 3 3 3 3 3 1 8 8 8 8 3 3 1 1 3 4 8 9 4 4 3 < < x &.*.@.L K K L L T L K K T L T L K l 0 9 9 9 0 9 9 9 9 9 9 9 6 1 9 9 9 v U x 3 1 * = 3 s s 4 4 4 8 8 s s 9 9 4 s s 8 8 8 8 8 3 3 3 4 3 4 4 s k 8 < = = 3 l W U Y U T _ :.5.-.:._ v 9 8 8 8 8 3 1 1 3 s s s s s s s s s s s s s s s s s s s 9 s s s s u 4 3 < < < l &.l.$.` F T U L K K K K L U L K K v w 0 9 0 0 0 0 0 9 9 9 6 6 6 6 9 0 l K x s = & * = < 8 6 6 6 1 1 = : : 6 6 6 6 1 6 1 6 1 1 3 3 3 8 a a 3 y y 3 3 ; = * * 1 s l l 0 K +.4.$.@.' P ` +.#.:. .8 $ $ ; 1 = < 1 9 9 8 4 8 8 8 8 8 9 9 8 8 8 s 0 s l l x k k 4 3 = 1 l &.l.*.Y P L K K K K v K K K L L v l w w 0 0 0 9 9 9 0 6 1 6 6 6 7 8 8 l c v 8 = 1 1 ; y y 3 3 3 3 3 3 4 3 3 3 3 3 3 3 s 4 3 3 3 3 3 3 1 3 1 3 1 1 = * 1 s v U T T Y ' $.$.@.U 0 1 3 3 3 3 3 1 = * 1 3 3 3 3 3 3 3 3 3 3 3 3 3 3 3 3 3 s 9 s 9 4 4 4 8 8 8 4 < * < x &.J.@.Y K K K T L K T U L L K K K l 0 9 7 6 6 6 1 8 6 8 6 8 1 6 8 6 8 l I x 8 < < * < 3 3 8 8 a 8 ",
"4 4 4 8 9 9 4 9 9 9 8 9 8 4 4 3 s 3 = = = 1 s l d d l Y &.=._ K K K K K _ *.&.L 1 $ $ < 1 = = 1 3 3 3 3 3 3 3 3 3 3 8 8 3 3 1 3 1 3 4 8 4 3 < < < v  .:.G.-.+.@.` ` ` _ Y Y _ _ Y Y Y U K K l w 0 9 9 0 0 w l K l v U Y Y +. .v = = * 1 y s s 4 4 4 8 8 s 9 9 9 8 s s s 8 8 s 8 4 3 < 2 4 k k k 4 3 < < 3 s I W U U L Y #.4.4.$.:.#.U w 9 8 8 8 4 1 2 1 s s s u s s s s s s k k s s s s s s s 8 s s s s s u 4 < 1 1 0 _ $.4.4.@.+. . . ._ Y _  . . ._ Y U L K v w w w w w w w w K K K L ` ' '  .l 3 = * * & < 8 6 6 6 1 1 = : : 6 6 6 6 6 6 8 8 1 6 3 3 3 8 a a u y 3 2 ; = * * = 8 l l l K  .*.:.@.Y L K K L Y &.#.I 1 $ = 1 = < 1 4 8 8 4 8 8 8 8 8 9 9 8 8 8 8 8 8 s k k s s 4 < $ 1 l +.:.G.$.$.+.' +.@.+._ _  . . . ._ U L w w 0 0 0 0 0 0 K K K L L L U Y :. .l < & = 1 1 y y 3 3 3 8 8 8 3 3 3 4 3 3 3 3 s 4 3 3 1 1 3 3 1 1 1 1 1 = = < s v I L K P ' @.*.=.+.Y K 0 3 3 3 3 3 3 ; = 1 1 u 3 3 3 3 y y u 3 3 3 u u 4 4 4 8 s s 9 8 4 8 s 8 4 3 < * < l  .4.4.*.@.+.' ' Y Y Y Y _ _ Y Y Y U L K l w w 0 0 K v l K K K K L Y +.&.+.K 1 * = < 2 3 u a a a a ",
"4 4 4 8 4 4 4 4 s s s 9 4 4 3 3 8 1 = = 3 8 s l l l U &.$._ L K 0 l K K U  . . .0 1 $ = < = = 1 3 3 3 3 3 3 3 3 3 3 3 3 3 3 3 3 1 7 8 8 9 3 < < 1 l Y $.'.`.G.G.5.K.H.K.J.G.G.G.*.*.$.@.@.#.@.+.$.=.=.$.*.4.G.G.l.G.I.K.I.J.#.0 = = 2 1 y s s 8 4 4 4 4 s s 8 8 8 d d s 8 9 8 8 3 3 1 < 4 k k 4 < = < 3 d x I U U U Y #.:.-.#.+.$.;.+.L e 9 9 4 8 3 1 1 3 s s s s s s s s k k k l s s s s s 9 8 4 s s s u u 4 < < 1 w U ' 5.`.H.K.J.J.I.I.J.G.J.G.l.:.$.$.$.$.#.:.:.$.$.:.:.:.4.K.4.5.H././.G.*.3 = & = = & = 8 6 6 6 1 = = : : 6 ; ; 1 1 6 8 9 3 3 3 3 3 3 a s u u 2 - * = = = 3 d l l K _ =.$.+.Y K w w w K U  .+. .l < * = 1 < < 3 3 8 8 4 4 8 8 8 9 9 8 8 8 8 1 1 1 4 8 4 4 8 < $ 1 0 U =.J./.K.8.5.H.K.K.G.K.G.l.:.:.:.$.$.$.$.$.$.$.$.:.$.:.:.4.G.K.K.).).I. .s = * = ; 1 y y 3 3 8 8 8 8 3 3 3 3 4 4 4 4 4 3 3 1 1 1 1 1 1 3 1 2 = = 8 s v U U P P Y @.4.*.&.+.+.Q l 8 3 3 3 3 3 1 1 1 1 4 4 3 3 3 3 4 4 4 8 8 8 4 s s s 4 4 9 9 8 8 9 s s 4 3 < = < k Y @.K.oX`.H.K.K.K.K.K.J.G.G.:.$.$.*.$.=.#.=.@.&.#.:.$.*.G.G.G.G.J.K.).I.+.0 = * = < 3 3 u a y a a ",
"4 4 4 4 4 4 4 4 s s s 9 8 4 3 3 3 = = 1 s s d l v v _ *.&.L w K 9 0 K L L L Y  .I 4 $ $ = = = 1 3 3 3 3 8 3 3 3 3 3 3 3 3 3 3 3 3 4 8 s 9 4 1 < 1 w K +.K.K.$.@.4.5.K.K.K.4.-.*.' ' ' ' ' ' ' ' ' _ _ _ ' +.+.#.$.:.J.U.K.G.Y % = ; 1 1 3 3 8 s 4 4 4 8 s s 8 8 8 d d s 8 8 8 8 = 2 2 < 5 4 4 > $ = 1 d I Y Y I U U +.l.4.#.' _ +.,.#.` w 0 9 8 8 4 3 1 1 3 s s s s s s s k l l l l s s s s 8 8 4 u s u u s 4 1 = 7 K T P $.K.4.-.$.:.J.J.:.:.:.&.#.+.+.+.+.+.+. ._ _ _ ' +.@.#.4.4.4.H.`.K.$._ < & & = * $ = 8 6 6 6 6 1 = : : ; ; ; ; 1 6 9 a 8 3 3 3 3 3 a s s u 2 O * * 1 3 d v l 0 T #.*.#.U K 0 w w w L _ I _ O.Y 3   & 3 < < 1 3 8 8 8 3 4 8 8 9 9 9 8 7 0 8 8 4 4 9 4 4 9 < $ 7 0 K #.K.8.8.3.8.5.7.5.4.$.@.+._ Y _ ` ` ' _ _ _ _ ' ' ' @.@.$.-.4.K.K.K.l.Y 3 = < < ; ; y y 3 3 8 8 8 8 3 3 3 3 4 4 4 8 4 3 3 1 1 1 1 1 1 3 1 = & < s I U U T P P ' 1.K.*.+. .+. .U s 8 1 3 3 3 3 1 1 = 4 4 3 3 3 3 4 4 s s s s s s s s 4 4 9 9 8 8 8 s k 8 3 < < 3 k I ' 5.T.$.Y @.H.U.'.U.K.4.=.+.+._ +.+._ ' +.+.+.+.+.+.@.$.:.:.G.J.K.K.l.L 1 $ < < 2 3 y u a y a a ",
"4 4 4 3 3 3 4 4 3 s k 8 4 4 3 = < = < s l d s 0 v  .&.+.U K w 0 9 0 0 w K Y _ Y  .v 1 = = = = ; 1 1 3 8 3 3 3 3 8 8 3 3 1 1 3 3 8 3 4 8 9 8 3 < 1 e Y L +.4.P P P ' $.5.*.` Y ' P P L P P P P P P P P P P K K K K ` +.4.U.5.K 6 = ; ; 2 3 s s 8 s s s s 8 9 8 8 s 9 9 s s s 8 3 4 3 < 5 2 5 2 < = 8 l U Y U U Y L  .$.*.@.` ` ' L _ $.:._ e 8 l 4 8 s 8 3 1 u s k s s s s k l l k k l l l s s s s u 4 4 4 4 4 4 < 1 0 L P P <.5.4.+._ _ L L Y L L L L L L L L L L L L L L L K K P ' ' $.4.H.5.L = = < < = * < 8 6 1 1 6 6 6 : = 6 1 = = 6 8 s s 3 3 1 = 1 y s u u y 2 * o . 3 l l l K U +.$.@._ l 0 0 0 0 w v Y U U  . .x =   = = < = < 3 s 8 < 8 8 8 8 8 8 8 8 9 8 8 8 8 8 9 9 s 1 , , w Y T @.8.{ 3.7.-.' P G F K F w l K K K P P P ` ` P P P P L P ` ' @.4.).k.l 1 1 = = 1 ; 3 3 3 a 8 8 3 3 3 4 8 8 3 3 3 3 4 s 4 < = < 1 < 2 < = = 3 s v U T Y Y K ' H.H.+.Y U I Y +.+.U 0 1 3 3 8 3 3 1 1 1 3 3 4 3 3 4 s s s s s s s s s s 8 8 4 8 9 s s s 8 3 < * < k Y P ] $.' G P ' -.5.4.@.' Y P Y Y P Y Y Y P P Y ` Y Y Y Y ` ' @.*.G.K.:.L 1 = < = < 3 y y a s a a ",
"4 4 3 3 3 3 4 4 8 s s 8 9 8 3 = < < 8 s d l l v Y +.&. .L w 0 8 8 0 0 0 v U Y Y  .I 0 = & < 1 = = 1 8 8 3 3 3 3 8 3 3 3 3 3 3 3 8 8 8 8 0 8 3 < 1 w Y L @.4.P P ` ' @.' Y P K K P P P P P P P P P P P P P L K K F P Y +.5.*.F = = ; = 2 3 s s 8 s s s s s s s 8 s 9 9 9 s 8 8 4 3 3 < < 5 < < * 8 l I U U L L L +.#.#.#.' Y P L P ` +.#.#.U w 8 8 8 8 8 3 3 u s s s s s k k l l k l l l l s s s s u 4 4 4 4 4 4 1 1 0 U P P @.4.' L v v w w K w v v v v v v F F K K K K F F F F F P P ' @.3.3.K = = < < = * < 8 6 1 1 6 6 6 : = 6 1 = = 1 9 s s 8 3 3 ; 1 s s s s 2 O o * 1 9 v l L Y _ +.#._ L l d 0 0 9 7 0 v U U _  .I 4 = & < < < = 1 8 8 8 8 8 8 8 8 8 8 8 8 0 l l 9 8 4 s 9 1 , , w Y U @.8.3.8.3.' G F w K F K w l K L L P P P P P P P P P L L P P ` @.4.k.l < 1 = = 1 ; 3 3 3 a 8 8 3 3 3 4 8 8 3 3 3 3 3 8 3 < = < 3 3 2 < = 1 s v U U U T Y +.4.G.$.Y K l d K Q  .Y I 8 3 1 1 3 3 3 3 3 3 3 3 4 4 8 s s s s s s s s s s 8 8 8 8 8 s s s 8 3 < * < k Y P { $.} P ' $.-.' ' ` P P P P P P P P P P P Y Y Y Y Y Y Y Y ' +.$.4.$.v 1 = < 2 2 3 y y y s a a ",
"4 4 4 3 4 4 4 4 s 8 4 8 9 4 < = 1 s d d s l I Y +.#. .U v w 0 8 8 0 0 0 w K Y Y Y  .I < $ = 3 = * = 3 8 3 3 3 3 3 3 3 3 3 3 8 8 8 8 8 8 s 8 3 < 1 0 U L ' 3.} P +.$.' L F L L w L L L L L L L L L L L L L L K K L L F L @.@.w % = = = 2 3 s s u s s s s s s s s s 9 9 9 8 8 8 4 3 3 5 < < < < < I U Y T U L L P $.@.' ` Y Y L K Y Y ` +.:.&.I 7 8 8 8 8 3 3 3 4 u s s k k k k l l l l l l l d s k s 4 3 3 4 4 4 1 1 0 U L P ' $.L 0 0 0 9 0 l w l l l l l l l l v v v v K w w w 0 G F P ' $.4.K = = = < = * 1 8 8 6 6 6 6 6 : = 6 1 < 1 1 8 s s 3 3 1 1 3 s s s u 2   . 3 k v L v U  .#.+._ U v l d s 0 9 8 8 9 U U Y _ Y l 3 . < < < = = 3 s s 9 8 9 0 9 9 9 9 8 l U I k 4 4 s 8 < < , 0 Y L ' 3.8.5.{ G w w l K K K K K L L L P L Y Y Y Y P P P L L L L L ` #.&.k = = = = 1 1 3 3 3 8 8 3 8 3 4 4 8 4 3 3 1 1 3 4 3 < = < 3 3 < < 1 9 I Y Y P Y P ' 4.K.4.` T d 9 9 9 K U Q Q d 9 1 1 3 8 4 3 3 3 3 3 8 9 8 8 8 8 8 8 9 s s s 9 9 8 9 8 8 9 9 s 8 3 < * < s Y P @.$.' P $.4.$.P L L L L L P P P L L P P Y Y Y P P P P P P Y ` ' $.+.w = = < 2 ; y y y y s s a ",
"4 4 4 3 4 3 3 4 s 3 3 4 3 < = < 8 l l s 0 v Y _ #. ._ I v l 0 9 3 s s 8 9 l L Y Y _ U 9 * & = 1 = = < 3 8 s 3 3 3 3 3 3 3 8 8 8 s 8 8 8 s 8 3 < $ 0 U L ' $.$.@.$.$.` G F L P L L L L L T L T T L L L L L L K K L L w K @.@.w % = = = 2 3 s s u s s s s s s s s s 9 9 8 8 9 4 4 4 3 5 < < 3 8 s U T T U L P Y ` #.' Y Y _ _ Y T Y Y U ` #.:. .w 0 9 8 8 8 8 3 3 4 4 s k k l k k l l l l l l l d l s 4 3 2 3 4 u 3 < 0 U L K Y +.T 0 9 0 0 w K K K K K K K K K K K K K K K K K K K K F K Y @.$.l < = = = = * 1 s 8 6 6 1 6 6 : = 6 1 1 1 3 8 s s 3 1 1 ; 3 s s s 2 O $ < k c U L L _  .#.+._ L v d s d l l 0 9 0 v I U U Y I 8 $ * < 1 = * < 8 l 9 0 0 0 9 9 9 9 8 l I c k 4 4 s 8 < 1 < d Y U _ 3.7.3.` F F K L U I K K L U ` ` U ` ` _ _ ` Y Y Y L L L K L Y  .&.0 = = = = 1 1 3 y 3 8 8 8 8 3 4 4 8 4 3 3 1 1 3 4 4 3 = = < 1 < 3 0 v U Y T P ' ' @.K.G.' F w l s 9 9 0 l U Y U l 8 1 3 3 3 3 3 3 3 3 8 s s 8 8 8 8 8 s s s s 9 9 s s s 8 8 8 s 8 3 < = < s Y L ' @.$.$.-.$._ P P L L P L P P P L L L Y ` Y P K L L P P P P ` P +. .w = = 1 2 ; y y y y s s 8 ",
"4 4 4 4 3 3 3 3 8 3 3 4 1 * < 8 s l l 9 0 I _ ` #._ U L L v 0 8 3 8 0 8 9 l L Y Y T L l 1 & & 1 1 = & = 8 s 8 1 3 3 3 8 8 8 s s s s a 8 s 8 3 < $ 0 U Y Y @.7.H.-._ L L L L L U L L L L L L L L L L L L L L L L L L w L #.+.w , = = = 2 3 s s 4 s s s s s s s s 8 9 8 8 8 4 4 3 4 3 < * < 8 x I U U U U T Y ' ' ` ` P ` _ _ _ Y U Y Y U Y +.+._ v w 8 8 8 8 8 3 3 4 4 s k l k k l l l l l l l l l s 8 3 3 3 u s 3 < s W U K Y +.K 9 9 0 0 l K K K K K K K K K K v v K K K K K K T T w K U +.=.K < = = = = * 1 s 8 8 6 1 6 6 6 6 1 1 1 1 8 s s s 3 3 3 3 4 s s u   * 3 s v U U L ` ` _  . . .I v d s s l l 0 9 e e v U U I I s < & * 2 < = = 3 s 0 0 0 0 9 0 9 9 8 s l k s 8 4 4 8 < < = d Y L Y >.6.@.F v L I U I I v v L L ` ` U U _ _ U U U U U U L L L v U  .O.0 = 1 = = 1 1 y y 3 y 3 3 4 4 4 4 8 4 3 1 1 1 3 4 s 3 = & & = < 9 v U U P P P ' $.4.*.+.L w 0 d s s 9 9 d K K T K 8 1 1 3 3 3 3 3 3 3 4 s s 8 8 8 s s s s s s 9 s s s s 8 4 4 9 4 4 < = < s U L P $.K.K.-.` ` Y Y L L L L U U L L L L Y _ Y L L L P Y Y Y Y Y P +. .w = = < ; ; y y y 3 3 8 8 ",
"4 4 4 4 4 3 3 3 4 4 4 3 < = 3 l l d s 0 v U ` U +._ L L v w 8 3 3 s s 9 0 v L L Y L K I 0 * & 1 3 = $ = 3 s 8 1 3 3 8 8 s s s s s a 8 a s a 3 < $ 0 T Y P [ '.`.$.L w L L v v L L L L L L L L L L L L L L L L L L L v L #.+.w , = = = 2 3 s s 4 8 8 8 8 s s 9 8 8 8 8 8 4 4 4 3 4 5 * = 3 l W  .Y Y Y Y Y ` ` ` P ` ` ` _ Y Y Y U U U K K U _ +.L v 0 9 9 8 8 3 3 4 4 s s k k k l l l l l l l x l s 8 4 3 s s s 3 = s W I l Y @.U 0 0 l 0 l K K K K K K K K K K v v l v K K K K K K 0 K T _ =.T < = = = * * 1 s 8 8 6 1 6 6 6 6 1 1 1 3 8 s s s s s s u s k s 3 X < l I U U L L ` U L _  ._ c l s s s s s 0 9 9 w v U I I I l 8 & * = 2 = = < 3 8 9 0 0 9 9 9 8 8 8 8 4 4 8 u 4 u 1 < = d Y I Y -.6._ 0 K L l x x x l v v v L L I L U U I I I I I v v v v v Y  . .9 = < = = 1 1 y y y y 3 3 4 4 4 s 8 4 3 3 3 3 3 4 s 3 = & & < 9 l U Y L K P ' @.5.4.' K w w 0 s s d d 0 d l l K 0 9 1 < 3 3 4 3 3 3 3 4 4 8 9 8 8 s s 9 s s s s s s s 9 8 4 4 8 4 4 3 < < s I P P $.'.'.$.L ` L L L L L L U U L L U Y Y Y Y L Y Y Y Y U L L L P +. .0 = = = ; - y y 3 3 8 8 3 ",
"4 4 4 4 4 3 3 3 3 4 4 < = 3 s l x d d l U U L L _ L v l l 0 8 8 8 s s 0 l L L L P L L U l 3 = = 1 = * = 1 3 3 3 3 8 8 8 s s s s s a y y a a 3 < = 0 K Y P { '.7._ U L L L L v v L L I I I I I L L L L U U U L L K L K L +. .w 1 = = = 2 3 s s 4 4 4 4 4 8 8 8 8 8 8 8 8 4 4 4 4 4 5 * 3 s I Q  .Q Q +.' ' ' P P ` ` ` ` Y Y U U I I I U L K L _ U L l 0 9 8 8 8 4 4 4 u s s k k l l l l l l l x d s s s s s s s 1 * s W I x Q &.Q K l K l l I K K K K K K K K K l l x l x x x v l K l K K U &.Y < = = = * * 1 d 9 8 6 1 6 6 6 6 1 1 1 3 8 s s s s s s s s k u = = 9 I Y I U U ` L L L Y U l k k s 4 4 s 0 0 9 e v L I U Y I x l 1 = & = = = = = 8 9 0 9 9 9 9 8 9 8 3 3 3 3 y 4 u 3 1 = 9 U I Y :.>.Y 0 I I s x x x x x v v v v v c c I I v x v c v x c x c W  .X.0 < < = = 1 1 a a y y 3 3 8 8 4 s s s 3 3 3 3 8 4 3 1 = & 1 s I U Y Y P P ' $.*.5.*.Y w w l k s s d d d d 0 0 0 0 0 8 3 3 3 4 3 3 3 3 3 3 4 9 9 s s s 8 9 9 s s s s s s 9 4 4 4 4 4 3 < < s I L ` -._.J.' L ` L L L U ` U L L U Y _ _ Y Y U U Y Y Y Y Y U U U Y +. .0 $ * = ; - 3 y 3 3 8 8 1 ",
"8 4 8 4 4 3 3 3 3 4 1 * = 8 s s l 0 0 L Y U I U I w 9 0 0 9 9 s s s 0 0 l U L T L Y U K l s 1 $ = = ; = = 1 3 s 3 8 8 s s s s 8 a 3 3 3 3 8 3 < 1 0 l Y P @.`.$.P ` L L L _ _ L L L L v L L L L L L L I U L L L L L K L  . .w 1 = = = 2 3 s s 4 4 4 4 4 4 4 4 4 8 8 8 8 4 4 4 4 4 1 < 8 I  .+. .Y _ +.+.+.' P P ` ` P P Y Y L K K l l U Y L K L ` U v 0 8 8 8 8 8 4 4 4 s s k k l l l s l l x x d s s s s k k k 1 & 8 W I x Q *.Y K l K l l l l l l l l l l l v l x x v x v I I K U K K l K +.U < = = * * * 3 d 8 8 1 1 1 6 6 6 1 3 1 3 8 s s s d s s s s s 3 $ 3 v Y U L L ` _ L L U _ v 9 4 8 s 3 3 8 0 l l v U L v U Y Y I x s 2 & = < = = = 8 8 0 9 9 9 7 7 9 s 8 8 3 3 y y u 3 1 & s U I U #.-.L w U I s I c c I I c v v l v c c I I c c v I v c I I I Y O.X.0 < < = = 1 3 s a 3 3 3 3 4 8 8 s s s 4 3 3 4 8 3 1 < = = 8 I  ._ Y Y P ' @.4.5.-.+.P K l l l s s d s d 0 0 q l l l d 8 3 3 3 1 3 3 3 1 1 4 9 9 s s s 8 8 8 8 s s s s s 9 4 4 4 4 4 3 < < s I v P $.4.$.` L ` L ` _ _ _ ` U L U Y  ._ Y U U U L U U U Y T Y Y P +. .0 % & = ; - 3 y 3 3 3 8 1 ",
"9 8 3 4 4 4 3 < 3 = $ = 3 9 0 0 w w L ' +._ Y  .v w 9 8 0 e 0 9 8 8 d l I L I U U Y Y I I v 8 $ * ; * * 3 * * s s 8 3 4 4 8 8 8 3 3 3 3 3 3 3 1 $ 8 I K U _ K.$.P G ` [ [ [ @.[ [ ' _ _ Y U U U _ Y U _ _ _  .O._ _ L L +.+.w 1 = = = 2 3 s s s 4 4 4 4 8 8 s s 8 8 4 4 9 s 8 4 9 7 7 w _ ' ` @.' ' #.#.+.Y T Y U Y _ Y U T L K K K K L L L K 0 9 U +.Q d 3 8 8 1 3 4 8 u s k k v l l l l d x x s s s s s s s s 1 1 3 l Y K T :._ K F L _ _ _  . . . . . .Q Q Y Q W W |  . . . ._ ` L w w ` [ L < * & * = = 3 s 9 4 3 < 1 1 1 3 3 4 8 s s s s s l s s s 3     < U L Y ` L _ ,._ _ _ _ v 0 8 8 s s 8 < = 3 I W I U U I I U U U Y x 1 & * ; ; = = = 3 s k 9 7 8 9 8 8 8 8 8 3 3 3 3 3 < = 8 x U K #.>.L v K K #. .#. . . . . ._ Y  ._ | Y Y _ _  .U _ _  .+. .Y #. .e = < < = = 3 s y u u 4 3 8 8 s 8 8 8 u s u u 3 s < $ $ 8 U @.' Y P ' ' $.4.5.@.' _ _ I l 0 0 s s s s d 0 0 0 d l l I l 1 1 8 3 1 1 1 3 3 3 3 8 8 s s 9 8 9 s s s s s s s s 4 3 4 3 3 3 1 3 c v L _ ).#.L L O.+.#.;.#.+.O.O.+. .+. . . .Y Y _  . .+.' @.@.+.` Y +._ 0 = = 2 * 2 2 3 3 3 3 8 8 ",
"8 8 3 8 8 4 3 < = & * 1 9 0 0 0 w G _ #.#. .Y Y l d 9 8 0 e 0 9 8 9 l v I I U U U U I I U L 0 1 & ; ; * & & ; s s s 8 8 8 8 8 8 4 3 3 3 3 3 3 1 = 3 I K U _ J.$.L G ' 3.-.$.$.@.+.'  . . . ._  .Y Y _ _ _ _ O.+.$.#.` L +. .w 1 = = = 2 3 s s 4 4 4 8 9 8 s s s 8 8 8 8 9 s 8 4 1 9 w ` @.[ } ' [ -.-.@._ Y Y U U Y  .Y Y T T K F w w K L L K w 6 l Y +.Q d 8 9 9 8 8 8 u u u s k k e l k d g x s s s s s s s s 1 < 3 l U K U *.` K K ' $.:.;.;.#.#.#.#.%.%.%.X. .X. . .O.#.#.#.#.+._ G w ` ' L < = * * = = 3 s 9 4 3 1 1 1 7 7 4 4 8 s s s s s s s s 4 . X 1 L +.` ` ` L [ >.#._ _ U l 0 8 8 s s 8 < = 3 l U U I I U U U U U U I s = = ; ; = & & 1 s s 9 4 8 9 8 8 8 8 8 8 3 3 3 3 < = 3 x U L +.>.L K Y Y :.#.;.:.&.&.&.&.O.O. . . ._ _  . . .#.#.#.#.$.+.Y  . .k = < < = = 3 y y 3 3 3 3 4 8 8 8 8 8 u u u u 3 3 = $ 8 K Y +.@.' ] @.$.4.4.4.@._ ` U I v k s s s s s d d 0 0 l l l I I w 7 1 3 3 3 3 3 3 3 3 4 8 s s s 9 9 s s s s s s s 4 4 3 3 3 3 y 1 3 x v L Y J.+.L L +.l.l.:.;.#.#.&.&.#.#.&.+. . . . . . .+.@.@.$.$.' P +._ 0 = = 2 * 2 2 3 3 3 3 8 8 ",
"8 8 8 8 8 4 < * $ & < s l l l w F _ -.-.&.+.Y v l 0 8 8 9 e 0 9 8 s l v I I U Y I L K L U U v 0 $ = 3 ; o * 1 ; 3 3 8 8 9 9 8 8 4 4 3 3 3 3 1 1 = 3 v v I U J.+.L L @.-.+.L K 0 l w l l d l l l s l l l l v L U +.#._ P  ._ w 1 = = = 2 3 s s 4 4 8 s s s s s s s s 8 8 8 8 4 4 1 v _ [ $.@.' { -.K.4.' T Y  .U T Y  .Y T L K w v w w K L L K w 9 9 K &.&.U 9 9 9 8 8 8 u u s s 9 e e e k s s g d s s s s s u u 1 < 3 l U K U *.+.P P +.$.#.U v w w w l l l l l l l v v v v K L  .O.+.` G ` [ L < = * * * = 3 8 s 4 3 3 1 4 7 7 9 s s s s s s s s s s = X $ v ;.#.` ` ` _ $.>.,.` L l 0 8 8 s s s 3 = < 3 s x W I I K K L L Y Y Y x 8 < = = ; = & = 1 3 4 4 4 8 8 8 8 8 8 8 s s 3 3 1 = 3 x I L Y >.Y K Y +.l.#.v K v v v l l l l l s 0 0 e w w v U ` +.#.+._  . .e < < < = < 3 y y 3 3 3 3 4 4 8 8 3 3 3 u u u 3 3 & $ l  .@.@.*.$.$.3.4.4.$.[ ' ` U U I v l l s s s s d d 0 0 l l l v Y Y l 1 1 3 8 3 3 3 3 3 3 4 8 s s s s s s s s s s 8 4 3 3 3 3 3 y 1 3 x L L L G._ K L +.l.#.U v e e 0 0 l l l l 0 s s e l v L L ` ' { ' P +._ 0 = = = = 2 2 3 3 3 3 8 3 ",
"8 8 8 8 8 4 < * . = 8 x U K l K P $.G.$.+. .I 0 d 0 9 9 0 e 0 9 9 s d l v v v v v v K I U U U U 8 * = 3 = * ; o 1 3 s s 9 8 4 4 8 8 4 3 3 3 1 1 = 3 v v L L l.+.L L  ._ 0 1 $ % % % * = * * = = = < < 1 , , 7 q L _ ` L _ _ l 1 = = = 2 3 3 4 4 8 s s k k k s s s s s 8 9 8 4 4 l #.:.@.+.$.$.3.5.6.$.` T Y Y U Y Y Y Y U K K K l l l K K K K l l 0 K +.:.+.K 0 9 8 8 8 s u u u 4 9 e e k s s s s s s s s s u u 1 < 3 l U v U *.@.Y T Y U 0 , $ . . . $ $ $ $ % $ $ = = = 1 1 1 w L +.' ` _ [ L < < * = * = < 4 s 4 4 3 4 4 8 4 s s s s s s s s f s = X $ k O.l. .Y P [ -.>.-._ ` L e 8 8 s s s s 1 = 1 3 3 9 I I I l l v L U Y Y Y v 3 = = = ; & & & = 3 4 4 4 8 8 8 8 8 8 s s a y 1 = 3 l I v U G.` w L _ &.v $ $ $ $ $ $     $ $ $ $ $ $ $ $ $ 7 w L +.+._  . .k 1 < = = < 3 y y 3 3 3 3 3 3 3 8 3 3 3 3 u u 3 3 = 1 U &.*.*.*.$.$.3.3.$.' ` _ ` U I I x l l d s s d d d d d l l s l Y  .U 0 1 3 8 8 3 3 < < < 3 8 s s s s s s s s s 9 8 3 3 3 3 3 y u 1 3 l L K L 4._ K L _ _ l 1 $ .       $ $ % $ $     $ $ $ 1 7 0 P ' ' P +._ s < = = * 2 2 3 3 3 3 3 3 ",
"8 8 8 8 s 4 < O * 3 l I U l K L #.4.G.+.Y U K 0 s s s s 0 0 0 0 0 0 0 0 0 0 0 0 0 l L U U U _  .Q = $ = = = =   ; 1 a s s 4 4 8 8 8 8 4 3 3 1 1 1 1 v v v L >. .K K U v 1 = = = = = = = * * & & & = = * $ % 1 7 w ` _ L _ _ w 1 = = = 2 1 3 3 4 s s s k k k k s k s s 8 8 4 4 4 v ;.G.#.@.$.4.7.H.@.Y P Y Y U Y Q Y U U K l K K l l l l l K K l K L U Y &.l.&.U 0 9 8 8 s u 3 3 4 4 e e k s s s s s s s s s u u 1 < 3 l I l L *.+.Y U U w 1 $ . $ $ . $ * * = = $ & = $ $ $ $ , 1 w  .+._ +.+.U < < = = = * < 4 9 4 4 4 4 8 8 4 s s s s s s s s s u *   3 U &.&.#.' ` #.K.5.+.L L v 9 8 8 s l d 8 = = 1 3 < 1 d I v l 0 w K Y  .I _ Q l = $ * < & & & = 1 3 3 3 8 8 8 8 s s a a s 3 < = 1 l I v L G.` w K Y  .8 % % = = * * & & & & & & & & $ % $ 7 0 L ' +.` `  .k < = = = 1 3 u u 3 3 3 3 3 3 3 3 3 3 3 3 4 u 3 4 = 1 U &.$.*.4.4.$.$.$.@.' ` ` Y L K v l l s d d d d s s 0 0 l l 0 0 v  . .Q 8 8 3 3 3 3 1 1 < 3 4 8 s s s s s s s s 8 8 3 3 3 4 3 3 y 2 3 l v F K G.' K v I l 1 $ $ $ $ = = % = = * & $ $ $   $ $ 1 7 K ` $.P _ Y l < = ; ; - 2 3 3 3 3 3 3 ",
"8 8 8 8 s 3 < o < 4 v I K l U +.G.K.-.` K L v l d s s s 0 0 e e 0 0 8 8 8 8 8 8 9 0 K U U U _ #.l.l % $ * = = = ; 3 3 s s 4 4 8 9 8 4 4 3 3 1 1 < 1 l v v v :. .U U I d = = 1 1 1 1 3 3 1 2 ; ; ; = ; = = 1 1 9 9 _ _ Y _ _ w 6 = = = 2 3 3 3 4 s s s k k k k k s s s 8 4 4 4 8 e #.l.$.*.4.3.H.4.` F L Y U U Y Y I K K K l K T l l l l l l l l K U L K  .l.G.&.e 9 8 8 s s u 4 4 4 0 k s s s s s s s s s s u u 1 < 1 k I l T *. .` U I 0 < $ < 5 < < < < < < < < 1 1 < = = = 1 8 v  ._ Y +.@._ < = = = = = < 4 4 4 4 4 4 9 8 4 s s s s s s s s u 3 1 < 3 c  . .>.-.$.>.J.>.` L v w 9 8 8 s l l 3 = = 1 3 < = 8 I v l 0 w K Y  .U  . .Y 8 % $ < = = = = 1 1 3 3 8 8 8 8 s s s s s 3 < = 1 l c v L >.Y v L U  .1 = = 1 3 1 3 ; 3 ; ; ; ; ; = = = , 8 0 K _ +.` ` _ l 1 = * = 2 3 s s u 3 3 3 3 4 8 8 3 3 3 3 4 4 3 3 = 1 l  .+.#.4.4.4.$.[ ' ` ` Y U L l l l l s d d d d s s 0 0 l l 0 0 l Y  .&.l d 8 1 3 3 1 < < < 4 8 s s s s s s s s 8 8 4 3 3 4 3 3 3 2 1 l v w K G.+.K l v 9 = $ = < < < 1 = < < < < = = < = = < 7 8 l _ $.P _ Y l < = = ; - 2 3 3 3 3 3 1 ",
"8 3 4 8 8 3 < * < 4 l l d l  .G.K.J.+.L w l l l l l l l k 0 e e s s 0 0 8 8 8 8 9 9 l U _ _ _  .l.&.v = = 1 1 1 = 1 y a 3 3 s s 9 9 8 4 3 3 1 1 < < l v v v :.+.Q U I s = * 1 = ; 2 2 2 2 < * * 1 ; ; = < 3 8 w 9 _  .L Y _ K 8 = = 2 2 1 3 3 4 s s s s k k k k s s s 8 3 3 4 9 9 Y &.$.4.4.4.7.' L F L U U U U K l l K K w l K K K l l d l l l K L K K Y #.>.4.Y L 0 8 u s u u 4 9 e k s s s s s s s s s s u u 1 < 1 0 K l T *.#._ I v 9 = . < < < < < < < = < 1 1 1 < = = 1 8 0 L  ._ Y +.' L 1 = = = = = 2 4 3 3 3 4 4 9 8 8 s s s s s s s s s 3 1 < 3 k v I +.>.K.J.J.+.w w 9 9 9 8 8 s s l 8 = = < 1 < < < I I K K K U _ _ _ `  .#.Y 8 = 1 3 1 1 ; 2 1 3 3 8 9 8 8 8 8 a a a 3 1 = 1 l v l L -.Y K U Y _ 8 = = ; ; ; ; ; ; - - ; ; ; = = = 1 9 0 v _ +._ ` _ l 3 = * = 1 3 s s s u 4 3 4 4 s 8 3 3 3 3 3 3 3 3 = 1 K  .+.+.$.-.-.@.` L L L L L v w d l l s d d d d d d l l 0 0 0 l l v  .&.+.I 9 1 1 3 1 = * 2 4 9 s 8 8 8 8 9 9 9 s 8 s 4 3 4 3 3 3 ; 1 l v w w >.+.L v v 8 = $ = = & & = = = = = = * * * * < 3 0 0 l Y #.L Y Y l 1 = = ; - 2 3 3 3 3 3 1 ",
"3 3 3 8 8 3 < * < 3 s k 9 l #.).).>.` w 9 0 0 0 l l l l k s 0 0 s s 0 0 9 9 8 0 0 8 0 I _ _ Y U #.I.&.9 8 8 3 1 * 1 y a 3 3 s s s 9 8 4 3 1 < < < < l v v v >.#.I I I s = = 1 = = = 2 1 < < < * 1 ; = = 3 8 l l 9 _ _ L L Y K 0 = = 2 2 1 3 3 4 s s s s k k k l s s s 8 3 3 4 9 s U  .+.$.-.3.5.L L L K K U U U l d l I K l w K I K l l d d l l K K K L L ` $.4.J.&.I 8 1 1 ; * s 9 e e s s s s s s s s s s u u 1 1 1 0 K l K $.#._ v l 9 < * < < 2 2 2 2 2 1 3 = 1 1 < < 3 9 l 8 v  .+._ +._ w 1 = = = = = 1 4 3 3 3 4 4 9 8 8 s s s s s s s s l 3 & = 3 9 0 9 w #.J./.J.P 7 9 8 9 8 8 3 8 s l s 1 = = < 3 < < I I U U Y Y _ _ _ L _ :.&.v 8 s 8 3 3 1 ; 2 3 3 8 9 8 8 8 8 s s 3 3 < = 3 l v l U :.L L Y U Y 8 = = ; ; ; ; t t ; ; ; 1 1 < = = 8 l l K _ +.` L Y l 3 = * = 1 3 s s s s 4 4 4 4 s s 8 3 3 3 3 3 3 3 = 1 U +.+._ ' @.$.' L 0 q w K K l 0 s l l d l l d d d d l l 0 9 0 v v v I  .*.Y q 1 3 4 1 * * 2 4 8 s 9 8 8 4 8 8 9 s s s s 3 4 3 3 3 = 1 l v w w :.+.U v I 8 = * 1 3 ; ; 3 < < 1 1 2 2 2 2 o < 8 l l l U +.T Y Y l 1 = * ; - 2 3 3 3 3 1 1 ",
"3 3 3 8 3 3 1 < * 3 9 0 9 w _ G.K.` w w 0 0 d d l l l l l l k s 8 9 s 0 0 9 0 0 0 9 8 w U  ._ U #.I.:.0 1 3 3 1 = = 3 a 3 u s s 8 9 9 4 3 4 3 3 < = v v w L :.+.U U v 8 = = = = 1 4 s s 4 9 9 s a y 3 3 s l l 0 w U _ L L _ L 6 = = * = 2 1 3 3 s s k k k k k k 8 8 3 3 3 3 4 4 s Y Y _ ' ' 4.-.L L L L U U K l d l l l K K L Y I l d d d 0 l U K K L Y P L _ >.G.>.I $   * + + 4 s k 9 s s s s l s 3 8 s s u s 4 * < l K 0 U l.&.Y U I 8 * < < * 2 u u s u 8 s s s s s s l l d 0 v #.#.L  ._ 1 $ < = & < < = 1 1 1 3 3 3 4 s s s s s 8 s u u u s s 1 * < 9 e 9 q [ J.J._ w 9 9 9 0 0 9 8 8 8 s s s 1 = < = = 3  .I w K L L U _ ' _ ` &.k.Y 3 < 3 3 1 = & < 3 3 8 9 8 8 s s s a 3 3 = * 1 l v w v -.Y K U U  .8 * < ; 3 f g f f f a y 3 1 = < 1 v l l K _ @.' L L k 3 < * = 1 1 s u u 3 4 8 8 s s s 3 3 3 y 3 2 3 s 3 1 l +.+.Y ' 4.[ P w 7 9 9 K 0 0 d l d d l d d d d d d l l 9 0 d l l v I U &.*.*.0 $ < < = < < 3 4 s 8 8 8 8 8 s 9 8 8 4 4 3 1 1 3 2 * 3 s v 0 K :.+.K Y v 8 = = ; 1 a f s s s s s u u 2 2 * 3 s l l v Y +._ L L l 1 = = ; - - 2 3 3 3 1 1 ",
"3 3 3 3 3 3 1 < * 1 9 0 9 w _ J.>.L 9 0 0 0 l l l l l l l d k s 8 s 0 s 0 9 0 0 0 9 8 0 L _ _ ` #.J.&.9 1 3 3 1 = * 3 a 3 u s s 8 9 9 4 3 4 3 3 < = v l 0 v &._ L L L 8 1 = = = 1 4 s s 9 9 e 9 s s 3 3 8 l l 0 w U Y L L Y L 8 = = * = 2 1 3 3 s s s s s s 9 8 8 8 3 3 3 3 3 4 s Y Y _ ' ' 4.-.L L L L U K l l d d d l K L U U K d d d d 0 l K v l L Y Y L ` $.K.G.U = o * - * u u k 9 s s s s s 8 8 s s u u u s = < l K 0 K *.&.Y U L 8 = < < 2 2 u s s 4 9 s s s s 8 s l l d 0 9 _ #.Y U K % $ < < = = * * < 1 1 3 3 3 3 u s s s s 8 s u u u s s 1 * < 9 e 9 q _ J.>.U 9 7 9 8 9 0 9 8 8 8 8 s s 3 < 1 = = 3  .I 0 l K v K L _ ` ` &.:.U 3 3 3 3 1 = & < 3 3 8 9 8 8 s s s a 3 3 = = 3 s v w w $.Y L U U  .8 * < = 3 f f f f f s u y 3 1 1 3 l l l K ` +.` L U l 4 < * = 1 1 u u u u 8 s s s s s 8 3 3 1 3 3 s k 8 1 K +.+._ ` -.' L w 7 0 9 K 0 0 0 l l d l d d d d d d l l 0 0 d l w v L U +.:.G.K $ < = = < < 3 4 s 8 9 8 8 8 s s 8 4 4 4 3 2 1 1 2 * 3 l v 9 w &.+.K Y I 3 = = ; 1 a f s s s s s s u 3 2 < 4 s l l l Y +.L K L v 3 = = = - - 2 3 3 3 1 1 ",
"3 3 3 3 3 3 1 < * 1 9 e 9 w _ K.$.K 7 0 0 0 l l l l l l k s s s 9 s 0 0 0 0 0 0 9 9 8 0 l I Y _  .:. .9 1 3 3 3 = = 1 a 3 4 s s 8 9 9 4 3 3 3 3 < 1 v w 0 w +.` L L v 9 1 $ = = < 8 s 0 9 e e 9 s s 3 3 8 l l 0 0 L Y L L Y L 9 = = * = 2 1 3 3 3 4 4 4 4 4 4 4 s 8 3 3 3 3 3 3 s Y Y _ ' ' 4.$.L L L L I K l s s s s l I U U I d d 9 d d 0 l K l w K Y ` P ` ' K.G.Y = & ; ; - 4 u k 9 u s s s s s s s s 3 3 4 s < 1 l l 9 K &.#.` U L 8 < < 2 2 3 u s s 9 8 s s s s 8 s d l d w 9 Y #.L w w 7 $ = < < = & * < 1 1 3 3 3 3 u u s s s s u u u u s s 1 = < 9 e 9 q _ 4.$.L 7 8 0 8 9 s 8 8 8 8 8 s s 3 < 3 < 1 8 &.U l w l l l K ` ` _ #.&.L 3 4 3 3 1 = & 2 3 3 8 9 8 8 s s s s 3 3 = = 3 k l e 0 #.Y U U Y  .8 * < = 3 f g s f f s s s a 1 1 3 l w w K ` ' P w Y l 4 < * = 2 2 y u u s s s s s 8 s 8 1 2 ; 3 u s l 8 1 l  .+._ _ -._ L w w l 0 v 0 8 s l l d d d d d d s d l l d 0 d d w l L U Y 4.)._ 1 < = < * 2 3 4 8 9 8 8 8 8 s 8 8 4 4 3 1 < 2 1 = & 1 k l 9 w +. .K Y I 8 = = = ; y s s s 8 8 8 s u 3 3 < 4 l l l l T +.K K L I 3 * = = - - 3 3 3 3 1 1 ",
"3 3 3 3 3 3 3 < * 1 9 0 9 w _ G.-.L 0 w 0 d l l l l l l l s s s 9 s 0 0 0 0 0 0 9 9 9 9 e v U _ _ #.` 7 1 8 3 3 = & 1 3 1 3 s 8 8 9 9 4 3 3 3 3 < < v w 0 9 _ _ L L K 8 % $ = = 1 8 s 0 9 e q 9 l s 3 3 8 w w 9 q L _ Y L Y L 0 = = * = 2 1 3 3 1 1 < 3 3 4 8 8 3 3 3 3 3 3 3 3 s Y Y _ ' ' 3.$.L L L U I v d 9 d s s l I U I v 9 9 9 d 0 0 0 K v w v U Y Y Y ` 6.4.Y < & ; ; - 4 u s 9 u s s s 8 s s s 3 3 3 u s 1 1 l l 9 K +.@.Y Y L 8 = < 2 2 3 u s s 8 8 9 s s s 8 8 k l 0 e w _ ' K F _ #.1 * * < = = < 1 1 1 3 3 3 3 y 3 s 8 8 4 u u u s s s 1 = 1 0 k 9 w [ G.$.L 9 0 0 9 9 s 8 8 4 8 8 8 s 3 3 s 8 3 9 &. .K l v l l v L L ` +. .v 3 8 3 3 1 = & < 1 3 8 9 8 8 s s s y 3 3 < = 3 k l e w +. .U U Y  .8 * < = 1 s g s f s s s s s 3 1 1 l w w K Y ' ` v Y l 4 < * * 2 1 3 y s s s s s 8 8 8 1 < ; 1 3 s s k 3 1 l Y _ Y [ >._ L L v L v v 0 8 s l l d s d d d d s d d d l l d 0 0 l K U P 4.'. .6 < = 1 * 2 3 4 8 8 8 8 4 8 8 8 4 4 3 3 1 = = 2 = & 3 k w 0 0  .+.K I v 8 = = = = 3 s 8 9 8 8 8 s s u 3 1 8 l l 0 l T +.L K U I 3 * = = - - 3 1 3 3 1 1 ",
"3 3 1 3 3 3 2 < = 1 0 0 9 0 _ 4.:.L w w 0 d l d l l l l s s 0 0 s s 0 0 0 0 0 0 9 9 9 9 9 v U _ `  .L 1 1 8 3 8 = & < 3 3 4 s 8 8 9 9 4 3 3 3 3 = < l 0 l 9 _ +.L P K 9 = = = = 8 s d 0 9 e q 7 l 0 4 1 7 e w e 7 L _ ` Y Y K 0 = = * = 1 1 3 3 3 1 < 3 3 8 8 8 3 3 3 3 3 3 3 4 s Y Y _ Y ` $.@.L L I I L v d 9 d s 9 d v K l 0 9 8 9 0 0 0 0 K K v w L L Y Y Y 4.4.U = * = ; - u u k u s s s s s s s 8 3 3 s s s < < k l 9 w _ @.` Y L 8 = < 2 1 3 s s s 8 8 0 9 9 8 4 8 k l 0 9 w Y Y L _ -.J.v < . = * = 3 2 1 1 3 3 3 3 y y s 8 8 8 u u u u s s 3 = 1 9 k 9 q ' G.$.U 0 0 s 8 s s 8 8 8 8 8 8 s 3 8 s s 8 l &. .U K v l w w w L ` _ _ 0 < 4 3 3 1 = & < 3 3 8 9 8 8 8 8 y 3 3 3 1 = 1 s l 9 l _ +.Y K Y  .8 % < = 1 s d s s s s 8 0 8 7 1 1 l w 0 w P ' _ U U l 4 < * = < 2 3 y s s s s 4 4 3 1 = = 1 3 u u s 8 < $ 0 Y _ ` [ -._ L U L I v l 9 8 s l l 0 0 s s s d s s 0 0 l l 0 0 0 l v U P 4./._ 6 < = < * 2 2 4 4 4 9 8 8 8 8 8 4 4 3 3 < = = = * & 1 l 0 0 9 _ +.U K l 8 1 = < = 3 s 8 8 8 8 8 8 s 8 8 1 8 d l 0 H T +.` L U x 3 & = ; - - 3 1 1 3 1 1 ",
"3 3 1 1 3 1 2 < = 1 0 9 9 0 _ 4.#.L w w 0 d l d l l l k s s 0 8 s s 0 0 w w 0 0 9 9 9 9 9 l L Y ` _ v 1 8 8 3 8 * & < 3 3 4 9 8 8 9 9 4 3 3 3 3 = < l 9 l 7 U +.Y Y L 9 = = = = 8 s d s 9 9 q 7 e 0 7 1 7 e w q 7 L +._ Y L v 0 = = * = 1 3 3 3 3 3 3 3 3 4 3 3 1 1 1 1 3 3 4 8 s U U Y Y ` $.@.L L L L v l d 9 s 9 9 9 0 0 9 8 9 8 8 0 0 0 0 K L K K K L L Y Y 4.4.L = & = ; - 3 u s u 4 s s s s s s 3 3 s k x s < < 0 l 9 0 T +.' ' L 8 = < = 1 3 s s 0 8 8 9 0 9 8 4 8 e w 0 q w F L +.-.-.+. .<   = * = 3 * 1 1 3 3 3 3 y 3 8 8 8 8 u u s u s s 3 < 3 k k 9 q ' G.$.U w 0 8 s s s s 8 8 8 8 8 s 3 8 l s 9 l  .Q U K l w w w w L U ` U 9 < 3 3 8 3 = * < 3 1 9 9 8 8 8 3 3 3 3 3 1 = 1 s l 9 0 U +.Y l  . .8 % < = < s s s s 9 8 8 9 9 7 1 7 v w 0 w P +.+._ U l 4 < = = = < 3 3 3 s s 3 3 3 1 = = = 3 s u u 8 4 = < l Y _ _ _ ,.` L U L I l l s s s d s 0 0 9 9 s s s s 0 0 0 0 s 0 0 l v U P $.K.Y 1 < = < < 2 2 3 4 8 8 9 9 8 8 8 4 3 3 3 1 = = = * & 1 d 0 w 7 U #.Y K v 0 1 $ , = 1 s 8 9 9 8 8 8 s s 8 1 8 d 0 0 w T +.+.Y U v 1 & = ; - 2 2 1 1 3 1 3 ",
"3 3 3 1 3 3 2 < = 1 0 0 9 0 _ 4.@.L l l d d l d l l l l s s 8 8 s s 0 0 l l 0 0 9 9 8 9 w v L U _ U l 1 8 8 3 8 = & < 3 3 4 9 4 8 9 9 4 3 8 3 3 $ 1 l 9 l 7 v +. .+.Y d = = ; ; a s d s 9 9 9 7 9 8 1 1 7 e w q q L +._ U L l 0 = = = = 1 3 3 3 3 3 3 3 4 4 3 < 1 1 1 1 3 3 3 4 s U U Y Y Y $.@.L L L v v l d s s s 9 8 8 8 8 8 9 6 6 9 q 9 0 K K K K K K L U L 4.4.L = * = ; * 2 u u 4 4 s s s s s s 8 s l x x s < < 0 l 9 9 K @.' ' L 6 = 1 = 1 y s s 0 9 9 8 9 0 8 4 8 0 w 0 q 9 K [ >.$._ _  .< . < * * 3 = 1 1 3 3 y y y 3 4 4 8 3 3 y u u s s 3 < 3 k k 9 q ' G.&.U l d 8 s s s s s 8 8 8 s s 3 8 s 8 8 d v I T T l 0 0 w v L U U I 0 < 3 8 8 3 = * < < 1 9 9 8 8 8 3 3 3 3 3 1 = 1 s k 8 9 l &. .K +. .8 % 1 = < s s s s 0 8 8 9 9 7 1 7 v w 0 w Y +.' U v k 3 < = = = = 3 3 3 3 3 3 1 < = = 1 1 3 u u u 8 4 < 1 l Y Y _ ` #.` L ` L L 0 d s s d s 9 8 0 9 9 9 9 s s 0 0 0 0 0 s 0 l v L G $.K.Y 1 < = 1 < 2 2 3 4 4 8 9 9 9 8 8 4 4 3 3 3 < ; 2 * & 1 d 0 w 6 K +.Y U I 9 1 $ , $ 1 0 8 9 9 8 8 8 s 8 8 1 8 d 0 0 F T +.+.L K l 3 = 2 * 2 2 1 1 1 1 3 3 ",
"3 3 1 1 3 3 2 2 = 4 0 e 9 0 ` G.&.Y K K d l x d l l l l s s 9 8 s s 0 0 l l 0 0 0 9 8 9 w v L L _ U w 8 8 3 < 8 = & < 3 1 4 9 4 8 9 9 4 3 8 3 3 = 3 l 8 w 1 w _ +.+.U 9 = * ; ; a s d s 9 8 7 7 9 7 7 1 7 e w q w ` +._ L v l l = = * ; 1 3 3 3 3 < < 3 4 8 3 1 3 1 1 1 1 3 3 3 s U U Y Y Y @.+.Y U L v l l d s s s 9 9 8 8 8 9 9 6 6 9 9 q 0 K l v K K K K L L -.-.L = & ; - - 2 u u 4 4 s s s 8 s s s l V V x s < 1 0 l 6 6 0 @.' ' L 6 = = = 1 y s s 0 8 8 8 9 0 8 4 8 0 w 0 q w ` >.>.` L :.| $ . 3 * & 3 1 1 1 3 3 3 3 3 3 4 4 3 3 3 y u u s s 3 < 3 k k 9 q [ G.&.U l l s s s s s s 8 8 0 s s 3 3 8 3 3 s l I Y U K 0 0 w L ` ` U U 0 1 4 8 8 3 = $ = < 1 9 9 8 8 8 3 3 3 3 3 1 = 1 s s 8 1 0 &.+.L &.%.8 % < = < s k s s 0 8 8 9 9 7 7 7 l w w K _ +._ L v 0 3 < = = = = 3 3 3 3 3 1 < = = 1 3 8 3 3 3 u u 3 = < l Y Y Y _ $.` L _ U L 0 d s d l s 8 8 9 9 9 9 9 9 s s s 9 s s s l l v L F $.U._ 1 < < 3 < 2 2 3 4 4 8 9 s 9 8 4 4 3 3 3 3 1 2 2 * & 1 d s l 1 w +._ Y _ 9 1 $ , , 1 0 8 9 9 8 8 8 s 8 8 1 8 d 0 0 F P +.' L l l 3 < 2 * 2 2 1 1 1 1 3 3 ",
"1 3 3 3 3 3 2 = * 1 s s 8 0 _ l.+.U K K d d v l l l v d s 8 8 0 0 0 s l l l w l I v w 7 0 L U U _ U l 8 3 8 3 3 * * 1 4 1 3 9 8 8 4 4 3 3 4 8 3 < 1 8 d 0 8 8 w +.#.Y 8 % = = = 8 s s s 0 9 9 9 9 9 4 1 7 0 w 9 v Y  .U L L K l = ; - ; 2 3 3 1 2 1 3 3 y 3 1 2 1 1 3 3 3 3 3 3 s U U Y Y Y @.' U U I v l l k 9 s s 8 8 8 8 9 0 0 9 9 9 0 s l l l v L v v v L L -.J.K = = ; - - y 4 4 4 s s s s 3 3 s k l k s s s 1 1 9 l 0 7 7 P @.*.Y 8 = ; ; ; a s s 4 8 9 8 8 8 8 4 8 s s 0 9 l  .&._ P ` _  .* * < * 2 ; 2 2 2 1 1 1 1 1 3 2 4 u u 3 3 y s s s 3 = 1 s s 9 0 _ :.$.Y K 0 9 d d d d d s 9 8 8 8 8 8 8 8 9 0 v I U U K l 0 0 Y Y _ _ K 9 8 8 8 8 3 = * - 2 2 s s s s s s y 3 3 3 2 = 3 9 k k 9 6 K &.+.+.&.8 = * = 3 s s 8 s 9 8 8 4 4 4 8 8 l w 0 l Y  ._ K v l s < * * - * 2 3 3 ; * * = 1 3 3 3 3 y 3 3 3 3 3 = < v Y T Y P $.` P _ U U l d d s 9 s s s s 9 9 8 9 s s s s s s s s l l v L L $.K._ , < < 2 * * 2 3 4 3 3 8 8 4 3 3 3 3 3 3 3 3 3 1 ; * 3 s d l 0 6 w ' @._ 0 1 < = = 1 s 9 8 8 8 s s s 8 8 < 8 l w 0 0 L _ _ L l l 8 = * ; - ; 2 2 3 3 1 < ",
"2 3 3 3 3 3 2 ; * 1 s s 8 0 Y k.+.U K K 0 d v v v v l s 8 8 8 9 0 0 l l l l w l I v w 9 w I U U _ Y l 8 3 8 4 3 * * < 4 < 3 8 1 8 4 3 1 3 4 3 3 < 3 9 d 0 8 w L >.,._ 8 $ $ = = 3 3 8 8 8 7 7 7 7 4 1 1 1 0 0 9 l Y  .U L K K l = ; * ; 2 3 3 2 3 3 3 3 y 3 3 3 1 1 3 3 3 3 3 3 s U U Y Y Y @.' L U U v l l k s s s 0 8 8 8 9 9 9 9 9 9 0 s l l l v K L v v L L -.6.v < ; ; - - 3 4 4 4 s s s s s 4 s s f s s s 8 1 1 9 l 0 9 9 L $.G.+.0 = = * ; y s s 4 4 4 4 8 s s 8 8 s l l 9 l  .&._ Y _  . .* * < * ; ; 2 2 2 1 1 1 1 3 3 3 4 u u y 3 y u s s 3 = 1 s d 9 0 ' -.$.Y K 0 9 0 0 d l l 0 9 8 8 8 8 8 8 8 8 9 0 v Y _ I l w l Y Y _ _ K 9 3 8 8 8 3 = + - 2 2 s s s s s s y y 3 3 1 = 3 s k 0 6 q U *.&.&.&.8 = & = 3 s s s s 4 4 4 3 7 4 4 4 l w 0 l Y  ._ K v l s < * * - * 3 2 ; ; * = = 1 3 3 3 3 y 3 3 3 3 3 = < l Y T Y Y #.` P _ P U 0 0 9 9 8 8 8 s s 9 9 8 8 s s s s s s s s d l v v L @.J._ , < < 2 * * 2 3 3 3 3 8 s 4 3 3 3 3 3 3 3 3 1 1 ; * 3 s s 9 6 7 L $.:._ 9 < = 1 = 1 s 8 8 8 8 8 8 8 8 8 1 9 l l w w L _ _ L v l 8 = * ; - - 2 2 1 1 1 < ",
"2 2 3 3 3 3 2 ; * 1 s s 9 0 Y &.+.U K K 0 0 v v l l d 9 8 4 4 8 0 l l l 0 0 w w K K l l v U U I  .Y l 8 3 3 4 3 * * 1 4 < 1 8 1 1 1 3 3 4 4 3 3 < 3 9 s 9 9 v _ z.>._ 9 $ = = = 3 8 8 8 8 7 7 7 7 7 1 1 1 0 l w w U _ U K K v 0 = ; - ; 2 2 2 2 2 2 3 3 3 3 3 3 2 2 3 3 3 3 3 1 8 I U Y Y P ' _ L U U v s s k k s s 9 8 9 9 9 9 9 9 9 9 0 0 l l l l v L L v v w :.6.v < ; * - - 3 4 4 4 4 8 s s s u u s s u 3 u 3 < 1 9 0 9 9 v ' 4.K.@.d = = = 1 y s s 8 8 4 4 4 s s 8 8 s l v 9 l  .&._ Y _  . .* * < * ; ; 2 2 2 1 1 1 1 3 3 3 4 u u y 3 y y y a 1 = 1 s d 9 0 ` $.@.T K w 9 9 0 l l l 0 8 8 8 8 3 3 3 3 8 8 1 l Y  .I l l v Y Y _ _ K 9 3 3 8 8 3 = + - - - s s s s s y y y 3 3 2 = 3 s k 0 9 K +.G.$.&.+.6 = $ = 3 8 s u s 4 4 4 4 4 4 8 4 w e 0 v Y  ._ K v l s < * * - * 3 - * * * ; 1 1 3 3 3 3 y y y y 3 3 = < l U T Y Y @.Y P _ Y U 0 9 9 8 8 8 8 s s 8 9 8 8 s s s s s s s s s l x v L [ J._ , < < 3 * * < 3 4 4 4 8 8 4 3 3 3 3 3 3 3 3 1 1 * * 3 s 9 q 6 0 ' 4.:.` 9 1 = 1 = 1 4 4 9 9 9 8 8 8 8 s < 8 l l w w L _ _ L v l s = * ; - - 2 2 1 1 < < ",
"2 2 3 3 3 2 2 ; * 1 s s 0 0 U &. .K K K 0 0 v I v l d 8 8 8 8 9 l l l l 0 0 w l v v v K I U U I  .Y l 7 1 3 3 3 * * 1 3 < < 3 1 1 1 1 3 4 4 3 3 = 3 9 9 8 9 U #.:.#.U 9 , < < = 3 3 8 8 8 7 7 7 7 1 1 1 7 e l l e U Y U K K w 0 = ; * ; ; 2 2 2 ; ; 2 1 3 3 3 3 2 2 3 3 3 3 3 1 6 I U Y Y P ' Y K U U l 8 8 s k s s 0 9 9 9 9 9 9 9 9 9 0 0 s l l l v L L L w w -.4.v < = * - - 2 3 4 4 3 3 a s s u 4 u s 3 3 y 3 < 1 9 0 8 w L $.4.-.Y 0 = = ; = 1 3 3 4 4 4 4 3 8 s 3 1 8 l v 9 l _ &._ Y _ _  .* & < * = ; ; ; ; ; 2 1 3 3 3 3 4 u u 3 3 y y y y 1 = < s d 0 0 ` $.+.L K 0 9 9 0 v v l 0 8 3 8 8 3 3 3 8 1 1 1 0 L U I v v L Y Y _ _ K 9 3 3 3 8 3 = + + - - 3 4 s s s y y y 3 3 2 = 1 9 s 9 0 Y &.:.@. .Y 1 = = < 1 3 3 3 3 1 3 4 4 4 4 7 1 e 0 0 l Y  ._ K v l s < * * * * 2 - * * ; 3 1 1 3 3 3 3 y y y y 3 1 * < l U T Y Y @.Y Y +.Y U 0 9 9 8 8 8 8 s s 8 8 8 8 s s s s a s s s s l x L K _ l.Y , < < 3 - * * 3 4 4 4 8 8 4 3 3 3 3 3 3 3 1 1 2 * * 3 s s 9 q L $.-.+.L l 1 = < = < 3 3 4 4 3 3 3 4 8 8 1 4 0 w w w L _ _ L v v s 2 * ; - - - 2 1 < < < ",
"2 2 2 3 3 1 ; ; * 1 s s 0 0 I #.Y K K K 0 0 v K v l s 8 8 8 9 0 d l l d 0 s l l v v K I U U U U  .Y w 6 1 3 3 1 * * 1 3 < < 3 < < < 3 3 3 3 1 1 = 3 9 9 8 0 Y #.' _ L 9 1 = = = < 1 3 3 1 1 , 1 1 1 , , 1 0 w 0 0 L Y U K K F 0 = ; * * ; 2 2 ; * ; 2 3 3 3 3 3 ; ; ; ; 1 1 1 1 1 I I Y Y P ' Y K U U l 8 8 s k s s 0 0 9 9 9 9 9 9 9 9 0 0 0 s 0 l v L L L v w $.4.v $ = * - - 2 3 4 4 < < 3 s s 4 4 4 3 3 3 y 1 = < 9 0 8 w _ $.@.' T 0 1 = = = = = < < 1 1 1 3 0 0 3 1 8 0 w 9 0 _ #._ Y _ _  .* & < * ; ; ; ; = = = 1 3 3 3 4 4 u 4 3 3 3 3 3 3 ; * = s d 0 0 Y #.+.L K w 0 9 w v v d 8 3 1 8 8 8 8 8 8 8 3 1 8 0 l v K L L T Y _ _ K 9 1 1 3 3 3 ; + - - * 3 3 u s u y y y 3 3 2 * 1 8 9 9 0 +.&.@.Y U U 1 $ 1 < < < < 1 3 1 1 7 7 7 7 1 1 0 0 9 l U  ._ K v l s < * * * * - + * ; 3 3 1 1 3 3 3 3 y y y y 3 1 & 1 l Y U Y Y @.Y Y +.Y Y l 9 9 8 8 8 8 8 8 8 8 8 8 s s s s s s 8 s s l c U w ` >.U 1 < < 3 ; * - 3 4 4 8 8 4 3 3 3 3 3 3 3 3 1 2 ; * * 3 s s 9 l ` @.[ ` v v 1 = = = = < 1 1 < < < 1 1 3 8 1 8 0 w w w L _ Y L v v s 2 * - - - - - 2 < < < ",
"2 2 2 2 3 1 ; ; & 1 s s s 0 L  .Y K K K d 0 v v v l s 8 8 0 0 0 d l l d 0 l l v v v K I U I U U +.Y w 1 < 3 3 1 * * 1 3 < < 3 < < < 1 3 1 1 1 1 = 3 s 8 8 w Y #.` ` L 0 1 $ = < 3 3 8 8 7 7 1 1 7 7 1 1 8 w l w 0 L Y U K K K w = ; * * ; ; ; ; ; 2 3 y y y 3 3 ; ; ; ; ; 1 1 1 1 I I Y Y P ' Y K U I l 8 8 s s s s 0 0 0 0 9 9 9 9 9 9 0 0 0 0 d w v L L L L G $.4.v $ = * - - 2 3 3 3 3 < 3 3 s 4 3 4 3 3 3 3 3 = < 0 k 9 v _ ' ' ` Y K 6 = = 1 1 3 3 8 7 7 7 0 s s 8 8 9 0 w 0 0 Y #._ Y Y _  .* & < * ; - ; ; - * 2 3 3 3 3 4 4 4 4 3 3 3 2 ; ; = & = s d 0 0 P @._ L K l 0 9 w v l s 8 8 8 s 8 8 8 8 8 8 3 8 6 8 0 w v L I T Y  ._ K 9 1 1 1 3 3 ; + - - - 3 3 3 u u y y 3 3 3 ; = < 8 9 9 9 +.+.T K U U 6 $ 1 < < 1 4 4 4 8 9 9 9 0 0 9 9 l 0 9 w U  ._ K I l s < * * * + + - ; 3 3 3 1 1 3 8 3 3 3 3 3 3 1 < & = l U U Y T #.` Y +._ Y K d 0 9 8 8 8 8 8 8 8 8 8 s s s s s a 3 8 s l v U w ` :.U 1 < < 3 2 - - 2 4 4 8 8 4 3 3 4 3 3 3 1 3 1 2 ; * * 2 s 8 8 v _ +.` G L v 1 % = = = 1 1 1 1 1 1 3 8 8 0 9 d l l w w L _ Y L L v s < * - - - - - ; 2 < < ",
"2 2 2 2 3 2 2 ; & 1 s s s 0 v  .U K U U d 0 l l l 0 8 8 0 s s 0 d d d d s d l v L v v L I L I Y +.Y w 1 < 1 3 1 * * 1 3 < 1 8 3 3 1 1 1 1 3 1 1 = 3 9 8 8 l U _ L L L w 1 $ < 8 s d l l 0 0 9 9 0 w 9 0 w v K l 0 L Y L K T K l = ; * * ; ; ; ; ; 2 3 3 3 3 2 2 = = ; ; ; ; ; 1 6 I I Y Y P ' ` K T v d 8 8 s 8 s s 0 s 0 0 0 0 9 9 9 9 0 0 0 0 l w l L L ` L L $.4.v $ = * - 2 2 2 2 3 3 4 3 3 s 4 4 4 u 3 1 3 3 * = 0 l 0 v  ._ ` _ _ K 6 = 1 s 9 9 s k 0 9 e d l l 0 0 l l l 0 0 Y +._ Y ` Y  .* & < * ; - ; ; * * ; 3 3 3 3 u 4 u 3 y 3 2 - ; ; = $ = s d 0 0 T +._ U L K l 8 0 l d 8 8 s s s 8 8 8 s s 8 1 8 8 9 0 d l I I T Y  ._ K 9 < < 1 1 3 * + + - - 3 3 3 3 y y y 3 3 2 = * < 8 9 8 9 +. .K K U U 7 , 1 8 8 8 0 s s l l l l l l v v l w 9 w U  ._ L I l s < * * * + - - 3 3 3 3 3 3 a a 3 3 3 3 3 3 1 < $ = l U U Y L #._ ` _ Y  .Y I K l d s s s 8 8 8 8 8 s s s s s 3 1 1 3 s v L w L #.U 1 < < 3 2 - * 2 y 4 8 8 3 3 3 3 4 3 3 1 1 2 ; = * * 2 s 8 8 w ` ' L G L v 1 = 8 8 8 8 9 0 0 0 e k k l l l l v l w w L _ Y L L v s < * - - - - - ; = < 1 ",
"2 2 2 2 1 2 2 ; & 1 s s s 0 v  .U K U U l 0 l l 0 0 8 8 s s s 8 d d d d d l v x I v v L I L I _ +.Y w 1 < 1 3 1 * * 1 3 1 1 8 3 3 3 1 < 1 1 1 1 = 3 9 8 8 l L U L L L w 1 , 8 l l l v v w w w w w w 0 0 l v v w 0 L Y L K L K l = ; * * ; ; ; * ; ; ; ; ; ; ; ; = = ; ; ; ; ; 1 8 I I Y Y P ' ` K K v 0 8 9 s 4 9 9 0 s 0 0 0 0 9 9 9 9 0 0 9 0 l w l L U ` ` L @.4.v $ = & - 2 2 < < 4 8 s s u s 4 4 u u 3 1 3 3 * = 0 l e v _ ' ' ' ` w , 1 d l 0 9 0 w 9 9 e 0 w 0 0 w v K l 0 0 U +.Y Y ` Y  .* & < * ; * ; - * * ; 1 y 3 3 u 4 u 3 y 3 3 ; ; ; * & = s d 0 0 T +._ U L K l 8 0 d s 8 8 s x s 8 8 8 s s 8 < 3 8 d l d l v U T Y  ._ K 9 < < 1 1 3 * + - - - 3 3 3 3 y 3 y 3 2 2 = * < 8 9 9 0 #. .K K U U 6 1 9 w 0 0 l l 0 k k e e e w l v v l 9 0 L _ Y L I x s < * * * + - 2 3 3 3 1 3 8 a a a 3 3 3 3 2 1 < & = l U T Y L $.' ` _ Y +. . .Q U I x d d s 8 8 8 8 8 8 a a s 3 1 < 1 8 l v w L &.U 1 < < 3 2 - * 2 y 4 8 8 3 3 3 3 4 3 3 1 1 2 ; = * * 2 s s 8 e ` ' L w L v 1 < l l l l l e e e w l k d s l v l w 0 w L ` Y L L c s 1 * - - - - - * = ; < ",
"2 2 2 2 ; ; ; ; & = s l 9 k I Y U U Y U l 9 9 l 9 9 9 9 8 8 0 0 l d d d d l l l v K I I I I U U +._ 0 1 1 1 = 3 o * 2 1 1 = = < = < 2 2 1 ; ; = = 8 8 8 8 9 Y _ L L v q 7 0 l l v 0 0 v K w 9 8 l w w w l l l l 0 L +._ L K L U 1 ; * - ; = * 2 ; ; * * * ; 2 2 = = ; ; ; ; ; = 1 l I Y L L ' +.U K I I s 0 s 4 4 8 9 s l l 0 0 9 9 0 0 0 0 0 0 0 0 0 v U _ L L $.-.U $   2 2 - * < 3 4 4 8 s s s u u 4 3 3 3 3 1 < = 8 v l v ` @.P _ _ w 1 6 0 0 w w l l w w w e w w w w w w w 7 w Y @.+.Y P _ I < o = ; - - - - ; - - = ; 1 1 4 4 3 3 2 2 ; ; = ; = & = 8 d 0 w Y  ._ U U L v 8 8 8 8 s k l l 8 8 8 8 8 3 3 3 3 8 d d 0 d l L Y Y _ +.U 6 = 1 3 1 ; * - * * + 1 1 3 3 y 3 y 3 3 3 = & < 4 9 8 K Y +.Y 0 T Y 0 w 0 w l l l l v l 9 9 w l 0 9 v l l w 0 K _ _ K l l s < & = 2 * - 2 2 2 1 1 1 1 3 3 3 3 3 3 2 2 = < * = l Y U U Y #.@.` _ Y U K l K I x x x x l s 0 8 8 s s a 3 a a 3 3 3 3 e v w L _ U 3 * 2 2 y - + - 1 3 3 8 8 8 8 4 3 3 1 2 2 ; = = * * 1 s s 8 w _ ' ` G L 9 8 8 0 d l l v w w w w 9 9 0 l 9 0 l w 0 w P +.+.Y v l l 3 o 2 - + + - * = = ; ",
"2 2 2 < ; ; ; * & = s l 9 k I Y U U Y U l 9 8 0 9 0 9 9 8 8 0 0 s s s s s s d d l d l l v I U Y +.Y 0 1 1 < = 3 o * 2 2 ; = ; < = = 2 2 ; ; = = = 8 8 8 8 9 Y _ L L L w w l l l v l l w 0 8 0 v I v l w 0 0 0 0 L  .#.+.Y L L L 1 ; * - ; * * ; ; ; ; * * ; ; 2 = = ; ; ; ; = = 8 I I T T L +.+.Y K I I s 8 s 4 4 8 9 s 0 l 0 0 9 9 0 0 0 0 0 0 0 0 0 l L ` L L $.:.U , o 2 2 - - < 3 4 8 8 s s s u 4 3 3 3 3 3 1 = = 8 v l l ` @.` +.$._ w K L L K K K K v w w w w w w w w v K L Y #.*.#.` Y _ I 1 o ; ; - - - - ; ; ; ; ; 2 < 3 3 3 2 2 2 ; - = ; = & = s d 0 w Y  ._ U U L v 8 8 8 8 s s s k 8 8 9 9 8 8 3 3 3 8 0 0 0 0 l v U L _ +.Y 9 = 1 3 1 ; * - + * + 1 1 3 3 3 3 y y 3 3 = * 2 4 9 8 l P +.Y K _ &._ L l w l l l l l l e 9 9 9 8 7 8 9 0 w v Y #.@.Y l l s < & = ; * - - 2 2 1 1 1 1 3 3 3 3 3 3 2 2 = < * = l Y T T U @.+.Y T L l 0 9 d l d d l d s k 0 s s d s s s s a 3 3 3 3 k L w L _ U 3 * 2 2 2 - + - 3 3 3 3 4 s s 4 3 3 1 1 2 ; ; = * * 2 u s 8 w _ [ ` L L v l l l l l l w w 9 9 w l 0 0 l 0 0 w w w L _ $.+.` v l l 3 o ; - + + + - ; = ; ",
"2 2 < * * - * * & = s l 8 0 I Y K U U U l 9 8 9 9 8 8 8 8 8 s s s s s s s s s s s 9 9 0 l I U U @.Y 0 1 1 1 < 1 + * ; 2 ; ; ; ; ; ; ; ; ; ; ; = & 8 8 8 8 9 _ _ L P U L L L K v w K l 6 1 6 l U U L v l K L U Y +.$.:.#.' P K K 3 2 * ; = * * ; 2 ; ; ; * ; ; ; = = ; ; ; ; = = 8 I K T T P @.@.Y U I v 0 8 s 4 9 9 8 9 0 l w l w w 0 0 0 0 0 0 0 9 0 l L U U L $.:.U < & ; - - ; 2 3 4 4 4 s s s 4 4 3 3 3 1 1 = = = 8 c l w U @.` @.4.-.+.+.@.#.#.@.+.+.' ' '  ._ _ _ _ ' +.#.@.$.4.G.*.' Y Y c 1 o ; ; - - * ; ; ; ; ; = ; 2 3 3 2 2 2 ; - - = ; = & = s d 0 l U  ._ U U I v 8 8 8 8 8 8 s s s s s s s 8 3 3 3 8 8 8 8 8 s l K K Y #.Y 9 < 1 3 1 ; * + + - - 1 3 3 1 3 3 y y 3 3 * & < 4 9 8 w Y +.Y K +.G.*.#._ Y Y Y Y U U 0 w 0 9 9 w w w L Y Y +.=.:.@._ l l d < & * - * - - ; 2 1 1 1 1 3 3 3 3 3 3 2 2 = = & = l U U T L #.#.Y T w 9 9 9 9 9 8 s d s 3 4 4 8 8 s s s s s a 8 8 3 8 l I K L _ Y 3 * < 2 2 - + - 3 3 3 3 4 4 4 3 3 3 1 1 1 2 ; = * * 2 u s 8 l _ #.` L L L U I I U K K K w 7 q v I v w l K K L T Y +.$.:.$._ L l l 3 * ; - - + + * * ; ; ",
"2 2 2 * * * * * & = s l 8 0 I U U K K K l 9 8 8 8 8 8 8 8 8 s s s s s s s s s s l s 8 9 l v I I &. .0 % 1 3 < 1 * * ; 2 ; ; ; ; ; ; ; 2 ; ; ; ; & 8 3 8 8 9 _  .U P Y U U L U L K L l 6 1 0 U Y L L K L U _ +.+.#.*.-.#.' Y P K 3 2 * = = * * * 2 ; ; ; ; * * * = = ; ; ; ; = = 6 I I Y L L @.$._ U I v 9 8 s 4 s s 8 8 0 0 l l w w 0 0 0 0 0 0 0 9 9 w L U U L $.-.U 1 & = - * 2 2 3 4 4 4 s u 4 4 4 4 3 3 3 3 = = = 9 I v v ` #.` @.4.4.-.:.$.-.-.$.$.$.$.-.-.-.:.$.$.$.$.:.-.$.-.4.4.*.+.' Y x 1 * ; - - - - - - - - ; 2 ; 2 3 3 3 2 2 ; - - = ; = & = s d 0 l U  ._ U U I v 8 8 8 8 8 s s s s s s s s 8 8 3 3 8 8 8 8 8 s l K K Y #.Y 9 < < 3 1 ; * + + - - 1 1 3 3 y 3 y 3 3 1 * & < 4 s 9 w _ #.Y K _ =.#.:.=.#.=.$.#._ Y v L K l l L U L  .#.#.$.:.:.@. .K x d 1 & & ; * - - ; ; 1 1 1 1 3 3 1 1 3 1 2 2 * = & < l U U T L #.$.` T 0 9 0 9 0 9 9 s s 8 < 1 1 1 3 s s s s s s 8 8 3 8 l U L U  ._ 8 * < 2 2 - + - 3 1 1 8 3 3 3 3 3 1 1 2 1 2 ; = * * 2 u s 8 l  .$._ ` ` U U Y Y Y Y Y P w q w U  .I K U U U Y +.#.$.-.$.#.+.L l l 3 * ; - - + + * - ; 1 ",
"2 2 * * * * * * * < s l 9 e I U U K l l 0 9 8 0 8 8 9 9 9 9 0 s s s s d s s s s l d 9 s l v I U =.+.0 % < 3 < 2 * * - - ; ; ; ; ; ; ; ; ; ; ; ; & 8 8 8 8 0  .+.` Y U U U L L P _ Y K 0 l Y  .Y Y U U L L Y Y T +.#.@.+.' ` P K 3 ; * = * * * * ; ; ; ; ; ; * * = = ; ; ; ; = = 1 I U Y K L @.:. .U I v 9 8 s 4 s s 8 8 0 0 w l w w 0 0 0 0 0 0 0 8 9 w L U ` ` @.$.Y 1 = * + - 2 2 3 4 4 8 s 4 8 4 4 4 u 3 3 3 = = = 0 I v v _ $.' ' $.$.@.@.' @.' ' ' ' ' ' ' ' _ _ _ _ ` ` ` ' @.@.@.@.+.' _ l 2 * ; - - - - + * - ; 2 1 1 1 3 3 3 2 2 ; ; ; ; 1 = & = s d 0 w U  ._ U U I l 4 4 4 8 9 s s k s s s 8 8 8 8 8 8 8 8 8 8 9 s 0 T T Y #. .0 < < 1 1 2 * + + - 2 2 1 3 u u y 3 - 3 2 * & < 8 s 9 w +.$._ L Y _ Y +.' @.$.-.#.` L  . . .I L U Y L U Y _ +.@.$.#.+.U x s < * & * - - - ; ; ; 1 1 1 ; 1 1 1 2 2 - - = = * < l I T Y L $.$._ T w 0 0 0 0 s 9 s s 8 = 1 1 3 8 s s s s s s s s 8 8 l U U U  ._ 8 = - 2 t - + + * = 1 8 3 3 3 3 3 3 2 2 1 2 2 = * * 2 u s 8 l  .#._ ` ` U U Y Y _ _ Y Y w w L  . .Y U  .U U T Y +.#.@.@.$.$.` v 0 < o - - - - + * - ; 1 ",
"2 < * * * * * * * < s l 9 e L U U K 0 0 9 9 8 0 8 8 9 9 9 9 0 0 s s s s s 8 8 8 d s s s l v Y _ *.@.l , < 3 < 2 * * * - - ; * * ; ; ; ; ; ; ; ; & 8 3 8 8 e  .#._ Y L U L L Y ` Y L v K Y +. .U Y Y U U Y Y L L Y _ ' ' ' ' P w 1 ; * * * * * * ; ; ; ; ; ; ; * = = ; ; ; ; ; = 1 K I T K K @.:. .U Y I s 9 s 4 s s 8 8 0 0 l l l l 0 0 0 0 0 0 0 8 9 w L ` ` ` ' #.Y 4 = * + - 2 2 5 4 8 9 a 4 8 4 u u s u 3 3 = = = 0 I L L  .$.` ` ' ` ' ' ` ` ` ` ` P P P P ` ` ` ` P L P L P ` ' ' ' +.' Y s = * ; - - - - * * * - ; 2 1 1 3 3 3 2 2 2 ; ; ; 1 ; & < s l 0 w U _ _ I U I l 3 4 4 8 9 s s l s s s 8 8 8 8 s 8 8 8 8 8 9 s 0 T T _ &. .0 < = 1 1 3 = + + - 2 2 1 3 u y 3 3 - 3 2 * & 1 8 s 8 0 @.$._ Y Y Y T L P _ #.$._ P L  . ._ U U U Y U L L T Y ` ' ' +.Q I 8 = & * - - - - ; ; ; ; = < ; ; 1 1 2 ; - - = = = 1 l I K U L $.$.` L w 0 0 0 d s 9 s s 3 = < 1 8 0 s s d s s s s s 8 8 l U Y L _ | 8 = - 2 t - + + * * ; 3 3 3 3 3 3 3 3 1 2 = = = * * 2 u s 8 l O.$._ ` _ U U U Y Y Y L K G L ` O. ._ Y  .Y U K K L Y ' +.[ $.` l 8 * o ; - - - + * - ; ; ",
"* * * * * * * * = 1 s l 9 0 L U U l 9 9 0 9 8 0 9 9 9 9 9 9 9 9 s s s s 8 8 1 < 9 s d d d l I Y *.=.K 1 = 1 < 2 - - * * - - - * ; ; ; ; ; ; ; ; & 8 3 8 8 e  .#._ Y L Y Y L L ` K v K U  .Y U U U U L L T Y Y Y P Y Y ' ' ' P 0 1 * * * * * * * * * ; ; ; ; ; ; ; = ; ; ; ; = = 8 l K L K L $.-. .U Y I l s s 8 s s 0 0 0 d w l l l 0 0 9 0 0 0 0 8 0 l L ` ` ` _ $.U 8 ; * + - - < < 3 8 8 s 3 3 4 u u s u 3 3 = = = 8 I v L  .$.` ` ` P P ` ` ` ` ` } ' ' ' ` _ _ ` ` P ` ` ' P ` Y Y ' +.' Y 8 = * ; - - - - - - - - * ; 2 2 3 3 3 2 2 ; ; ; ; 3 ; & < s l l w U  .Y I I c l 4 4 4 4 s s s s s s s s s s s s 8 8 8 8 8 9 9 0 K K  .*.&.l < = = 1 3 ; + + - 2 2 < 1 3 3 3 - - 2 2 = = 1 s 9 8 0 #.=.Y ` _ P P L P ` +.' Y P Y Y I L I L L L U T Y Y Y Y Y ` +.+.x 3 = * = - - - - ; ; = ; = = ; ; ; ; ; ; - * = = = 3 l l l L Y $.$._ L w 0 0 9 0 d s s s 8 < 1 1 8 0 s s s s l s s s s 8 l U L L _ _ s * * 2 2 - - - * * = 1 3 3 3 3 3 1 2 2 = = = = * * 3 s s 4 l  .$._ ` _ Y Y Y Y Y L L F ` _ _ ` Y Y U K U T K l K T Y ` _ @._ l 1 .   2 - - - + * - ; ; ",
"* * * * * * * * ; 1 s l 9 0 I U K 0 9 0 0 0 8 8 9 9 9 9 9 9 9 9 s s s s 8 8 1 = 9 d l d 0 0 l I :.$.U 1 = < = 2 ; - & * - - - * - ; ; ; ; ; ; = * 8 3 8 8 s  .&._ Y Y _ _ U L U K L Y  . .Y Y  .I K v v K L U Y U Y Y _ +.' L 0 < * & * * & * = * * ; < 2 < - * ; = = = = = = = 8 l 0 K L Y $.$._ Y Y U l s k 8 s 8 0 s 0 l w l l l k 0 9 0 0 0 0 8 0 v U _ _ ` _ +.U 8 < * * - ; < < 3 8 s s 3 3 4 4 4 u u 3 3 = * $ 8 c v L  .#._ ` _ P Y ` ` F F L P ` _ ' ' ` L L v K L Y _ _  ._ _ +.@.+.Y 8 = * ; - ; 3 ; - ; - - * * = = 3 3 2 2 ; ; - - ; 3 ; * < s l d w U  .Y I I c l 4 4 4 4 4 8 s s 3 s s d l s s 8 8 8 8 8 8 9 9 8 0 w _ l.:.K 1 = = 1 1 ; * + - 2 2 < ; * ; ; 3 3 2 ; = = 3 s s 8 w #.#.U _ _ L L Y P Y ` Y P Y +._ U L I L w 9 w K L U Y Y Y _ +.&.I 1 & * < 2 * - - - ; ; = = = ; ; ; ; ; ; = = = 2 = 3 l l d U _ :.*._ T K 0 0 9 d l l d s 9 8 1 4 0 l k s s s l s s s s 8 l I U L Y Y 8 * = 2 ; ; - 2 ; * * = 2 1 1 1 2 = = * ; = = = * * 3 s s 4 l  .#._ ` ` _ Y Y _ Y Y L L _ ' _ L U Y K 0 9 0 l l l l K K Y #. .l <     2 - - - - * * = = ",
"2 2 2 2 - + + + * 3 s d 9 9 l U I l d 9 9 9 9 9 9 9 9 9 9 9 9 8 8 8 8 8 4 8 0 s I l s 8 9 l I U #.-.#.w % % = = ; 2 - + + - - + * = ; = ; = ; * = 3 4 3 3 s x I l w l l l l l l l l l x c I I I l l l l l v v v v v v v v w 7 1 < < = * & * = = * * * < < < < < * = = = * = < 1 9 K v 6 q @.-.' P Y _ U v 0 9 9 s 9 9 0 l l l l l l w 0 0 0 0 w 9 9 w L U U U _ O._ U 0 = . * 1 = ; * 2 3 u u s s u 3 3 3 3 4 4 1 = = 3 k c Y  . . .U Y Y Y U v I I U Q Q Q Y U c v v l l v I U W  . . . . .W W u 2 * * - - - - 2 - - + * * 2 2 2 3 3 2 + + - 2 - - & * 3 s s 9 9 L _ Y L v x c 3 3 s s 4 4 4 4 s l x x l s s 8 8 3 8 9 8 7 4 0 v L _ $.l.+.0 $ * = < < * o + o O * * < - - - - ; * * ; 3 s s 8 v &.*._ U _ Y L U L U U Y _ _ _ ` U L v l l l l v v U _  . . . .%.~ l 3 * * - - - - - - - 2 2 2 y - * - ; ; ; * & 1 s d d d l K G.&. .U v l 0 0 0 0 s d s s 9 8 1 8 s l l k s l l s s l 8 1 s W L U Y U d 1 = = = = = ; - ; - * * - ; - - - ; * ; ; ; * & = 1 s 8 8 l Q  . .Y Q U I L L L I U U ` ` L v v l l 0 s s d d d d d d l x x k 3 = = 2 = * * & & & * * ",
"* < 2 2 - + + * ; y s d 9 0 K Y U K d 9 9 9 9 9 9 9 9 9 9 9 9 8 8 8 8 8 8 0 s l v l 0 8 s v I Y $.4.-.K , % = * * ; - + + - - O * = = 2 2 = = * = 3 s u 3 3 s s 8 8 8 8 8 8 8 8 s 8 8 8 s s s s 8 8 8 8 s s 9 9 9 9 9 e 9 9 1 1 1 < = $ $ $ * * O * O < < < < < < = & & & = 1 9 l 0 9 0 Y $.@.L P ` Y L v 0 0 0 d 9 9 0 l l w w v v l w 0 0 0 0 v l l L U U U Y  .' _ l 1 $ $ = 2 2 ; 2 2 3 4 4 s s 3 3 3 3 4 s 3 = * 3 l x l k 3 < = = < < = * < 1 3 3 8 8 3 3 3 3 3 < 3 3 4 4 4 8 s s s s s 4 3 - + * - - - 2 2 2 * + + * ; 2 * < 2 - - - - ; o * - 3 s s s 8 9 L  .U l l x l 3 3 a s 4 4 8 s l l l s s 8 8 8 8 8 8 0 9 8 9 w _ P Y @.J.:.v $ $ * * * * * + o * * * * - - - - - ; ; ; 3 s s 8 W &.&.Y I U I I I I I I U Y Y U I v l l s s k k 0 k l v c I I I x f a ; * * - - - - 2 2 2 2 2 2 y 2 - - ; ; * & = 3 s s s d I Q &. .Y L l l d 0 0 0 s s s s 9 8 1 a s l l s k k k 0 s s s 1 s I U T Y Y K 8 = * = = ; ; - - - - - ; ; - - - ; - ; ; ; = = = 3 s s 9 9 d s 8 1 1 9 8 8 7 7 8 9 9 9 9 7 7 1 1 1 1 < < < < 3 3 3 3 3 3 3 3 1 1 < 2 = = * & & & * * ",
"2 2 2 - - + * - a a s s d l I Y U I d 9 9 9 9 9 9 9 9 9 9 9 9 9 0 0 0 8 8 8 s l s 0 8 8 k x I Y +.-.-.T 7 1 = $ * = - * + * - - * ; ; 2 2 = = = = 3 s u 3 1 1 < < < < < 1 1 < < 1 1 1 1 < < 2 < < < 1 3 3 3 3 3 1 1 1 1 7 1 1 1 3 < = & $ $ & & O O O O * * < * < * & . = < 9 l l 8 9 L @.+.Y L P L L v w 0 0 d s 9 9 s d l l l v l l w 0 0 0 0 I v l v I U U U _ ' _ U 0 < $ & 2 2 ; ; * 2 3 4 s s 3 3 3 3 4 s 3 = * 4 k k 3 $ = * & & = < = = & & * = = * * & * & & & & * = = & * = < < 1 < < 2 * + * - - - 2 3 2 - + + * ; 2 * * * - ; ; - + o ; 3 s s 8 8 4 l `  .v 8 l x l 3 3 8 8 4 8 s s l l s 8 3 3 8 0 s 9 0 0 e 0 e l  .` Y #.G.:.I 1 = = * < < < O o O * * * - - - - 2 ; ; 2 3 8 3 3 s l s 1 3 3 1 3 8 8 8 8 s s s 8 s 8 3 3 1 1 1 1 < 1 1 3 3 3 3 3 1 ; ; * * * - - 2 2 - - 2 2 2 2 2 2 ; ; - * * * 1 8 s 0 9 l Y &._ U K l w w d 0 0 0 d d s s 9 8 1 s s l l s 0 0 0 0 s s 8 1 s I U ' =.=.Y 0 = = < = ; = - - - 2 ; ; - ; ; ; - - * ; ; ; = 1 u s 8 3 1 1 < = = = 1 1 1 1 1 1 1 1 1 1 1 < , < = = = = = = = = < = 1 = = 1 3 3 3 3 2 = = * * * * * ",
"2 2 - * + * - ; s s s d d K Y Q Q I l 0 9 9 9 9 9 9 9 9 9 9 9 9 l l s 9 8 4 8 8 8 8 8 8 k v x I L ' ' L w 9 1 $ = ; 1 2 * * * * ; ; 2 2 2 2 = = ; 3 s u 3 3 1 < 1 1 1 1 1 1 1 1 1 1 1 1 < < 2 2 1 < < < 1 3 3 3 3 1 1 1 4 4 3 3 3 1 < = = * * & O O O O * * * * & $ & = < 8 0 l 8 0 L +._ K K P L L v l w 0 d l s s s 9 s d l 0 0 0 w w l l l l v w 9 w L Y Y U ` _ ' ` v 4 < * = = ; ; * * 2 2 s s y 3 3 3 3 4 3 = = 4 s 8 < . = = = = = 1 < = < = = = = = = = * * * = = = = = = = < < 1 1 3 3 2 * * - 2 - 2 2 3 2 - * * - 2 2 2 2 - - ; - * * - 3 s s 8 8 8 k _  .Y 8 1 l c l 3 3 8 8 4 s s k l s s 8 3 8 s s s s k k l l l v U Y ' +.#. .I l 3 < = * < 2 < O * * O + + + - - 2 - ; 2 3 3 1 1 3 3 * * 1 ; = 3 = = = = = = = * * * * * * * * * * * * * * * * & * * * * ; ; ; ; 2 2 2 2 2 2 - - - - - * o & = 1 s s s l v I  .+.K v l l w w d 0 0 0 0 d s s 9 8 1 s s l l s 0 0 9 9 s s 8 3 s x U #.J.G.+.l 8 1 = = ; = - - - 2 - - ; - - - ; ; * ; ; ; 2 1 3 u 1 < = < 1 1 8 8 < < 1 1 < 1 < < < 1 < 1 < 1 1 1 1 1 1 1 1 1 1 1 1 1 1 1 3 3 3 3 ; ; = = * * * * ",
"2 ; - + o & * ; s s d l L Y Y Y Q U l 0 9 9 9 9 9 9 9 9 9 9 0 9 d k 0 8 3 3 3 8 8 4 3 8 0 s l l F L L L L K 9 = & = 2 2 2 * * * = = = = = = = ; ; 3 3 1 1 3 3 1 1 1 1 1 1 1 1 1 1 1 1 3 1 1 3 1 2 2 1 1 1 1 1 3 3 3 3 1 3 3 3 3 1 1 = = = * * & O O * * * * * *   $ < 3 9 s d d 0 U +. .U K L _ v v l e 0 s k l s 8 8 8 0 s k k 0 w w w w v v v w 9 9 w L _ _ U ` _ _ ` L e 8 3 * * = = ; ; - 2 y 3 y y y y 3 1 1 = 2 3 u 3 < = = = = = = = = = 2 2 = = * * = = = = = = 2 = = = 1 1 1 1 1 3 3 3 1 = = 2 2 * = 1 1 1 ; = = 2 3 3 3 3 3 ; - - ; 3 y s 8 8 8 0 v Y  .+.U 0 0 v c s 3 8 8 8 4 8 s k s s s 8 s s k l l l l l l v v v K K U Y Y Y Y Y l 8 < * * < < * * * O O + + - - - - ; ; ; = = = 2 ; * ; y 2 ; 3 3 3 - - 3 3 - ; - - - - - - - - - ; - ; ; ; ; ; - * * * ; ; ; ; - ; - 2 2 - - - * * & & & = 3 8 l 0 0 v _  ._ Y v l w 0 0 s 0 0 d s s s s s 8 8 1 y s l l k 0 0 8 9 s s 8 3 s l Y ' #.*.&._ l 8 * = ; ; ; ; - - - - - - - - - ; * * ; ; ; ; 2 1 ; 1 1 < ; 1 1 1 < < < < 1 < 1 < 1 < 1 < < < < 3 1 1 1 1 1 1 1 1 ; 2 3 3 3 ; 2 2 ; ; ; ; ; * * * ",
"- - + o o & 1 3 s d K U Y Y Y Y Q U d 9 9 9 9 9 9 9 9 9 9 9 0 0 8 8 8 4 1 3 8 8 4 3 3 3 8 9 0 0 K K K K U Y l 8 = & & = 2 * * * = = = * * = = = = 1 1 = * ; 2 ; < < < = = = = = = ; ; ; 2 2 3 3 2 2 2 2 < < < < 1 < < < < < < = = = & & * * & & * * * * * * * * $ < 8 s l l l l Y  . .U U _ Y L l k e 0 s s k s s s 3 3 8 s l l l l w l w w w w w 0 9 w v Y _ U ` ` ` ` L v 0 8 < = = = ; 2 - - - 3 3 y y y 3 2 1 2 2 1 3 2 2 1 1 1 1 2 2 2 2 2 2 = < = * * * = = < = 2 2 = = = 2 2 2 2 1 1 2 2 1 2 = 2 = * = 1 2 2 2 2 1 1 3 3 2 2 3 - ; 1 y s s 8 3 8 d L  .#._ _ Y K I I l 3 8 8 s 8 4 8 9 s s 8 8 s l l l l l l l k l v v v w 0 0 w Y  . .Y v s 3 = * * * * * * * * - - - - - - - - ; * * * * ; * * - - o * 2 - ; - - - - - - - - - - - - - - - - - - - - 2 ; = * * * * * * * - - 2 2 2 2 - * & * * = 3 s l v l v U #.+.Y K l l 0 0 0 0 0 8 d s s s s 9 8 8 1 y s l l s e k 8 0 s s s 8 s d  .L T _ :.G.%.l 1 ; ; ; ; - - - - - ; - - - - - * * - * * - * * ; 1 1 1 1 3 ; = < < 1 1 1 1 1 1 1 1 1 < < < < = 1 1 1 ; 1 1 1 1 ; 3 3 3 3 2 3 3 * * ; ; ; * * * ",
"; - * * = 3 s x l I U Y Y L L L Y I d q 8 8 8 8 8 9 9 9 9 9 0 9 8 8 8 3 1 8 8 9 8 3 3 3 8 9 9 9 w w w K U U I l s < & = = = = = = = * * * * = = * = = * & * = * = = = = * * * * * * ; ; ; ; ; ; = ; ; = = = = = = = = = < < = * * * & * * * * * ; * * * = * = = < 8 l l l l I Y  . .U I Y Y K 0 0 9 9 k k s s s s 4 3 3 4 9 l l l l l l l w w 0 0 0 9 9 w U Y Y ` ` ` ` L L l 0 4 1 * & ; 2 - ; - ; 3 y y y 3 2 3 2 * = ; * * ; o o + + o o o + - ; - - ; - - - ; ; ; ; ; ; ; ; * * ; ; ; 2 2 ; = * * * & & = 1 2 1 1 3 3 3 3 3 3 3 ; - 3 y s s s 8 8 l Y  . . .U U U U I l 8 3 8 s s s 4 4 4 8 s 8 8 s l l l l l l l l l x v l w 0 9 0 K U Y Y Y I s 3 1 = = * * * - - - - - - - - - - - - * * - 2 2 - 2 - - - + + + + + - + + - - - - - - - - - - - - - - ; ; - - - - * * * * + * * 2 < 2 < < & & = 1 s l l l l L _  ._ ` L L l l 0 0 0 0 9 9 s s s s s s s 8 1 3 s s s s l l 8 0 s s s s s s U K w K +.l.g.X.d 8 1 ; ; ; - - - ; ; - - - - - * * * * * * * * - ; 3 3 3 y y ; 1 1 1 1 1 1 1 1 1 1 1 1 1 1 1 1 3 3 3 3 1 1 1 1 2 - 3 3 y y y 3 * * - - ; - - - ",
"; ; ; = 3 s I Q I Y _ _ P L L L U l 9 6 6 6 6 6 8 8 9 9 0 0 9 9 8 8 8 8 1 1 8 8 8 3 3 3 8 9 9 0 7 0 w l K U Y Y I s = = = = = = = * * * & * = = o & = * * 2 2 * = = = = * = = * = = ; ; ; ; ; ; = = = = = = = = = = = < 1 1 < = * & & * * ; ; * ; = = = = * = = 0 l v v l l Y  ._ U I U U v 0 8 8 4 9 k k k s u s 3 1 < 3 9 l v w w l l l l w w 7 9 7 6 9 K _ _ ` ` ` ` ` L l 0 k 3 * o * 2 - ; ; ; - 3 3 3 3 3 u ; o & = * o o o o o + o o + * o o o o o o o o * * * & & o * * o o * * = ; ; * * & o & & & = 3 1 1 3 3 3 3 1 1 y 3 ; 1 y s 8 3 8 8 0 U #.&._ L L L L L d 8 3 s 8 s s 8 4 4 4 3 s s 8 s s l l k s l l 0 l I v l 9 w l 0 9 9 l U  . .I e 3 < = = = * 2 2 - - - + - - - - - - * * X - + o + + + - - * + + - - - * - - ; ; ; ; ; ; ; - ; - - - - - * * - - * * * * + O * 2 2 2 2 = * = 1 s x I I l w U #.+.L w G L l s 0 8 8 0 9 9 s s s s s s s 8 1 3 s s s s l l 8 0 k s s s s s 9 w w 0 w U %.&.W d 1 * ; ; ; - ; ; ; ; - - - - * * * * ; ; * * ; ; 3 ; ; 3 3 ; ; ; 1 1 1 1 1 = 1 1 1 1 1 1 1 1 1 1 1 1 1 ; ; ; ; - * - 2 3 ; * + * * - - - - - ",
"; ; 3 s I W I v Y _ Y _ Y P L v K d 6 1 8 9 9 9 9 9 9 9 9 9 9 9 8 8 8 8 8 8 8 8 8 6 1 8 8 9 9 9 0 9 9 9 0 K L U &.W 8 * % = = * = = = = * & & * ; = = 2 1 1 2 = = = = = = < 1 1 1 1 1 3 3 1 3 3 3 3 1 1 < < = = 2 2 2 2 2 = ; = 2 - ; - ; 2 ; * * = = & * = 3 s l l l 0 l U  . .Y U Y Y v 0 9 k k 9 u 4 4 u s s 3 3 3 1 3 s l 9 w w w w w w w w w w 0 0 0 w L Y ` ` ` P L ` U U 0 8 3 1 2 = ; * ; ; 2 3 3 1 ; + ; 2 2 2 2 - - ; = = = = ; ; = ; = 2 1 3 s s s s s y 3 2 2 2 2 3 3 3 2 ; ; ; ; 2 = ; 1 = & = a l s a y 3 3 3 3 3 - y s s s 3 8 8 1 K #.&.&._ Y L v L I v 9 8 3 8 8 8 3 3 4 4 4 4 s s s s s s s s l l l k k l l v 0 0 0 0 0 0 0 9 I _  .I d 8 1 $ < = = ; - - ; - - - - - - - - - - * + + * - ; ; y 2 - * * ; 3 u s s f f k l l k y 3 3 1 3 3 3 3 2 2 2 2 - - * + 2 = * = < < = & = 8 l I U I I L  . ._ L w w w L 0 0 0 0 s d d d s s s s d s 8 1 a 3 1 s l s 8 3 0 0 s k s s s 8 9 9 0 0 l K Y  .%.Q l 3 = * ; 3 3 2 = - ; 2 ; * - * * * * * - - - - - - * * * * 3 ; = = ; ; ; ; = = = = = = = = ; ; = = = = = = - - - - = = = ; 2 = * * ; ; ; * ",
"* 1 s x I U I L _ _ _ Y L K F K U d 9 8 9 0 9 9 9 9 9 9 9 9 9 9 8 8 8 8 9 9 0 0 8 6 6 8 8 9 8 9 9 9 0 9 9 0 l T  . .I 9 < = = * = = = = * * & & = = = 2 3 3 3 1 8 8 3 3 1 1 3 3 3 3 s s s s s s s s 8 4 4 3 3 3 1 1 1 2 2 2 ; = 2 ; ; - ; 2 ; & = = & & < 8 d x K K v v U  . .U I I I I v 0 8 s e 4 u 4 u s k k s 8 3 1 8 l l 9 w w w w w w w w w w w w w w K L ` ` _ ` ` ` U U I l 9 3 = * = = ; ; 2 ; ; ; 2 3 * * - ; - 2 3 3 2 2 2 2 2 ; ; ; 2 1 3 u s s s s s u y 3 3 3 3 3 3 3 3 3 3 3 3 1 ; 1 1 3 3 s g l s s y 3 3 1 3 3 y 3 3 4 s s s 0 v _ &.#.+._ L K l v I v s 8 1 3 1 1 3 3 3 8 9 9 s s s s s s s s l l l l k l v v l w 0 0 0 0 0 9 0 I  . .U l 1 % & = = 2 1 - ; ; - - - + + - - * * * * < 2 3 3 3 3 3 3 3 4 s k l l s s s x c x k 3 1 1 1 1 3 1 1 2 2 2 - - - * * = = = = = = = = 9 l I U I K U _ #. .U L v w w w 0 0 0 0 s d d d s s s s s s 3 1 3 3 1 8 8 3 8 0 l l s 0 s s s 8 0 0 0 0 0 l I Y  .W I d 3 < = & ; ; 2 2 2 ; ; * - - * * * * - - - - - - * ; ; ; ; ; = = ; 1 1 1 1 1 1 1 1 1 1 1 3 1 1 1 < < < < ; ; 3 3 1 1 2 2 - ; ; 2 2 2 ; * ",
"1 s x U U U U U  .' _ L F w K L U l 0 9 0 0 0 9 0 0 0 9 9 9 9 9 9 9 9 9 0 0 0 0 9 8 6 q 9 9 9 9 9 0 d 0 7 7 0 l L  .&.Q 0 1 = = = = 2 2 2 ; * * ; = = ; 3 3 u 4 d s 8 8 3 3 3 3 3 3 3 s s s s s s k s s s s 9 4 3 3 1 1 1 1 2 2 1 ; ; ; 2 = = * = * = 1 s l I I K K K U  .+.Y l l l x I l s 8 9 e r 4 4 s s k l l l s 0 l v w 9 w w w F F K F F w w K K F F K K P _ +.` ` ` ` U _ U l 9 3 = = = * = 2 = = = 1 3 * * * * - ; - 2 ; = < 1 1 1 1 1 1 3 3 s s s s s s s s u s u u u u u u u 3 3 3 3 3 1 1 s l c l s s 8 3 1 1 1 1 3 s s 8 8 8 0 l L &.&.#. .Y U L w l v I x d 8 3 3 1 3 3 3 8 9 0 e s s s s s s s s l l l l k l l v K l 0 9 9 0 0 0 6 w Y  ._ U 0 6 $ * < < 2 ; ; ; - - - + + - - - * = 1 3 3 4 3 4 3 4 s k l x x x s 4 3 8 k l s 8 3 3 3 3 3 3 3 1 2 2 - - - - * 2 = < 1 < = < 3 4 K U T U K L  .#.+.Y v l v v w w 0 s 0 0 s d d d s s s s s 3 1 1 3 3 3 3 1 3 8 l v l s 8 3 3 s s 0 0 0 0 d l v I U W W W x s = $ & = 3 3 2 * ; 2 - - * * * * - - - - * ; ; ; 1 1 = ; ; 1 1 1 1 1 3 3 3 3 3 3 3 3 3 3 3 3 3 3 3 1 1 1 3 3 3 3 1 1 = 2 1 1 2 = = = ",
"d I W Y U L Y _ #.+.` L w w K L K l 0 0 0 0 0 0 0 0 0 0 9 9 9 9 9 9 9 0 0 0 0 0 9 9 8 9 9 9 9 9 9 0 d 0 9 9 0 w v  .&.&.U d 8 < = 2 2 1 1 1 2 = * * * = 1 3 u s d 0 8 8 3 1 3 3 3 3 3 8 8 8 s 8 s s s s s 9 9 9 4 3 3 3 3 1 1 1 3 2 ; ; = = = = & = 3 d I I v l K K U _  ._ I l 0 l l x v l s s k r 4 4 4 s k l I I I K K v w q 0 w w w K K K F w F K K F F K K L ` +.' ` ` ` ` U U U v l 8 < = * * = = 1 1 1 1 1 2 ; * * * - ; = < 1 3 8 8 8 8 3 3 8 8 s s s s s s s s s s s s s s s s s u 3 3 3 1 1 s l x s s 3 3 3 1 1 3 3 8 8 s l 8 1 9 U &.>.:.+.Y L L K w l v x x l s s s s s s s s s s k s s s l k k s s k l l l k l l l K l 0 0 0 l 0 0 7 w L Y _ Y U K 1 < < * = = 2 ; - - - - + * * * = < 1 3 3 3 3 4 8 s s k k k s s 4 1 < 3 4 8 4 1 4 4 8 8 9 4 3 3 2 2 - - - - 2 2 = < < < 3 4 s l U L U T Y _ +.&._ L w 0 l v l 9 9 9 s s s s d d s s s s 3 1 1 1 3 3 3 3 1 3 0 l v l s 8 8 3 s s 8 8 9 0 0 l v I I U Q  .W x 8 1 = 1 3 3 ; ; ; 2 - - - - - - - - - - ; ; ; 1 3 3 1 3 3 3 3 3 3 3 3 3 3 3 3 3 3 3 3 3 3 3 3 3 3 3 1 3 3 3 4 3 3 < 2 1 1 < = = 1 3 ",
"I Y Y Y L Y +.$.@._ L w w w l l l 0 0 9 0 0 0 0 0 0 9 9 9 9 9 9 0 0 q q 9 9 9 9 9 9 7 9 9 9 9 9 9 9 q 9 0 0 0 0 K Y  .+.+.Y K 9 1 2 ; ; 2 2 2 = * & & * = 1 3 s 0 8 8 1 1 1 1 3 4 8 8 8 s 9 8 4 9 9 9 9 9 9 9 9 s s 8 4 3 3 1 1 2 2 = = & & & = < 8 l I I K K v T Y _ +._ U v l 0 d l l x x k s k 9 9 8 8 8 s s l I I U K w 0 0 w w F K K K K K K F w w w w F K K _ #.+._ ` ` ` ` ` _ _ U v s 8 3 < = * < < < = 3 3 2 ; = = * = < 1 8 8 9 9 9 8 8 8 9 9 9 9 9 8 s s s s s s s s s s s s s s 3 3 3 3 3 3 s s s 3 3 1 1 1 3 8 s s 8 0 9 9 0 L #.>.$.@.` L L U K 0 0 l l d d s s s x l l l k k e k s l l l l l s s s k l l l l l l l l l l K K l l 0 w K L Y _ Y _ L 0 1 $ = < 1 2 2 - - * O O * * < ; 1 1 1 3 8 s s s s s s 8 3 3 3 4 4 4 4 4 4 8 8 s s s s s 4 3 2 2 - - * - 2 2 < = < 3 8 l v v U K L Y +.@.+. .L K l 0 d l d s 9 9 s s s d s s s s s 8 1 = 1 1 3 3 3 3 4 0 l l l l s 0 s 8 s s 8 8 8 9 s d l v v I Y _  .Y K v s 3 2 = ; 2 2 ; ; ; ; ; ; ; - - * * = = 1 3 3 3 3 8 s s s 4 4 8 3 3 3 3 3 3 8 8 8 8 8 8 8 4 8 8 3 4 8 8 4 3 3 < < < = = = 3 s x ",
"Y Y Y Y _ +.-.>._ P F w 0 0 0 9 0 q 9 q 0 0 0 0 0 0 0 9 9 9 q q 0 0 0 q 9 9 9 8 q 9 9 9 q 9 9 9 9 8 1 6 9 0 0 7 K L U _ @.&. .I s 3 2 = * = = * * * * * * = 1 3 8 7 7 6 6 8 7 7 4 8 8 9 9 8 4 4 9 9 9 9 9 9 9 9 s s 8 4 3 3 1 < * * & $ $ * = < d l v v l K U _ @.@.@.+.U l l l 0 d s l x I x s k 9 9 9 8 8 8 9 9 9 l K K F F F w w w K K K K K K K w 0 w K K K l _ &.#.` P P P ` ` ` ` U Y Y Y l s 3 * * < < < 1 1 1 1 1 2 2 1 3 8 9 9 9 9 8 8 9 9 9 9 9 9 9 9 8 s s s s s s s s s s s s s 4 8 s s 8 3 3 3 3 3 1 1 3 3 s s s s s 4 1 w  .:.:.&._ ` L L U U K 0 9 9 9 9 s s s l l l l l k k e k l l l l l l l l k k l l l l l l d d l K K K K l 0 0 K Y _ _ ` Y _ L 9 1 < < < = 2 2 2 - * O O O = ; 1 3 3 3 s l s s s a 3 3 3 3 3 4 s s 3 3 4 s s s s s s s 8 3 2 2 2 - - - < 2 < = < 4 l c I L L P P +.#.#._ L l l l s s s s s 8 9 9 9 s d s d s s 8 1 < = 1 1 s s 8 3 8 k l l k k s s s s s s s s s s s 9 s d v v L U Y _ _ _ x s 3 2 2 3 3 ; ; - ; ; ; ; - - * * * = ; 1 3 3 4 s s s s 8 8 8 s s s s 8 8 8 8 0 0 0 0 9 9 9 9 9 s s s 8 4 3 1 = = = < 3 k I | ",
"Y T Y ' $.-.:.$.L L F w 0 9 9 9 q 9 9 9 0 0 9 9 0 0 0 9 9 9 q q 0 0 0 0 0 9 9 9 0 q 9 9 9 0 9 9 d 9 8 6 9 9 0 9 w v K U +.=.*.%.I k 3 = = = = = = = = * & * = 1 8 7 7 7 7 7 7 7 1 7 8 8 9 9 4 4 9 9 9 9 9 9 9 9 9 9 8 4 3 < < < & & & & * < 8 s I L K K L _ @.$.#.+._ Y L w 0 l s 0 s s x I x s 9 9 9 9 0 0 9 9 9 8 9 0 K F H 0 w w w F F F F F K F w w F K F K l  .&.#.` L G L L L L U U _ _  .U I x 9 1 * < < 1 < 1 1 3 1 1 1 1 6 8 q q q q q 9 9 9 0 0 0 0 d s s s s s s 8 8 8 8 8 8 8 8 s s s s 8 3 8 3 1 1 3 8 8 s s s s s s 9 l _ :.l.#.` P P L L U U K 9 8 9 9 s s s s l s s s s k k e k l l l l l l l l k l l l l l l l d d l l K K K l 0 0 w Y _ _ ` ` _ _ U l 3 < * * 2 2 2 2 * * o o & * ; ; 3 y s g a a a a y y a y y 3 s s u 3 3 u s s s s s s u 3 2 2 2 2 2 - * * 1 3 8 l x I Y U Y ' @.*.$.+.U l l l d s s s s s s 8 9 9 s s d d d s 1 < = 1 1 3 s s s 3 3 s l v l s s s s s s s s s s s s 9 9 0 v v v K L U Y _ W B k s 3 1 2 2 ; ; - - - ; - * o o & * = < 1 1 4 9 k k s 8 8 9 s s s s s 8 8 8 s 0 0 e 0 e e 0 s s s 8 4 3 < < < < 3 9 l U | | ",
"Y Y _ $.4.4.#.` G L L K 0 9 9 0 0 0 0 0 0 9 9 9 0 0 0 9 9 9 q 0 0 0 0 0 0 0 0 0 0 0 9 9 q 0 q 9 d d 9 9 8 9 0 w 0 w T L _ #.*.*.X.U s 3 < < < < = 2 2 = & * = < 7 7 8 8 8 7 1 1 1 7 8 9 9 9 9 9 9 9 8 9 9 9 9 9 s 8 4 3 1 < = * * * = = < 8 l U U L K L _ &.:.:.+.Y L L K l 0 l 0 0 0 s l I x s 8 9 0 s s s d s l 9 6 0 L K 0 q w w w F K K K K K F w F K L K K l  .$.#.P F w w w w L L ` ` U I I  . .Y 0 < $ = 1 < 1 1 3 1 1 = * = 1 8 9 9 9 9 s 9 9 0 d 0 d d s s s s s s s 8 s 8 8 8 8 s s s s 8 1 1 8 8 1 = 8 8 s s s s s 9 8 v  .:.>.#.` L L L L L L U l 9 9 0 d l l l l l l l l s k k e k l l l l l l l l d l l l l l l l l l d l l l l l w 0 0 T Y ` ` _ U  .#.Y 0 < & * < 2 2 2 2 O o o o * ; ; ; ; y u a y a y y y y y s s u s s s s u u u u s s s y 3 2 2 2 2 - < = = 3 s x I Y Y Y _ _ @.5.G.*.Y K 0 l d s s s s s 8 8 8 9 9 s s d d d 8 1 = = 1 3 3 a s s 3 < 8 l I l l s s s 8 s s 8 s s s s s s d l l v v K L L U W W I l 3 1 ; 1 ; - - - - - - * o o & & = ; 1 1 3 4 s s s 8 8 s s s s s 8 8 8 8 0 0 0 9 9 0 0 0 s s s 4 1 < = = < 3 s c |  .Y I ",
"L ` $.6.J.:.` L L L K w 0 v K v 0 9 0 7 9 7 7 7 9 q 9 q 0 0 0 0 9 0 0 0 0 0 0 0 0 0 0 0 0 0 9 9 9 d d d 0 q q 0 0 w K K L _ :.K.@.+.` v 1 , = < < ; = = = = & . * < 3 8 8 4 1 4 1 4 9 u 4 4 4 s 3 1 4 8 s s s s s 3 1 3 3 * o & & = < 8 v I U L v L L _ :.l.:._ _ ` U v l l w k 9 k s 9 l I I l 8 8 0 s s s s s s d d l w w q q 0 w w K K K K F K w K K K K T T L [ :.+.L w v L v v L L L L U U Y L  .+.U 0 1 $ = 1 a 3 * 1 y = ; ; ; = = 1 8 s s s k s s 8 s l s 9 4 4 s s u 4 s u 4 4 u 4 u u 3 3 3 3 1 1 1 1 s s s 9 d d d 7 L [ >.>.$.` L L U U _ _ Y I v l v v l l l d d d s s d d d l d d l l l l l l l l d d d d d d d d d d d l l l K K l w w w K L _ +.` K L &.#.l = = = 2 < - - - - - o o o - ; 3 3 3 3 3 y 3 y 3 3 y s s s s s s s s u y y u s s u 3 o 2 3 2 * * 1 8 l K K T U P Y Y $.3.5.$.Y T d d d s s s s 9 9 8 8 9 s l l l d s 3 1 = = = = 3 s k u u 4 3 3 s Y l l s s s s s 8 s s s 8 0 s s s l l v v l l I Q K Y  .Q l 1 = = < 1 3 2 2 - - - < * o     * 2 3 3 3 3 s s s 0 8 s s s 8 8 8 8 8 0 9 8 8 9 0 l l 8 8 3 3 1 < < = l I U Y Y Y U U ",
"P @.6.K.:.' L K K K l 0 9 w l w 0 0 0 0 9 9 9 9 9 9 9 9 0 0 0 0 9 0 0 0 0 0 0 0 9 9 0 0 0 9 9 9 9 9 9 9 9 9 0 q 0 0 w 0 w L @.4.-.$.' ` K 9 1 $ = = 1 1 ; * & o & * < 3 4 4 4 4 1 4 4 4 3 2 3 4 8 8 s s s s s s f 3 ; 2 = o o * 3 8 l I Y L L w G ` ' #.:.>.#._ _ U L v l e k k 9 k s 8 l I I x s 9 8 8 s s d s s d d d w 0 0 q 0 0 w K K K l l l K K l l K K L L _ $._ v w v v v v v L L L L L Y L Y _ Y U 0 % = * = ; ; a a ; 3 3 1 = = 2 4 s 8 s k k s s s k s 9 4 s s s s 4 s u u u u 4 3 3 y 3 1 ; ; 3 s d x 8 9 l 0 1 9 +.,.,.$.[ _ L U U U U I L v l e 0 l l l d d l d l s s d d d d d d d d l l l l l l d d d l l l l l l l l l l l l l l l w w w v L L L L L _  .U 0 < < = 2 2 2 2 - - * + + * * ; 3 3 3 3 3 3 3 3 3 4 s s s s s s s s s s u u s u 3 2 3 2 ; = = 1 d l I T T T K P ` ' 4.5.4.@.Y I d d s s s s s 9 9 9 8 s s l l l d d 1 1 = = = = 3 s z u u u 3 1 s c l l s s s s s s 8 8 s s s s 9 8 l l l l l l x I U Y Y Y I d 8 3 1 < * - 2 2 2 2 2 < O o o & * ; 3 3 3 8 s s 9 8 s s s s 8 8 8 8 0 9 9 8 8 9 0 s 8 8 8 = * = 9 K I U Y Y Y L L L ",
"#.:.J.:._ K l v 0 0 0 9 9 0 0 0 0 0 0 0 0 0 0 0 9 9 9 9 9 q q q 0 0 0 0 0 0 0 0 0 0 0 0 0 0 0 0 d 9 8 8 9 9 9 9 0 0 w 0 9 w Y @.6.-.' _ _ U 0 = * * = = = = * & . . . * < 4 4 7 4 4 4 3 5 < 3 4 s 9 s s s s s s s - * * & o = 3 d x U Y U L L L _ +.,.,.#.+._ ` U L v w 9 9 0 k 9 k s 9 k x I x l s 8 8 s d d s d d d d 0 0 0 0 0 0 0 w l K K l l K K K l K T U Y ` _ L l 0 l l l l v v K L L L Y L P Y  .+.U 1 1 = 1 1 = 1 8 1 a 3 1 = = < 3 4 8 8 s s k k s s k s s s s s u 4 s s s u u 4 3 3 3 3 1 1 1 3 s l d d d 9 8 0  .*.>.$._ L L L L v I v l l 0 0 9 9 s s s s s d l l l l l l l l l l d d d d l l l d d l l l l l l l K K l l l l l d l l w 0 0 w w w K P P L Y +.Y 9 < = = 2 2 3 2 - - ; * o & * 2 3 1 3 3 3 3 3 4 s s s s s s s s s s s s s s 3 3 2 4 2 * = 3 l W Q Q Y T L P Y @.-.5.4.$._ K d d s s s s s 8 9 9 0 s s s l d l l l 1 = ; 1 1 1 3 s u u u u 3 < 3 l l l d s s s s s 8 8 s l l s 0 8 s s s k l l l l U L U Y Y Y I l 3 < * o 2 3 2 2 2 < * * * * * + ; ; 3 3 s s 9 9 s s 9 9 9 9 9 9 0 0 9 8 8 8 8 8 3 3 1 = = 8 I  .Q  . .Y U L L Y ",
"l.*.+.U 0 9 0 l 9 q 9 9 9 9 9 0 d d d 0 0 0 0 0 9 9 9 9 9 9 9 9 0 0 9 9 9 9 9 9 l d d d 0 d l l d 0 0 0 9 9 9 9 0 w v w 0 w L ` K.$.` L _  .Y x < = & & = = = * & .   X , 4 4 5 9 9 9 4 4 3 4 4 8 9 4 4 3 3 y y 3 - o * = = 4 x I W I I v v _ +.:.>.#.' ` L U ` U L l e 9 9 0 0 9 0 s 9 s x I x x l s 9 s s d s d d d d 0 0 0 0 0 0 0 w w w w w l K K K K K T _ _ _ U v l s l d l l l l v K L U Y L P L Y &. .0 1 9 I x = & 1 s 3 4 4 3 3 3 3 3 4 3 3 4 s k s s k k s s s s u 4 s s s s u 4 3 1 = < 3 s s s d l 9 l d 9 K #.*.+._ ` L L L L v l d l 0 0 0 0 0 0 8 9 9 9 s d l l l l l l l l l l d d l l l l d d l l l l l l K K I I K l l l l l l l w w w w w w F P Y L L +. .I 8 3 = = 2 3 y 3 3 - - + o * = 2 1 3 3 3 3 y s s s s s s s s s s s s s s s u 3 1 * * 1 s I Q Q Q Y T L P ' @.-.4.-.$.+.U l d s a s s u 4 4 4 k k l l l s d l l l 1 = = = = ; 3 u u y y u 1 * < s l l d s s s s s s s l l v l l s s 0 8 9 s l l l L T L Y _  .Y I l 8 < * * 2 2 < < < 2 2 2 = * * ; ; 1 3 s s 9 9 8 8 9 9 9 9 9 9 0 0 9 8 8 4 3 3 3 < < 8 l Y Y U  . .Y T T L _ @.",
"g. .l 9 9 0 0 0 0 9 9 0 0 0 0 0 0 0 0 0 d d d 9 9 9 9 9 9 9 9 9 9 9 9 9 9 9 9 9 d 0 9 9 9 9 0 0 d l K K 0 q 9 9 9 0 0 0 0 v U  .>.[ L F L Y  .X.I s < & = = ; = < = . X $ 1 8 1 8 9 9 s s s s s 8 8 4 4 3 3 3 3 ; * * ; 1 1 s I W W Y v v L #.>.>.#._ L L L L L U I v k 0 0 0 0 0 s s 9 s l c c x x l d s 8 s d s s d 0 0 0 0 0 0 0 0 0 w w w w 0 w K K K L Y  . .Y x l d d d d d d d l v v L U P P Y L L +.+.U = 0  .&.l = < 3 3 4 s k s 8 3 < 3 1 < 1 4 s s s s s f f f s s s s s s s 3 3 1 3 = 3 s l x v l l l 8 l +.*.#. ._ w G L U L v l s 0 s d d d d 0 0 8 8 8 8 9 d l l l l l l w w w w d l l l l d d d l l l l l K K K l l l l K K K I l l l l l 0 w 0 L P Y P U Y  . .I l 4 < * < 2 3 ; ; - - * * * * 1 1 3 3 y u s s s s s s s s s s s s s s 4 3 < = * 3 k I  . . .Y T L T Y $.4.4.-.@.+.Y I l s s s s s s s s k k v x l k k k l x c u 1 ; * * * 2 y 2 2 3 3 = $ = 9 x l d s s s s s s s k l l l l l l k 9 8 0 s l l v K L Y Y Y Y Y I x k 3 < * * < 2 2 3 3 3 ; * o * ; 1 3 8 8 9 9 8 8 8 8 8 8 8 9 9 9 9 8 8 3 3 1 8 1 8 v  . .Y L _ Y T L L ` #.-.",
" .I 9 9 l K d 8 0 9 9 0 0 0 0 0 9 9 9 9 9 9 9 9 0 0 0 9 9 9 9 9 9 9 9 q 9 9 9 9 q q 8 6 8 6 8 6 9 0 K K K l 0 0 9 9 7 7 0 L +.$.#._ L K v K Y  .X.Q l 8 1 = ; = 1 2 &   . 1 4 4 4 4 9 9 s s s s s 9 9 4 3 3 3 3 = & * 2 1 1 s c I I I v v U  .:.+._ L L ` U L v Y U c l l 0 0 0 0 s s 0 s l x I v I I l s 8 s d s s d d d d 0 0 0 0 0 0 w w w w 0 0 w K L P Y _ Q I l d l d d l d d d d v v L U P P ` P F Y #.#.1 1 I g.&.I s < < 3 s s s s 3 = 1 < = < 3 4 s s s s f f f s s s 3 3 y 3 1 < 1 3 l l l l s 9 0 9 l U +.&.#._ Y L L L U I v d s d s d l l l d 0 8 8 8 8 8 9 s l l l l l w w w w w l l l l l l l d l l l l l l l l l l l l K I I U K K K l l 0 0 0 P L P ` Y L U  . . .x 9 < * * < ; - 3 ; * o o * 1 3 3 3 y u s s s s s s s s s s s s s 3 1 = = < k v Y  . ._ Y _ Y P Y @.4.K.-.#._ _ Y U c d s k l k k k k z x v x l l k l x B V s 3 ; * * * 2 3 2 2 3 3 = $ < d I x l s s s s s s 0 9 9 0 s l l x x l s 8 8 0 0 w K L P L L I U Y Y I l 4 2 < < 4 4 u 3 3 ; o o * ; 1 1 3 3 9 9 8 8 8 8 8 8 8 9 9 9 8 8 4 3 3 3 9 l I Y U U Y _ _ P P Y _ @.$.-.",
"l d 9 0 l l 0 9 0 9 9 0 0 7 q 0 9 9 9 9 9 9 9 9 0 0 0 q 9 9 9 9 9 9 9 9 9 9 9 9 9 9 8 6 8 6 6 1 6 6 7 0 K U L K l 0 0 l U  .&.$.+._ Y K l l v I X.X.X.I 8 = = ; = 1 =   . 1 8 8 8 4 4 8 s s s 9 9 9 9 s s u y 3 * o & 2 1 < s c x l v l v L _ #.O.` L U _ U L L I I x l l k s s 0 0 s 0 s s x I l x I I l s d d s s d d d d d d 0 0 0 0 w w w F F w F L P ` ` Y U l d d l d d l d d d l l v U U Y P ` P F P $.4.q % 1 _ &.X.I 8 3 1 1 1 3 3 1 = = ; 1 3 3 3 8 s y u s f s s s s y y 3 1 = < 3 s W U I v l l l v _ &.$.Y L _ _ L L U U v l s s d s d l l l s 9 8 8 9 8 8 9 s d l 0 0 w w w w w w l l l l K l l l l l l l l l l l l l l l v v I I I I K v v v v v ` L L Y U L L L O.O. .U k 3 < = ; - 3 ; * o * * 3 3 3 3 3 u s s s s s s s s u u s 3 1 = * < 4 k U _  . ._ _ _ ' Y ' $.4.K.4.@.` U U Y Y x s g B x z z k z z z z z k k k z x V W x s 3 2 2 - - 2 2 2 3 3 = = 8 I U I l 0 s s s s s s 9 8 8 9 0 s l v v l s 8 8 0 w G L P L L L I U U U U v k 9 4 4 4 3 3 2 * o o * ; 1 1 1 3 8 9 8 8 8 8 8 9 s s 9 8 8 4 3 3 8 8 v U  ._ U L ` +._ Y ` ' $.$.@.' ",
"9 9 9 9 9 q 0 w 0 7 7 7 q 7 7 q 9 9 9 9 0 0 0 0 0 0 0 0 9 9 9 9 9 9 9 9 0 0 0 0 0 0 0 0 9 9 7 6 1 % % 6 L _ Y L U T U  .&.*.&.+.+._ Y K 0 0 l v I X.f.X.s = = 3 = 1 =   . < 9 9 0 9 8 4 8 s s s 9 9 9 9 s 4 3 3 * o o = < 1 s W x l l l v U +.:.#._ U L U L L U c c x x l l k s 0 0 0 s s s x I l l l I x x d 9 s d d d d d d 0 0 w 0 0 w w w F L L L P _ ' ` Y v 0 0 l l d d l d d 0 w w v L L ` P P P F L -._.L % % w _  . .U 9 1 = $ & = = = & 2 3 4 4 4 4 8 3 y s f s s s s s s 3 1 = 1 s l I U Y  . .#.&.:.I.#.L F L Y _ ' L L K v l d s s s s s s d s s s s s s 9 9 0 d l 0 0 e e w w w w l l K K K K l l l l l l l d l l l l l l l l v v I I I I I U Y Y ` L L L U U v e _  .&.O.U s 1 < ; ; - ; o o * ; 3 3 3 3 3 u s s s s s s s y 3 3 3 1 * . * 3 x  ._ _ _ _ _ ` ' ' ' $.G.K.K.$.' P I I I I l s s B f k k k k k k k k k k k x c V W B f u y y 2 - - t 2 3 3 ; = s W Y I l l s s s s k s s s 8 8 8 8 8 s v l l 9 9 0 w G L Y Y L L L L I U Y | Y l s 3 2 2 2 ; * * * * ; 1 1 1 3 8 8 8 9 9 9 0 s s s 9 8 4 3 3 8 8 8 Y _ _ _ _ _ _ _ _ ` ' $.4.-.' L ",
"9 0 0 0 9 q 0 w w q q q q q 7 7 7 0 0 q 7 7 0 w 0 0 0 w 0 0 7 7 0 q 9 q 9 9 0 0 0 0 0 0 0 0 0 7 7 7 7 6 6 0 Y &.+. . .#.&.+. . .Y Y Y L w 0 0 l l x X.f.W = & 1 ; 3 = X   3 s 8 8 8 0 0 8 8 8 8 s e k 9 4 3 4 s 3     2 < < s x l x I l v Y #.:.#. .U L L I I I  .I s s l I x s s s s l l l I  .l s l W W U I l d 0 9 9 0 d 0 0 0 q w w w F G L ` ` ` @.$.@.` F w w w w 0 0 l v 0 w w w w w G L L L L K F ` >./.>., , % L Y W  .Y 7 $ * < = = 1 & & 3 s 4 1 4 9 s s s s s s g l s 3 3 3 1 = 1 s k 8 0 v  .z.|.). .L w w w ` [ _ U K l 0 9 9 s s d d d d d d 0 0 8 8 8 8 8 0 l w 0 0 9 w w v v v 0 d l l l l l l l l 0 0 0 0 0 0 d 0 0 0 s 0 s s l l l x I I I I U U U L L I v w l U &.k.Y k 4 = 1 3 ; * o o * 3 3 3 3 u s s s s k k s s 3 3 1 2 1 * . < k _ O.O.O. . .+.' ` ' @.4.5.H.K.G.@.Y U U I c x l s s s k k k z k k k z x x k k x V W | B k u 2 2 2 2 2 2 t 3 * & 3 x  .Y K 0 0 l 0 s l s s s s 0 0 0 8 8 8 9 s s s s 9 w F L Y Y L K w L L U Y I Y I 8 < < 2 2 ; * o o * ; 1 1 < < 1 8 9 9 9 9 9 9 8 8 8 0 8 3 8 4 3 s  ._  .O.+.O._ _ _ #.4.4.$.' L q ",
"1 6 6 7 7 7 q 0 w w w w G G G G w w w 0 q q q w w w w w w w w w w w w w w w w w F F F K L L L L K K l 0 7 7 0 w U K l l l 0 7 6 6 9 0 w 0 0 0 0 8 0 W f.Q 1 & 1 * 3 ;     3 s 8 8 8 0 0 0 9 s 9 4 9 k k s s s s 3 o & 1 < < 4 k l I v l v Y #.:.#._ U U Y  . . .I l 3 3 s c I x l s s l l v Y X.Q s d  .&. .U l K l 0 0 0 0 0 0 w q q q w G P ` ' +.$.-.$.' L w q w w w w w 0 e w v v L L L L L Y Y Y ' $.4.6.6.J.7 , % 0 I Y &. .9 $ < < = = 1 2 * 1 8 1 < 1 4 s s s s l l l l s 8 1 3 1 = 1 s l 9 9 0 w _ &.#.L v K L K ` ' P L K l 0 s s d d l l l l d 0 0 0 v l l l l l w w 0 0 9 0 w v v w K l 0 0 l l l 0 0 0 0 0 0 l l l l l l l l 0 s 0 s d d l l l l l w w v l v L v l e v  .&. .v 9 < 1 3 ; * o o * 3 3 3 3 u s s s s k k s s u 3 3 3 3 = * 3 x  .&.&.&.&.#.#.$.@.$.3.4.H.K.K.$.Y L L U c x k k k l x k k k z x x x x k k k k k x V V k s 3 - * - - ; - 2 3 = 1 d Q %. .I l 0 0 9 8 8 s s s 9 8 8 8 3 8 8 8 8 8 8 9 0 w w L L L K w 0 w w L U U _ I 3 < < 2 2 ; * o o * = 1 1 1 1 8 9 9 9 9 9 9 9 9 9 3 8 3 < 3 3 1 8 #.+.+.+.+.+.+.+.:.-.-.$.@.P w 7 ",
"K L L L L L L L L L L L P ` P L w w w w w w q q 7 q q 0 0 w w w w w w w w F K K L L L L L Y _  .+. . .Y K w 9 6 7 6 , 1 1 % % % % = 1 6 7 7 9 w 8 0 I X.W 3 & ; * 1 ;   & 1 9 8 9 8 8 9 9 0 8 8 9 9 9 9 4 4 s s 1   & 3 3 3 s x l l l 0 w U #.&.#. .I L U Y U I s 3 = = 8 l W W c x l l k l I  .%.8 1 Q k.k.&._ U K K 0 w K K K K F F L ` [ @.@.@.-.5.5.$.` L w w w G L L U _ _  . .#.#.#.#.#.+.#.=.$.$.@.$.6././.P , % 1 v I &.&.l < < 3 < = 1 = & 3 k 0 9 e e 0 s s l x x x x l s 3 3 < = 1 s s 9 9 9 8 v  . .w w K L L _ ' Y l l l d d d d l l l l d d 0 d 0 w w l w w w 0 0 0 l v I Y U K l U T K K K K K K l l l l l l l l l l l l l l s s s l l l l s s s e w l w l l w 0 0 l Y  . .I k < 2 3 - - o o * 1 3 3 3 y s s s s k k k s s y y y 3 * & 1 l _  . . . .+.#.*.$.4.5.3.K./.4._ U U Y I x x l s s k l s k l l l l k k k l c x x x c c W c s 3 = & & * + 2 3 2 s W %.%. .U l l l 0 9 0 s s 0 9 8 8 8 8 4 3 3 1 3 8 9 0 L L Y Y Y L K v w 0 l K U  .U 8 < < 2 2 ; * o o * ; 3 3 3 3 9 s 0 9 9 9 0 0 0 0 8 s 3 < 3 1 3 0  ._ _  .+.#.#.$.J.:.@.$.#._ L L ",
"$.$.$.$.#.#.@.#.:.$.$.@.#.@.+.' _ _ Y ` _ _ Y L K K L T Y Y Y Y Y Y Y ` _ _ _ +._ _ ` ` Y _ _  . . ._ Y U l 9 1 % % % % % % , , % % % % % 6 w v v l x W I 3 * = ; 3 ;     < s s 0 8 8 8 8 8 8 8 l e 9 8 4 s k x =   & 1 1 3 s x x I v l v _ &.k.:.&. ._  . .I l 3 < = = 1 s l I W I I c x I W X.g.s = d  .l.I.J.:.$.@.' _ _ ' +.' ' $.4.K.K.5.-.:.6.K.K.-.@.[ [ [ [ [ [ +.#.&.:.&.&.#.&.&.#.+. .*.*.*.#._ [ 4./.OX$., % % 0 0 Y O.l < < 1 1 < 1 = . 3 c U l w w e e l v c I U I l s 3 3 < = 1 8 8 8 0 0 9 I &.:.L w v K L _ @._ w l l l l l l x l l l l l l l l L v v v v v v v l I  .#.+.Y I l U Y +.+.Y K K K K K l l l l l l l l l l l l s s l l l l l s s s l l l l l 0 0 8 0 k Y &. .U 0 = 2 3 - - o o * 1 3 3 3 3 u s s s s k s s s y y y 3 * . < e L L v U U Y +.*.4.3.5.5./.K.+.l l I I s s l l l s s 0 l l l l l k s k l x W U c c W W | Q I s 3 = * & o - 3 1 s X.&. . .Y K K K l 0 9 8 8 8 8 8 8 0 0 4 3 8 8 0 l v v Y _ _ _ _ _ Y Y U l 0 0 l Y Y d < < 2 2 ; * o o ; 1 3 3 3 8 9 0 9 9 9 9 9 9 9 9 8 s 3 < 1 1 1 0 U L U ` _ #.:.>.J.+.` @.$.$.+.@.",
"&.&.&.#.#.+.+.+.=.&.+.+. .Y U K U U T U Y Y U K l K T T Y U U K K K K K U U U T  . . .Q Y Y Y Y Q Q Y Q Q U K 0 1 1 1 1 6 6 6 7 1 1 % % , 6 w v v l x W I 3 * * ; 3 ; o & 3 l I l l k 0 e k s k 8 4 4 4 s s k l 2 . $ = * < s l l l l l v  .&.:.&.#. . . .I s 3 < 1 ; = = 1 8 s c c I W  . .&.l.I.Q 8 < 0 &.).'.oX'.K.4.-.$.$.$.$.$.-.4.5.4.$.' @.@.@.[ [ $.$.-.>.-.>.6.J.J.).).J.l.k.&.&.&.&.&.+.Y U Y $.G.6.>.OXK.1 % $ 8 1 s W s = = 2 3 2 3 2 . 1 c ` L v w L L v L U U U U I l 8 3 < = 1 8 4 8 s 0 8 v %.&.U v l K U +.#._ v v v v x x x x x x x v v v v v L v v v v L L U  .#.&.&.I l 9 0 l U +.&.#._ U K L K l w w w v v s k l l l l l s s s s s s s s s s s s l l k s l 8 l  .;. .U 0 = ; - - - o o * 2 3 3 3 3 u s s k s s s s s y y y y = & 1 k U L v L L Y @.4.H.K.K.K.U.4.K 6 q s 9 8 8 9 s d d d s l l d l d l l l x I I U I I W  .W W W x s < = & o - 2 1 g Q  .I Y U T L L v 0 0 s s s s s s l l l l v c I Y W Y Y Y _ _  . . . . .U K l I  .Q d < < 2 < ; * + o * ; ; 1 3 8 s d 9 9 9 9 0 0 0 0 s s 1 = 1 1 1 8 Y ` U ` _ +.$.:.l.` K _ $.$.#.#.",
"%. .Q U K l l 0 d 9 9 8 8 6 = = 1 1 1 1 8 8 8 1 8 8 9 0 9 9 8 1 1 1 1 1 1 1 6 6 9 0 d d d d 9 9 d d d l U Q  .Y _  ._ U K K F w l l l 0 0 0 9 8 8 9 v W W s * * ; 3 ; & & 3 x W U U I v v v I U c v I U I x k s =   * < < 4 x W I Y Y U _ &.:.:.&.#. .Y x s < $ 1 1 3 1 1 = < 1 1 3 s x Y  .X.f.j. .s % 1  .).oXOX{.{./.K.K.K.K._.K.5.4.4.-.$.[ $.[ ' ' $.-.4.6.J.J._._._.J.k.&.I l d s 9 s s s K d d K _ -.K.K.'.K.9 % $ < = 1 l 3 = = 2 2 2 3 2 X * v _ ' #.#._ ` ` L L L v v U c s 3 < = 1 3 3 4 s s 8 v  .&.U K U _ _ #.#.L v v v v v l l l x v v v v v v v w w v L _ O.&.:.I.J.&.Y 8 < 1 8 9 9 0 Y $.G.:.#.+. .Y L K w w w l l l l k k k k s s s s l l l s s s s s s 0 s l 8 x &.l.&.Y l 1 ; - - - o o * 2 3 1 3 3 y s s l s s s s s 3 y y 3 = . < l ` ` L U L Y $.K.K.K.K.H.H.=.T 0 d d d I x l d d l l l l l l l l v c I Y Y Y |  . . . . . .W c s < $   o * ; 3 l W U K K K T Y  . .Y U I I I c x x v v v x x I I I x v K L U Y Y Y Y Y +. . .+.%.&.+.l = < 2 < ; * + o ; 3 3 a s l x I v v v v c v x x l l s < 1 3 3 s  ._ _ ` ` _ +.#.#.L 0 U &.*.*.=.",
"Q U l 9 8 8 1 = 3 1 ; 1 1 3 ; = = ; ; ; ; ; 1 1 s s s a 8 3 ; = = = = = = = ; ; * * * * * = = * $ % $ % 1 9 w K +.&.#.+.` ` ` Y _ Y Y U K w 9 7 1 1 0 v l 3 * * - ; ; & & < s l I U Y I v I W  .O.O. . . .I k s &   * 1 < 8 I |  . . . . .&.&.&.#. . .I l 8 1 = 1 1 1 1 1 1 1 = $ = < 8 8 0 l I x s 3 % % v -.6._._./././././.`././.K.5.6.4.6.6.4.>.-.-.4.J.K._._.J.>.#._ v 8 < 8 8 3 3 3 1 8 8 8 0 d 0 9 F @.J.K.).L % 1 $ < 1 3 1 < 2 1 2 2 3 = X , ` ;.>.>.>.$.[ _ ` ` L L L  .Y l 8 < = 1 3 3 4 k k 8 x  .&.U U +.&.&.&.&._ _ _ Y U I I I I I I I I U U U U ' +.,.>.J.I.).).I.:. .0 = = 3 s 6 , , 9 U &.l.G.G.G.:.&. .U K v x v l l 0 0 s s s s s l l l s s l s s d s 8 s l x W f.c.&.U l 1 ; - - - o o * ; 1 1 1 3 3 s s l k k s s s y y y 3 &   = e ` ` L Y U Y @.H.K.5.4.5.4.=.+.U I I I I I U Y Y Y Y U Y Y Y  .Y Y Y U Y Y Y _  . .Y I I I l s 8 < $   o o - s x I I K l K U +.&.+. .Y c x x v l l l l 0 8 9 8 8 8 8 8 0 0 l l l K K K U U Q +.+.=.Q d = < < < ; * + o y y a s d l x x v v L U U I x x x x s 1 3 3 a l I L L v L U _  . .K 9 w  .*.*.&.",
"s 3 = = = ; 1 3 ; ; ; ; ; 3 ; ; ; ; 3 ; ; = ; 3 s s y ; - * * * * * * * * * * ; ; ; * * * * * - = = * $ % = 1 6 d T U U U Y ` Y L K v l l l w w 7 1 3 8 3 = = 3 - ; - &     = 1 l x I v l l U  .k 9 3 1 < = * $ &   & < $ = 4 8 < 3 3 3 6 8 8 1 1 1 1 1 % * = 1 = ; ; ; 1 1 1 1 1 < 1 1 < = < 3 1 * = = $ , w L ` _ ' [ ` ` P P L L ` ` ` ` ` _ _ _ _ _ ' ' _ _ e 7 , , , 1 3 3 = 1 3 3 3 3 3 a = 6 9 9 9 9 w v :.). .% 8   3 3 < 2 1 1 1 2 2 3 = X 1 O.z.>.,.#.>.:.$.+.' O.O.O. .Q x 8 < = 1 3 s s l k 8 l Y Y Y  .k.l.&.&.l.;.k.*.&.&.%. . . .Y Q  . .&.&.:.k.l.J.J.I.J.l.:.&. .U 9 < = 1 8 s 9 8 1 % $ 1 U *.J.J.J.J.l.$.+. .U I v l 0 0 0 s 8 s s s s s 8 8 s 8 s s l l x W X.X.l.c.%.U d < ; - - ; + o * ; 1 1 1 1 3 s s l l l l s s u y y y = . < e ` ` L _ T Y =.J.J.4.*.G.G.*.=.W d a a 1 0 U &.k.l.l.:.G.G.G.G.l.*.+. .I v v I Y I d 8 1 < = = = = = & o o * s I I I U U U Y +.+.U 0 8 3 3 3 3 3 3 3 3 3 1 < < < < < 1 1 1 1 8 8 8 8 8 8 8 d l l I I 3 = * = = ; * o o 3 3 3 3 3 8 8 8 0 0 l l l l s s l d 3 = = ; 1 s 8 1 7 9 l L _  . .K 9 6 K  . .U ",
"; ; ; ; ; ; ; - - - ; ; ; - ; ; ; = ; = 3 3 s s ; = ; = = = = = * - - - ; ; ; ; - - - - - - - - - - - = ; = = = = 1 8 l x I I I U v l e 9 8 7 4 1 1 < < ; ; 2 2 3 2 * * & o     * s s 3 1 s W W $ $ $ * & * & * * * * = * * * * * * = = = = = = = < = < = = = = 1 3 3 1 1 1 1 1 1 1 1 < < < < 1 * ; ; &   * 1 8 1 1 1 1 1 1 , , 1 1 1 1 1 1 7 7 1 1 1 1 1 1 1 1 < < < 1 1 3 1 1 1 2 1 1 3 1 1 1 1 < = < 1 8 s l I X.X.l = = 1 1 1 1 1 1 1 3 3 3 1 & 1 Q f.&.X.&.&.&.&.&.&. . .Q s 8 3 < = = 1 3 8 9 k k k l I | |  . . .&.&.&.&. . . . . . . . .Q  . .+.%.&.&.&.&.&.&.&.X.| W c 8 3 = < 3 s s s s s 8 1 = = = 1 U #.I.).K.4.:.$.+. . .Y I v l l l l d d s s s s s d l l x U Q  .&.&.k.k.&.I 0 3 - - - - o o * ; 1 1 3 3 3 s k l l e l l k 4 3 3 3 2 . < v ` ` `  . . . . .Y  .&.&. .I s =   & = $ % w &.l.>.J.J.J.l.&. . . .Y U d s s 8 8 3 3 < 1 3 1 = = ; = & & X = x W Y I v Y  .&. .l 3 < < < < < < ; 1 1 1 1 1 2 2 2 2 1 1 1 1 3 3 3 3 1 1 3 3 3 3 3 3 3 3 3 3 3 1 1 ; ; ; ; 1 1 1 1 1 < 1 = < < < 1 1 1 1 1 1 ; 1 1 1 1 1 = < < 3 3 s s s d d 8 = = 8 8 1 ",
"- ; ; ; - - - - - - ; ; ; - - 2 2 < 1 1 3 3 3 3 1 1 < < < < = = * ; ; ; ; ; ; ; - ; ; ; ; ; ; - ; ; - - - - = = = = 1 3 s s l l k e 9 4 1 < < < < 1 2 2 3 3 3 2 u 1 = = * o o o   - ; o & s s 4 * * * * * * * * * * * = * * * * < < < 2 2 2 < < < < 1 1 2 2 1 1 1 3 3 1 1 1 1 1 1 1 1 1 1 1 1 1 * ; * & & * 1 3 1 1 1 1 1 1 1 1 1 3 1 1 1 1 1 1 < < < 1 < < < < 1 1 1 1 1 1 1 1 2 1 1 1 1 1 1 2 1 1 1 1 1 3 8 s d Q X.x 1 * = 1 1 1 1 1 1 1 1 1 = & = s c l s l 8 8 8 8 8 8 3 1 8 8 3 < < < < < < 3 4 8 9 s l c 9 9 9 9 9 9 8 8 8 9 9 9 d d d d d d d d d d d s s s s s s s 3 3 3 1 = < 3 s s g g g d a 8 3 1 1 1 l &.J.K.J.G.l.&.&.&. . . .Q Y Q  . . .Q Y Y Y  . . . .%.&.&.k.k.k.L.L.k.W 0 1 - 2 - - o o * ; 1 3 s s s l I | ` L U U x s 3 3 3 =   < I _ ` Y Y U W W I x I W c s 3 = &   . = 1 $ 7  .l.J.J.>. ._ L l 0 9 8 8 8 8 8 3 3 < < < 1 1 1 ; ; ; ; * =   < x I I U U  .| I s 3 < = 1 < < < < ; 1 1 1 3 3 3 3 3 3 3 3 3 3 3 y y 3 3 3 3 3 3 3 3 3 3 3 3 3 3 1 1 ; ; ; 1 1 1 3 1 1 1 1 1 1 1 1 1 1 1 3 1 1 ; ; 1 1 1 1 ; ; = ; 1 3 s s s s 3 & $ < < = ",
"- - 3 3 3 - - ; - - ; ; ; - - ; 2 1 3 3 3 3 1 ; 1 1 2 2 2 2 2 2 ; - - - - - - - - - ; ; ; ; ; ; - - - - - - * * = = * = = 1 3 8 3 1 < < = = = = = 2 2 3 3 3 y 3 u 3 1 1 ; & o o   o     = s 3 & & * * * * = = = * * = = * = * * 1 1 1 1 1 1 1 1 1 1 1 1 1 1 1 1 1 1 1 1 1 1 1 1 3 3 3 3 3 1 < 2 ; - * o & = 1 1 < < 1 3 7 8 8 8 4 4 4 4 4 3 3 3 < < 1 3 3 3 3 3 3 3 1 1 1 1 1 1 1 1 1 1 1 1 1 1 3 1 1 1 1 1 1 1 3 l W c 8 = = = 1 1 1 1 1 1 1 1 1 1 = 1 1 1 = 1 3 3 3 3 3 3 1 1 3 3 3 3 1 < = = * < 3 3 3 3 8 s 3 1 < < = * * & = = = = = = = < = = = = = = = = = = = 2 2 2 = = 1 ; = 2 3 s s s g g s s s a 1 =   % 1 9 w v v L I I I I I I x x c c I I I I I I W W | | W  . .X.X.&.&.f.X.l 3 = - - - - + o * ; 1 y s s s k I  . . . . .W k 3 3 3 =   3 U  .U U l l l l s s s l 8 < & $ & & * = 1 % 1  .J.J.&.Y w 9 7 1 1 3 3 3 3 3 3 3 3 3 1 1 < 1 1 ; ; 1 ; * &   1 c I I Y  .Y l 3 = = = 1 1 < < < < ; 1 1 1 3 3 3 3 3 3 t 2 3 3 y y y y y y 3 3 3 3 3 3 3 3 3 3 1 1 1 1 ; ; 3 3 3 3 1 1 1 ; 3 1 1 1 1 1 1 1 1 ; ; ; 1 1 1 1 ; ; * * = 1 3 s 3 s 3 = & & = = ",
"; 3 3 3 3 3 - ; - - ; ; ; - - ; 2 1 3 3 3 1 = * 2 2 2 = = = = = ; - - - - - - * - - * * * * - - - - - - - - * * 2 = * * = = 1 1 < < = = = = = = = = 2 3 3 3 y 3 3 1 1 1 ; o o o o o   * 3 s 3 . * * * * * = = = * * = = * * * * 1 1 1 1 1 < < < 1 1 1 1 1 1 1 1 1 1 1 1 1 1 1 1 3 3 3 3 3 1 < = ; - & o & ; < = 1 3 3 8 8 9 9 8 s s s s s s 9 9 4 4 4 8 8 8 4 4 3 3 3 1 1 1 1 1 1 1 1 1 1 1 1 1 1 1 1 1 1 ; = = 1 3 d c s 3 = * 1 1 1 1 3 1 1 1 1 3 3 1 = 1 1 1 < < < < < 3 3 3 3 3 3 3 3 < < = = < 1 < = = = < 3 1 < < < < 1 < 1 < = < = = = = = = = < = < < 1 3 1 1 1 2 2 2 1 = = = 2 1 3 y 3 s a 3 y a 3 ; & < = % $ $ $ $ < 1 < < 1 3 1 1 < 3 1 3 3 3 3 3 3 3 3 4 4 8 8 s s x l s s 8 < = = ; - - - * + * * = 1 3 3 3 3 s k l v c c l s 3 3 1 * o 3 U  .v v 9 s s s s s s d 1 = & & * & = < < $ 8 +.k.&.U 7 7 1 1 3 8 8 8 8 3 3 3 3 3 3 3 3 = 1 1 = ; 3 1 =   X 1 W W I U Y 8 1 = = = 1 1 = 1 < < < ; 1 1 1 3 3 3 3 3 3 2 2 3 3 3 3 y y y y 3 3 3 3 3 3 3 3 3 3 1 1 1 1 1 1 3 3 3 1 1 1 ; ; 1 1 1 1 1 1 1 1 ; ; ; ; ; ; ; ; ; - - * * = 1 1 3 s s 1 & & = < ",
"- 3 3 y 3 3 - ; - - ; ; ; - - 2 2 2 1 1 2 2 = = = = = * * * * * ; - - - - - - * - * * & * * * * - - - - - 2 - - 2 2 - ; ; ; ; ; = = = = = = = = = = 2 3 3 y y y 2 1 3 3 3 o         o ; 3 3 < . * * * * * * * * * * * * = = * * 1 1 1 1 1 < < < 1 1 1 1 1 1 1 1 1 1 1 1 1 1 1 1 3 3 3 3 3 1 = * ; * o o * ; ; = 3 3 8 8 0 0 8 8 8 8 8 8 s s 8 8 s s s s s 9 8 4 3 3 3 3 1 1 1 1 1 1 1 1 1 1 1 1 1 1 1 1 1 1 = = = = 3 d l s 1 & 1 1 1 1 3 1 1 1 = 1 3 1 = 1 1 1 < < < < < 1 3 3 3 3 3 3 3 3 3 3 < 1 1 < ; = * * = = = = = < 2 1 1 < 1 < ; = ; = = = = < 1 1 1 1 1 2 2 = = * = = = = = = 2 2 2 ; 3 ; = - ; 2 = & = < 1 3 3 3 = $ * * = < < < < < = < = < < < < < = = = < = < 1 3 4 < = < = * = 1 ; ; - - * * * * = = * * = < < < < 1 3 3 1 1 2 ; 3 ; & 3 c I k 0 9 s s s s s s s = = = = &   & = = $ s  .Q v 0 1 0 8 8 3 3 1 1 1 1 1 1 1 1 < < < = 1 1 ; ; 3 1 =   X 3 W  .I l s = = = < 1 1 1 ; 1 1 ; ; ; 1 3 3 3 3 2 2 2 2 2 2 - - 2 2 2 3 3 y 2 2 2 2 2 2 2 2 3 3 3 3 3 3 3 3 3 3 3 3 2 2 ; ; ; ; ; 2 2 3 3 3 2 2 ; 2 ; ; ; ; - - - - ; ; ; ; 3 u s 1 &   * 2 ",
"- - 3 3 3 ; - ; - - ; ; ; - - 2 2 2 = = = = 2 2 = = * * * * * * ; - - - - - - - - - * * - - - - - - - - 2 2 - - - - - - - ; ; - - - ; ; ; = ; ; = 2 2 3 3 3 y 3 1 3 3 s 3 o o o X   o 2 1 = & o * * * * * * * * * * * * = = ; * 2 < 1 1 1 3 3 1 1 1 1 1 1 1 1 1 1 1 1 1 1 1 1 1 3 3 3 3 1 < = * ; &   & * = ; 1 3 3 8 s s 0 8 8 4 4 4 8 8 s s 8 8 8 8 4 4 4 3 3 3 3 3 3 3 1 1 1 1 1 1 1 1 1 1 1 1 1 1 1 1 1 1 1 1 = 1 8 s d 3 = = 1 1 3 3 3 3 3 = 1 3 1 1 1 1 1 3 3 3 3 3 3 8 8 3 3 3 3 1 3 3 3 1 1 1 2 2 2 2 2 2 = = = = = < < = = ; = ; 2 3 1 ; = ; = ; = ; = = = = = = = ; ; 2 2 2 2 = = * * ; = * & * ; ; * * & * = 2 2 = = 1 < 1 2 1 2 1 2 < < 1 < 1 < 2 < 1 3 3 2 2 < = < 2 * = < 2 * = 2 ; ; - - - - * * = * & & = 1 < < = < < = * ; 3 3 3 - - 3 x x 8 8 s d s 8 8 8 8 3 = = 2 2 &   & 2 = = 9 l 9 3 9 9 8 3 1 1 1 1 1 1 3 3 3 3 1 < 1 1 = 1 1 ; ; 3 1 = &   3 W W l 3 = 1 < 1 < 1 = ; 1 1 1 ; ; ; 1 3 3 3 3 2 2 2 2 2 2 - - 2 2 2 2 2 2 2 2 2 2 - - 2 2 3 3 3 3 3 3 3 3 3 3 3 3 2 2 2 ; ; ; ; 2 3 3 3 3 2 2 2 ; ; ; ; ; - - - - - ; - - 3 y s 3 * & - 1 ",
"- - - - - - - - - - ; ; ; - - 2 ; = = = = = = ; = = = * * * * * - ; ; ; ; ; ; ; ; - - - - ; ; - - + + + 2 2 - - - - 2 2 - - - - - - ; - - 2 - ; 3 3 1 1 3 3 3 3 3 3 3 3 ; o o o     * 1 1 & $ * * * * * * * o o * * - - ; ; ; ; = = ; 2 1 1 1 1 1 1 1 1 1 1 1 1 3 3 3 3 3 3 3 1 1 1 1 1 2 = < = * o   & * = ; 1 3 3 8 s s s s 8 s s s s s s s s 3 3 3 3 3 3 3 3 3 3 3 3 3 1 1 1 2 1 1 1 1 1 1 2 1 1 1 1 1 1 1 1 1 1 1 1 s d s 1 = = 1 3 8 8 3 3 3 1 1 3 3 1 1 1 < < = = < 1 1 1 1 1 1 1 1 1 3 3 1 3 2 ; 2 2 1 2 2 3 3 3 3 2 2 2 * * - - - - 2 2 ; ; ; - - * - * 2 2 2 1 1 3 1 1 2 1 1 1 2 = = = - - * * + * * - 2 2 * + * * 2 3 2 2 2 2 2 2 2 2 2 < 2 2 ; < ; < 2 2 3 2 - * - * - * - 2 2 * * - - ; ; ; ; ; ; * = * = = < 1 1 < < 3 3 = = 3 y 3 3 3 2 3 k k 8 s s d s 8 8 8 3 1 2 = ; 2 = & o = = = 3 s 3 3 9 9 3 1 1 1 8 a a 8 3 3 3 3 3 3 1 1 = 1 1 ; ; 3 1 = = & 1 l d 3 1 = 1 < < < ; ; 1 1 1 1 1 1 3 3 3 3 3 3 y 2 2 2 2 2 2 2 2 - 2 2 t 2 t 2 t 2 2 2 2 2 - 2 2 3 3 3 3 3 3 3 3 3 3 3 1 3 3 3 3 3 3 3 3 3 2 2 ; ; ; - - - - - - - - - - - - y u y ; * ; 3 ",
"- - - ; ; ; ; - - - ; ; ; - - - ; = 2 2 2 = * * = = = = * * * * - ; ; ; - - - - ; - - - - ; ; - - + + + 2 2 - - 2 2 - - - t t t - 2 2 y 3 3 - - 3 3 1 1 1 3 3 3 3 3 1 2 o     o     o ; = & . * * * * * o o o o * * - - ; ; ; ; * * * = = ; 2 2 3 3 3 3 3 3 3 3 3 3 3 3 3 3 3 1 1 1 1 2 < < < < * o   * * = ; 3 1 3 8 s s s s s s s s s 8 4 3 3 3 3 4 4 4 4 4 4 3 3 3 3 3 1 1 1 2 2 1 1 1 1 2 2 1 1 1 1 1 1 1 1 1 8 3 = 1 s d s = = 1 3 3 8 8 3 3 1 = 3 3 1 1 1 1 1 1 1 1 1 1 1 = = 1 1 1 1 1 3 y 3 1 ; ; ; ; ; * * ; 2 2 2 ; ; - - - - - + + - - - - - - - - - 2 2 2 2 2 2 2 2 1 3 3 3 1 2 1 1 - - ; * * + + - + + - ; - * - * 2 2 2 2 2 2 3 3 2 2 2 2 2 2 2 2 2 2 2 2 2 2 2 2 2 - - 2 2 - 2 2 - - - - - - ; ; = 2 1 1 = = < 1 = 1 1 ; ; 2 3 - 3 y 3 y s s s k 8 s s 8 8 s s 3 1 = & & * o     ; & 1 s s s 8 < 8 8 8 8 3 3 3 1 1 < < 1 1 1 1 1 1 1 1 ; ; 1 1 * *   ; s 3 = = 1 < < = < 1 1 1 = 1 1 1 1 3 3 3 3 y 3 y y 2 2 2 2 t t t - 2 2 t t y y y y t t t y - 2 2 3 3 3 3 3 3 3 y y 3 3 3 3 y y y y 3 3 3 3 2 2 ; ; ; - * - - - - - - - - - * ; 3 - * o o ; ",
"- - - - - - - - 2 2 - - - - ; ; ; ; ; ; ; ; ; * * - * - * * * * * * - - - ; ; ; ; ; ; ; - - - - 2 2 2 2 2 2 2 2 2 2 t t t t t t y y t 3 3 y y y 3 3 3 3 1 1 1 1 s 1 & X           o * * * & * = o o o o o * + * - - - * * - - = ; = = = = = = = < < 2 1 1 1 1 1 1 1 1 2 2 2 2 2 1 1 1 2 = = = = * & o o & = 2 1 2 1 3 3 4 s u u s s s s s s s s s s 4 4 3 3 3 3 3 3 3 3 3 3 3 3 1 1 1 1 1 1 1 1 1 1 1 1 1 1 1 1 1 1 1 1 1 3 s l 8 1 = = 3 8 3 1 3 1 1 1 1 1 1 1 = = = 1 < < < < 1 1 1 1 1 1 1 3 3 3 3 3 3 3 3 3 3 3 2 - - - ; ; - - - - - 2 2 2 - - - - 2 2 y y 3 3 3 3 3 3 3 3 3 3 3 3 3 2 2 ; * * - - - - - - - - - - - - - - 2 2 2 2 2 2 2 2 2 2 2 2 2 2 2 2 2 2 2 2 2 2 2 2 2 2 2 2 2 2 2 2 3 3 2 2 2 2 ; ; 1 1 2 2 2 1 1 1 3 3 3 3 3 3 y y y 3 3 3 u s s s s s s s s s 3 3 * * * + + o o o & * ; 3 s s s 3 3 3 8 8 s 3 y 3 = < 3 3 3 3 1 1 = = ; 1 1 1 1 1 * * * = = < < < 1 < 1 < 1 1 3 3 2 2 3 3 3 3 2 2 y y y 2 t t t t t t t t t - - - - - - - - - - - - - - ; ; - - - - - 2 2 ; - - - 2 2 2 2 ; ; 2 2 - - - - - - - - - - - - - - - - + + + o o o + - ",
"; ; - ; - ; ; ; - - ; ; ; ; ; - * * * * * - * * * * * * * * * * * * * * - - - - - - ; ; ; ; ; - 2 2 2 2 2 2 2 2 2 2 2 2 2 2 2 - 2 - 2 - - - ; 3 3 1 1 1 1 3 3 3 4 1 o       o     o * * & & & * o o o o * * * * - * * * * * * * & & & & * * * & * & & * * * = = = * * * * * * * = = = * & & o o o o o o o & = 2 * = ; 1 1 1 1 1 < 2 < < < < 1 1 3 3 3 3 3 3 3 3 3 3 3 3 3 1 1 < 1 1 1 1 1 1 1 1 1 1 1 1 1 1 1 1 1 1 1 1 1 1 s s s 3 = = 1 3 3 3 1 1 1 = = = = = = < 1 1 < < < < 1 1 1 1 1 3 3 3 ; - - - ; ; ; ; 3 3 - 2 - - - - - - - - - - - - - - - - - 2 2 2 3 3 3 3 3 2 2 3 3 3 3 2 2 2 ; ; * * - - * + + + - - - - - - 2 2 - 2 2 2 2 2 2 2 2 2 2 2 2 2 - - 2 2 2 2 2 2 2 2 2 2 2 2 2 2 2 2 ; ; 2 2 1 1 3 3 1 1 1 3 3 3 1 1 3 3 3 3 3 3 y y y 3 3 3 s s s s s s 8 s 8 8 3 1 * * * + + o o o o & - 3 s s 3 1 3 3 3 3 3 3 3 1 < < 1 1 1 < = = = = = = = ; = ; & * & * = = = = = = < = ; ; ; ; 3 3 3 3 3 3 2 2 2 - - - - - - - - - - - + + + + + + + + + + + + + + + + + + + + + + + + + + + + * - + + + + + + + + + + + + + + - - - - - - - - + + o o o o + + ",
"- - - - - ; ; ; - - - ; ; ; ; - * * * * * ; ; ; * * ; - * * * * * - - - - ; ; ; ; - - - - - - 2 2 2 2 2 2 2 2 2 2 2 3 3 3 3 y 3 y 3 3 3 3 y y 3 3 1 1 1 1 3 3 3 1 = o       o   o o * * & & & & & & & o & & o & * * * * * * * * & & & & & * & & & & & & & & & & * * * * * = * * = = = * & o o   & & o o & * = < = = = = ; = ; = = = ; ; = 2 1 1 1 3 3 3 3 3 3 3 3 3 3 3 3 3 3 3 1 1 1 1 1 1 1 1 3 3 1 1 1 1 1 1 1 1 1 1 = 1 3 8 s 8 = = = 1 3 3 3 1 = = & & = = = ; ; ; ; ; = ; ; ; ; ; 1 1 1 1 ; ; ; ; ; ; ; ; 2 2 2 2 2 1 2 - - - - - - - - - - - - - 2 2 2 2 y 3 3 3 3 3 3 3 3 3 3 3 3 2 ; ; - - - - - - - - - - - - - - - - 2 2 2 2 t t t y t t t 2 2 2 2 2 2 2 2 2 2 t t t 2 2 2 2 2 2 t t 2 2 2 2 1 3 3 3 2 3 3 3 3 3 3 3 3 3 3 3 3 3 3 3 3 3 1 3 u s s s 8 8 8 s s 3 3 1 * * * * + + + + * * ; 3 s s 3 1 8 3 3 3 3 3 3 3 3 3 3 1 < < = = = = = = ; ; ; ; * * = = = < < < < < < 1 1 1 1 ; 1 2 2 2 2 ; ; - - - - - - - - - - - - + + + + + + + + + + + + + + - - * + * + + + + + + + + + + + + + + + + + + + + + + + + + + + + + + + + + + + + o o o o + - ",
"- * * * * - - - ; ; ; ; ; - - - * * * * * * * * * * ; ; ; * * * - - - - - - - ; ; - ; ; - - - - 2 2 2 2 2 2 2 2 2 2 - 3 1 3 3 3 3 3 3 3 3 3 y 3 3 3 1 1 1 1 1 3 & .         o   o o * * & & $ $ & * & o o o     o o o o o o o o o o o o . .     . . o o & & & & & * * * * * = = * * & & o o o   o o o o o * * = = = = = = = * = 2 2 = 2 2 2 1 1 1 1 3 3 3 3 3 3 3 3 3 3 3 3 3 3 1 1 1 1 1 1 1 1 3 3 1 1 1 1 1 1 = 1 1 1 = = = 1 s 3 = = = 1 1 1 3 1 = = & & = = = = = = * = = * * * * * = = = = ; ; ; ; ; ; ; ; * - * ; ; ; ; ; - - - - - 2 2 2 - - - - - - - 2 2 2 1 1 3 3 3 3 3 3 3 3 2 2 ; ; - - - - - - - - - - + + - - - - - 2 2 2 2 2 2 2 2 2 2 2 2 2 2 2 2 2 2 2 2 2 2 2 2 2 2 t y y y y 3 3 3 3 3 2 2 ; 2 2 2 2 3 3 3 3 1 1 2 1 2 2 2 2 ; = = 1 3 u s s 8 8 s s s u 1 = * * * * + * + + * - ; 3 a s 8 3 8 3 3 3 3 3 3 3 3 3 1 < < = = = = = = = ; ; ; ; ; ; ; = = < < < < < 1 1 1 1 1 ; ; ; ; - - * * * - - - - - - - - - - + + + + + + - - - - - - - - - - - - - - - - - - - - * * * * - - * * + * + + + + + + + + + + o o o o o o o o + o + o o + O - ",
"& o o o o & * * * * * - * * * * - - - - * * o o * * * * * * * * * * * * * * * * * * * - - - - - - - - - - - * * * * = = = = ; ; 3 1 3 1 1 1 3 3 3 3 1 1 < < < <             o o o o o o o o .   o o o           X X X X X X X             X X X           o o o o o o o o o o o o o o o o o o o . . . . o o o + * * * * * * * * = = = * * = ; ; 1 1 1 1 1 1 1 1 < < 1 1 < < < < 1 1 1 1 < 1 1 1 1 1 1 1 < < < < 1 1 1 1 1 = = 1 3 1 1 < < < 1 1 3 3 1 = = = = 1 = = = = = = = = = = = = = = = = * * * * * * = * * * * * = = = ; ; ; ; ; ; ; ; ; ; ; - - - - - ; - ; ; ; - - - - ; ; ; ; - ; - - - - - - - - - - - - - - - - - - * * * * * * + + * * * - - - 2 2 2 - - - - - * * - - ; ; 2 2 2 2 3 1 1 1 1 2 2 2 2 2 2 2 3 3 3 3 1 1 < < < < < < ; = = 2 3 3 s s s s s s s y 3 ; * * * * + + + + o o * ; 3 s 4 3 4 3 3 3 1 1 1 1 < < = = * = = = = = = = = = = = = = = = = = < < = = = = ; ; - ; 2 ; - - - - - - - - + + + + + + + + + + + + + + + - - - + + + + + + + + - - - - - - - + + + + + + + + + + + + + o o o o o o o o O O O O O O O O o o o o o o + O ",
"* * * * * * * * - - - - - - - ; - - - ; - - - - - - - - - - - - - - - - - - - - - - - - ; ; ; ; - - - - - - ; ; * * = = = = = = 3 3 3 3 3 3 3 3 3 3 1 2 < = * *         o o o o * o o o o o .       o & o & & &                 o o o o o         o o o o & & * & & & o o o o o     o o o o o o * * O O + + + * * * * - - - - - 1 1 1 2 2 2 2 2 1 1 1 1 1 1 1 1 < 1 1 1 1 1 1 1 1 1 1 3 1 1 1 1 1 1 1 1 1 1 1 1 1 1 1 1 1 1 1 1 = 1 1 1 1 < < 1 1 1 1 = = 1 1 1 3 1 1 1 1 ; ; ; ; 1 1 1 ; ; ; ; ; ; ; ; = = = = = = = = = = = = ; ; - - - - 2 3 3 3 - - ; - - - ; ; ; - - 3 3 y 3 3 3 3 3 ; - - - - - - ; ; - - ; ; ; ; ; ; - - * * * * * + + + * * * - - - 2 2 2 2 2 - - * * * * * * - - - - - & * * = 2 1 3 3 1 2 2 3 3 3 3 3 1 1 1 1 1 1 1 1 1 2 = = < 3 s s s s s u s 3 3 ; * * + + + + + + - * * ; 3 8 8 4 4 4 3 3 3 3 1 1 < < = = = = = = = = = = = = ; ; ; ; ; = = = < < = < = = ; ; - ; 2 1 2 2 2 2 - - - - - - + 2 2 2 - - - - - - - - - - + - - + + + + - + + - - - - - - - - - + + - - + + + + + + + + + + + + + + + + + + + + + + + o o o o o o O O ",
"o o o o o o o o o o o o o o o o * * * * * * * * - - - - - - - - - - - - - - - - ; ; ; ; ; - - - - - - - ; ; ; ; & & & * * = = = < < < < < < < 3 < 1 < < = * * * $ $ & & * * - - ; - * * * = = = = = = = = = = = = * * & & * * = * * * - - - = * = = = * * * * * * * * o o                               o o o o o o o + - - - * 2 2 = = * * * * = = * = = ; ; 2 < < < < < < < < = = = = = = = = 1 1 1 1 1 1 1 1 < = = = = 1 1 1 = = 1 < = & & * = = = = = 1 1 1 3 3 1 1 1 ; ; ; = = = = = = = * * * * * * * * * * * * & & & & & ; ; ; ; ; ; ; ; ; ; ; ; - - * * * * - - - - - - - - - - - - - - - - - - - - * * * * * & & o o o * * * * * * * * * * * * * * * * ; ; ; * * * * * * * * * * * * *     o & * = 2 1 ; ; ; ; ; ; ; ; 2 < < < < < < < < < * * & = 3 8 s u 3 3 3 1 - - o o + + + + + + * * * ; 1 3 3 1 3 3 3 3 3 1 1 < < < = = = = = = & & * = * * * * - - * & & * = = = = = * - * - * * * - - * + + + + + + + + + + + + O O + O O O O + + + + + + + + - - + + + + + + + + + + + + + + + + + + o o O o o O O O o o o o o o o o o o o o o o o . . . o o ",
"# # # # # # # # # # # # # # # # # # # # # # X X o o o o o o o o o o o o o o o o o o + + + + + + o o o o o o o o           o o o o o o o o o + o 2 2 - * * * * * * * - - - - 2 2 y 2 2 2 3 y 3 3 3 3 3 3 2 - * * * + + + + + + O - - - - 2 2 2 2 - - - - - + + + + + o o X # # # # # # # # # # # # # # # # # # # # # # @ X @ @ X X X X X # # # # X X X X o o o o o o + + + + + + + + + O O O + + + + + + + + + + * + + + * - - - * - - * o   o o + * * - - 2 2 2 2 2 2 - ; - - - + + + o o o o o o   o   o   o   + o + o o o o o o o o o o o o o o o o o o     o X X X X # # # # # X X X X X X X @ @ @ X X X X X o X   X X X X X X   o o o o o o o o o o X X X X o o o o o o o o o o o   X   X X o o o o + + * * * + + + + + + + * * * * * * * * < * o     o 2 y u y 3 2 3 2 - + + + + + + + + + o o o o & * * . * * * * & o o o & & . . . .                     o o   X X X                 X   X X X X X X X X X X @ @ @ @ @ @ X @ X @ X @ X X o @ o @ o o o o o o o o o o o o o o o @ @ @ @ @ X X X @ @ @ @ @ @ @ @ @ @ @ @ @ @ @ @ @ @ @ @ @ # @ @ # # # @ @ ",
"HXHXGXGXPXPXPXPXPXPXIXGXGXGXFXFXFXHXHXHXHXZXkX2XC.C.C.V.V.V.V.V.C.C.C.C.C.S.S.S.V.C.C.C.C.V.B.M.C.^.A.A.A.3X,XA.3X3X3X1X1X1X1X,X1X,X1X3X3X3X3X3X3X3X3X3X2X3X1X,X,X,X,X,X,X,X,X,X,X,X,X,X,X,X,X<X,X<X<X,X,X<X2X3X3X,X-X-X8X7X2X1X1X1X1X1X1X1X1X1X1X3X3X2X2X2X2X7X3X3X3X2X2X2X2X2X2X2X2X2X2X2X2X2X2X2X7X7X7X7X7XwX2X2X2X7X0X0XqXqX0XUXAXGXGXGXGXHXGXGXHXHXAXAXAXAXCXCXCXCXCXCXNXqXqX9X0X7X7X7X7XwX0X2X2X2X0XqXqXqX0X0X0X2X2X2XwX0XwX0XwX2X,XA.S.S.B.B.B.B.B.B.B.B.A.A.,X7X0X0X0X0X9X9X0X0X0X0X9X7X7X7X7X2X7X7X7X7X7X7X7X7X7X7X7X2X2X2X2X2X7X2X2X2X2X6X0XqXqXBXCXCXSXZXAXAXHXGXGXGXGXGXGXGXHXAXAXAXCXCXSXSXSXSXCXCXSXSXCXCXCXCXCXCXNXqX7X2X7X0X0X0X0X0X0X0X0X7X7X2X2X2X3X<X,X,X,X<X,X,X,X,XQ.Q.Q.Q.Q.Q.A.C.C.C.S.S.V.V.B.B.B.B.B.B.V.V.V.B.B.B.x.x.a.i.u.u...! ! ! ! ! ! ....u.i.a.x.x.V.V.C.C.C.Q.C.Q.Q. X X X<X<X X X X<X<X<X6X6XqXqXqXqXqXqXqXqXkXkXkXkXkXkXqXqXxXxXxXxXxXkXqXxXkXxXxXxXxXCXCXCXCXCXCXCXCXCXCXCXCXCXCXxXxXCXxXkXkXxXCXxXxXCXxXqX X XQ.Q.Q.Q.Q.Q.Q.Q.Q.Q.Q.Q.Q.Q.S.S.Q.,X<X2X6X6XwXwX0X0X0X0X0XqXqXqX9XqXqXqX9X9XNXNXNXNXNXNXNXNXNXNXVXSXSXSXSXSX",
"9XNXVXCXSXAXAXCXSXSXCXCXCXZXZXAXAXAXAXAXAXAXAXAXAXAXAXAXAXAXAXAXZXSXSXCXqXqXwX2X2X7X0X0XqXqXqXqXCXAXHXCX7X,X2X0X3X1X1X1X1X1X>X>X,X,X,X,X,X,X>X>X,X,X,X1X,X-X-XA.:X:X:X:X-X-X-X-X-X-X-X-X-X-X-XA.C.C.S.A.:X,X-XZ.>X-XZ.;X1X8X1X-X>X>X>X>X>X>X>X>X>X>X>X-X-X-X-X-X1X1X1X1X1X1X1X1X>X>X>X1X1X1X1X1X1X1X1X>X>X>X>X>X1X1X1X1X1X8X8X8X1X2X0XqXVXVXNXqXqX9X0X0X9XwX7X2X7X2X2X8X2X8X8X8X1X>X>X1X8X8X8X8X,X8X9X7X>XZ.n.n.N.A.1X7X7X7X2X2X1X1X>X-XN.m.p.p.n.n.n.n.n.n.N.n.m.n.N.;X1X1X8X8X1X8X8X1X8X1X1X1X1X1X1X1X1X-X-X-X-X-X-X>X1X1X1X,X:X:X:X:X:X-X-X-X3X3X3X2X7X7X7X7X2X2X2X2X2X3X3X3X,X,X,X,X,X:XA.A.-X-X1X8X7X7X7X7X7X7X7X2X7X2X7X2X7X7X8X1X1X1X1X2X1X1X1X1X1X1X1X1X-XA.A.A.A.A.A.A.B.B.B.B.M.M.M.M.B.M.N.M.n.n.n.n.n.n.n.n.n.n.n.M.a.a.a.s.u.p.A A A V V A A Z S S S S S S S S S S B N B B N B B B B B B S V V V V ..........y.u.u.......y.u.u.u.u.u.u.u.u.u.u.u.u...X.........| X.....X.X.u.i.i.i.u.u.i.i.i.i.i.i.......! ! ..! V V V V V W ! ! W ~ ! ! ! ! ! ! ! ! ! ! ! ! ! ! ! p.p.u.a.h.h.M.x.B.S.S.A.A.^.,X,X1X8X7X7X9X9X9X7X9X9X9X9X9X9X9X9X9X9X9X9X9X8X8X8X",
"1X7X9X2X2X7X0X0X6XwX6X4X<X<X<X<X<X<X<X<X<X<X4X6X<X<X<X<X<X<X<X<X2X2X2X2X2X2X3X3X2X2X2X2X2X2X2X2XqXCXCXqX3X,X2XwX7X7X7X7X7X7X8X1X7X2X2X1X1X1X1X1X1X1X,X,X:X-X-XS.a.a.a.a.a.a.a.a.a.a.a.a.a.s.s.u.u.u.u.p.u.a.a.s.Z.n.N.-X1X1X;XZ.-X-X-X-X-X-X-X-X1X,X,X>X-X-XA.A.n.n.n.a.a.s.p.p.N.N.B.B.B.B.B.B.;X-X-X>X>X,X1X1X>X>X>X>X>X1X1X1X,X,X,X,X,X,X,X,X,X,X,X,X,X,X,X,X1X,X1X,X1X1X1X1XqX9X7X7X7X7X1X>X3X,X-XN.t.C C A N y.Z.,X,X>X,X>X3X2X2X3X,X>X>X>XA.A.A.S.S.S.S.S.-X-X>X1X8X8X1X1X8X8X8X8X1X1X1X1X1X1X1X1X,X,X:X-X-X-X-X-X-X-X-X-XS.S.S.B.B.B.B.B.M.M.M.M.n.n.a.a.a.u.u.u.y.! ! ! ..y.y.u.u.u.i.s.Z.S.A.-X:X,X:X:X1X,X:XA.S.V.B.B.Z.-X,X-XZ.a.a.a.y.y.p.y.p.y.p.y.p.y.y.y.y.y.y.y.y.y.y.y.y.p.p.p.e.e.q.q.A A A A A A A A A q.y.y.V V V A Z C N N N N C C C C N N N N N N z f f f B B N N z z f f f f z z z N N B z B B B B B N B B B S S V V V V V V V V V V V V W ! V B B V W B B B B B B B B B S S V V V V W W X.............! ..! V ! ~ ....u.! ! ! ! ! ! ! ! ! ! ! ! ! ! ! ! Z Z V V V V V V A ....y.u.s.s.a.B.S.,X8X9X9X9X9X9X9X9X9X9X9X9X9X9X9X9X8X1X1X8X9X",
"1X8X8X-XZ.N.a.s.u.s.i.i.u.u.X...! ..u...! V ! ! u.u.u.u.u.u.u.u.! ! ! ! r.y.y.y.V.B.B.h.h.a.a.a.y.y.....s.B.V.B.V.B.B.B.N.n.n.n.p.y.p.y.p.y.e.y.q.q.q.A q.A C N A A A A A A A A Z Z Z Z Z S C B B B B N f N e.s.s.p.n.S.-XB.a.a.B.B.B.N.N.n.n.n.n.a.a.a.a.a.a.s.m.a.a.s.s.p.p.p.q.q.q.A q.A A A b M N N S S A A p.y.p.p.s.s.n.a.B.B.B.B.V.B.B.M.N.M.B.B.V.S.V.V.V.V.S.S.S.Z.B.a.b b N t.B.>X1X1X>XB.q.N b N C S i C q.y.s.s.a.M.A.A.-X-X-XA.>X>XA.A.A.A.A.A.A.Z.A.S.Z.Z.Z.Z.N.N.Z.N.N.n.n.n.n.n.m.n.n.n.n.n.n.n.n.a.s.s.s.s.s.s.y.e.e.A ! A A A A V A V A A Z Z B S V V V ! ! ! V V V ! ! ! ! ! A A q.A A A Z Z e.A A C N i i i A y.M.B.s.A N N N C C C C C N N i i i i f f n z n z n z N z N N N N N N N N n n b i n f N N N N A Z N N N N N C C C C C C N N N N N N N N N N N B B B B B B S S B B B B B B B B B V V V V V ! ! V V V V ! ! ! ! ! ! ! ! ! ! ! ! ! W ! ! W W ~ ! ~ ~ ! ! ! ! W W ..........| | | V V V V V V V V ..V B V V B V ! ! ! ! ! ~ ~ ! ! ~ ~ ~ ~ ~ ~ ~ ! ! ! ! ! ! ! V V V V ! A ! A ! ..A y.s.N.Z.A.-X-X-X-X-XA.S.Z.Z.Z.B.B.B.B.N.Z.-X>X",
"A.,X2X7X7X,XM.! V B z N B V B B B V V V V V B B B B B B B B B B V V V S S B S B B B S B S V V V z N N z z N A A C C N N N N N n Z Z Z Z Z Z Z Z Z S Z S Z S Z S S S S S S S S B S S S S S S B B S B B B N A y.a.A t.a.B.a.t.( t.y.y.e.A A A A A N C N N N N N N N N n N n N n i N N N N n i b i N N N N N M M M i i i i n N N C N N C S A V V S S V A A A ( A ( ! ..y.y.y.e.A C A C N N A y.y.y.A C i i N N N i N z f z N C A S y.y.y.( A A A A A A A ( ( ( A A A A A A w.A A S C C C N N N N N n N N N Z Z Z Z q.A A Z Z Z Z Z S S B N B B B B B S B S S S Z S S S S S B S B B S S S B B S S S S S V S Z A Z S S S S C S C S S i z S A V N n i S N S N N N N N i i i i f f z z i i i i i i i i N N N z n z n i N z n z n z N N A V Z S N N N N n n n n n f i i f f f z N N N N f f N z N N N N z z z z z z N N B B B B B S V ! B B B V V V V V V V V V V V V V V z V ..V B ! ! V V V ! ! W W ! W W W V ! ! V V ! ! ! ! ! ! ! ~ ..W V ! Q V V W B B W W W W V V ^ ^ ^ ^ ^ W B B ! ! ! ! ! ! ! ! W ! ! ! ! V A A A A A A A q.q.q.! ! A V A S S S N S V S B B A ( ",
"A q.a.S.3X2X XV.h.u.! V V V B x V B z z B V V V B B B B B B B B N N B B B B B S f z z z z N B B V V V N z i z N N N N N N N n n n f n N N N N N N N N N S S B B S S S S S V V V B B V V V V V V V B B ! u.s.y.q.q.p.n.a.y.( S ( S S C N N z n f N N N N N N N z n z n z N N N z n z n z n z N z N z N z N b i i N N N N N N N N z z f j f z B V V S V V V V V V ! V V V V V V S S N i i N C C N i f N z z i z z C z z z N N N z A S C N z z i i z z N N N N N N C C C C C A A C N N N N N M M n n N n N N N N N Z S Z S Z Z A V B B B B V V V ! B B S B S S S S S S S S S S B S V V V S S V V V B B B B B S S S z z z z B B B B B N z z z B B V B B B B N z z z N N N N N N N N S B S B S V B S N N N N N N N z N z N z z z z z N N A A A Z N N i i i i i i f n f f f f f f f f S S S B B N N N B B B B B B S B B B N z z z B V V V V V V W V V V V ! ! ! ! ! ! u.B ! u.V V ! B B V V ! ! ~ ....! ! ! ! ! ! ....! ! ! ! ! V W ! ..W W W W W W W W W Q Q ~ ~ W W ! W W W Q Q W Q W W W W W W ! W W W W W W V W ! ....! V V V V V V V V V V A ! ! V A ! A V S V A ",
"y.y.y.y.a.B.S.A.i.u.! S B V V V W W B x c B W W W W W W W W W W ! ! V V B B z z ! ! ! V V V V V V z k k B B z z z N N N f z n f B B B B S B B B S B B B S B B B B B B B B V V V V V V V V V B B V B V y.a.y.A C s.B.B.s.( ( ( V N B N N N z z z N z z f f f f f N z N z N z N N z z N z N z N z z z N z N N S C B N N z N z N N V V B x B V V V B V V V V V V V B x B B B V V V V V V S V A S B z z z z f f z B B B B B S B B z z i i u u u u u z z N B S S S C N C C N N N N i i f f f n i i i n f f f f f f f f f f f f f B B m x B B B B B B B B B B B B B B B B B B S S V B B B B N N B B B V V ^ V B V B V W V B B B B B B ~ ! B B B V W V W V W W W V W V V V V V V B B x z z z k z k z z z z z z z z z z z z f f f f f f u f f S B V S S N N z f f f N N B N z f f f N N N N z z f f f f z z z z N N B B V V V S B B S V V V V V S S S S S V V ! ! ! ! V ! B B S f y.h.B ! ! ! ! ! ! ! ! W W ! ! ! ......~ ! ! ..! V W ..u.X.| W W ~ | ~ W W W W W W W W E I E I W W W W W W W W W Q W W W W W W W W W W c x B B B V V V V V B c V V W ! W ( ......( ! A ",
"C A A S S A y.a.V.B.i.! B x B B x x B B B B B B B B B V V W W W B V V V V V V A B B B B B B B B x x x x x z x B z z N N N B N z z f z z z z z z B B z z B B B B B B B B B V V V ! ! ! V V B B B B ! s.a.y.A C A a.B.a.( V ( ( N z z z z z z z z z z z z z f f f f f f z z z z z z z z z f f f f z z z z f f f f z z z z z N N B k k z x x z k f x x B B B V B B x x B V W W V B x B V V V B f f z f u i B B z f z z z z z f z z i i u t t t 2 2 u u i f z z z j f N N z N N N i i i f z z i i i f f f f f f n n N n f f f f N z B B B B B B B B B B B B B B B B B B B B N N z z B N z f f f f f s s s s f l x x B c c c c B B B k x V W W V B B B B B B V W W W V V V V V V x x z z z z z k k k f f f z f f f f z z z f f z z z z f f f f N S B V S N f f f f z f f f f f f N N f f f f f f f f z z z N B B B B z B B B B N N B B B B B B B B B S V ! ! ! ! ! V ! ! y.! y.2XqXV.u.u.u.y.! ! ! V ! W W W ! ! ! W ..! ! ..! V W ..d.d.X.B x W Q W Q W W V B V W W I I c c I c c c I I W W W W W W W W W W W I W W c c E W W W E B B c x l l x x B W V V V V V B B ",
"N N N N N z z f ! u.h.i.! z z z x x x k f k l x x x x c c B B B B B B x x x z z z x B B x x x f k k x x g f f f f f f f f f f f f f f f f f x x x g x x x x x x x x x B B B B B V V V B V ! ! V V A a.A N z i a.s.a.a.( V ( ( z z z z z z z z k z z z z z z z z f f f f f f f f f f f f f f f f z z f f f f f s f f f k z z z z x x x x l l l l l l k k k x x x x l l l x x x l k k z k k f k k f f f f f s s f f f k z k s u u y y u u u y u u u f i f f z z z f f f f f f f f f f f f f f f f f f f f f f f f f f f f f f f f f f g g g g g g g g g g g g g x x x x x z z f f f f f s u u u u y 3 3 3 s s x B x x x x c c c c c c c c I c I B B c E W E c W X.X.V V W V c x k k k z z z s s s s s s s s s f f s s s s s f f f f f f f f f f f B S S S B z i u f f f f f N z f z z f f f f f N z z z z z z z z B z z z z N B B z N N B B B B B V V V V V V ! ! ! ! ! y.Q.SXAX2X,XC.h.u.! ! ! ! ! ! ! ! ! ! W W ! W W W W ! ~ ~ X.g.f.E f B Q W W W E E B c l f l l l l x x x x x I W U I x x x x x I I I I I I c c I I x l l c x l l l x x B x B B B B B B B B ",
"N N N z z f f f z S ! ! ! V B B x x x k k l l x x x x x c c B B x x x x x x z z f k z k k k f f k f z x g g g f f f f f f f f f x x x f x x x x g g x x x x x z z z x x B B B B x B V V V ! ! V y.....z u z A a.s.s.y.A V ( ( N z z z z z z z z z f f f f f f f f f f f f f f f k f f f f f f f f f f f f f f f f f f z z z z z x x x x l l l l l l l l x x x x l l l l l l l x k k k k f z k f f f f f f s s f s f f f s u y 3 y u u u u u u u f f f f f f f z f f f f f f f f f f f f f f f f f f f f f f f f f f f f f f f f f f g g g g g g g g g g g g g x z z z f f f u u u u u u u u u u 3 y y a s g x c c c c c c B B B c c c c c c c B c c E E c c W X.X.V c V V c V z k k z s s u u u u u u u u u u u u u u u u u u f f f f f f f f f f f f N N N N z i i f f f f f f f f f f f N N N z z z z z z z z z z z z z z z N B B z z z B V V B S S V V V ! ! V B u.V.B.h.u.B V B Z B V V ! ! W W ! ! ! ! W W W W ^ B W W W W X.c.c.~ l x W E W W W c x l l d d d d l l l x x x c I I I x x x l l x I I I I I W I x x I I c x l x x x x x z z B B N N N N B B ",
"z z z f f f f f i f f B W ! V B B B z z z z z x z z z x B B B B B B B B B z z z f f f f f f f f f f f x x x B B B B B B B B B B x x x z z z z z z z z z z z z z z z z N N B B N z B V V V ! ..! ..S i t t N a.s.a.y.y.A ( A V B z z z z z z z z z z z z f f f f z z z z z z z z z z f f f u f f f f f f f f f f f f z z z z x x x l x x l l l l l l l x x x x x l l l l l l l l s s z z k k k k z z f s f s s s u s s s u u 3 2 u u u u u u u i i i i i f i f f z z z z z z z z z z f i i i i f f f f f f f f f f f f f f f f f f f f g g f g g f f f f g g g g z f f s u u u u y u u u u u y y s s s s s l l c c c c c c c B B c c c c c c c c I c B E B c Q X.i.V c V x V V z k k k s u u u 4 u u u u u u u u u u u u u u u u i i i i i i u i u u i f z z B B f f f f f f f f f f f f N N N N z z z z z z z z B B z z z z z z B B N N B B V V B B S V V V ! V ! ! i.x.! u y u 2 u z S V V ! ! W W ! ! ! ! ! W B B B B B W W W ..x.E.f.B l l x W W W E l s s d d d d l l l K x x I I I x v l l s l l x I I I I I U Q I I U I l x B x x x g g g m m n m n n N N ",
"z z z z f f f f f f s f B V B B B B B z z z x x z z z z x B B B B B B B x z z z z z f f f f f f f f f x x B B B B B B B B B B B B B B B x z z z z z z z z z z z z z z z N N N N B S V B B ! y.u.z i t u i y.,Xa.B.y.A A ..A V B z z z z z z z z z z z z z z f f z z z z z z z z f f u u u u f f f f f f f f f f f f z z x x x x x l x x x x l l l l x x x x l l d l l l s k s s s k s s s s k k z f f s s s s s f f z z z s u u u i u u u u i i f f z i i i i i z z z z z z z z z z f i i i i i f f f f f f f f f f f f f f f f f f f g g f g g f f f f f f f f z z f f s s f f f k k k f s u u s s s s g l l l x x x x x x x x x x x c c c c c W E E E B B ~ f.i.W V V V V V k k k s s u u 4 3 y y y y y y u u y y y y u u u u i i i i i i u i i i f f f f z z N N f f f f f f f f f f f N N N z z z z N z z z B B N z N z z z z N B V V S B z N B S V V V V V ! ....B z B B f 2 f B ! ! V W V W W ! ! ! ! W W ^ B B B B B B B ~ c.E.c.W s g x x E W W x g g l d d l l l I I I l x I I x l l l l l l v I I I x l  .&. .I I I I I I c x x l g g x x x m N N N N ",
"z z z z z z z z x z f f f z z N B B B N N N N N z z z z z z z B B B B B B x g f x x f f f f f f f f f n B B B S B B B B B B B B B S B B N z z z z z z z N N N N z z z N N N N N S S C N S y.a.x.i i t i N n.0XA.a.y.A A ..A V V z z z z z z z z z z z z z f i i z z z z z z z z u u u u u i i z f f f f f f f f f z z z z z z z z z z z z x x x x x x x z z z k s k k s k s s s s s s s k k k s s i i i i i i i i i z z z z i i i i i i i i i i b b i i i i i i z z z z z z z z i i i i i i i i f f f f f f f f f f f f f f f f f f f n n n f f f f f f f f f f x l l k k l l x c c c c x l s s s s s s k k k k l l l l l l l l x x c c c c c c W B V c c c Q f.i.X.| | W W V k z k f s u u u u y y y y y y y y y y u u u u u u i i s s s u i f f f f f f f f f N N N N z f f f f f f f z N N N z z z z z z z z z N z z z z z z N B V V V B z z B B V V V V V V B ..W f z B f - y f B W ! V V ! ! ! ! ! ! ! ! ! ^ ^ B B B B B E W g.Q.E...l g c s x W W E x l x d J l K K K K I K I I I x l d s l l l l v x I I &.l.g.Q l l I U I I c x x l l l g g z z z z N z ",
"z z z z z z z z z f f f i f z B B B B N B B B N z z z z z z z z B B B B B x g g f f f f f f f s f f f n B B B S B B B B B B B B S S B B N z z z z z z z N N N N z N N N N N N N S S C C A a.B.V.b i t i C B.7X-Xs.y.A S A A A V i f z z z z z z z z z z z f i i z z z z z z z z u u y u u u i z f f f f f f z z z z z z z N z z z z z z z z z z z z x x z z k z s s s s s s s s s s u s u u u u u u i i i i i i u i i i z z i f i i i i i i i z i i i i b b z z b b z z z z z z i i i i i i i i i f f f f f f f f f f f f f f f f f f n f n n f n n n n f f n z k k l l l x c c x x c c c c x x k k k k k k s s f f f f k k k k l l x x c B B B W c c V c V ~ f.f.i.i.u.! W W x x z f s u u u u y y y y y y y y y y u u u u u u f f s s i i i i f f f f u f f f f f f z z z z z z z z z N N N B z z z z N z z z z z z z z z N N V V S B B B B B B S V V V V V V V W B f f y - 2 z B V V V B V V ! ! ! ! W ! ! ! W ^ ^ B ^ ^ ^ E B f.E.|.j.W x x s l W W W E c c d J K K K K K K I I U U x l d l l k s s l I  .X.@XL. .I l I I I I x x x x x l l f f k k z z z z ",
"k k k k z z z z f f f z z N B B C C C C C C N N N N N N N N N N B B B B B B m m f f f f f f f f n n n N B B B B B B B B B B B B B N N N N z N N z z z z z z z z N N N N C C C C C S A y.s.B.B.a.b p t t A Z.-X-Xa.a.y.A V ....S i i z z N N N N z z N N N z z i b b j j b j b b i i u u u i i i f f f f z z z z z z z z N N N z z z z z z z z z z z z x z z f f s s s s 9 s u u u u u u u u j j u i i u j j j j u i i j i i i i i i i i i i M N i i i N N N N N b b b b z b z z b i i i i i i i i i i i i i i i z z f f i i i i n n n N N N N N N N N N N N N N f k l l l x x c x x x c c c c c x x x z k k k k k k f f k k k k k k k x x V V V V V V W W | o.x.x.x.x.i.! W ! V B B z f f u u u u u u u u u u u u u u u u u u u f f f f f f f f f f f f f f f f f f f z N S S S S B B B S S S S B B S B B B B B B B B B S V V V ! V V B B S V V V V V V V ! ! V ! V z z x y 3 B W W W W V V V V ! ! W W ! ! ! ! ! W ^ W ^ ^ ^ W E %.W.4XW.X.c l d l c W W W W I I I I I I I I I U W W W I K l l s k l l x  .l.E.@Xf.I l I I I K I v x x v v x x l l x x x x x x ",
"s s s s f k l k f f l x V V B B B B B B S B B B B B B N N N N N B B B B B B m m f f m B B B m m n n n N B B B B B B B B B B B B B N N N N N N N z z z z z z z N N N N C C C C S C A y.s.B.V.a.y.N t i i p.,XZ.A.B.Z.B.y.A ..( V u i z B S A A V B V S S S N N z z j z j z j z j z j i u u i i i i f f f z z z N z z z z N z z z z z z z z z z z k k z z z k f s s s s 9 9 4 u u 4 u u u u u u j u u i i j j j j j j j i i i i i i i M M b b b M i i i M N N N N b b b b b b z z b i i i i i i i i i f i f i f i f z f f f i f f f f f n f f f f N N N N n n N z z z x x x x x x B c c c c c c c V B x x z k k k k k k k k k k k f k k x x V V V W W W | X.X.k.C.V.V.V.i.V V ..! V V B z f u u u u u u u u u u u u u u u u u u u f f f f f f f f f f f f f i i i i i z z S S A ! V V S S S S S S ! ! ! ! ! ! ! ! V V V ! ! ! ....S S V A A A ! ! ! ! V V V V ! ! B W B V u.V f B V V B V V W W W ! W W W W W ! ! ! ! ! W ^ ^ ^ W I %.~.5X4Xg.I s x x x I W W W W Q Q Q Q Q Y Q Y W Q Q U I I l l s l v x I &.|.5Xl.W l I U l l I v v v v L L I I x x c c c c c c ",
"x v l l v x x l x x x c c c c c V B B B B B B B N B B B S S B N ^ B B B x B B B B B B B ^ B B B N B B B S S B B n B S B B n n N B B B B N N N N N N N N N N B N C C C N N N S A y.h.B.a.B.S.s.i t N i i A.6Xa.a.s.D.S.S.s.S S ..i z B S V V V ! V V V V V V S B z z z z z z z z z z z u u u i i z z N N N N z z z z x k k s k k x x k k s s k k x k k c v s 4 s 4 4 8 8 8 s 4 4 4 4 4 4 4 4 s u i i i u j j u i j i u z z j i u t b N M i i M M i i i i i i i b N b i b z b z N N b b z b i j z f f f f f n n n N N n f f f n N x B B B B B f f g x x g f f B B N N B z x x c c x V c x x V V c c c c c l s s s k k l l l k k s s k B V V V V V ..i.x.C.Q.Q.Q. X XA.C.V.x.x.a.i.u.a.a.s.V N i f i u i u u u u u u u i u i u i j i i j j j j i i z j j j b b z z z N S A ( A S S V V V S S S S S A A V V V ! ! ! V ! y.u...A A A A A A A A A q.q.A A A ! ~ ! ! ! ! W W ! ! ..! ! ! ! ! ! ! V W W ! ! ~ ! ~ ~ ! ! ! ! ^ ^ ^ ^ ^ W W X.@X5XlX.XI x x d l W Q W W W Q U Y U U Y Q Y Q Y Q Y Q Y U I U L K  .L.5XvXvXXX=.K K U l l U K I U K v v L I I I I I U U I I ",
"U U U I v v v c I I W W W I I c c c c c B c B B f x x B B B B m f f g x B B B x B x g g m B B B B B B n B N f f B B N N N B Z ! i.u...V S B N N N N N N N N N B N N N N N Z A y.s.h.V.S.M.e.N i i u t N <XwXM.B.S.a.D.>X,XD.S N ! ! ! ! ! ! ! ..! ! ! y.y.y.! V z z z z z f i i z z z z z N z N N C S A V V V V k x x v x k k s s s k x k k k s k c U U l k k s 8 4 3 3 3 3 3 3 4 k z z k s u u u u u u u z z z N z j j z z N V S N b i M M b i M N N N M M M N b i i b z i i i N i p i N N N N N n n n N n n N f n n N N N B S m x B B B B B ! ^ B B W ! ! B f Z S B N z z k s x k l x c x x c c c W I c c x c s s k l x x c I W ..i.x.v.V.C.Q.C.Q. X.X.X.X<X<X.X.X3X X X X X X,X,X,XA.B.y.A C z z z z z z z N z N B B N N N B b z N z z z b b N z N z N N S S V V S A A ( A A B B B S S V S S A A A A A ..A A u.y.A A A A A A ( S A ( n.Z.Z.p.p.y.! ! ! V V V ~ W W W V B B B Z V V V V A V ! ~ ~ ! ! ! ~ ! ~ ~ ~ ~ ~ ~ ~ ~ ~ W %.@X4X$XW.X.d I I x x I W Q Q W Y Y Y Y U I I Y Y U I I I I I L  .l.$XZXGXJXFXhXOXg.U l l K U K K T K K I U Y K K K K L L L U ",
"l v I c v v I W l l l x c I c c c c c c x c x x B B B B B B B B ! ! ! ! B B x f B B B B g x B B B N f n B B B B ! ! ! ! ! u.h.V.Q.C.B.a.y.! ! ! S S S S S B B B A A A A y.u.a.B.B.V.S.B.y.n i i i i C s.1X3Xp.q.y.s.s.n.>X9X>Xp.q.A A A y.s.a.n.B.B.Z.Z.S.Z.B.B.y.y.y.y.A S A A N N C S A A A A ..y.y.y.y.u.u.u...W V V V V W W o.X.W c z k x c f.E.}.k.| V v v 8 4 3 3 3 4 s k v | k.x.k.i.o.o.z z u u i j j z z z z B N z z N N N S y.y.t.t.s.p.s.s.s.s.s.s.s.a.y.( A V S B S ( S N N N b i i n n n n n n n n n N S Z V V V V ! ! V Z Z Z Z A S B N N N S C N S z z N x c v x c x x V W c B W x x c c c x l x c c W Q X.X.f.f.V.C.Q. X X.X.X<X<X<X<X<X<X<X4X4X.X.X<X<X<X<X<X<X3X,X,X,X>XS.a.y.y...........y.u.y.s.s.s.s.u.u.u.y.y.y.( A A S C S S S A A S A y.A A S A A A t.t.A A A A ( ( y.y.y.y.p.s.s.p.y.y.a.p.y.y.y.p.p.p.y.t.t.a.>X2X,XZ.p.y.u.u.X.X.&.o.X.X.X.X.u.u.u.u.h.h.h.h.h.h.a.i.h.d.d.i.u.X.u.u.u.X.u.~ ~ ~ ~ ~ W g.W.4X@X@XW.W s l x s g W X.Q ~  .+.+. .Q Q U Q Q U U Q Q +.%.U.$XvXFXKXKXFXvX5X5X@X*.Q Q W l l K K K l l l l K K K K K l l l ",
"I Y W Y W U I W W Q  .X.X.X.X.X.u.X.X.X...X.~ ~ ~ ! ! W ^ ^ B B ^ ^ Z ^ ^ ! ! ..! u.h.d.u...W B ! ! ! ! u.u.h.h.h.h.h.V.C.Q.Q.Q.<X,X,XQ.Q.Q.Q.Q.h.h.h.h.h.h.h.h.a.h.B.B.V.S.A.,X,X3XQ.y.f f N b C i b y.CXIXAXA.s.S.S.n.-XVXSXNXZ.N.n.Z.;X>X1X1X1X1X1X1X1X1X>X>X1X,X,X>X-XA.A.Z.A.S.A.S.A.A.A.A.S.A.A.Q. X X X XQ.V.x.x.c.E.}..X<X.XC.f.X.X.o.f.E..X4XE.f.o.O.X.X.X.| | | | o.i.x.v.^.C.C.^. X Xb.x.i.......( ( V ( o.i.u...o.i.B.a.D.B.B.N.N.A.N.N.N.N.N.B.Z.Z.A.S.B.x.a.s.y...S ( ( ( S S S A N N N N N N N N Z A ! A ! A ! q.w.q.q.e.y.p.p.a.n.Z.A.A.Z.A.-X1XA.Q.Q. X}.}.}.}.E.E.E.Q.E.E.Q.E..X.X|.E.E.v.v.v.E.E.E.E.|..X4X4X<X<X<X<X.X X X.X.X.X.X.X.X<X<X<X<X<X<X<X<X<X<X<X2X2X3X2XwX2X,X-XS.V.V.B.B.B.B.B.S.A.A.A.^.A.A.A.,X>X-XA.S.S.B.B.Z.A.A.A.A.A.-X,X,X,X,X,X1X1X8X8X7X7X2X2X3X3X8X8X8X1X1X1X1X>X>X>XZ.S.-X-XZ.Z.Z.;X>X1X2X9XqXqXqXqX0X0XwX<X.X.X#X#X#X#X@X@X<X4X4X6X4X2X4X4X<X<X<X<X4X4X4X4X4X4X4X4X4X4X<X<X<X<X<X@X@X5XlXkXkXcXcXg.d x c x c d.E.4X@X@X@X@X@X@X|.W.W.W.W.W.|.@X#X4XhXcXDXFXGXGXZX5X#XhXhX5X4X4X@XI.G.G.I.I.G.G.G.G.l.l.l.l.*.*.*.*.",
"FXFXDXDXDXZXZXxXCXCXCXxXCXxXxXxXxXxXxXxXxXxXxXxXxXxXxXxXkXkXxXBXBXBXBXBXBXCXCXCXCXAXHXHXDXAXCXqX4X0X0XwX2X2X6X0XwX6X6X6X6X6X6X2X<X<X2X2X6X6X0X0XqXqXqXqXqXqX0X0X2X6X0X0X0X0XwXwX0X2XV.A i N N i C b b C 9XIXIXSXSXCXVXCXCXCXAXGXGXHXHXSXSXVXNX9XNXNX9X9X9X9X9X9XqXqXqX9X9X9X0X9XqXqX9X9X9X9X9X9X0X0X0X0X0XqXqXqXqX6X6X4X6XqXkXkXqXkXxXxXxXkXqXqX6X6X6X6X4X.X4X6X.X.X}.}.}.}..X.X X X^.C.C.^.^.^.3X X^.C.C.B.D.D.x.D.D.D.x.B. XwXCX3Xs.s.a.s.t.( A S S S S ( y.s.^.3XwXqXqXqXqXwX2X,XA.S.B.x.M.B.A.A.A.A.A.A.A.A.A.-X:X-X:X,X,X1X2X7X7X7X9X9X9X9X9XNXSXSXAXAXHXAXAXAXGXGXGXFXAXDXDXFXFXZXZXZXZXxXxXqX4X.X}.Q.E.E.C.C.v.v.C.Q. X X<X4X4X4X4X6X6X6X6X6XqXqXqXqXqX6X6X6X6X6XwX2X<X<X3X3X3X,X,X,X,X,X-X-X-X-XA.A.-X-X1X1X2X2X2X7X7X7X9XqXqXqXNXVXVXVXCXCXSXSXSXSXSXSXSXSXSXSXSXSXSXSXSXSXSXSXSXSXSXSXVXNXNXqX9X9X9XNXSXSXSXCXCXVXCXCXNXVXSXSXCXSXSXAXSXAXZXZXZXZXDXDXDXDXDXDXDXDXZXZXxXxXkXkXCXCXCXCXZXZXZXZXZXDXZXDXFXFXFXFXFXFXFXFXFXFXFXFXFXGXDXL.I l s s s ~ <XZXFXFXFXDXDXDXDXDXDXDXDXDXDXDXDXDXZXZXZXcXZXDXDXxXcXcXxXxXCXZXZXZXZXZXDXDXFXFXFXFXFXFXGXGXGXGXGXJX",
"GXFXFXFXFXFXDXZXxXxXxXxXxXxXxXxXxXxXxXxXCXCXCXCXCXCXCXCXCXSXSXSXAXAXHXHXFXGXGXGXGXIXPXPXIXKXGXHXFXGXGXGXHXAXAXHXHXAXSXCXCXxXkXkXCXCXCXCXCXCXkXkXkXqXqXqX6X6X2X2X,X,X<X<X,X:XA.A.S.y.C N N f i n i n q.C w.-X7X9XCXNXNXVXNXNXNXCXVXVXVXVXSXSXSXSXNXNX9X9X9X9X9X9X9X9X7X9X7X9X7X9X9X9X7X8X8X8X7X7X2X6X6X6XwXwX6X6X6X6X6X4X4X4X.X.Xx.x.V.Q. X X.X.X.X.X}.C.k.f.k.b.c.c.v.b.b.v.^. X X X X^. X X X^. X X^.^.^.^.C.C.^.C.C.C.C.^.3XwXqX>XN.N.S.N.s.y.t.t.( ( ( y.s.D.a.S.3XUXAXGXIXIXGXHXCXqXqXqX0XwX0X0X0X0X0X0XwXwX0X0X0X0X0XqXqXNXNXNXNXCXVXVXVXVXCXSXSXSXHXHXHXHXGXGXPXPXPXPXPXPXPXPXPXGXGXGXFXZXCXxXqX4X.X.X X X X XQ.Q.Q.Q.Q.Q.<X<X<X<X4X4X6X6XqX6XqXqXqX6X6X4X.X.X X X X^.C.C.a.x.B.a.a.s.n.B.Z.Z.Z.Z.Z.Z.S.A.1X1X1X1X1X8X2X7XVXVXCXSXSXSXSXSXSXSXSXSXSXSXSXSXSXSXSXSXSXCXCXVXVXVXNXNXNXNXNXNXqX9X9XqXNXNXSXAXAXSXCXCXSXAXAXSXSXCXSXSXSXAXAXHXGXGXGXGXJXKXKXKXKXKXKXKXKXKXGXGXGXFXFXDXDXDXDXDXZXZXZXZXZXCXCXcXkXhXkXkXkXkXkXkXkXkXkXkXxXkX.Xs x s s s s s X..XkXkXhXhXhXhXkXkXxXxXxXxXxXkXkXkXxXvXkX5X5XkXkXkXxXkX5X5X5X5XhXkXkXxXvXvXcXcXcXcXFXFXFXFXFXFXGXGX",
"V c c c W W V x V V V V V W ~ | ! ! ! ..........x.V.C.C.Q.Q.Q.Q.S.Q.,X0XCXAXGXGXKXPXPXPXPXPXIXHXHXHXFXHXHXAXAXZXZXCXCXkXqXqX0X0X6X2X<X,XQ.C.B.B.h.a.a.u.u.y.y.! ! e.e.! A A A A A i y i N n n C Z b C C w.y.w.y.w.p.p.p.s.B.N.s.Z.N.N.N.m.m.m.m.Z.Z.Z.Z.Z.Z.Z.Z.Z.Z.S.S.A.-X-X-X-X>X1X1X2X8X2X2X,X,X X X X X X X X XC.v.h.i.X.X...W V V V | X.i.Q.}.v.o.| V V c c V ( ( ( ..o.i.i.x.b.b.C.^.^.^.C.C.C.C.^.C.C.B.C.C.C.^.^.B.B.B.a.B.^.,X,X>X>X,XA.A.A.A.A.^.,X3XqX0XwX3X2X0XqXqXqX3XV.B.S.S.S.V.B.Z.Z.Z.B.N.B.B.B.Z.B.B.Z.Z.A.-X1X8X9XNXVXSXSXAXSXSXSXCXVXSXSXSXSXAXGXKXPXPXKXKXKXKXKXFXZXZXCXqX6X4X XQ.C.C.C.V.x.x.x.x.h.h.h.f.x.V.V.V.v.x.x.v.x.h.i.i.i.i.i.u.i.s.s.s.u.y.y.y...y.y.y.p.y.s.a.s.p.p.s.a.m.n.n.Z.Z.Z.Z.B.Z.Z.S.1X7X9XNXCXSXSXSXNX9X7X8X8X8X8X8X7X7X7X8X8X1X1X>X>X>X>X-X>X>X>X>X>X>X>X1X7X9XNXSXSXSXSXSXSXSXSXCXNXqXqXNXCXCXSXSXGXGXIXKXKXKXKXKXKXKXKXKXKXKXGXGXZXxXkX4X<X<X~.Q.4X@X@XW.P.L.j.g.g.g.g.g.g.g.g.g.g.%.j.j.v.v.W a B x B W B f k W L.L.L.L.L.L.L.c.c.v.I.C.E.E.C.v.f.k.l.c.I.v.c.c.l.f.f.f.f.X.Q Q U U I I x x x c I c I c x x x x ",
"x x x x B V V V V B x x z x B V V V V B B B B B f z x B B B B B n f f n u.Q.qXCXGXIXPXPXPXPXGXkXqXqXqXqXqX0X<XQ.C.C.V.V.B.h.i.u.y.y.! ! ! ! ..y.! ! ! ! ! ! ! ! y.y.y.! A A y.p.N Z C i i C Z C y.A A N A A N A q.A A A A A q.s.p.t.p.t.t.t.p.p.t.t.t.p.p.p.p.p.p.p.p.s.s.a.a.n.n.B.A.-X1X3X3X3X<X<X,X,X,X,X<X.XQ.C.x.u.W V V ! V W ..| W W W W | k.k.| c | | V V | | V V N N V N V ( ( ( ..o.i.y...( ( ( ( ( S S N N B S V ( ( ( t.( S A y.s.s.a.M.N.N.N.N.B.B.a.x.B.B.B.B.a.y.y.y.y.y.y.A A ( q.q.q.q.q.q.q.A q.q.q.q.q.q.t.y.q.t.t.p.p.m.n.n.7XCXHXSXqX7X1X1X3X<X6XxXCXxX4X.X.X.X}.k.f.f.f.o.x.f.i.i.i.i.i.i.i.d.d.d.i.i.i.i.! ....! V V V V ! V B B B S V B V V V S S S S S A A A ! e.e.! ! y.y.e.q.q.t.y.y.p.p.y.e.q.q.y.p.q.p.Z.1X9XqXNXVX9X8XS.n.m.m.s.s.p.p.p.p.p.p.p.p.p.p.p.t.t.t.t.t.s.y.t.y.y.q.s.Z.wXVXSXCX2XB.a.m.m.m.N.N.N.N.S. X4XkXZXZXDXGXKXKXKXKXJXJXJXFXDXxXxXkX4XQ.E.E.V.c.%.X.Q K d d x K I I K K K d d d x s x s d l 3 c l s s s f l x l g g g K x l d s l k k v v z k k c x l c c x x c c I V c l l l k x l l l k 0 l l l l x l l l l l ",
"V V V V V V V V V B B B B B V V V V V V V S B z z z z B B z f u i i f f S i.,XqXqXCXAXAXZXxX6X<X<X<X XC.h.a.u...! ! V V V V V V V V V V V V V V ! ! ! ! ! ..y.y.y.p.e.A e.p.y.A C N n S A A A A A A A S A A ( ..A A ....y.y.y.y.y.y.y.y.s.y.s.s.s.y.t.t.y.y.y.y.y.p.y.y.y.y.y.y.p.u.u.s.a.B.A.,X3X<X,X,X,X,X,X<Xx.u.V B B W W V V V V V V V V V V V V V V W W W V V V V V V ( ( ( ( ( ( ( V V V B B B S S V V S V S A A ( A A A ( ( A A A ( y.y.t.t.( ( ( ( ( A A A ......y.y.y.A A A A A A A A A q.A A A A A A A A A A A A q.q.A A q.A A A y.y.n.3XAXGXAX1XB.A.3X3X,X X Xv.o.| | | | | | | | | ....u.u.u.u.i.i.i.i.i.i.s...! V V V V V V S S S N B N N B B B S z z z z z N N B A A A A A ! ....y.y.y.y.y.y.y.y.y.y.y.y.y.y.y.y.y.t.p.n.Z.>XqXSXSXqX-Xa.y.y.p.p.y.y.y.y.y...( ( ( t.......y.y.y.............y.y.x.S.A.V.u.A A y.t.t.t.t.t.t.y.s.x.x.E.@X5XvXcXDXFXJXKXKXFXcXxXkX4X.XL.j.d.X.W x g d d d d d l K x d d d d d d d d d g g g g g k s f f z z z z x g g g g x l l x l k k k k z k k k k k k k z k x k k k k z z z z k v k k k k k s s s s s k k k k ",
"S S S S S B B B z z N B S V ! ! ! ! ! V V V V V B x z f z B V ! ! V N i i V B.<X<X2X6X6X4X XC.V.! ! ! V V S S S V V V V ! ! ! ! ! ! ! ! ! ! ! ! ! ! V ! ! ! ! ! Z A A A e.y.A C N N C A A A A ! ................y.y.y.u.u.u.s.s...................( ....y.u.y.y.....! ..! ......! ! ~ ! ~ ! u.u.x.S. X,X XS.a.........! ! ! V V V V V V B V V W V V V V W V W ( ................( ( ......( ( ( S A ( ( ( ( A S ( ..............y.y.y.y.y.y.t.t.y.y.y.y.y.y.y.y.....y.y.........y.y.y.y.......A y.y.y.y.q.q.A A A A A A A A S S A V V V V V V ! y.! ,XHXGXCXh.y.S.A.A.^.C.b.k.o.o.i.i.i.i.u.X.X.....u.u.u.u.u.u...........! V V B B B N N N z z z z N N N N z z V N N N N S S S i f N N S A ..y.! ..............A A A ( ........y.q.q.y.y.s.Z.1XCXqX1XB.y.A A S ( ( ( ( ..( ..( ( ( ( ( ( ( A A ................V ! y...! V V ! t.t.t.t.t.t.y.y.s.i.v.}..X$XhXvXFXFXDXcXhX|.c.j.W E x l g x g s d d K K x d x I K K K x x x x l s s s s s s s s f k f f f f f f f g g g g l l k f k z z z z z z s s s k k k f z k k z z z z z z x z x x x c c x x x x z x k z z ",
"N N N z N z z z z z N N N N B V V V V V V V B z f f u u u u s f z z z f f z V ..h.i.u.i.a.u.! V N N N N N N N N C C N S S S A A V V V V V V V V V ! ! ! ! ....! y.y.y.y.A V C n A A ! y.! A A y.............( ..................X.X.........................! W W B B B B B B B B B B B B x g z z B A ..! S z f f N V V V B B V ! A A S S B V S S V V V V V V V V V V V S S S V S S V V S S S V V S ( ........( ..y.y.y.y.y.y.y.y.y.y.y.y.y.t.A y.y.y.t.y.y.A A ........y.y.y.y.y.y.......! A A A A A y.q.A A A y.A A A A A S C S B N N B B B N f y u ..V.h.V i z N S S A V ..| | | X.u.u.u.u.s.y.y.y.u.y.u.y...u.y...! V B N z z z z z z z z z z z z z z z f i f f i i i i u u z z z z z z z z N S A ! ........................y.A A S S C Z y.y.y.A S N N C S z z z z z z z z V V V V B B z z z z x z x z x z x z x z x x B S N M C C S C N i i z x V W W  .O._ ` L w l s s s s s s s s g g l g Q %.~ I d s d s d d s s s s s s f f f f f f f z z z f f f f z f l g x g x f k z k z z z z z z z z z z z z z z z z f f f f f i u i f i f i z i f i f i f i z z ",
"N n n N N N N N i i f z z z z z f z S ! ! ! N f u u u u u s u u 2 u f z f u u y z z z N S B f y S S S S S C N N C S S S S S A A S S B S S S S S S S V V V V V V A A A S N N N C N N S S Z A A ..( ..............y...u...u.......X...........| | V V B z z k f s f s s s a u a y y s s s s s s s u u y t y u u f i f f f f f z z i i z z z i i i u i u u j u u u j j j j i i i i z j j j f j z z z z B V ......y.....! A A A A A A S C N C C C N N N N M N N N i z z N N C S A V A ..............A A ! A A A A A N N N z i i i i f u u u s f s u f x f y y z B f i i i i j z N V z z z z B S V V B B B B B B B N B B z f f u u u u u u u u u u u u u u u u u u u z z z z f f f f u u u u u u f f u i f z N B V V S S S S S V V B N i u i i u y u i z z z f f f z u u u u u u u u u u u u u u u u u u f u s s f s f f s u s s f z C S S A A A N i i f f f u 4 4 u 9 7 7 9 s k s s s f g g s s g x W %.f.%.W d s d 9 8 8 8 8 s s s s s s s s s s s u u u u u u u f u u f f f f s u f f i i i u i i u u i i i i i i z z f f i i i i i i i i i i i i i i i i i i z z ",
"b i b i b i i i i i i i i i i i i f N S A V B f z u u u f k z k z k z z z z f f f f N B S N f i N N N N N N N N C C C S C C C C S S B B B B B B S S B B N N N f S S C N n i i i f i i i N V A ! A ( ( ( ( ( A A A A ! ! V V V V B B B B z z z z z z z f z f z z z f f f f k f z f f f f f z f z f z z z z f f i f f f i f f i i i i i i i i f z u u i i i i u u i i i i i i i i i i i i i i f f i i f z B V ....V V S N N z z z S C i i i i i i i i i i i i i i i u i i z z N N S S S V A A A A ..! ! A S N N z f i f i f i i i f f f f f f f f z u y f f i u N N M i i i i i u z z z z z N N N z z z f f f f f i i f f f f f f i i u u i i i i z f i i i f f z y y i i i i i i f f f f f f f f i i i i f z z N z z z z z z z z f i f f z z f f f f f f f f u u k z f f f z k k s s s s f k k z f z z z f z f z f f f f f z B V ....y.y.y.y.A N b n f i u u s s k k k k s u u u s f f f s s s l 8 a d a 8 1 3 8 s s s s s s s s s s f f f f f f f f f f f i i f f f f f f f f f z z z z j z z z z z z z j i i i i i i i i i i i i i i i i i i i i i i i i i i i ",
"p.p.p.e.q.A C C N N N N f i u y i y y y f f f u f f s s u 3 2 2 u u u u i f f f f f f f i i i n i i i i i i i i u u u u u u u u i i i i i i i i f f i u y y t t y y i i i i p p i i p p i N N i z z z i i i i z i i i i i i i i f i i i i u u u u u u u y t y u u u u u u i f f f f u u u u u u u u u i u u i u u u i i f f f i N z f i u u u i i i i i i i j i i i u u u u u u u u u u i i i f f f i f f z B V B B z f f i f f i i i i i i i i i i i i i i i i i i u u i u i i u u u i i i i i f f f f u u u u f f f i i u u u y u i i i u i i f f i u y i f N C N N M i i i j u u u u i i i i f f f f i i i i f f f f f f f f u u u u i i i i i u u u u u u u f f f f i u u y u u u u u u u u z i i u i u i i i u i i i i i f s u s s k k s s s s s s k x x x u u u u u s f f s s s s s s f f u i i i i i i i i i i i i i i N i f z z N n i i p i b i z N N z u u u u u u f N u s f s s 8 8 s s s 9 a s d g l s s 8 3 4 4 4 u s s s u s s f f i f f f i i i i f i f i i i i i i i i i i i i j j j i i i i i z i i i i i N N N b N N N N N C C N C C Z A q.y.y.",
"2X7X7X2X1X,X-XA.a.a.s.y.y.y.A S S N f z z z i u u i z u u u V i.V z z k z z f i N N N b i b b N N N N N N N N N S S S S A V A A ! ! ! ! ! ! ! ! V V S B B N B S p t D t i i i f t i i i i f i i C N N N C C A A e.e.e.p.u.u.u.u.y.y.y.y.y.y.y.y.C S S S N z i i i i i u u u u u i i u u i i i u z z i i i z B V N f f f i f f f u i z N z i u u u u u u u u u u i i i u u u u u s i f f f f u u f f i i i f f f f f f i i f f f t i A y.y.A A S A A A A A A A S V V S S S S S S V A A S C N N N f f f s f f f f u u u u s s f f i N C N N i n N t S y.N i z f t i b N N i t t i u i i i f f i i i i i i i i i i z z f i i f z N N N N N C S C C N N C C N N f f f z N N N f f f f z z N B V V ! N N N N N N N N C N C C S S Z B x x c x x l l k s s s s 8 3 4 s x x f f f f f z B x x x z z f z C N N N N N C C C C C N b i i i f f f f f f b n t p i i i i i t z z i i i i i f f f g l k s s s l g d d g g s s l l l k k k k k f f f f f f f f f f i i i z N S S S N z j j i z z f i u u u u i i i i i i z N C A A A q.y.y.p.p.n.N.B.B.Z.Z.Z.Z.B.Z.Z.-X-X1X3X7X",
"7X7X7XwX7X2X1X,XA.A.A.,X,X,X X Xa.a.a.a.x.s.A z u j i u i x.CXGXZXxX<XV.x.x.V.S.B.V.V.V.Z.B.B.M.V.V.S.S.A. X,X,X,X,X,X,X,X<X3X3X2X2X<X<X<X<X<X<X2X2X2X<X2X4X6X0XkX2XB.y.S i t t i S y.a.h.B.B.B.n.n.n.B.Z.A.,X,X3X3X3X3X2X2X2X2X3X3X3X3X3X3X3X3X,X3X2X2X2X3X<X,X XA.S.V.B.a.a.s.y.y.y.s.M.B.x.M.B.B.B.B.x.h.a.a.h.a...N y t u f t N p.V.S.V.a.y.S S S S B B B B S C N N N N z z f f z z z z f f u u i i i u i u f i i u i i f f A n.1XqXqX0X2X2X7X7X7X7X2X2X2X2X2X2X2X2X2X2X2X2X2X3X<X,X XA.S.V.h.i.u...! ! ! ! V ! ! ! y.u.i.a.A.,X1X,XA.S.A.-X2X,XA.,X,XA.A.,X2X9XqX7X-XN.N.V.V.V.B.B.B.M.n.a.y.y.y.p.p.y.y.u.p.y.y.p.s.M.V.S.,X X X X,X,X,X X,X<X3X3X3X,XC.S.A. X3X6XqXqXxXxXCXxXqX6X,XQ.V.x.B.V.S.A.:X:X:X:X,X,X,XQ.Q.Q.A.Q.Q.}.}.E.I.v.v.v.I.E.|.|.E.E.|..X<X<X XQ.Q.Q.Q.Q.Q.Q.Q.Q.Q.C.C.S.A.S.S.S.S.S.S.S.-X-XA.A.Z.B.B.B.x.x.x.x.h.B.V.A.,X3X2X3X1X,XS.a.y.y.y.s.a.a.a.u.u.u.d.f.x.c.c.c.c.v.L.L.L.c.j.g.h.g.g.g.g.f.f.f.g.h.h.h.h.h.h.h.h.a.a.a.B.S.,X,X,X,XA.V.B.x.B.B.B.B.x.i.s.y.y...y.y.y.y.s.a.V.S.V.V.Z.A.-X,X,X,X1X1X1X1X1X1X1X1X3X3X3X7X7X7X7X7X",
"B.B.B.B.V.V.V.V.A.S.S.S.C.C.S.V.a.a.a.i.s.y.....z i i u V qXFXHXxX2XS.a.s.s.a.h.y.a.A q.e.y.i q.q.t.y.s.a.a.a.a.a.a.B.S.S.V.V.S.S.C.Q.Q.,X6X0X6XqXkXCXZXZXAXFXGXIXGXqXB.f h - u Z h.wXCXCXCXCXkXBXqXqXqXqX0XqXCX0X0XwX6XwX2X2X2X3X3X2X3X2X2X2X2X2X3X2X2X2X3X,X,X,XA.S.B.n.p.p.n.p.s.N.B.B.N.N.M.n.n.n.B.B.B.a.a.B.A.,XA.V O @ i D a.0XwX,X,X-XB.a.a.a.a.a.p.p.y.y.y.( A A A A S t.t.y.p.a.n.n.n.C i t i n p h n i h p i n A a.B.1X9XNXqX9XNXqX7XwXqX7X3X3X-XS.1XA.,X,X,X,XA.S.V.V.V.B.B.B.B.x.a.s.s.s.a.a.a.n.M.y.q.e.p.s.a.M.A.0X7X2X,X1X,X,X-X,X,X:X-X-XA.A.A.1X7XNXNXqX0X7X9X7X7X7X7X7X1XS.n.q.y.q.A A A A A B.q.y.a.p.p.a.y.n.a.V.V.x.x.x.i.x.V.Q. X X,X6XqX0X0XqXqXqXqXCXSXGXAXAXSXkX<XQ.,X2X2X3X:X,X2X1X-X1X,X,X,XA.A.A.C.C.E.E.E.E.E.E.E.|..X.X.X.X.X.X.X<X XE.E.}.|.E.v.E.Q.Q.C.C.S.C.S.-XZ.Z.S.Z.-X-XS.A.Z.Z.A.S.B.x.x.V.S.S.A.A.A.A.A.:X:X:XA.S.V.B.B.B.B.B.B.B.B.x.h.d.h.d.d.d.d.j.j.l.c.c.c.j.g.j.j.j.j.j.j.j.j.M.j.v.V.L.C.V.V.C.C.Q.S.S.Z.Z.A.,X2X1XB.-X,XZ.A.,XA.,XS.V.B.a.y...y.y.A A A A A y.y.a.n.B.B.V.Z.A.-X-X1X7X1X1X7X8X1X1X1X1X-X-X-X1X1X",
"s.s.s.u.y.y.y...A V S A V A V S B V V S S S V V z i u z a.4XwXV.s.y.V A e.e.e.e.A A p.Z C b n C C C C S A A y.y.A A A y.y.....y.e.r.r.! ! y.y.! u.d.d.h.M.V..X4XCXkXQ.u.m y y m Q.4XCXAXSXkXwXQ.C.V.S.Q.Q.A.,X6XQ.Q.Q.A.C.C.S.S.S.S.S.S.C.C.C.C.C.:X3X2XQ.M.u.p.a.V n C e.e.Z b C S w.S C N C A q.q.q.y.p.a.a.a.a.a.B.V.s.N D + + q.Z.n.t.q.q.A p.p.y.y.q.q.q.w.S S N C N M b i M M C S t.p.m.n.a.q.b i i f h p t i Z e.s.B.S.-X;X>X1X>X1X9X9X8X>Xn.e.q.q.A Z N C A y.y.y.y.y.y.y.y.y.y.y.y.y.A q.q.e.e.y.p.p.p.Z.Z.n.p.p.Z.,X1Xn.n.s.p.p.p.p.y.y.y.e.e.q.q.q.q.p.n.-X7XqX9X1XZ.-XZ.Z.Z.Z.Z.m.p.q.y.p.y.y.p.p.q.C p.a.n.a.y.A A q.C S A S A ..V V x z f z ..C.wXA.3X0X2XA.a.M.A.,XqXSXSXxX4X2X6XqXqX2Xh.y.p.n.m.s.s.s.u.s.u.u.u.i.f.f.f.f.f.f.f.X.k.E..X4X<X|.E.E.E.L.v.I.I.v.c.c.c.v.v.V.V.B.B.a.S.>XZ.m.n.n.m.a.n.a.y.! ..a.B.B.S.A. XQ.S.B.h.y.y.y...! ! A A ..A ! ! ..! ! V ^ B B B B B B E W W  .X.%.&.f.f.f.%.~ W E E ^ W W Q ~ ~ ~ ..u.u.y.s.y.e.n.C N.y.N.q.q.p.e.p.p.A p.B.a.y.A y.y.A y.y.q.A A A q.q.A q.y.y.y.y.y.p.Z.-X8X8X8X8X1X1X1X1X>XZ.m.p.p.p.",
"y...! V S N z f i i i i i i i i i i i z z B V A V z u B S.<Xx.V V V ! p.u.y.! A A C C n i N C i N M N N N C C A ( A A ........y.p.p.y.V B Z B B ! B B ^ ^ W ~ d.u.h.u.B f - m h.wX,X,X3XQ.h.r.B B N B B B B B ! ^ V ^ V Z B B B B B B B B Z Z B V u.M.V.u.B f f y f S f t D p M b b C C b i i b b b N C A q.y.y.a.p.y.a.V.a.z + t C p.p.q.A q.q.A A S C C C C C N N C C M b p t p p i b M S y.s.N.s.A i i f f y Z r.a.h.a.p.! A t.t.q.w.q.s.p.Z b t b b t D i i t t i n N C C C C C A A A A C C Z Z Z Z Z A A A p.N.N.p.a.-X-Xn.A A C C Z Z Z Z A A q.q.q.q.q.q.w.A w.s.A.>X-XZ.m.p.p.p.p.y.q.w.q.q.y.y.y.y.A C b N D @ p b p i N b n N i z z f s z B V z f f N N y.B.B.y.A A s.y.a.a.y.y.B.3X0XqXqX3Xa.y.a.n.y.q.q.A A A ....| | | | Q Q Q Q | Q | X.f.v.E.}.E.j.d.X.X.W W | | X.X.X.X.i.u...A N b p t p p b A Z e.p.A Z A a.B.C.C.C.C.B.a.! V S N N N S S S N N N N N N z z f x g f f f f g g Q W Q  .X.X. .Q E x d a a s d g s s f f f x B V A y.A A y.C y.N Z n b N Z w.q.e.A s.s.q.A y.y.A y.y.y.q.A A A A C C A C C C C A q.p.Z.Z.;X;X1X1X>X1X-Xn.q.C C C ",
"A A V S N N f i f f i i z z N N N N B S S A ....A S i A A.A.a.a.y.y.y.y.e.A A A e...u i i S N i b b b N S A A A A A V ! ......y.y.e.! ! ! ! ! V W B B ! ! ^ B B B r.u.h u y h.3X,Xd.^ ^ m f f f B x B B f f f g B B B B B B B B m B B B B B B B f B ! ! N u u f f f f u t p p p p p b C A A S N C C C C C C A A y.p.s.s.x.x.y.N D p C q.q.w.w.q.Z C C C N M N N C C C C C M i p p p i i i M A y.y.s.s.A f h f f Z ! p.y.A S C C S w.w.C Z C i D D t p i n N N i i t t p i i N C C C C A A C C A Z C C C C C C Z b q.p.y.p.B.p.N q.q.A A w.q.q.q.A w.q.q.q.q.q.q.q.q.A A q.p.B.S.n.s.y.q.q.q.q.A A A y.A A N i t D t p i i i i i p i C A N f z z k k B B z f N V A S A ( ( A A A S S N z N ..B.Q.<X3XA.h.S.7X7X-Xp.p.y.y.....| | | | | | | Q Q Q | W c c W X.k.v.v.x.f.X.W c c I W W W V V z u t t t D p N N n Z N C A y.u.s.s.s.V.B.h.u.! S N z B B n B B ! V S N N N N B B B B B B x x B W W ~ %.%.X.X.X.Q I x a a a a s s d f f f f f f z V ! u...y.y.N C t i p N C N N b N y.y.y.y.y.y.y.A y.y.y.y.q.q.A A C A A A A C C C A C Z q.t.p.m.Z.1X-X,X-Xm.q.w.w.q.",
"A ! A A S N z f i i i i f z N N V A A A ..! A A V N z s. XB...y.e.y.e.A A A V A S ..u u ..B V y.S N i i N A A A S A V ..y...! ! V S B S ! ! B z B B B B ^ B x g ! u.! t f ! Q.4Xh.B f B B f f f g g m B B x B B ^ ^ ^ E ^ ^ ^ W B B B ^ ^ ^ B B ^ B B B f s s f f s u s B A A N b p D p C y.y.A q.q.w.Z C N N N A y.y.y.s.B.B.s.i i b C S N b M C C C N N N N C M M M M M M b i p i b b i i N C A y.a.s.A f h f B S Z V C C A A C A q.q.Z N i t p A A N p.u.A A A C i i t t i C A C C A A C A A A A Z C C C C C C C C C A e.q.Z A q.q.q.w.w.q.q.A A A w.A w.A A q.t.y.t.q.A y.s.n.a.y.q.q.A q.A A ..y.A C i t 2 N i A V.S.B.a.A i t p N N z z z z s u u u f Z y.y.y.A A y.y.A C N S ..u.A N ..x. X XB.a.S.0XqX2Xp.y.y.....| ( | | | | X.| | W W c c c c c I W Q j.c.c.j.o.| W W V | | W k u 2 2 2 z S S y.a.B.N.y.C n A a.a.y.V ! ! ^ B B B B B B n f f B B B B B N B B B V V B B B B B W ~ X.X.Q Q Q Q Q Q E x g g g f f s s s f f f f f x V ! ..y.( C u + b A B.-X-XZ.s.S i i y.A q.y.y.y.A ( y.y.q.q.y.q.A A A A A C C C A A q.A q.t.y.y.n.A.-XA.n.p.q.y.p.y.",
"..! A A S N z i i i i i f z N S V A ! ......A A ..z i u.A.x.A V ! y.p.y.e.....A N u z ..xXx. XV.B.s.A i p i i N A A V y.y.y.y...! V V V ! Z B z ~ B B B B B ^ ! ! ^ f y u.Q.Q.V.~ g f B B m f a f f g g g g x g g g x B x B B B B B B B B B B x ^ B B B B g f f = 1 c k. X<X,X,XB.t.i t p N A q.q.e.q.w.C N N N b C A A y.B.B.a.y.S N C C C C C C C N N M M N N M M b b M M M b p p i i i i i i C C V u.a.r.B n ^ ! ! V S C N C C C Z N i t t i b A p.B.0XqX2X3XS.a.y.A N t t i C C S A A C C A A A Z C C C C C A C n C A A w.e.A A w.A A A A A q.q.q.q.q.q.q.A q.A A A q.( A S p.y.q.A A A q.A S A A C i t t i ..a.3XqXqX0XqXqXS.Z t t i N z u u s z B B f h i S A t.y.y.y.y.A S N N A S z S s.x.C.C.x.x.S.S.M.! ! ! ..| | | | | | | X.| Q W W c W W W c x x I c Q f.g.f.X.| W V | | V s 2 2 t u 2 ..wX0XwX2X3X,Xs.N N A y.! V B B B B B B B B m f f f f m B B S B B B V V ! ! ~ ~ W ~ ..X.d.X.W W W W W W E E E c g s s s g g f f f f f N V ! ..s.z + S N SXZXSXSXCXqX0XA.t.i N A y.q.y.s.s.A y.y.q.q.y.y.A A C C C C C C A A A A q.s.a.p.s.B.-XZ.m.t.q.y.y.t.",
"y...A A S N N z z z N N N N A A A ! ! ..........s.z z s.B.a.y.A C A A Z S S N z N z x.ZXFX<X<Xx.A.S.N.q.i t t i N N z S A A A A V V B B B f f B W B x x g g B ^ B m f ~ C.Q.h.u.r.^ B B f B B B E E E E E B x x I x E B E E E E E B B B B B B B x g g B B g a a s x c.xXZXCX6X,X,XS.a.C p p N q.q.y.q.A C N N N i b N C q.s.a.N.a.q.C b b M N N M M M M M M M M N M M M M M M M t p p p i i p t i i f S u.h.u.! B B B S V V A A A A S N t t t z a.V ,XAXGXAXkXS.S.V.B.a.A i t i C C A y.y.C N S A A A C C C C C C N C A A C C C A A q.q.A A A A A A A A A A A A y.A C C A ..A A y.A A A A A A A A V S z t 2 i A i.AXGXAXqX3XxXGXCXB.f t u z z u s u i z f f f S A y.y.y.y.A A C V z z V u.u.V B | i.v.V.h.u.! S ! ! ..| | | | | | | Q Q Q W W W Q W W V c c W W x W  .%.f.f.&.o.| W V k u 2 t y z i.AXPXKXZXqX3X,XC.u.N n ! ..B ^ ^ ^ B B B m f m g f f f m B B B B B B V ! ~ ~ u...X...u.d.u.X.W Q Q Q W W E E W B x g f f g g f f f f z B ! ..y...u 2 B.HXKXGXCXqX7X2X,XA.B.C t A y.y.y.s.s.y.y.y.A t.y.y.A A C S A C C C A A C N A s.N.s.p.a.A.S.B.y.y.y.y.y.",
"y.....A A A S S f z N N N N V ! y...! A A A ! ..y.N ..V.B.y.A N n N N f f N z f z a.xXPXZXV.o.u.y.N.Z.n.A i i C C N N S A A A ! S B V B f u z ! B B B W B B B ^ m B ! Q.Q.V.^ r.m g B B f B B g g g g g g g g g g g g g g x I x B B B B B B x x ^ E B ^ x f u 3 d L.ZXGXZX.Xx.S.y.B.Z.a.N p n q.q.y.y.A C N N N N N N N N A p.V.Z.m.q.C N N M b b M M N N N M M M M M N N M M i p p p t t t t t i N N f B u.u.! ~ ! B B S S B N A C N N i t i C a.S.IXPXGXA.s.S C A y.a.y.N i N S A y.M.s.A C A A A A C C C C C C C C C C N C C C A A A A A A A A A A A A A A A C S A A A ( ( ( ......y.( A A A A ( A z t 2 N s.AXPXGX3XA. XqXGXCXA.A u t t f z z s f f f u u i C A A A y.y.y.A S S N z z S V V ..W | i.x.h.i.y.! ! ! W | | | | X.~ W c c c W W W W V W Q Q W c W W c c W  .&.f.X.| x s y 2 y y ..DXPXPXZXwX0XS.s.A.S.Z i V ! N ^ ^ B B B B B B f f f f f f B ^ B B B B V W ~ ~ ~ ! W ~ ..X.~ W W Q Q Q W E E W W W W W B g s u i i f f N S A ..y.i u V <XPXAX6X,Xa.s.y.A s.S.s.t i A y.y.A y.a.y.y.y.y.y.y.A A S A A A C C A A y.C A s.a.y.y.s.V.Z.B.s.y.y.y.y.",
"y.y...A A S C C z z N N A A ! ....! ! ..y.y.A A ! S y.B.h.y.! A C N N i i i 2 z V S.PXGXxXC.x.V A p.B.S.a.b t C S N N A y...A A B ! B B y - ! u.x B ^ B m B ^ B g ~ x.Q.V.! B f x g f f f f g x g g g g g g g g g g g g g g g g B B x B B B B B W x x ^ B a ; 3 +.I.PXDX5X.XC.y.y.s.Z.-Xy.t i C A A y.y.A N N C N C A A C C q.s.Z.n.s.p.A b p M b b M N N C C N M M M M M M M M t t t u t t 2 t u i f z B ^ ^ ^ ~ ! ^ B B B B B S N i i u t z i.C.CXPXPXs.....V y.A A s.B.A i N N A a.S.B.S N A S S C C C C C C C C C C C N N N N C A q.A A A A A A A A C C A A A S A A A A A A A A ( A A A A A S ..V 2 2 u N  XIXGX XV.x...( <XB.p.y.N - t u f u u f f u u f f A A A A A y.y.y.A V V B B S V V V V ! | u.i.i.h.i.X...W | | | | | W c l k x B W W W W W B V V V W c W Q  .W W | X.| V 3 2 3 y V .XPXPX.X X^.A S A s.h.h.f N S S B B B B B m g g f f f f f f m B B B x B ^ W W W W ~ ....X.X.X.X.W W W W W W W W W W W W B B x z f N N N N S ! y.( j u x.DXKX.X<Xy.y.A ( A s.A.V.i t N y.y.A A t.a.s.y.A y.y.y.y.A A A A C C S A C A A y.y.s.y.y...y.a.a.y.A A y.",
"y.....! A A A A V V A A A ......! ! A ! ....! A ..A u.B.a.y...V A A A i i f u z a.wXPXZX Xi.i...A y.a.A.Z.A t i C C S A ..! A ! B ..V - y i.h.B B B B B B B B B ! u.h.h.u.~ B f f f g x x B B B g g g g g g g g g g g g g g g g g x x x x B B B f a f B B a 3 3 Q hXPXZXE.o...a.y.y.a.-XB.b p n y.A q.y.A C N N C C C A C C A y.N.n.n.a.y.S N N M C C b p p b N M M M M M M M M t t t u u t t t f f f x B B E ^ ~ ! ^ ^ B B z z f f i i i y z a.a.PXPX<Xx.s.A s...y.A y.B.y.i i N C y.s.y.C C A S S C C C C C C C C C S C C C C C C A A A A A A A A A C C C C A C S A A A A A ..A A ....! A A A ( ..B 2 2 u ( 2XPXSXC.u.D.y.V x.B.e.u.A 2 u f u u u f u u u f z S A A A S A A A A A V V V V ! ! ....! ..........i.i.X.| | | | | | W V x x x V W W W W W B V V V W c W Q | W W | W W V 3 2 u f ..GXPXZX.Xu.x.z ( u.a.V.V.n N B V B B B B B m g f f f f f f f f g B B x B ^ W W W ..u.d.d.%.X.....W W W W E W W W W Q ~ ~ ! ! V S Z Z Z Z A A ..y.u.i A i.GXDX<XV.u.y.( y.A A S.S.i t N y.y.A A t.y.y.y.y.y.y.y.y.y.A A A A A A A A A ..y.y.y.y.y.A y.s.y.y.A A ..",
"..................! A A ! ! ! A A A A A e.e.q.A ! A s.B.s.y.! A q.A A i p z i f s.xXKXqXC.u...A y.A t.A.,Xy.t i N A ........! A V f i - B C.! B B B B B B B B ^ d.h.h.^ B ^ W x f f x B B B B B x g g g g g g g g g g g g g g x g B x x B B B B u y f B B a 3 3 Q ZXPX6Xv.X.V ! s.y.q.S.-XN t b y.A A A A A C N C C C S Z C C A p.s.n.n.s.p.A M b N C b p D p M M M N N N N M M u t t t y y u u f f f x B B E E ^ W ! ! W B x z f f f f i y N h.y.PXPXB.V.u...D.( y.A y.Z.a.N i N C A A A C A A A A A C C C C C C C A A A A S C A A A A A A A A y.y.A A S C A A S Z A A A ! e.y.! e.e.y.y.e.e.! ....V t t j ..wXPXqX^.....A B s.a.A a...t i z y u u u u u u f N S C Z Z Z Z S S V V V V V ! ! ......! V V V V V ..u.i.X.| W W | | Q W V B V W W W W W V B V W W E E W Q | W W | W W V 4 2 u z i.PXPXv.| i.V V B.h.B.S.C.n f B ! B B B B m m f f f f f f f f f f B B B B ^ W W ~ d.d.d.d.f.X.X.Q W W W E E E ^ W W W W ! ! ! V V A q.A A A A y.y.y.t y.i.KXqX3Xi.V B A s.A y.,X,Xi t i A y.y.t.t.A y.s.s.y.......y.y.................y.y.y.y.......y.y.y...! ! ..",
"A ........y.y.y.A A A A A A A A A V A V A e.e.A A A s.M.y.A A V A e.p.n y C C N A CXHX0XA.a.....s.A A Z.,Xp.t t N A ........A B S 2 2 z h.h.B V B B B B B g B r.h.h.! g f B ^ B B B B B B B B B x g g g g g g g g g g g g g g x B B B B B B B B f f f B B s y 3 X.ZXPX}.i.u.....s.y.Z Z.,XN D N y.y.A A A A C C S C C S Z C C C A t.p.s.n.n.p.Z b b M b i i b N N N M M N N N M i t 2 t y y u u f f f g B B E E E E ^ ! W W B B S B f f i y z h. XPXKXxX X Xa.N A y.A y.A.a.i i N A A A A A A A A A A A C C C C C A A A A A A A A A A A A A A A s.y.t.A A A A A A A V A A ! e.e.! e.e.y.y.y.y.e.( ( A i t j ..3XIXqXC.A A A V M.u.A B.u.t i B u u u u y y u f N Z A Z Z S S C N S S B B B S V V V V V V V V V V V ! ..| | | ..| ~ Q Q W W W W W W W V W B W W W E E W W W | | | | | W 4 2 2 z x.KXKX}...V S.UXx.a.h.V.C.n f N V B B B B m f f f f f f f f f g g B B B B ^ ! ~ ..u.u.X.X.X.Q W W E I I I B B B B B B V V V A V V A A A A A A A A A i ( B.HXqXA.s.y.V V ..C y.,XS.i t i A y.y.y.A A ..y.y.y.y.....y.y.y.y.y.y.y...y.y.y.y.............! ! ......! ",
"................! A A A ! A A V A A A A A A e.e.! ! s.a.y.A ! A A e.a.V f e.e.Z e.CXCX0XA.y.A s.y.A t.A.,Xy.t i C A ! A ..y.V f y y 2 ..V.u.! z m m B B m n ^ h.d.! B x x x B ! W W B x f g x x B B x x x x g g x x g x x x B B B B B B B S S S S N N B N i y u f.ZXPX6XV S a.N.A y.t.A.-Xi + C y.......A C C A A C C C A C C C q.y.p.p.n.Z.Z.s.S N b i b M N N M M M M N N N N f y 2 2 y y u u f f l x x E E E E E E E W W W W ^ Z N n f u N h.C.PXPXAXs.! S a.A y.y.B.A.y.t i C A y.A A y.A C A A A A A S C C C C A A A A A A A A A A A A A y.s.y.y.A A A A A A A A q.q.q.q.q.e.e.e.y.y.y.y.y...A A i t b y.3XGXAXa.S ( y.S s.y.e.V.y.t u z u u u u y u f f B S S S S S C B B N N z z f z z z N B B V V V V V V V V ! | ..| W ~ ~ ~ W W W W W W W V V B V W W c W W W W | | | | | W u 2 2 f x.PXFXi.CXAX4XN y.p.a.V.S.n f B Z B B B m f f f f f f f f f f f f B B E E W ~ ..u...X.Q W I I I I x x x g g g x x B B V V V ! ! A A A S C C C A A y.A y.A.qXCXS.B.u.( S ( y.S.2XB.t t i A y.y.y.A ......y.y.y.y.....y.y.y.....( ( e.e.e.y.e.e.y.y.y.y.! ! y.y.y.y.",
"............A A A A A A A A S S A A A A A A e.! y.e.u.s.p.e.y.A V A a.y.N y.y.C ! qXqXqX,XA C y.A t.a.-XA.q.t i A A A A ..A N u 2 2 u C.C.B V z m m B B m B r.d.! x f B B f x ! ~ ! B B g g x x B B x x x x B B x x x x x x B B m B B B B B B B B N f f f h h f X.qXKXZXx.u.y.t.S a.N.>XN.p D N A A y.y.A C A A A C C C Z C Z w.t.q.q.q.s.B.Z.Z.n.q.M p i b M M M M M M N N N z z u 2 2 y u u s f k x c E E E ^ W ^ E E B E W W ^ ^ B N f u N a.0XGXKXqXa.A B S A A y.S.V.C i N A A ( A A A A A A A A A A C C C C C C S A A A A A A A A A A s.B.y.y.A A A A A A e.e.e.e.e.q.A A q.q.e.e.y.y.y.y.y.( ( i t b s.3XSXAXA.y.S A S s.a.a.B.A t i z z s u u u u f B S S C C S S C B N N N z f f f f f f N S V ! ! V V V V B V ! | W W ! ~ W ! Q W W W W W V V V W W W c E W W W |  .| | | W s 2 2 i h.GXGXKXSXs...M.u.s.M.V.V.n B B Z B B B m f f f f f f f f h h f f B ^ W W ~ ~ X.u.X.Q E x l x x x x g g g g g g g f z x B B B N C C C C C N C C A y.C y.a.,XCX0X2X..i.a. XwXwXA.C t t N t.y.y.y.A y...A A y.y.y.y.y.y.....A A A A e.e.e.e.y.y.y.y.y.y.e.y.y.y.y.y.",
"y.y.........! A A A A ! ..A A A A A A A V A ! e.e.A y.y.e.e.y.V A Z h.s.C A A i N M.2XSXqXa.p.N.a.B.Z.Z.a.N t N A A A ..! C i t y u x.6Xd.u z B B B B B ^ r.r.! B x x B B f x B ! ~ W ^ B B B B B B B B B B B B B B B B B B B B N N N N N B B B N n f f i p p u B i.CXZX4X<Xs.t.m.;X-XZ.q.D p C A S A ..A A A A q.A C C C C A e.t.A C C w.y.n.B.Z.n.p.C b p b M b b M M N N N N z u 2 y u s f z x x c B E E E E W ^ ^ E B ^ W W ^ ^ Z Z N y f y.Q.0XAXqXB.A y.( y.y.B.S.y.i i i C A A A A A A A A A A A A C N N N N N N C C A A A A A y.y.a.a.a.y.A A A A A A A q.e.e.e.e.e.q.q.A A q.e.e.e.e.e.y.A y.C t i y.S.0XqXqXV.A A S V.A.Z.a.z u z f z f u u u f z B S Z A A A Z S B B N N z f f f f f f N B B V V V V ! V V V V ! ! ! W W W W W W W W W W V V V W W W c W W I W | X.| | | | x u 2 y ..AXGXAXN V a.qX0XM.V.S.M.f Z ! B Z B B n f f f f f f f f f f n B ! ~ ~ X.~ ~ ~ X.~ W c x l x x l x g g g g g g g f f f z z z f i M N N N M N C C C N C A n.2XqX0XUXCXZXGXGXCXx.i t t C y.y.y.y.y.y.........y.y.y.y.y.y...A A A ( ! ! ! y.y.y.e.e.y.y.y.y.y.y.y.y.",
"................A ! ..y.s.s.y.y.A A A A A A ! ! A A A e.A A ! S A A B.B.A V Z i N A 1XAXSX1X1XqX,X,X-Xa.A i t C A A A y.A f t y - i.ZXqXf z W z B B g B ! u.! f x B B x f x B x ! ! ! ~ ! W B B B B B B B B B B B B B B B B B B B B B S S S S S N f f f i y y y u u X.2X2XqXA.2X>X8X-Xs.b D C A A S A ( y.A A A y.A A C C C q.y.y.C b N C A p.N.B.Z.Z.s.C p i b b b b M M N N N i y 2 y f z B B B B B E E E E E E E E E ^ W W ! ^ ! ! ! B t t B u.wXqXqX,X>XM.a.N.s.S.S.A i N t N C q.y.y.A A A A A A A A C N N N N N N N C C A A A y.a.Z.V.s.A y.A A A q.y.q.A A q.e.e.e.e.e.e.A A q.e.e.e.e.t.y.A s.A i i N y.3XV.qXS.a.s.s.S.,XA.y.t u N u z f u u u f z B S A A A V A A S N N z z f f f f i f f z B B V W W V V ! V V V ~ ..V W V V V V W W V V V V V V V V B W W V W | X.| | | o.V k y - N B.0XqX2Xs.Z.A.M.S.Q.S.a.h Z ! S Z Z B B f f f f f f f f f B V ! ~ X.u.X...~ ~ ~ ~ W B x x l l f B x g g g g g x z z z z z z i i i b b b i b b N N A p S Z s.0X,X<X0XwXCXCXx.t + 2 t A y.y.q.y.y.! ..y.y.....y.y.y.y.y...! ......! ! e.y.y.y.! ! e.y.y.y.y.! y.y.",
"| ....! A ! y.h.B.B.a.a.s.y.( V S A A A A y.y.y.y.A A A q.y.A A q.y.a.V.B.a.p.y.n p p.qXSXCXCXCX2XV.A i i z N S S V ! ! z u y y 4XFXFXC.y z W s x x V ~ ~ V x x B B B m m B B B B ! u.! ! ! ! B B B x z g z g f g z x z B B B B B V ! u.i.a.h.a.! y.u...B f u u f u z u.^.3X3X3X1XA.t.p t C t.q.A A A A A A A A A S S C C S A q.C Z C M b C q.p.Z.n.N.S.n.C p p p b N M N N N M t t t t N A A A W W W W W E E E E W W E W W W W ~ ! ! ! ! N p + N y.Z.1X1X1X>X>X>X>XA.s.N p p b N S q.A A A q.q.q.A A C C C N N C C C C C C A A q.s.Z.-XZ.a.p.y.e.A A y.B.-Xn.A A A q.A A y.y.y.t.A q.y.y.q.q.y.p.t.y.y.A i i N a.Z.,X1X>X>X1X2X3Xu.u y f f f f f f f f f z z N C A y.A A C C N C N N f i i i i f f z x B B B V V V V V W W ! W | W W W V V V V c c V V V V V W V V W W V V ! ..| V | ..A i 2 t C n.8X9X7X1X1X3X7XS.V n B ! ! S ! V S N f f f f s f x W | ......h.d.d.u.u...! ! ! W B B B B z n B m m m m n f f N N N N N N N N i i f f f f f f z N N i u z i.C.,X,X Xx.A i t t i C ! y.y.y.e.A ! ..y.y.! ! ! ....y.u.y...! ! y.! A A ......A A y.y...A A ..y.y.",
"V V u.V. XQ.V.a.y.A A C C S ( ..S A A A A A A A q.A A A q.q.A A Z A p.n.B.a.s.s.A i i e.n.B.n.y.! S f i f S S B y.y.! S f - ! qXFX6X..z V W x f x x V ! W V x B B B m m B B m m B ! u.u.u.r.! ! V B S B B B B B B B B B B B B x N B S V V V V V ! u.h.h.u.V f y y 2 u z A A y.y.y.A b p M S q.w.S S S S S A A A q.A q.A A A A A S S Z C b b M C t.p.n.Z.Z.p.b D p p i b N N M i i i i b q.s.y.S Q W Q Q W Q W W Q Q ~ ~ ~ X.~ ..! ! ! ! ! ! N i p N q.p.B.Z.Z.S.N.p.S b b b b i q.t.p.t.q.t.t.y.A A C C C C C N i N C S C A q.y.A.1X2XZ.y.A q.p.p.e.q.n.1XqX1Xa.A y.y.q.q.q.A C t.A A y.y.A A y.y.t.y.p.y.N p p S y.n.A.,X-XZ.B.S i y u z z f f N z N N N B V V A A ( A S S S C i b N N i i i N z z x B B V W W V V V V V V V V ! V ( V V V V V V V ....V V z z z N S S S S S S y.! ! y...z u t p M p.;X1X1XA.n.q.N i f B ! ! B B N N z f f f f B B W X.f.g.g.g.d.d.d.d.h.d.d.u.! ! B B f x B B m m B B B B B B f f f z z z z i f f f f f f f f u z z z f u u u i i i t D + t t N V y.y.y.y.p.y.y.y.p.y.y.y.y.y.u.y.y.y.y...y...u.y.....y.y.y...S A ..y.y.y.A S ",
"6X<X XQ.x.y.C f p f Z A y.( S N y.y.y.y.y.y.y.y.V V V ! y.p.y.A q.q.p.a.B.M.n.a.a.A n p t N Z i f f N S V ! ! ! ! V B - t Q.kXQ.i.V z V ! B f B B z B B S B z B B B B B B B m f m ! u.a.u.u.r.! ! V B B B B B B S B B B B B B B N B B B B N N f S V ..u.i.! z y i u u u u u i N i t t N q.q.q.q.A A A A w.A w.A N N S A A A Z C C S w.w.S C C S q.a.N.B.S.A.p.i t + t i M i i i i N N C s.S.B.! W W W W W W W W W Q W W W W W W ! ! ! ~ ..! V S y t t t i M M M M b i p p p b N C A q.q.A A A S C C N N N C C C ( ..A C N A a.A.0X0X-Xp.A y.p.q.A A A t.B.A.B.q.A A A A A y.y.y.y.y.y.y.y.y.y.y.y.y.y.y.y.y.A N t t i i C C N i 2 2 y z N f i i z z N z N z S S ....A S S S S S S S S N z f z N f f f f N B V V ! ! V V V B B B ....! A V S S B N N z z N V y.s.A.B.s.A S S V A Z V y.V.S.a.A b t D D t b C b p p i f B V W B x V V V B V V W W W Q X.X.&.f.f.f.v.c.g.f.&.X.X.Q X.Q E x g f f g x x x x z z z z z z z z z z z z z z z f f f f f B N z z z z f u t t t t t i n Z e.p.y.y.! ! e.! A A t.y.q.A y.y.y.y.y.s.a.B.n.a.a.s...A ! ......y...V S A y.x.C.",
"x.i...z y 2 f V N N C Z V ( ..y.V V A A A A A A y.e.A ! e.e.! A q.A A p.a.B.B.M.s.s.s.C p i Z S S S V V V V ! ! ! V t B 2XqXV.i.B ! ! Z B Z Z B S N N S S B B B B B B B B B B B B ! u.a.u.u.u.u.y.! ! V Z B B B B B N N B B B B B S S S S S B B S S V y.a.h.a.u.z z z z i y t t t i N A e.q.q.q.q.q.w.A w.S Z Z Z S w.q.q.q.w.A Z A q.y.y.y.y.y.p.a.m.a.Z.,X,XB.i 2 t i i t t b i S A S y.A.C.i...~ Q W W W ~ ~ ~ ~ ~ Q Q W W W ! ! ~ ~ ....! ! y.Z b i i i p p t i N N M i M N N A e.y.y.A A C C N N N N N N N b b N N A B.0XCXqX3Xn.A q.y.y.A t.y.y.A C A q.A y.y.y.A A A y...y.A A ( y...y...A ( A ..p.a.y.A N i t 2 - 2 t t f f N S N f f B Z S V S Z V V A ..A S N N N C N C N z f z N f i f f n n N B B B B N N N n n B N A A A A V V V V ! y.y.s.B.A.2XqXqX3XZ.p.e.e.p.p.p.s.B.-X:XB.p.A C M b p D D t t i z S ! ! ! ~ ..V V V B B B V V ~ X.X.&.f.f.j.f.&.&.O.O.O.&.&.O. . .Q Q W I x l k k k k k k k k z z z z k k z z z z z f f f f f B z f f z V ! ! ! V S C S V ! y.y.p.p.y.! ! e.y.y.y.p.p.p.y.p.s.N.N.Z.S.-X-X-XA.A.S.x.s...A V V A ..a.V.Q. X,X,X",
"s s f f f z ! a.C.V.M.y.A B N N ! ! ! ! ! e.y.y.B.h.u.r.! ! A V A A A e.s.M.B.B.s.s.a.p.N i N C S S S S S V ! y.! y y.6X X..V V s.A B A ! Z Z e.! A A ! ! A e.e.V B B B B V V ! ..u.u.i.u.u.u.a.a.u.u.u.r.r.r.! ^ ^ Z Z Z B Z B B B B B B B Z B Z Z ! r.a.h.S.C.x.Q. XV.! i y u i A y.y.e.A A C A A w.A w.Z w.A q.q.q.w.q.A w.A p.y.s.s.a.a.a.a.a.a.a.V.:X2XqXqXB.S t t u t y z z A ! B ! B.Q.C.d.f.X.~ W W W W W W W Q ~ ~ ~ ~ X.~ | | ........u.y.! A A C C C C N f C e...C i n N C A V S Z C S B N N N N C S A ( s.S.2XxXAXHXSXUX3XS.a.y.y.s.( y.y.A A A y.s.A. X Xx.y.( A A y...y...y.y.y...a.x.B.B.C.A.B...y.! V V ! A N i N N n f i i n S A V A V Z A A A A S B N N N N N i S ! ......! S Z Z A ! ! A Z Z Z Z Z Z Z Z A ! q.y.p.s.a.B.B.S.S.A.3X0XqXqXqXNXqX0X7X7XwX0X0XwXNXqX0X7X1X-X-X,Xa.Z.1X,XV.s.y...! y.u...V B B V ! W W W V W W W W  .X.X.%.f.l.k.&.#.#.#.#.O._ L I I I Y W W W I k k k k k z x x k k k s s s j u f f f i i i i f i f f z S B S B A V A V A ! ! A ! e.y.u.s.s.a.n.N.Z.Z.Z.Z.Z.Z.S.;X;X-XS.Z.Z.S.A.A. X XQ.V.x.x.C.Q. X<X<X Xx...B ",
"u 2 2 f V ....y.s.M.S.Q.A.C.S.S.V.V.V.V.V.V.S.C.Q.S.M.h.a.h.h.h.B.B.M.M.B.S.S.Z.A.M.M.B.a.p.p.y.u.u.a.a.a.a.h.h.V C.Q.a.x.h.u.a.e.q.e.n.a.e.e.p.e.e.e.e.p.e.p.p.y.! ! ! ....u.u.i.u.u.u.....u.h.h.a.a.a.h.h.a.u.a.u.u.u.r.! ! ! ! ! A Z Z S Z Z ! r.u.a.a.h.B.V.6XxXCX6Xu.i u z f y.M.a.s.p.A Z w.q.q.q.e.e.e.p.p.p.p.p.p.p.s.s.y.y.p.y.s.a.a.M.B.B.S.,X3X3X3X2XqXh.y - u f f f f ! y.V V x.<X6X XQ.L.x.h.d.d.f.u.X.X...~ ~ Q Q ~ ~ ~ ~ ~ ~ ! ..! ..y.y.A A A A ..A A A y.y.y...A A A V A ! y.s.x.x.B.C. X3XwX6XSXSXAXAXGXGXGXKXKXFXSXCXqX2X3XwXwXwXwX0XqXqXqX0XwXqXqX0X3X XA.C.B.B.B.x.B.S.B.x.V.B.h.i.h.S.C.V.V.i...i.C.Q.V.u.p.e.A V Z V Z V e.y.e.! e.! e.y.S B N N N N V V ..C.6X6X<XC.V.V.:X:X:X,X:X:X:X-X:X:X:X:X:X:X:X,X,X,X1X3X2X7XwXwX2XwXqXqXqXqX0XwX3X1X:X1X3X7XwX7X7X7X2X1X:X1X7X0X7XqXCXSXSXqX2X XA.,X<X XV.h.i.d.i.i.d.f.f.g.l.l.E..X5X5XfXxXcXvXnXnXcXcXvXhXOXJ. . .Y U I I U W U I c l k k s s x z x x x x z z N N z f f N N N N V ! y.y.! ! ! y.y.y.s.a.a.s.y.s.s.a.B.V.V.V.V.S.A.-X-X-X-X-X>XS.S.S.Z.S.>X9XqXSXZXZXCXkX6X6X0X6X Xx.! f y y y ",
"f y s W x. X<X2X2X2X,XQ.V.B.V.C.S.A.C.Q.C.C.C.C.A.S.V.S.C.Q.Q.A.:X,X:XC.S.A.C.S.,XV.S.A.A.A.Q.C.A.A.Q. X XA.S.V.,XS.S.S.V.,X3XS.,X:XB.a.M.S.M.e.u.u.s.a.h.a.a.a.a.i.i.h.h.h.i.i...~ ! V B B V u.h.h.h.h.M.M.M.h.M.h.M.h.h.h.h.a.h.a.a.u.u.u.u.u.M.V.S.S.S.S.Q.Q.4X6X<Xx.x y y u f S u.h.h.a.p.p.e.p.p.p.u.u.s.s.n.n.n.n.M.N.M.B.S.V.V.C.Q.Q.,X,X3X2X4X0X6X<X,X,XC.! 2 - y i f f f ! ..V B u.Q.<X4X<X<X XQ.Q.Q.Q.Q.C.V.x.h.i.u.u.~ ~ | X.~ ..u.u.i.h.h.a.a.s.s.s.u.h.x.x.h.h.V.Q.Q.C.C.C.Q.Q.,X3X0XqXqXxXCXSXAXHXGXGXGXGXGXGXKXIXGXAXCXCXCXCXUXqXqX0X0XqXqXqX0X2X3XwX6XwXwXwX2X3X^.^.C.B.S.C.B.x.V B f u f B ..h.C.h.! ..h.Q. X XQ.A.S.V.V.B.B.x.B.B.B.B.B.x.B.B. XQ.A.A.C.Q. X4XCXHXGXFXZXCXCXxX0X0X0XqXqXqXqXqXqX0XwXwX2X2X2X2X3X3X3X3X3X3X1X1X2X2X3X,X,X,X,X3X3X,XS.B.B.Z.S.-XZ.-X3XwXqXqXNXNXqXqXCXCXCXxX0X2X,X3X6X6XqXqXqXqXqXqXkXkXkXxXxXxXxXZXFXFXGXJXKXKXKXKXKXKXKXJXFXFXcXcXvXhXfXfXfXkXhX5X5X#X.X}.v.v.o.i.X.X.....A V ! ! V V V ! ! ..u.u.a.a.a.h.B.B.x.B.B.B.B.B.B.x.B.x.B.V.S.S.C.A.^.>X>X>X>X>X>X>X1X1X1X2XwXqXCXSXGXFXHXZXqX<XC.v.k s y 3 3 y s k ",
"u y y f z B B ! ! u.B.C.C.C.S.S.S.A.A.Q.C.S.S.S.C.S.S.S.C.S.V.B.h.B.V.B.B.V.S.V.B.B.S.S.B.V.C.S.C.S.C.C.C.C.S.V.a.V.S.V.B.s.u.h.p.a.V.V.M.h.M.M.M.M.B.S.S.V.B.V.x.x.V.V.V.V.x.i.B x f f u u z V V.V.V.V.C.C.V.V.V.x.V.V.V.V.V.V.V.V.x.h.h.x.V.V.V.V.C.C.C.Q.Q. X Xx.! s u z N f i y z y.a.u.u.a.u.p.p.p.y.r.r.e.r.e.! A V S N N N f f f i i u y f i y t - - - - - - - 2 2 - y f B ! ! B u f V u.i.i.i.u.i.i.i.d.h.i.i.i.i.u.u.u.u.u.u.i.d.h.x.x.x.x.x.x.B.B.B.B.V.V.C.Q.<X<X<X<X<X<X<X4X6X4X4X4XwX6X6XwX6X6XqXqXCXSXZXSXCXUXqXUX<X<X2X3X3X3X,X X X,X3X3X X X^. X^.C.x.a.D.x.x.s.x.x.i.u.u.u...V f f z z f f f B z z z f f B u.V.x.B.B.x.x.B.B.B.x.x.x.x.h.h.x.x.h.i.u.u.u.u.x. XqXqX6X<X X<X XC.M.M.h.h.M.B.V.S.A.S.B.h.a.a.s.s.y.y.u.u.s.s.s.s.a.a.a.s.s.u.y.y.s.s.p.p.p.p.p.e.e.p.a.B.S.A.S.S.B.B.V.S.A.S.B.a.V.S.V.V.V.V.x.x.x.x.v.v.C.E.E.|..X5XkXxXxXZXDXZXnXcXvXvXvXvXvXhXhXhX5X5X5X5X5X5X6X6X4X@X.X}.E.E.C.C.V.x.i.y.A A ....! ! ! y.u.u.y.u.s.a.h.a.s.u.u.s.u.y.y.y.s.s.a.s.a.B.A. X,X3X3X2X2X2X3X3X2X2X3X3X3X3X3X3X,X Xx.f.u.| W x f u u u u u u u u u ",
"h t - - - - - 2 u f f i N n n C N n n n N N N n S S S S S S N N n N N Z Z Z C C N N C C C N N N N N N N z f i i i i i i i i i i i i i i i i i i f f f f f f f f z z f i u u u u i u u z N i u f y y y u u y y y y u u u u f f s f f z z z z z V f z z B B z z z u u y y y u i i i h h i f f f n f f f i u u u u y y y t t t 2 2 t 2 2 t 2 - - 2 - - - + + + + + - - - - - - - - - - - 2 2 - - 2 2 t t t y y y y u y y y u f f f f f f f f f f z z z N N B B V B B B S V V ! ! ....y.y.y.......y.y.y...( A A A A ( ( V S N z z j i i i i i i u u j j j i i i i i i i i i i i i i i u u u u i i i f f f f f f f f f f f f f f f f f f f f i i i i z z z z f f f z f f f i f f i f u u y y y y u u i i f f f i i u i i i i f f f f i i i i i i i i i i i i i i i i i i i i i i i i i i i i i i i i i i u u u i i i i i i i f i i i s s s s s k k l l l l l l l l k l w w w 0 w l l l l l l l l l l c x x l k k k k z z f f f i i i z z f f f i f z z z n f i i f f i i i i i i i i z z z N N N B B N N N N z z z z z z z z f i u u u u u u u u u u u u y y u u u u ",
"S N N N B f f z f f i i Z C i i i f n N N N n n f f n n N N N N S Z A A A A A V C C C N N N n n z z f f i i i i i f i i i i i i f f f f f f f f f f f f f f f f u i i i i i i i i i i i u u i N z s s u u y 3 u y u u u u s s s u u u u u u u u s f z z z z s u u u u y y y y i u u u h i f f f f u u u i u u u z f u u u z f f f i f f f u u f f u u u u u y t y 2 2 2 2 t y y u u u u u u u i y y y y u f f z f f f f z z z f f f f z z z z z f f f f f i u u f f f f f f f f u u u u u u i i u u i i i i j j u u u i i i j z B B S S N N N N z z z z z z z z j j j j i i i i i i i i i i j i i f u u s f f f f f f f f f f f u u u u u u u u u u u u u u u u i i i u u u u u u y y y y y y u u i i i u u u u f f i i u u u u u u u i i i i i z f f f f z z z z N N N N S S S S S S S B B B N C N N i i i i i i i u u u u u y u u u u u s s s 8 8 8 8 8 4 8 4 0 0 9 8 8 8 8 8 s s s s a s a s u 4 s s s f f f u u u f f f n N y u u f f f f f i i i i i i f f i i i i i i i i i i i i i i i i u u u u u u u u f f f f f f f u f f f f z z z z f u u u f z f f ",
"N B S V S N z N N N N C y.y.A C N N n i i i N A N N N Z A V V A ......y.y.y.y.y.y.y...A A A V V N N N N N N z z z i i i i i i i f f i i i i i i i i i i i i i i i i i i i i i i i z N z z z i u f u u u s u u z y t 3 u u u y u 2 u u 2 5 u u u y u u i u i u u u u i i i i n n i i i i i i h h u u u u i i i i i i i f f i u u z z z z i i z N i f N f i u i i y y y t t y i f f i i f f i f f f f f f i i i u y i i i z i i u u u u u u u u i i i i i i i i i i i i i i i i u u u i i u i i i j z z z z N z z S S V V A A ( ( ....y...! A A A A A A S S S S S S B N z z z j j b z j j j b z z z f f f f f z z f f f f f f f f f j j z z z z z z j j j u u i i b b f f i i i i f f f i h h i u f i u i u i i i u u u u u i f z i i i i f z z z z z z z z z N N B V V S S V V V V V A A V V V S ! A V S C N N N N N N N N z f i z z f f f z z z s s s s s s s s s s s s s s s s s s s s f f f f s s s f f f f f N z f f f i i i z k z z z z z z z z z f f f f f i i i i i i i i i i i i f f i i z k k k k k z z s s f f f f f f f f f z z z z z z z z z z N N z ",
"N N Z S S C S S N A A A y.y.q.y.y.A Z C C C A A A A e.y.y.y.u.u.u.y.y.y.y.y.u.u.y.y...! A ! A ! A A A A A A A A S S S C C C C N N N N N N N N N N N N N N N z z N N C N C N N N C N N z A s.y.N N N B V V B z N B N z N z z z z j B S z j B S z N N N B N z z z A C C C N N n n N N N N N N n f f z z z z z z z i z N N i i N ( y.A z i i z z N N z z N A A A C z z f u i i N S N z N B S N N N N N N N N N S S y.y.y.y...A S S C N C N N B S B N C C S S S A A A A V A A A A A y.y.y.y.y.y.p.y.s.u.s.s.s.s.s.s.y.u.y.u.y.y.y.y.s.s.a.a.s.s.s.s.s.s.y.y.y...A A S V S N N N N N N z N z N N N N C N N z N N N N N N N N N z N N z z N N N N N N B B N N N N z z z z i i i f n f f f f f f i f i u u u u u u i i u u u u u i z z N N N N N N B B S S S S S S S S S S S V V A V V S V V A A V A A V V A A S A A A S S Z C C C N N N N n f i f f f f z z s k k s s s s f f f f f f f f f f f f f f x x x x z z f f f f f z N S S V V c x z x c V V B B N N B B N N z z z z z z z z N N N B S S S S B B B B B B B B B V B B B B B z N N C N C B C B S S S S A V S S ",
"C S S C N C S S S A A t.N.Z.B.n.y.y.y.y.s.y.( S e.y.y.y.y.y.y.y.y.y.y.y.y.y.y.y.y.y.y.......y.y.y.y.y.y.y.y.y.y.y.y.y.y.y.y...........................! ! A A A A A A A q.A q.A q.A C C a.,X2X,Xx.B.V.S.B.s.( S ..S A A A S A ( B.^.A.s.A S S N S S S S S S N N C C C C C A A A Z Z A A A A A Z A A A A A S A S A A C S S y.V.,X,XB.y.C S S S N A N N s.,X3XS.y.y.A A S C A A A y.A e.y.y.A A A A A A y.s.V. X,XA.A.S.x.s.y...A A ( A ( ( ( y.( y.t.y.y.y.y.y.y.s.s.s.s.s.s.s.s.s.s.a.a.s.s.s.s.y.y.y.s.s.a.a.a.a.a.a.M.a.a.M.a.a.a.n.B.B.B.B.B.B.a.a.s.s.u.p.y.y.y.y.y.y.y.s.s.s.y.y.y.y.y.y.y.A ..y.y.y.y.y...y...y...y...y.....( ( ....y.y...( ( ....y.A A C S S C S C C A A C S Z S Z N N N N z z f N N N N C S C C S S S A S S S A A V V A V V A A V A A A A A A A V V V V A A A A A A A A ..e.e.e.e.y.y.y.A A A A A A A A A S C C C C C C N z z z z z k k z z z z x x z z B B x z z z f k x x l k z x x x V V W ! | X.u.u.k.k.k.k.k.v.b.f.| ..! ....u.u.y.V V V V V V V V B B V S S S S S S S S S V S V S V A V S S S S S A S A S A S A S A S A S S S C C ",
"N N N i N S V V S S S y.,XqX7X1XB.a.y.y.y.y.y.y.y.y.y.y.y.y.y.y.y.y.....! ! ..............y.y.y...............( y.y.y.......A A A A q.A q.q.e.e.A A A A A A A A A A A A A A A A A s.B.V.-X2XqX0X,X,X1X2X1XA.B.N.s.y.y.a.a.s.a.N.2X9XwX>XN.s.t.t.A A A t.t.y.p.p.p.p.y.t.q.q.q.A C C Z Z A A A A A A A S C Z S S A N C p.-X3X2X2XqX3XB.s.s.s.( C N S a.,XwXwX,XS.a.y.y.y.y.y.y.y.y.y.A A A A A ..a.B. X2XwXwX2X,XB.a.s.y.y.y.y.y.y.s.s.s.s.s.s.s.a.a.a.a.a.a.s.s.a.a.a.a.s.s.s.s.y.p.s.a.s.p.p.y.y.y.s.s.a.s.s.y.s.s.a.a.s.s.s.s.s.s.a.a.a.a.a.a.s.s.s.s.s.s.a.a.a.s.s.y.y.y.y.y.y.y.y.y.A A A A y.y.y.y.y.y.y.y.y.y.y.y.....t.q.y.y.y.y.y.y.q.q.q.A A A A A C N C N C C C C C C C C C C C N N N N N N N N N N C Z Z A A A q.e.e.A A A A A A A A A A A A A A A A V V V A A A Z Z V A Z Z S S A A A A Z Z S C C C Z Z A A A A A A S S S C Z C S S C C C N N N N N f f f f f s s s f f k x B V W W W I W W | X.f.k.X.o.i.f.b.v.}.}..X4X6X6X6X4X.XC.i.u...! ! ! V V ................A V S S V B N N A A A A C C C C N N N N N N C C N N N N N N N N N C C C N N N C ",
"-X-XA.,X2XqXUXqX0XwXA.B.1XqXqX9X2X3XA.a.y.t.p.a.s.s.s.s.s.s.s.s.y.y.y.y.y.y.y.y.A A A ! A A A A y.y.y.y.y...........( A A A A A A q.q.q.q.q.q.q.q.q.q.q.q.q.q.q.y.t.q.q.t.y.p.p.n.-X7X7X7X2X7X7X2X1X8X7X8X8X1X1X1X>X>X1X1X1X1X7X9X9X9X8X1X>X;X;XZ.Z.;X>X>X1X8X8X7X7X1X-XZ.p.q.Z q.q.q.q.A A A A q.w.w.S S w.q.q.w.w.p.;X9X9X7X1X0XwX3X1X2X2X>XZ.a.A.wXqXwX2XwX0X,X-XZ.A.>X,XA.V.a.p.y.t.y.p.N.Z.3X0XqXCXVXqX3X>XA.S.B.B.S.A.A.A.>X>X>X>X>X>X>X>XA.A.A.A.A.A.A.A.Z.Z.S.S.S.S.S.S.>X,X8X2X2X8X3X1X2X0XqXqX0X2X,XA.B.B.B.B.a.a.y.y.B.Z.Z.Z.Z.B.B.B.n.n.n.B.B.Z.Z.Z.V.B.N.a.a.a.a.a.n.n.n.B.B.V.Z.S.Z.B.N.a.s.s.s.s.p.p.p.p.s.p.p.p.a.m.s.s.p.p.p.p.p.q.Z Z Z w.Z C S S S S A A A A A A w.w.w.A A A A A A A q.q.A A C Z A A A A A Z q.q.q.q.q.q.q.q.q.A A Z Z Z Z Z Z Z A A A A A A A A Z Z Z A q.e.Z Z Z Z Z Z Z Z e.e.e.y.y.p.y.p.p.p.p.p.p.p.p.s.a.s.s.y.y.y.y.u.y.y.......u.u.u.u.i.f.b.v.E.}.|..X.X.X4X4X6XkXkXxXxXZXZXFXGXGXGXGXGXGXGXGXFXDXZXCXxXqX6X6X4X<X<X X X X X X X X XA.A.C.S.V.B.x.x.n.n.n.s.s.p.p.p.s.s.p.p.p.p.p.s.p.y.y.y.y.y.y.y.s.a.n.N.B.Z.A.>X",
"GXGXGXGXKXPXPXPXPXPXGXCX0X0XqXqXqXxXxX0X XD.s.s.a.a.a.a.a.a.i.i.i.i.i.i.u.u.u.u.h.x.x.x.x.h.h.h.i.i.i.i.i.i.u.u.i.i.i.i.i.i.i.i.a.u.u.u.a.a.a.u.u.u.u.a.a.a.a.a.s.s.a.B.S.,X3X6X0X0XwX2X2XwX0XqX0X6X3X3X3X3X2X0X0X3X3X2X2X3X3XwX0X2X2XqXqXqX0X6X0X0X0X2X2X2X2X2X1X3XwX0XwX2X<X,XB.h.a.u.y.! ! ! y.y.e.q.e.p.p.s.V.Z.:X7XqX0X0XqXwX0XxXCXZXAXSXCXSXCXCXCXCXCXCXCXCXxXqXqXCXCXVXqX,XA.V.V.C.3X0XCXxXxXqX0X6X0XqXxXqX6X3X3X<X2X<X3X<X<X2X2X2X2X2X2X2X2XwXwXwXwXwX6X2XwXwX0X0XqXqXqXCXSXAXAXAXAXAXAXAXAXFXGXGXHXZXCXSXSXSXSXCXCXxXkX4X2X6X2X2X2X<X<X,X,X,X,X<X<X<X<X6X6X6X0XqXkXxXCXSXSXZXAXAXHXFXGXAXSXCXqXqX0X0X0X0X0X0X0X0XqXqXqX0X0X0X0XwX7XwX7X2X,XS.V.S.A.A.A.A.A.A.A.A.A.Q.Q.:X X,X,X,X X,X,X,X:X:X,X,X,XQ.Q.Q.Q.A.S.B.a.u.y.e.e.e.! ! ! ! ! V Z Z Z Z Z N N V V A e.e.r.p.p.p.r.r.y.u.a.B.V.C.Q.Q. X<X<X<X<X<X<X2X4X6X6X6X0X0X0X0XqXqXqXqXqXqXqXqXqXqX6XqXqXkXkXxXxXxXZXZXZXDXDXDXDXDXDXDXDXDXFXFXFXFXFXFXFXFXFXFXFXGXGXGXGXGXJXJXGXGXJXGXFXFXDXZXZXZXZXZXCXCXCXCXCXCXCXCXCXCXCXCXCXxXxXxXxXCXCXNXqXqXqXqXqXqXqX0X2X2X2X2X2X4X4X6X2X2X2X2X2X2XwXqXxXCXZXAXHX",
"l.l.g.g.g.*.*.*.*.g.g.l.G.l.L.l.l.l.G.G.G.L.L.L.L.L.L.L.L.L.G.G.g.g.g.g.f.f.f.g.%.%.f.f.f.g.j.j.f.g.j.j.l.l.l.c.g.l.c.l.f.&.X.X.l.L.I.L.L.L.L.l.l.c.c.c.c.c.c.l.k.l.v.c.c.l.g.g.f.f.f.%.%.&. ._ J.K.'.oXoXOX'.'././.'.'.{.+X+X+X|.W.W.W.U.U.U.U.U.U.W.W.W.W.W.W.|.I.l.l.l.l.k.k.l.c.l.l.l.c.c.c.v.c.c.I.I.c.g.l.I.I.I.c.c.c.l.l.l.l.k.k.f.&.&.&.&.k.l.l.l.k.k.k.f.O.| | ..i.i.i.y.( V V ..k.c.I.l.l.l.l.l.l.k.k.f.f.o.o.i.i.i.i.f.i.o.o.o.| | | o.o.o.o.u.o.u.u.u.u.....| | X. .X.Q W W x z B W c c c x c c c c W Q X.X.f.i.u.i.&.&.&.&.X.X.X.X.%.%.%.%.&.f.&.&.%.&.%.&.X.X.X.X. . .X.X. . . . .X.X.X.%.%.X.X.X.X.X.X.X.X.X.o.o.X.X.X.X.X.o.%.X.X.o.X.f.&.o.%.o.X.X.X.X.X.X.X.f.f.&.X.o.c.v.j.c.j.j.j.l.c.c.j.g.f.f.f.x.v.C.v.k.c.l.h.g.g.h.c.c.c.c.x.x.x.c.j.h.g.j.d.d.x B f u V X.x.v.c.v.v.v.l.L.L.L.L.L.l.l.k.k.k.k.f.&.&.&.k.l.l.c.l.c.L.I.L.L.L.I.U.).|.|.U.U.U.I.G.l.:.*.*.$.=.@.+.+.@.@.@.@.+.+.' ' ' ' +.' ' +.@.4.K.'.Y.5.2.<.4.K.'.+X+XiXiXiXiXiX&X5X5X5X5X#X|.L.f.X. . .X.&.&.X.Q Q %.Q %.X.Q %. .Q X. . .%.U.5XhXfXhXhXfXfXfXhXhXhXfX$XXXU.P.G.L.G.",
"P.P.H.H.H.H.H.J.H.P.P.P.P.H.J.G.4.4.4.4.G.H.H.G.G.G.G.G.G.G.G.G.*.*.*.*.*.*.*.*.*.*.g.&.*.*.*.*.g.g.g.g.g.g.g.g.*.G.G.l.#.+.@.*.G.I.J.G.G.G.G.:.*.:.:.G.G.G.G.G.:.>.G.G.l.*.*.g.*.&.&.*.@.+.+.$.`.{.{.{.{.`.`.`.`.`.{.{.=X{.{.{.Y.Y.Y.Y.Y.Y.Y.K.Y.Y.Y.Y.Y.Y.Y.U.'.K.:.>.4.4.:.:.G.l.G.G.l.G.G.G.G.G.J.P.P.G.:.:.J.J.J.G.G.G.G.l.l.l.l.:.:.:.*.*.l.l.J.J.l.k.k.k.:.&.&.&.k.x.D.i...V N | ;.z.I.(.z.z.l.l.l.k.:.&.&.&.&.&.&.&.;.&.k.;.&.&.&.o.o.o.f.k.k.i.i.i.i.x.i.i.k.k.k.l.l.l.W.|.E.c.o.W W W W W W W W W W W W Q X.%.&.f.f.f.f.&.&.&.&.&.&.&.&.&.=.&.&.*.*.&.&.&.&.&.&.&.&.%.&.&.&.&.&.#.#.+.&.&.%.%.=.&.&.&.&.&.&.&.&.&.&.&.&.#.+.#.&.&.&.&.&.&.&.&.&.#.+. .X.X.X.X.X.X.%.&.&.&. .&.l.l.&.l.g.g.g.l.l.l.k.g.&.&.&.k.z.v.l.k.&.&.&.&.&.&.f.f.j.j.j.j.j.g.f.f.f.f.&.&.x c k s V X.f.l.c.L.I.I.J.J.J.J.P.P.K.K.G.G.4.4.>.:.:.:.J.J.J.J.J.K.).'.+XoXoXOXoXoXoXOXOXoXoXoXOX'.`.`.H.H.5.4.5.H.Y.'.`.`.T.Y.Y.Y.Y.Y.+X+X+X+XdXrXaXpXpXaXpXsXjXsXpXuXaXaXaXrXoX`.G.4.:.l.l.:.*.#.+.Y &.+.%.&.g.%. . .=.Q =.+.Q @.+.+.Y =.K.oXgXjXgXiXgXpXiXiXiXiX+XoXT.K.K.H.G.G.G.G.",
"U.P.P.P.P.P.P.P.P.P.P.P.P.H.J.G.5.5.5.5.H.H.J.H.G.G.G.G.H.H.H.H.F.1.*.=.g.g.*.*.g.g.g.&.&.%.%.=.g.g.*.*.g.g.g.g.G.l.*.@. .+.*.I.J.J.G.G.G.G.G.:.:.:.G.G.:.:.G.G.l.l.l.:.*.*.*.*.*.&.&.:.*.+.*.K.[.[.[.{.{.`.`.`.{.[.[.[.[.{.`.`.Y.T.Y.Y.Y.Y.Y.Y.Y.Y.Y.Y.Y.Y.T.T.`.K.:.:.4.4.4.4.G.G.G.G.G.G.G.G.G.G.J.P.P.J.G.G.J.J.J.J.G.G.G.G.J.z.l.k.:.:.k.k.J.L.J.J.z.l.l.l.&.;.k.k.k.i.u.....V c o.v.(.I.I.I.I.J.z.l.:.;.&.O.O.O.&.&.;.k.k.k.k.k.k.k.k.k.k.k.k.k.k.x.b.C.}..X<X4X4X6X6X5X5X5XhX5X|.f.X.| | W W Q Q Q Q W W Q  .X.X.&.f.f.l.f.k.k.k.&.&.&.&.&.&.&.&.&.&.&.&.&.&.&.&.&.&.&.&.&.&.&.&.&.&.&.&.f.f.&.&.&.*.=.=.&.&.&.&.&.&.&.O.&.&.&.&.&.&.&.&.&.&.&.&.&.&. . .X.X.X.X.X.X.%.&.&.&.%.&.k.&.&.k.g.g.g.k.l.l.k.k.k.&.&.&.k.z.z.l.f.f.&.&.&.&.f.f.f.f.f.d.f.f.&.&.%.%.X.X.x W x z W | &.f.l.v.L.G.J.J.J.J.G.G.J.J.J.J.J.J.J.J.K.K.J.J.J.J.J.K.|.XXOXoX'.'././.U.U.XXOXOXOXOXOXOXOXOX'.'.'.oXoX+XrXiXiXrXrXrXrXrXuXrXiXuXuXuXuXyXyXyXaXsXsXyXrXuXpXiX+X'.K.5.@.Y T Y Y Y _ _  . . .%.+.+.&.&.%.%.%.=. .=.+.+.@.+.=.P.@XfXjXjXjXgXgXiXiXiXiXiXoXT.H.G.G.G.H.K.K.H.H.",
"H.H.H.P.P.U.P.P.H.H.H.H.H.H.H.H.H.5.H.H.H.H.J.J.G.G.P.P.H.H.H.H.G.F.*.=.*.g.*.*.g.g.g.&.&.%.=.=.g.g.*.*.*.g.g.g.G.*.+. .+.:.I.U.G.:.*.:.G.J.J.G.G.G.G.G.G.:.:.4.l.l.:.:.*.*.*.*.*.&.=.=.@.@.K.oX[.{.{.`.{.{.{.{.[.[.[.[.{.`.Y.K.Y.Y.Y.Y.Y.Y.Y.Y.Y.Y.Y.Y.Y.T.T.T.K.K.:.4.G.4.4.G.G.G.G.G.G.G.G.G.G.G.J.P.P.J.J.J.J.J.J.J.J.G.G.G.J.l.l.:.:.:.l.l.z.z.J.z.l.l.l.l.:.k.k.k.k.o...( ( V ..c.}.I.J.I.).I.L.l.k.;.;.:.&.O.&.&.&.k.k.k.&.;.k.k.k.k.k.k.k.k.k.k.b.v.C.C..X.X<X4X6X5X5X5XhXhX5Xl.X.X.X.| W W W W W W W W W W  . .X.X.f.l.f.k.&.&.&.&.&.&.&.&.&.&.&.*.&.&.&.&.&.&.&.&.&.&.&.&.&.&.&.&.&.&.&.&.g.*.=.&.@.@.+.+.+.&.&.&.X.X.&.&.&.&.&.&.&.&.&.&.&.&.&.&.%.X.X.X.X.X.X.X.X.&.&.&.&.&.g.&.&.k.l.g.l.l.l.G.l.l.l.k.&.&.k.z.z.z.k.f.&.&.&.&.&.f.f.f.f.f.&.X.X.X.X.X. .X.l W x z | X.o.&.f.k.*.&.G.G.G.G.l.l.l.l.J.J.J.J.J.J.J.J.J.J.J.J.J.I.K.).J.G.4.4.4.4.G.G.G.J.K.K.K.K.K.K.`.'.OXoX+XtXrXrXiXiXrXrXrXrXrXrXrXrXuXuXrXyXrXyXyXuXyXdX[.rXiXiXT.5.@.` Y Y T L _ _ _ _  .+.+.+.+.+. .+.%.%.%.%.=.+.=.+.+.@.+.G.fXhXjXgXgXfXiXgXtXiXiXiX+X'.K.G.H.H.H.K.U.U.P.H.",
"P.P.P.P.U.U.U.U.P.P.P.P.P.P.P.H.G.5.G.G.G.J.G.J.P.P.P.P.J.J.J.G.H.G.*.=.*.g.*.*.*.g.g.g.*.&.&.&.&.&.&.*.*.*.g.g.=.+. .&.J.).U.G.l.*.$.*.G.G.G.G.l.G.G.G.G.l.l.l.:.:.*.*.*.*.*.*.&.*.=.+.+.G.oX*X[.{.{.{.{.{.[.[.rX+X[.{.`.Y.K.K.K.K.K.Y.Y.Y.K.K.K.K.K.T.T.Y.Y.K.K.G.:.4.G.4.G.G.G.G.G.G.G.G.G.G.G.J.P.P.I.I.I.I.J.J.I.J.I.J.z.z.l.l.k.:.:.k.k.l.l.l.l.l.l.l.l.l.J.z.l.&.o.....( V ( o.v.(.z.z.I.(.I.I.l.:.&.;.k.&.&.&.&.f.k.k.k.&.;.;.k.k.;.k.f.k.k.b.k.k.k.k.k.o.k.k.v.I.|.|..XhX5X|.&. .&.&. .X.X. .W W W |  .W W W W  .X.f.k.f.&.&.&.&.&.&.&.k.k.k.f.&.&.&.&.&.&.&.&.&.&.&.&.&.&.&.&.&.&.&.&.%.&.g.&.@.@.=.*.$.=.&.&.&.&.&.X.X.X.X.%.&.f.&.&.&.&.&.&.&.%.%.%.%.X.X.X.X.X.%.&.&.&.&.&.g.&.&.k.l.l.l.l.G.L.l.l.v.l.k.k.k.l.z.z.f.&.&.X.X.X.X.X.&.&.X.X.X.X.X.X.X.X.Q X.l W x s | o.f.f.f.k.&. .l.G.G.G.G.G.l.l.J.G.J.J.J.G.G.G.I.K.K.K.K.J.J.J.G.G.:.:.G.G.J.J.*.:.G.G.G.G.5.G.4.G.K.U.'.oX+XuXiXuXuXuXuXuXrXrXuXuXuXyXrXyXuXaXaXuXuXiXgXpX'.4.=._ T K K U Y Y  . . . . . . . .%.%.+.+.%.&.&.%.=.%.=.+.=.@.+.P.fXhXhXgXhXfXiXtX$XiXiX$XXXP.H.H.K.H.J.J.J.J.G.G.",
"H.P.P.P.P.P.U.U.U.U.U.P.P.H.H.H.G.5.G.G.J.J.G.G.P.P.P.P.J.J.G.G.P.G.1.*.*.*.*.*.*.*.g.g.g.g.g.g.&.&.*.*.*.*.*.*. . .*.U.#XOXI.&.G.*.*.:.l.:.*.*.#.=.:.G.G.l.l.l.:.:.$.$.*.*.*.*.&.*.@.' @./.*X+XeX[.[.{.[.[.[.[.[.].'.Y.K.K.K.K.K.K.K.Y.Y.Y.K.K.K.K.Y.T.T.T.T.`.K.G.>.4.G.4.G.J.G.G.G.G.G.G.G.G.J.P.U.P.I.I.P.I.J.I.I.I.J.J.z.l.l.l.k.:.:.k.l.l.l.l.l.G.J.J.l.l.L.l.&.X.| | | ( N | k.v.I.z.J.).I.I.I.l.k.;.:.k.k.;.&.&.k.k.k.f.;.k.k.k.k.;.&.o.o.&.k.k.k.f.f.o.o.;.k.k.l.z.z.J.).I.:.O.&.l.l.&.&.X.X.Q W W |  .Q Q W W  .X.f.l.k.k.k.k.&.&.&.&.k.k.k.k.f.f.g.&.&.&.&.&.&.&.&.&.&.&.&.&.&.o.&.%.&.&.=.+.+.@.G.).'.U.J.l.l.k.f.f.&.&.%.%.%.&.&.&.%.%.%.&.&.%.%.%.%.X.X.X.X.X.%.&.&.&.%.&.k.&.&.l.L.G.l.l.G.L.c.l.z.l.k.k.k.k.k.l.f.f.&.X.X. .X.X.X.X.X.X.X.X.Q Q X. .W  .l V z s | o.g.k.l.k.&.#.&.*.l.G.L.J.G.G.G.G.G.G.G.G.G.G.J.K.K.K.K.J.J.G.J.J.G.G.G.G.J.G.:.:.G.G.G.G.G.5.4.4.4.4.5.K.`.oX+X+XrXuXiXiXuXuXuXuXyXdX[.[.rXuXrXpXgXaX'.5.' K T T K I U U W U Y Y  . . . . . . .+.+.+.%.&.&.%.%.+.=.+.=.+./ T.hXhXfXfXfXiX+X+XiXfX$XOXU.G.J.P.P.J.J.G.P.P.P.P.",
"H.H.H.H.H.H.H.H.U.P.H.J.G.G.G.G.G.G.J.J.H.P.P.P.P.P.P.P.J.J.G.G.P.G.F.*.*.*.*.*.*.*.g.g.g.g.g.g.g.g.*.*.*.&.%.+.Y *.U.#XOXU.l.=.l.:.l.G.l.&.+.+. .@.*.G.G.G.l.l.:.*.&.&.*.*.*.=.=.=.@.@.G.[.+X+XeX[.[.[.[.[.[.{.`.Y.Y.K.U.U.U.T.U.U.U.T.T.T.T.U.T.T.T.T.T.T.T.T.K.G.4.G.G.G.G.J.G.G.G.G.G.G.G.G.J.K.).K.J.I.I.I.I.I.I.I.L.J.l.l.l.l.l.l.l.l.l.l.J.J.l.J.L.L.l.k.k.&. .| | | | V | k.v.v.v.I.I.).).).I.L.l.;.k.k.k.k.f.f.k.k.k.k.&.&.k.k.k.k.;.&.o.f.k.k.k.k.k.k.k.k.;.;.;.:.:.:.:.&.O.&.;.l.l.k.&.&.X.X. . .Q W  . .Q W  .X.f.l.k.k.k.k.k.k.k.k.k.k.k.f.f.f.&.&.&.O.O.X.O.O.&.f.o.&.&.f.f.f.%.%.%.+.+.@.G.U.oXtXfX$X).I.I.L.c.l.c.j.f.%.%.%.%.%.%.%.%.%.%.%.%.%.%.X.X.X.X.X.X.&.&.&. .&.l.l.*.l.I.P.L.L.L.L.c.c.c.l.l.l.k.k.k.k.l.f.f.X.X.X.X.X. . .X. .~ ~ Q W Q W W | l W x s | i.k.k.l.k.k.&.%.&.&.k.l.l.l.z.G.G.G.J.J.J.J.J.J.J.I.I.I.J.J.G.G.G.G.l.G.l.*.$.*.l.G.G.G.G.G.G.K.J.G.4.1.4.5.5.K.`.{.[.+X+XuXuXaXaXuXuXyXyXuXiXaXgXiXH.Y K T U K I I W W W E I  . .Q Q  . . . . . .+. .+.&.&.+.+.+.+.+.=.+.Y @XvXhXfXiXtX+X+XtXfX$X@XU.H.J.J.J.P.P.P.P.P.U.U.U.",
"P.P.P.P.P.P.P.P.H.H.H.J.H.P.P.P.J.J.H.P.P.P.P.U.G.L.G.G.J.J.J.K.P.J.G.*.*.*.*.g.g.g.g.g.g.g.g.g.g.g.g.g.*.=. .Q @.I.$X$XU.*.*.G.*.*.l.G.:.+. . .+.#.:.G.G.G.l.*.:.*.&.&.*.*.*.&.*.+.' 4.`.+X+X[.[.{.{.[.[.[.[.{.H.K.K.T.T.T.T.T.U.U.U.U.T.U.U.U.T.T.T.T.T.T.T.T.K.G.4.G.G.G.G.G.G.G.G.G.G.G.G.G.I.U.|.K.J.I.I.I.I.I.I.P.I.J.l.k.l.l.J.J.J.J.J.J.J.J.G.J.L.J.l.k.&.X.| | | | ..V o.c.(.v.z.I.).J.|.|.|.I.l.;.k.k.k.;.f.f.k.k.k.k.&.&.k.k.k.k.;.;.c.c.c.k.k.k.k.;.k.;.l.z.J.I.).).J.l.;.;.;.&.&.k.f.f.f.f.&.X. .W  .Q W W Q X.&.k.k.k.k.k.k.k.k.k.&.&.&.&.&.&.&.O. . . . . .X.o.o.o.o.&.f.f.%.X.X.Q Y +.:.'.tXfXfXhX$XXXU.P.I.I.I.E.L.j.f.%.%.%.%.%.%.%.%.%.%.X.X.%.X.X.X.X.X.X.&.&.&. .&.l.l.k.l.U.P.L.L.L.L.c.c.c.c.c.c.l.l.k.k.f.&.X.X. .Q W W Q Q Q Q Q Q W W Q W c Q k W x s | i.k.k.f.f.k.k.&.&.&.f.k.l.l.J.G.G.G.I.I.I.K.K.J.I.I.I.I.I.I.U.G.G.G.G.l.l.*.&.*.:.l.G.G.G.G.G.:.G.J.G.G.4.*.$.4.3.H.`.{.[.+X+XrXrXrXrXeXrXrXuXgX+X*.K w L U l I I I I c E E W X. . .Q Q  . .+. .%.&.%.&.*.*.&.+.+.+. .=.+.Y $XfXiXiXgXfXtXtXfXfX$XU.J.H.P.P.G.P.H.P.P.P.U.P.P.",
"P.P.P.P.P.P.P.P.P.P.P.H.H.G.G.G.H.P.J.J.P.U.U.P.g.*.*.J.P.P.K.P.J.P.P.G.g.*.*.*.*.*.g.g.g.g.g.g.%.g.G.g.+.Q +.*.#XXXU.G.l.*.*.*.*.*.l.*.&.+.Y T +.&.l.G.G.l.*.l.*.*.*.*.*.*.=.=.=.@.@.5.+X+X{.uX{.{.{.[.[.[.[.[.Y.K.K.T.T.T.T.T.U.T.T.U.U.U.T.T.'.U.U.U.'.'.U.K.K.J.G.G.G.G.G.G.G.G.J.I.G.l.G.P.|.).U.K.J.G.J.I.l.G.L.I.I.I.L.c.I.L.L.I.I.I.L.l.v.L.v.l.v.v.k. .| V W | | | X.k.}.E.I.(.I.L.I.).|.|.|.I.l.k.&.&.O.&.&.f.f.f.f.k.k.&.;.k.l.L.I.I.v.L.I.v.l.&.&.;.l.z.I.(.(._.).XXXXJ.&.&.l.k.&.O.k.f.o.X.X.X.| W W W | | | X.&.k.f.f.k.k.k.k.&.o. . . . . .W  .| U U c U W W W | W W W  .Q W W W l +.U.$XiXtXiXiXiX$X@XU.P.I.I.I.E.E.P.L.L.j.f.%.%.%.X.X. .~ X.X. .X.X.%.X.X.%.%.&.%.&.&.l.L.L.l.L.L.L.L.L.L.c.c.c.c.v.v.l.k.k.f.l.f.X.| W I W W c W W W W W W c W W W c c c x k V X.k.k.k.l.l.k.f.f.f.&.&.&.&.k.l.l.G.L.G.G.G.G.G.J.I.I.I.I.I.L.l.G.l.g.&.&.&.g.*.*.l.l.G.G.G.G.G.G.G.G.G.G.4.4.5.5.4.4.4.7.Y.{.iX[.{.[.rXrXrXiX)._ l v K v I I x c E B B B ^ W X. .~ ~ ~ ~ ~ ~  . .+.+.%.&.&.&.%.+.=.+.=.+.Y lX$XfXgXiXtXtXiXiXoXXXP.G.G.J.P.P.P.P.P.P.P.P.P.U.",
"P.P.P.P.P.H.P.P.H.H.H.H.H.H.H.J.H.P.P.P.U.U.P.F.=.*.g.P.P.P.J.K.U.U.P.G.*.*.*.g.*.*.g.g.g.g.g.g.g.g.*.%. .+.g.P.|.U.I.G.*.*.*.:.l.l.l.l.*.=.@.+.*.l.G.G.*.*.=.*.*.*.*.*.*.*.=.=.$.$.4./.+X[.{.=X[.[.[.[.[.[.[.[.Y.K.K.T.T.!.T.U.U.K.K.K.U.U.U.U.T.U.K.U.T.T.K.G.J.J.G.G.G.G.G.G.G.G.G.G.G.G.I.W.U.U.K.P.J.J.J.I.l.l.l.L.I.L.L.L.L.I.I.I.L.v.l.l.I.I.v.k.k.&.&.| | W W | | | o.c.}.I.I.(.I.I.K.|.|.|.|.I.l.k.k.k.&.f.k.k.k.k.k.k.k.k.;.k.I.|.|.|.|.I.l.;.&.&.k.z.I.(.(.(.(.(.).).XXI.l.z.v.v.k.o.f.o.| | X.o.o.o. .| | W W | o.f.k.k.k.f.o.o.O. . . . .| W W  .W W | | | W | |  .&.Q W  .Q I W %.U.oXiXfXiXtXiXpXiXiXoX'.U.I.I.I.W.W.E.E.L.L.j.j.%.%.X.~ Q Q ~ ~  .X.X.%.%.X.X.%.&.&.&.k.L.L.L.l.L.L.L.L.L.L.c.c.c.v.v.v.c.k.k.k.l.f.X.| W W W I c c V V W W W W W W W c c c V k B u.x.k.f.l.l.k.k.f.f.&.&.&.&.&.g.k.G.G.I.G.G.G.l.l.G.J.J.J.G.G.l.l.&. .W Q X.&.*.*.l.l.G.G.l.l.G.G.G.G.G.4.4.4.H.5.5.4.4.4.5.7.'.{.].rXrXrXrXiXG.U l I I I I I c E E B B B ^ W X. . .~ ~ ~  . . . .+.+.%.=.&.&.%.+.=.+.=.Q Y $XtXfXfXfXiXiXiX+XU.J.G.G.G.P.P.P.P.P.P.P.P.P.P.U.",
"P.P.P.P.P.P.P.P.H.H.H.H.H.H.H.J.H.P.J.g.*.=./ I Q =.G.P.P.P.J.K.P.P.P.J.G.*.*.g.*.*.g.g.g.g.g.g.g.*.+. .+.&.G.U.G.G.l.*.*.*.:.l.l.l.l.G.l.l.l.*.G.G.G.l.*.&.&.*.*.*.&.&.*.*.*.*.*.$.H.+X[.[.[.{.[.[.[.[.[.[.[.[.`.T.K.U.T.T.T.U.U.U.U.T.T.T.U.U.U.U.U.U.U.U.H.G.G.G.G.G.G.G.G.G.I.G.G.G.G.G.I.U.I.K.K.J.J.J.L.I.l.l.l.l.c.I.I.I.I.(.|.}.L.l.l.l.I.v.k.&.&. . .W | | | | | | f.E.}.}.I.(.I.I.).XXOX|.|.I.l.k.f.f.&.f.k.k.k.k.k.k.l.k.&.k.(..X.X|.(.L.:.&.&.l.I.(.(.(.(.(.J.J._.).|.).(.}.}.v.k.o.X.| W I | X.&.f.&.o. .W W | X.f.k.f.f.&.X.X. .|  . . . .Q Q Q Q | | | |  . . . .Q  . .Q U  .P.$XhXhXhXfXiXiXpXpXpXiX$XOXU.I.I.I.W.U.U.U.E.I.P.L.g.g.&.%.%.%.%.%. .X.X.X.X.X.X.%.f.f.k.c.L.I.L.l.P.L.L.L.L.L.L.I.I.I.v.v.c.c.k.k.l.f.X.W W W W c c c c V V W W W I W W c V V V z z ..x.b.f.k.k.k.k.f.f.f.f.&.&.&.&.&.l.l.L.L.G.G.G.G.J.J.I.J.G.G.k.&. .W I W  . .%.&.g.l.G.G.l.l.l.l.F.F.G.G.G.G.G.G.G.G.4.4.4.4.H.Y.].+XrX+X+X+X+.v l Y I I I I c B E E B E W W X. . .~ ~ ~  . . . . .+.+.%.%.%.+.+.=.%.@.Y Y @X$XtXiXfXgXfX+XU.4.G.G.G.J.P.P.P.P.P.P.P.P.P.I.U.",
"P.P.P.P.P.H.H.H.G.J.J.H.H.P.H.H.J.J.*.+.I T K d J Q G.U.U.K.K.K.G.G.U.U.U.G.*.*.*.*.g.g.g.g.g.g.=.%. .+.*.g.G.l.l.g.*.*.*.*.:.l.*.*.l.l.l.l.G.G.G.G.G.l.*.=.*.*.*.&.&.=.*.*.g.g.@.*.{.uX[.[.eX{.[.[.[.[.[.eX[.+X'.`.Y.K.U.T.T.U.U.U.U.T.T.T.U.U.T.U.U.U.U.K.G.G.G.G.G.G.G.G.G.G.I.G.l.G.J.G.L.I.J.K.K.J.J.J.G.G.l.l.k.k.l.c.L.I.I.(.}.I.L.v.l.l.k.&.O. . . . .| | | | | W | k..X}.}.).(.I.I.).OXOX|.(.v.l.k.f.f.&.&.f.k.k.k.k.k.k.f.&.k.v.(.(.I.l.l.l.l.z.I.(.(.(.(.(.J.J.J.).).).).|.|.I.b.i.o.f.&.X.X.o.f.f.k.k.f.X.| W | X.X.o.o.X.X. .|  .X. . . . .Q Q  .Q  .|  . . . . . .U  . .Y &.@XhXjXgXfXfXiXpXpXpXpXgXpXiX$XXXI.P.I.I.P.P.I.I.P.P.L.L.L.l.g.g.&.%.%.X.X.X. . .X.%.&.l.l.l.L.L.L.L.l.E.P.L.L.L.L.I.I.E.E.v.v.v.c.c.k.c.f.X.W W W W x c c c c B V W W W W V c V V V z u ..x.b.f.f.k.k.k.k.k.k.k.f.f.f.&.f.g.k.l.l.l.l.I.I.J.J.J.G.G.G.&.&. .Q Q Q Q W  .+.&.*.l.G.G.G.l.l.F.F.G.G.G.J.G.G.H.H.J.G.G.5.4.H.'.].+X+XoXoXQ x I W I c I x c I E E E E W ~ X. . .~ ~ ~  . . . . .+.+.+.+.%.+.+.=.=.+.T +.XXoX$XiXiXiXtX`.4.4.G.G.J.P.P.P.P.P.P.P.P.P.P.I.I.",
"P.P.P.P.H.H.H.H.G.G.G.H.H.P.P.P.J.G.*.Y K K I I 0 Q P.XXU.P.K.K.G.J.U.U.U.G.*.=.*.*.g.g.g.g.*.&.%.+.+.*.G.G.g.&.*.*.*.*.*.*.*.*.*.g.g.g.l.l.l.G.l.l.l.l.g.g.g.g.*.*.*.g.g.g.G.G.=.4.oXaX[.[.eX{.[.[.[.[.eXeXrXrX{.'.Y.K.K.K.Y.U.U.U.U.U.U.U.U.U.U.U.U.U.U.P.K.G.G.G.G.G.G.G.G.G.G.G.G.G.L.l.g.*.l.J.K.I.J.I.L.l.l.k.f.&.f.f.l.l.z.l.l.l.l.l.k.k. . .|  . . . .| | ....| W X.c..XE.}.I.I.U.|.XXXX|.|.L.l.k.f.&.&.f.f.k.f.f.f.f.k.k.k.k.k.k.k.l.l.&.z.(.(.(.).).I.I.I.J.J.J.(.).).(.(.|.I.k.f.i.o.v.v.v.v.v.v.c.c.k.f.o.o.X.| | |  . . . .W | X.X.X.X.X. .~ X.X.X. .Q Q Q  . . . .%. .Y g.&XvXvXiXgXpXpXpXgXsXpXiXpXfXfXtX@XU.L.P.I.P.P.P.I.I.P.L.L.L.P.L.G.g.*.&.%.%.X. . .X.&.l.c.c.l.l.l.L.L.L.P.P.L.L.L.L.L.E.E.E.I.v.v.v.c.b.x.f.X.W W W V x x x x x B B V V V W V x V V S z u ( x.b.f.f.k.k.k.k.k.k.k.k.k.k.k.k.f.f.&.g.l.l.J.J.G.G.l.l.k.k.&.X. .Q Q Q Q Q  . .%.&.&.g.l.G.G.G.l.l.G.G.J.J.J.J.P.J.H.H.H.K.G.H.K.K.OX+XoXU.U c W W c c c x x c E x I E W ~ %.X.X.~  . . .~  . . . . . .+.+.+.%.+.=.+.T =.XXoXtXfXiX$X'.H.*.4.G.J.K.P.K.J.J.P.J.P.J.J.P.P.P.",
"P.P.P.P.H.H.H.H.H.H.H.H.H.H.H.J.P.P.*.Y d d K I I =.U.XXU.K.K.K.U.P.J.G.g.*.*.*.*.*.*.g.*.*.&.%.&.&.*.g.l.G.g.*.*.*.*.*.*.*.*.*.g.g.l.l.l.l.l.l.g.g.g.g.g.g.*.*.*.g.g.G.G.G.G.G.@.H.+XuX[.eXeX=X[.[.eXeXeXeXrXrX{.`.Y.K.K.K.Y.K.'.'.'.U.U.U.U.U.U.U.U.U.U.K.K.K.G.G.G.G.G.G.G.G.G.G.G.J.G.*.=.@.*.G.K.I.I.K.I.L.&.&.X.X.X.X.X.X.o.O. . .O.&.O. . . .|  . .| _ | ......| | o.v..XE.}.I.I.|.XXXX|.U.L.l.k.f.&.&.&.f.k.k.k.k.f.f.k.f.k.k.k.&.&.&.&.l.(.|.).I.I.(.I.(.(.I.I.(.).).).(.|.I.c.f.i.u.i.k.k.v.v.v.c.k.k.k.f.f.f.i.o.X.|  .X. .Q W W W X.X.X.X. . .X.X.Q Q Q Q Q Q  . . . .+.K.hXcXgXgXgXgXiXiXiXpXsXgXpXgXpXgXhXfXXXI.P.U.U.U.U.U.U.U.I.I.U.U.W.U.I.G.l.l.j.f.&.&.f.l.L.L.c.l.l.l.l.L.L.P.P.L.L.L.L.I.E.E.E.I.v.v.v.c.c.x.k.i.| W W W c c x B x B B V V V W V x V V V z u V x.b.k.k.k.f.k.k.k.k.b.k.k.k.l.l.f.f.&.&.*.g.G.G.G.G.G.G.l.l.f.%. .I I W | X.&.%.%.%.%.&.&.*.G.G.G.G.G.G.G.J.J.J.J.J.G.G.J.H.H.H.G.G.'.$X'.G.I c E E c c W c c x c x I W W Q %.%.X.~  . .~ X. . . . . .+.%.+.%.=.@.*.@.Y J.$X$XfXfX$X'.K.4.4.*.G.J.K.K.J.J.J.J.J.P.J.J.J.P.P.",
"P.P.P.P.H.H.J.J.H.H.H.H.H.H.H.J.P.I.L.%.I K I Q g.I.XX|.I.J.J.P.P.J.F.=.=.=.*.*.*.*.g.g.*.&.&.&.*.g.g.g.g.g.g.g.*.*.*.g.*.*.*.$.g.g.g.g.g.g.g.g.g.*.*.g.g.g.*.*.g.g.L.P.P.P.G.G.*.'.uXuXeXeX=X=XeXeXeXeX[.[.[.[.{.`.Y.K.K.Y.`.`.U.U.K.G.G.G.G.G.K.U.U.U.U.U.P.P.G.G.J.J.G.G.G.G.G.l.L.L.l.&.+.@.*.J.).K.I.I.I.l.%. . . .X.X.X. . .| | |  . . . .X. . . . .W W | | ....| X.f.v.|.I.I.I.I.|.#XXXU.I.l.k.;.f.f.f.&.f.f.k.f.f.f.f.f.k.k.k.k.&.&.&.&.J.).|.I.J.(.K.J.(.I.I.I.).).(.(.I.).I.k.o.o.i.i.o.f.f.k.k.f.f.f.f.f.f.f.f.f.o.X. .X.X.Q W W Q Q ~ ~ ~ ~ ~ ~ Q Q  .~ Q W Q Q %.%.Y P.jXnXzXiXpXcXpXiXiXaXpXgXjXjXjXgXhXjXhX$XW.I.U.U.U.U.W.|.|.W.|.|.|.|.|.|.|.W.I.E.E.L.L.L.L.I.L.L.L.v.l.L.L.I.E.E.E.E.E.E.E.E.E.E.v.v.v.v.c.k.k.c.f.| V W W V V V B B x B V V c W V x V V S N u A f.k.x.k.l.f.f.k.k.k.x.x.k.k.k.k.f.f.f.f.g.*.l.G.G.J.I.L.L.L.l.g.%.Q W W X.X.&.&.%.%.%.%.+.+.G.G.G.G.G.G.G.G.G.J.J.J.J.G.J.J.H.K.G.G.T.$XT.=.I B ^ E B W W l c c c c I I Q X.%.%.X.~ X. .X. . . . . .+.%.%.&.=.&.@.g.@./ U.$X$XfXtXOXK.4.4.4.4.4.G.J.J.G.J.J.J.J.G.G.G.J.J.J.",
"P.P.P.P.H.H.J.J.H.H.H.J.J.J.J.J.J.U.W.P.g.*.g.l.W.@X#X).G.G.J.P.G.*.*.=.=.&.*.&.*.*.g.g.&.&.&.%.=.g.g.g.g.&.g.g.*.*.g.g.*.*.*.*.*.*.g.*.g.*.*.*.*.&.&.*.*.g.g.l.g.G.P.U.U.P.G.*.G.+XiX+XuXeX=XeXeXeXeXeX[.[.[.[.{.'.Y.K.K.Y.Y.`.4.*.=.@.+.+.#.@.J.K.K.U.U.K.U.U.G.G.J.J.G.G.l.l.G.G.G.G.*.@.%.&.l.K.|.U.I.I.L.k. . . . .X.X.X. .| | X.| | |  .O.O. . . . .| | X.| ......X.k.I.|.I.I.I.I.XX$XXXI.J.l.k.&.f.f.f.&.o.f.f.f.f.o.i.i.k.&.o.&.k.k.&.O.z.I.I.I.I.).).J.I.J.J.I.).).).I.I.(.I.k.o.o.u.o.x.k.k.k.f.k.k.c.k.f.f.f.k.k.i.o.Q  .X. .W W W ~ Q Q Q W W W W Q X.Q Q W W  .+.=.G.hXcXzXgXzXzXpXjXgXjXjXjXjXgXpXjXgXgXvXvXfXXXU.W.W.W.U.|.XXXXXX|.|.|.|.|.|.XXXX|..X@X.X|.E.I.I.L.L.I.I.I.L.I.I.W.W.W.W.W.E.E.E.E.I.v.v.v.v.c.k.k.c.k.| V W | W V V c x B c V V V V V B V V S N u V f.k.k.c.l.f.o.i.i.k.k.k.k.k.f.f.f.k.g.f.&.&.&.*.l.G.G.L.L.L.c.c.c.f.X.X.X.X.%.%.%.%.%.%.+. .l.l.G.G.G.G.F.F.F.G.J.P.P.J.J.J.J.P.H.G.T.oXK.+.I E W W B W W s c c c x I I Q X.%.%.X.X.~  . . . . . . .+.%.=.&.=.*.@.g.@.+.@XfXtX$XoXK.1.*.1.4.G.K.K.K.G.G.G.J.J.J.G.G.G.J.J.J.",
"P.P.H.H.H.H.J.H.J.J.H.J.P.P.P.P.H.U.'.OXOXOXOXoX'.'.U.P.J.G.l.g.&.=.=.=.&.&.&.&.%.&.=.%.%.%.%.%.g.g.g.&.f.&.g.g.g.g.l.l.g.g.g.*.*.*.*.=.=.=.=.*.*.*.l.l.G.G.G.J.J.H.P.U.U.J.1.@.:.{.uXuXuXeX=XeXeXeXuXuXuXeX[.[.'.'.`.U.T.'.T.U.@.=.@.+.+.+.$.:.K.J.K.U.U.I.G.J.I.G.G.J.J.G.:.G.J.G.G.J.G.:.l.G.U.J.I.U.I.I.I.l.X.X.X. . .|  .| X.| | | | | X.O.X.| | | | | X.| ..y.u.X.o.f.v.|.I.I.U.|.OXoX/.J.k.k.k.f.f.f.f.f.&.&.f.f.f.f.f.f.f.f.f.o.&.&.;.;.&.z.(.).I.J.J.).I.I.I.L.I.I.(.|.(.I.c.o.O.f.k.o.k.k.k.k.k.k.k.k.k.k.k.k.k.k.k.f.X. .W W Q X.W c W W W W W W W ~ Q | Q W  .&.*.G.fXvXcXvXjXzXzXjXjXjXjXjXjXjXgXgXzXvXcXjXhXfX$XXXW.W.W.W.W.W.|.|.XX|.W.W.|.XXXXXX|.XXXXW.W.|.|.|.W.W.I.I.I.W.W.W.W.I.E.I.I.I.I.I.I.I.L.v.I.v.z.l.k.b.k.o.| c c | c c c c c x c x B B B B B B V V s x x.c.k.b.k.k.k.k.k.k.f.k.k.k.k.f.f.f.l.l.f.&.&.&.&.&.g.l.L.I.I.c.l.j.f.&.%.%.%.%.%.%.%.%.%.%.&.g.g.l.L.G.L.G.G.G.G.G.G.J.J.J.K.H.U.H.G.oX'.+.K I E E I I x x c x x x I W  .X.X.X.X.X.%.X.Q W Q  .%.*.*.=.=.&.=.+.=.=./ =.!.tXfX@XP.G.1.*.*.4.G.G.G.G.G.J.H.K.J.G.G.G.J.P.P.P.",
"H.H.H.G.H.G.J.J.H.J.J.J.J.J.J.J.G.H.U.'.'.'.'.'.'.'.P.J.l.g.g.&.&.&.*.*.*.*.&.&.&.&.&.&.&.&.f.f.f.g.g.f.%.%.%.%.%.f.g.g.g.g.g.g.=.=.=.=.=.*.*.*.G.G.G.J.I.I.I.J.H.H.U.U.P.G.*.@.G.{.*X*XeXeXeX=XeXeXeXuXuXeX+X+X'.'.U.U.T.T.U.P.%.%.%.+.+.&.:.G.K.K.K.U.U.I.J.I.I.G.G.J.J.G.:.G.G.:.:.G.J.J.P.|.U.J.I.U.I.I.I.l.X.X.X.X.| | | | | | | | | | | X.| | | | | | | | ......u.f.c.E.|.I.I.).|.XX'.K.G.k.k.k.f.f.f.f.f.&.&.f.f.f.f.f.f.f.f.f.i.&.&.k.;.&.l.I.(.I.I.I.(.U.U.I.I.I.I.}.|.I.v.k.X. .O.o.o.k.k.k.k.k.k.k.k.k.k.k.k.k.k.k.k.f.X.Q W W W W W W W W W W W ~ W W c W W X.f.l.J.vXcXcXzXjXzXzXjXzXjXjXjXjXgXgXiXiXiXfXiXfXtX@XU.U.W.W.W.W.W.|.|.|.XXW.|.|.|.|.|.U.XXXXXXXXXXXX|.|.W.W.W.W.W.W.W.U.I.I.I.I.I.I.I.I.I.L.L.I.v.z.l.k.x.b.k.| x c | c c c x x x x x B B B B B V V V k z f.b.k.c.k.k.k.k.k.k.k.k.k.k.f.f.f.k.f.f.f.&.&.%.%.%.&.g.g.l.l.l.l.j.g.g.&.&.%.%.%.%.%.%.%.%.&.&.g.l.l.c.l.l.G.G.G.G.G.J.J.J.K.J.U.H.G.oX'.+.I I E E I I x x x x x I U Q X.X.X.X.X.X. .Q W I U Q %.%.=.=.=.=.=.+.=.=.+.*.!.$X@XU.G.1.1.1.1.G.4.4.4.4.G.G.H.H.J.G.J.J.J.P.P.P.",
"H.G.G.J.J.J.H.P.J.J.J.G.J.G.G.G.G.G.H.K.K.K.K.K.'.K.G.*.*.&.&.&.&.&.*.*.*.*.*.*.g.g.&.&.%.%.%.%. . .%.%.%.%.%.%.&.&.&.&.%.%.%.%.@.@.=.=.*.G.G.G.I.P.P.P.I.I.I.P.K.U.U.U.P.G.*.#.J.OX*X*XeXeXeX=XeXeXeXeXuXuXuXrX'.`.U.U.T.U.J.*.%.%.+.@.*.l.G.J.K.K.K.K.K.J.J.I.I.J.G.G.J.J.G.G.J.G.G.G.G.G.P.|.K.J.I.I.L.I.L.j.X.X.X.X. . .O.X.| | | | | | | | | | | | | | | | | | X.i.v.E.|.|.|.|.|.|.).I.G.:.k.k.f.&.&.f.f.f.&.&.f.f.f.f.f.f.f.f.o.i.i.o.&.&.O.;.z.(.I.I.I.I.U.I.I.I.L.I.E.}.}.l.o.O.o.o.&.k.k.k.k.k.k.k.k.k.k.k.k.k.k.k.k.k.g.f.X.| I c W Q Q W ! W W W ^ W I x I X.f.k.G.I.cXcXcXzXvXcXcXcXcXzXvXgXgXiXiXtX$X+XoX+XfXfXoXP.U.W.W.W.|.|.|.|.W.W.XXXX|.|.U.U.U.XX@X@X@X#X@XXX@XXX|.|..X.X.XW.U.I.I.I.I.I.I.I.I.I.J.J.v.z.z.k.k.x.b.k.| x z | V V c x c c c B B B S V V V V V k x i.k.k.c.k.k.k.k.k.k.k.k.k.k.f.f.k.k.f.f.&.&.&.%.%.%.%.%.&.&.&.&.g.g.l.l.g.g.&.&.%.%.%.%.%.&.%.%.&.g.g.l.l.l.G.G.G.G.G.J.J.J.H.G.K.J.G.OX'.+.I I E E I I x x x x c I W Q X.X.X.X.X.Q W I I I l U ~ %.=.=.&.&.*.=.*.*.+.1.!.$XU.J.1.*.1.4.G.G.1.1.1.4.G.G.G.G.J.J.J.J.P.P.J.J.",
"G.G.G.J.J.J.K.P.J.J.J.J.J.J.P.P.H.P.U.U.U.U.U.K.G.4.*.=.&.*.g.g.&.&.&.*.*.&.&.&.g.&.&.%.%. . . . .%.%.%.%.%.%.%.%.%.%.%.%. . .+.=.*.*.G.J.J.K.J.I.I.P.P.I.I.I.P.U.U.U.P.J.l.&.#.J.OX*X*XeXeXeXeXeXeXeXeXuXuXuXuX'.T.U.U.!.P.G.@.+.+.+.&.l.J.J.K.K.K.K.K.K.J.I.I.U.P.G.G.G.J.I.I.J.J.J.J.G.G.J.I.K.J.I.I.L.L.L.f.X.X.X.X.X.O.O.O.| | | | | | | | o.X.| | | | X.o.X.o.f.c.E.}.|.|.|.|.OX|.U.G.l.:.k.f.&.&.&.&.f.f.&.&.f.f.f.f.f.f.f.i.i.o.o.o.o.o.O.&.k.v.I.E.I.I.U.I.I.I.L.I.I.I.I.k.o.f.k.k.k.k.k.k.k.k.k.k.k.k.k.k.k.k.k.k.k.f.g.g.f.X.Q W W W W W W W ! W ^ E I I Q f.f.&.l.I.I.U.U.K.K.'.OXOXfXiXiXiXiXiXiXtXfXiXtXiXfXgX$XU.P.I.W.W.|.W.|.W.W.W.|.|.U.U.W.|.U.XX#X#X@X#X@X@X|.W.W.|.~.~.W.W.W.I.I.I.U.I.I.I.I.I.J.z.I.z.z.k.k.k.k.k.o.c z V W V c x l c B B B V V V V V V V x k o.c.b.v.k.k.k.k.k.k.k.k.k.k.&.k.k.k.f.&.&.f.&.&.&.%.%.%.%.&.%.%.&.g.g.g.g.l.g.g.&.&.%.%.&.&.%.%.%.&.g.g.l.G.l.G.G.G.G.J.J.J.J.G.K.J.G.OX'.@.I I I E I I x x x x I W Q  .X.X.X.X.X.W x d l K l I ~ %.=.&.*.*.=.=.*.*.=.F.XX%XP.J.G.G.4.4.4.4.1.1.1.1.4.G.G.G.G.J.J.J.P.J.G.G.",
"*.*.*.*.l.l.G.l.G.G.J.J.J.P.P.P.U.U.!.XXXX'.U.U.$.=.&.&.*.g.g.g.&.&.f.&.f.f.%.%.%.%.=.%.%.%.%.&.&.&.=.%.+. .+.+.Q +.%.=.&.*.g.G.G.J.J.P.P.P.P.P.J.J.K.P.P.P.U.U.U.T.U.P.G.*.&.#.:.XXiX*XuXeXeXeXeXeXeXeXuXuXuXuX`.`.U.U.U.J.*.+. . .+.*.G.J.K.K.K.K.K.K.P.J.I.I.U.U.P.L.L.G.l.*.@.*.G.J.J.J.P.I.J.J.I.I.G.L.c.&.X.X.X.X.O.O. .O.| | | | | | | | | | | | X.X.o.i.&.k.v.E.E.E.|.|.|..X|.|.L.l.*.&.&.f.&.&.&.&.f.f.f.&.f.f.f.f.f.i.f.i.o.o.o.o.o.o.o.O.&.k.c.E.E.}.U.U.I.I.I.I.I.I.l.&.O.k.k.o.o.k.k.k.k.f.k.k.k.k.f.f.f.f.f.f.f.f.f.f.g.g.f.X.W c x c E W ! W E g I W %.g.g.&.l.W.U.U.W.U.U.U.U.U.K.U.'.oX$XiXiXiXiXfXfXfXfXiXoXU.P.I.W.W.W.W.W.W.W.W.W.W.U.U.|.|.U.XX@XXXXXXX@X@X|.|.W.W.|.W.W.W.W.U.U.I.U.I.(.I.I.I.z.z.v.z.z.k.l.o.O.k.k.| v z V V B x x x B B V V V V V V V V z k O.k.l.c.k.k.k.k.k.k.k.k.k.k.&.k.l.k.f.&.&.f.&.&.&.&.&.&.&.&.%.%.%.%.&.&.g.g.l.g.g.&.&.%.&.&.&.&.%.&.&.g.l.l.g.l.G.G.G.G.G.J.H.G.H.J.G.'.'.=.I E I c c x x x x I I W  .X.X.X.X.X. .W l d l l l U Q %.=.=.*.*.=.+.=.*.=.G.!.XXG.G.G.F.4.4.1.*.G.G.4.4.4.G.G.J.G.G.J.P.P.G.l.*.",
" . .+.+.+.+.+.+.&.&.=.=.=.*.*.*.g.g.F.G.G.G.g.*.=.&.&.&.*.g.f.f.g.g.f.f.%.%.%.%.&.%.%.%.%. . . .Q Q Q Q Q  .+.=.*.*.g.g.l.G.P.U.P.P.P.P.P.P.J.J.P.P.P.P.U.U.W.XXT.'.U.P.G.&.&.+.#.).*X*XuX=XeXeXeXeXuXeXuXuXuXuX`.`.U.U.P.G.=.+. .+.&.l.J.P.K.K.K././.K.J.P.P.I.I.W.W.P.l.&.Q I Y +.l.G.J.K.J.J.J.J.I.I.G.I.c.%. .X.X.X.O.O. . .| | | | | | | | V W X.o.o.i.f.f.l.v.I.}.E.I.}.|.|.|.|.I.l.:.&.k.f.&.&.&.&.&.f.f.f.&.f.&.o.f.f.i.f.i.o.o.o.o.o.o.o.o.o.f.g.c.E.E.I.U.U.).|.I.I.I.k.&.&.k.k.k.o.k.k.k.f.f.k.k.k.k.f.f.f.f.f.f.f.f.f.f.g.x.k.f.Q c x x x E W ^ x g c Q &.g.g.l.I.|.W.W.W.W.W.W.U.U.J.P.U.@X$XtXiXiX$XiXfXgXfXiXoX/.P.I.U.W.W.W.W.W.W.U.U.U.U.|.U.U.U.|.XXXXW.|.XXXXXX|.|.|.|.|.W.W.W.U.U.U.I.I.(.(.I.I.L.L.I.v.z.k.l.O.O.&.k.O.c k V V B x B B B B V V B B B x x x s u X.k.k.l.f.k.k.k.k.k.k.k.k.k.f.k.k.k.f.&.&.&.%.%.&.&.&.&.&.&.%.%.%.%.%.%.&.&.g.g.g.&.&.&.%.&.&.&.&.&.&.&.g.g.g.l.l.G.G.G.G.J.H.G.H.H.G.T.T.=.I E E c x x x c x I W  .X.X.X.X.X.X.Q I x l l I K U ~ =.=.=.&.&.%.+.*.*.*.G.U.U.*.1.1.*.1.4.4.1.G.G.4.1.1.4.G.G.G.G.J.P.J.G.*.@.",
"Y  . . . . . .Y Y Y Y Y Q Q Q Q Q ~ +.+.=.&.=.+.*.&.=.%.%.&.f.g.g.f.d.%.%.%.%.%.%.%.%.+. . . . .Q +.+.@.=.=.*.G.P.P.P.J.J.J.J.P.I.I.I.I.I.I.P.P.P.P.P.P.U.U.XXXXT.XXW.I.l.&.%.#. .K.+X*XuXeXeXeXeXeXuXuXuXuX+X+XK.U.U.K.G.=.@.+. .=.l.J.P.K.K.K.K././.K.J.P.K.I.P.W.E.g.X.Y K d U +.*.G.J.J.J.G.G.J.U.U.L.I.c.X. .X.X.X.O. .| |  .X.| Q | X.X.X.X.o.f.f.f.f.f.k.I.I.U.).I.I.|.|.|.).I.l.k.;.&.k.&.&.&.&.&.&.f.f.f.f.f.&.o.o.f.i.f.i.i.o.o.o.o.o.f.&.&.&.f.g.c.c.l.J.I.I.(.I.v.l.&.k.k.&.o.&.k.k.k.k.k.k.k.k.k.k.f.f.f.f.f.f.f.f.f.f.f.k.k.f.X.| E c l x I I x x W %.g.g.g.W..X.XW.|.|.|.@X@X@XXXXXXXXX@X@X$X$X$X$XiXfXgXgXiXoX'.P.I.U.W.W.W.W.W.W.U.U.W.|.|.U.G.L.W.@XXX|.|.XXXXXX|.W.W.|.|.|.|.W.I.).U.).I.(.(.I.I.I.I.I.I.z.l.k.;.O.O.k.f.| k c x B B B B B B c c x l l k k k u 4 o.c.l.k.&.k.k.k.k.k.k.k.k.k.f.f.f.k.k.f.&.&.X.%.%.%.%.%.%.%.%.%.%.%.X.X.X.%.&.&.&.&.&.&.&.%.&.&.&.&.&.&.&.&.g.g.l.G.G.G.J.J.P.G.P.H.G.U.U.=.I E I x x x c c c W Q X.X.X.X.X.X. .W I I x I I U Y +.=.&.&.&.&.=.=.g.F.*.G.P.G.$.1.G.1.1.G.G.G.G.4.4.1.*.*.*.*.*.G.G.J.G.g.=. .",
" . . . . . . . . . . . .Y Y Y Y +.+.%.*.g.l.l.g.*.%.%.+.%.&.*.g.&.%.%.~ ~ ~ ~ Q Q Q  .%.=.*.g.l.G.G.P.P.P.J.J.J.P.P.P.J.J.J.J.I.I.I.I.I.I.I.U.U.P.P.P.P.P.U.U.T.U.|.|.I.l.&.&.&._ K.{.[.uXuXeXeXeXuXuXuXuXuX+X+XK.K.K.J.*.@.+.+. .&.G.P.K.K.K.K.K././.K.J.K.K.I.I.E.g.W d d K K I  .*.G.J.K.P.J.G.J.U.U.I.I.c.X. .X.X.X.O.| | |  .| Q Q | | X.X.E.v.l.f.X.o.k.c.).).U.U.).|.|.|.).I.l.:.&.&.;.k.&.&.&.&.&.&.f.f.f.&.f.&.o.o.o.i.f.i.i.o.o.o.o.o.f.f.f.f.f.f.f.f.g.k.G.L.I.z.k.&.O.;.k. .| O.f.f.k.k.k.k.k.k.k.k.f.f.f.f.f.f.f.f.f.f.f.f.f.f.f.f.Q W l g x x x x X.g.g.g.G.|.@XW..X|.W.W..XW.W.W.|.W.U.W.XX@X$X$XoX$XfXgXgXiXoXK.P.U.U.U.W.W.W.W.W.U.U.|.XX|.P.*.l.U.@X@XXXXXXXXXXX|.W.W.W.|.|.|.W.I.).).).I.(.(.(.I.I.I.I.I.z.z.;.k.;.;.;.k.X.v x x B B B B B B x l l k s s s s 4 s f.C.c.c.k.c.k.k.k.k.k.k.k.k.k.f.f.f.k.k.&.&.%.%.%.%.%.%.%.X.%.%.&.&.&.%.X.X. .X.X.%.%.&.&.&.&.&.&.%.%.X.X.X.g.g.l.G.G.G.J.J.P.G.P.H.G.U.U.=.I E c x x x c c I W Q X.%.X.X. .X. .W I I I U U Y  .=.*.=.&.&.&.=.*.F.G.F.G.G.*.1.G.J.G.G.G.J.G.G.4.1.1.*.*.*.*.*.F.G.J.G.*.+.Q ",
" . . . . . . .Q +.+.+.+.=.*.*.*.l.l.l.L.L.l.g.&.%. . .%.%.%. .Q Y Q Q  .=.g.G.L.P.P.I.I.I.I.L.G.g.l.l.g.l.P.L.l.G.P.I.P.G.l.l.G.P.L.I.I.P.l.G.I.P.P.P.U.U.'.'.T.XX@XXXG.f.f.f.&.#.&./.{.*XaXeXeXaXeXuXaXaXuX*X[.K.K.G.4.$.#.+.+.+.*.I.U.J.J.J.K.K.)./.K.K.K.U.I.I.%.I x x d d I K +.G.J.J.J.J.J.J.P.U.U.U.I.j.X.X.X.X. .| | | | X. . .X.X.&.l.v.I.l.&.X.o.k.I.E.I.K.K.K.).|.|.).J.l.:.:.l.l.l.k.k.&.&.&.&.o.f.f.o.o.o.o.X.o.o.o.f.f.i.i.i.o.i.i.f.f.f.f.g.g.d.f.&.&.&.&.&.&.&.;.;.k.&.W I  .&.&.k.l.c.c.c.k.f.f.&.f.f.f.f.f.&.o.o.o.o.f.i.i.f.f.f.X.Q I x x c c %.*.g.g.I.@X@X.X.X.X.X.X.X.X.X.X.X|.W.I.U.|.#X$XOX$XfXhXgXiX[.U.U.E.I.E.W.W.W.|.|.XX@XXXXX$XXX*.&.W.5X#X|.|.@XXXW.|.XXXX@X@X@XXX|.I.I.|.|.I.I.I.L.L.L.L.I.I.z.z.k.;.o.;.k.k.o.| k k V B f B B f l k s s l x s 3 3 v c.I.v.k.f.v.c.k.k.k.k.f.k.k.k.f.f.k.k.k.f.&.%.%.%.X.%.&.&.&.&.&.&.&.&.&.%.&.%.%.%.%.%.%.%.%.&.&.&.&.%.%.%.&.%.*.l.l.G.G.G.G.G.J.J.P.H.H.U.=.E I x x x x c I W Q X.%.%.X. .Q Q Q Q  . . . . . .&.l.l.$.&.&.*.=.*.*.g.*.1.G.G.1.G.J.H.G.G.4.1.G.G.G.G.1.*.G.G.G.G.G.G.g.&.+. .",
" . . .Q Q  .=.&.*.g.g.g.G.G.G.L.L.L.c.l.l.j.g.%.f.f.%.+.Q Y Q +.P.I.U.W.W.W.U.U.P.P.P.P.P.P.L.G.G.G.G.G.I.W.P.g.l.L.P.P.G.l.l.l.G.l.G.I.I.G.G.I.J.P.U.U.T.T.T.U.XX@X|.l.&.f.&.%.+.#.K.'.[.uXeXeXaXeXuXaXaXuX+X{.`.K.G.:.$.@.+.+.+.*.J.U.J.K.K.K.K.)./.K.K.K.U.I.g.~ K K I K l K Y &.G.J.J.J.J.J.J.P.U.I.I.L.f.Q  . . . .| | | Y W W X.f.l.f.l.l.l.f.f.&.l.c.E.W.).U.U.U.).).).U.J.I.U.|.#X.X).L.l.k.&.&.f.&.o.&.o.o.o.X.X.X.o.o.f.i.i.i.o.o.i.i.f.f.f.f.f.f.f.f.&.&.&.&.&.&.&.&.&.O. .U  .l.c.k.&.f.f.&.o.o.X.X.X.o.o.o.o.o.o.o.O.O.o.o.o.o.o.o.X.X.X.Q W W E I %.g.g.g.P.|.@X.X.X.X|.W.W.W.|.|..X.X|.W.W.|.@X#X@X$XiXfXgXiXoXU.U.I.I.I.W.W.W.W.|.W.W.U.|.$XfX$X4XfXfX#X|.XX@X@XW.|.XXXX@XXXXXXX|.|.|.|.|.).(.).J.L.I.L.I.v.z.z.;.o.O.O.k.k.k.i.| u f B B B s s s s l I g..X|.f.| x k.}.c.c.k.o.l.k.k.k.k.k.k.k.f.f.f.k.k.k.f.&.%.%.%.%.%.&.&.&.&.&.&.&.&.&.%.%.%.%.%.%.%.%.%.%.&.&.&.&.%.%.%.&.%.&.l.l.G.G.G.G.G.P.J.P.J.P.U.*.W I x c x x x I W Q X.X.%.X. .Q  . . . .X.X.%.%.*.l.l.*.&.#.&.*.*.*.g.g.1.F.G.G.G.G.J.J.G.G.4.4.G.G.G.1.1.*.G.G.l.G.G.l.*.%. . .",
"+. . . . .=.g.G.l.l.G.G.G.G.G.G.l.l.f.&.%.%.%.X.~ ~ Q Q +.*.P.XXXXXXW.U.P.P.G.G.P.J.G.G.G.J.G.G.I.L.c.L.W.W.L.&.l.L.I.I.L.L.c.L.l.l.l.G.L.G.G.G.G.P.U.'.T.T.T.T.#XXXI.g.&.f.f.X.%.&.K./.{.uX[.uXeXeXeXeXaXuX[.`.K.K.:.=.@.+.+.+.+.*.I.U.K.J.K.K./././.K.G.J.K.I.g. .I I U I I I &.l.J.J.G.J.J.J.J.J.I.I.I.G.&.W  . .| | | | |  .&.&.l.l.l.&.&.&.l.&.&.&.c.I.W.U.).K.K.).).).).).).).|.XXOXOXXXXXI.l.&.&.f.f.o.o.o.o.X.X.X.X.o.o.o.o.o.o.o.o.o.o.f.f.f.f.f.f.f.f.k.;.;.;.;.k.;.;.k.&.O.&.v.|.I.&.X.X. .| | |  .X.O.X.X.X.X.X.X.o.O.O.O.X.X.O.X.o.o.X.X.X.X.Q Q W &.g.g.g.L.W.|.|.|.W.E.E.E.E.E.E.|.|..X|.|.|.|.XX#X$X$X&XfXfXoXU.U.P.P.I.W.W.W.W.|.I.I.W.|.$XhXhXlXlX5XXXW.@X@XXX|.XXXXXXXXXXXXXXXX|.|.|.|.).(.(.z.z.L.I.I.v.z.z.;.o.O.o.o.k.k.k.W u f f s f f c 8 l I &.4XZXcX4Xf.s k..Xc.c.v.o.k.k.k.k.k.k.k.k.f.f.f.k.k.l.g.f.&.&.&.X.&.O.&.&.&.&.&.&.&.&.&.&.&.&.&.&.&.&.&.&.&.&.&.&.&.&.&.%.%.&.g.l.l.l.G.G.G.P.G.P.J.P.U.*.Q E x x x x c W  .X.X.X.X.X.X. . . .X.%.&.&.&.&.l.l.*.=.&.@.&.=.*.g.F.F.F.F.G.G.G.J.J.G.G.4.4.G.G.1.F.F.*.*.l.l.*.l.G.g.&. . . .",
"Q +.=.*.g.g.G.G.g.g.G.g.g.g.*.*.&.&.X. .X.X.X.X.%.Q Q +.G.|.XXXX'.'.P.J.G.G.J.J.J.J.G.G.P.U.U.W.I.L.c.l.c.j.%. .&.f.j.j.j.g.l.l.l.l.g.g.*.*.*.l.J.P.T.'.T.T.'.XX$X|.l.&.f.f.f.X.%.&.J.K.`.[.[.uXeXeXeXeXaXuX{./.H.4.$.#.#.&.&.&.*.G.J.J.J.J.K.K././.K.K.G.J.J.J.G.&.Y K l K Y +.G.I.I.J.G.J.J.P.J.J.I.I.I.l.&.Q  . .| | | X.O.&.|.I.L.l.k.&.&.*.l.&.&.&.l.I.|.).I.I.K.).).|.|.).XXXX|.).).).XXOX}.l.O.O.&.f.&.o.o.o.o.o.&.f.f.i.o.o.o.o.o.o.o.f.f.f.f.f.f.k.l.l.v.z.z.z.l.l.l.l.l.v.I.}..X|.k.W X. .W W W  .X.o.&.&.o.o.X.X.o.o.o.o.O.O.O.O.o.o.o.o.&.o.X.X.X. .f.g.g.g.l.I.|.E.W.E.E.L.c.L.v.I.E.E.|.|.|.|.|.|.#X#X$X&XfXiX@XP.U.P.P.I.W.W.W.W.|.I.W.@XXXXX$X5X@X@XXXW.W.@XXXW.XXXXXXXXXXXXXXXXXX|.|.).).I.I.I.z.z.L.L.I.I.z.z.k.o.o.O.o.k.k.k.x s B f s x f s I  .&.I.5XcXkX.XO.k k..Xc.k.z.z.k.k.k.k.l.k.k.k.&.&.f.k.k.k.k.k.&.&.&.&.&.O.&.&.&.&.&.&.&.&.&.&.&.&.&.&.&.&.&.&.&.&.&.&.&.&.&.&.%.&.*.g.l.l.G.G.G.P.G.J.J.P.!.l.W E x x x x c W X.X.X.X.X.X.X. . . .X.%.&.&.&.&.*.&.@.+.@.&.&.=.*.F.F.F.*.*.F.F.G.G.G.G.1.1.1.4.*.*.*.*.*.*.l.l.l.G.G.*.+. . .+.",
"@.=.g.G.P.J.G.G.G.G.F.g.*.*.=.%.%.O.O. .X. .X.X. .~ %.g.).XXXX/.`./.H.H.K.K.U.).J.P.U.XX@X@X@X@Xj.f.f.X.X.| Q W W W Q W Q X.X.&.&.&.&.%.+.%.*.G.P.P.T.T.T.T.'.oX#XI.f.&.f.f.&.X.&.&.J.K.`.{.{.uXeXeXuXuXuXuX{.K.K.K.-.$.*.l.l.l.l.l.G.G.G.J.K././._.J.6.J.K.J.J.G.l.+.Y T U +.l.U.U.I.J.J.J.I.U.J.G.L.I.I.G.f.X.X.X. .| O.&.l.v.|.I.z.l.:.&.k.J.k.:.:.l.I.|.|.|.).(.).).XXXXXX|.).XXoXOXOXXXXX|.#Xv.o.X.o.&.&.&.f.&.o.o.f.f.f.f.o.o.o.o.o.o.&.&.f.&.&.k.k.l.z.L.L.I.I.z.v.v.v.v.l.I.|.|.E.l. .c | Q W W Q X.&.f.g.f.f.&.&.X.X.o.o.O.O.O.O.O.o.o.&.o.o.X.X.X.X.X.&.g.g.&.g.L.E.I.I.L.L.l.c.l.c.c.E.E.E.E.E.E.|.|.U.XX$X5XfXiX@XU.U.I.P.W.W.W.W.W.|.U.XX5X#X|.XXXX@X@X@X.X|.|.W.W.@XXXXXXX|.|.XX|.|.|.|.).I.I.L.z.z.z.L.L.I.z.z.z.k.k.o.O.o.f.k.k.| s k z l l s s j.G.W.#X#X#X(.l. .c &.}.}.c.O.z.k.k.k.c.l.k.f.k.&.&.f.k.k.k.k.k.&.&.&.&.O.X.X.&.O.O.&.&.&.&.&.&.&.&.&.&.&.&.&.&.&.&.&.&.&.&.&.&.%.&.&.g.l.l.l.l.G.J.G.I.J.P.XXl.Q E I I x x I W X.X.X.X.X.X.X.X. . . . . . .+.+.+.+.+.@.&.=.=.&.*.*.g.g.*.*.*.1.F.F.F.1.$.$.*.1.*.*.*.*.*.l.l.l.l.l.g.&. .Q Q  .",
"F.F.F.G.G.G.G.G.F.G.g.*.=.=.+.+. . . . . . .X.X.~ &.U.XXXXXXoXoX/./.`.`.'.'.`.'.OXoX$X5X$XXXP.g.X. .Q Q W I W  .c c c c W W Q X. . .X. . .&.G.U.P.U.T.U.T.'.oX$XXXc.&.&.f.f.&.X.%.&.J.K./.{.`.eX=XeXuXeXuXuX[././.K.-.$.*.l.l.l.l.:.*.:.4.K.K././.K.K.5.K.J.K.G.G.J.I.G.*.*.J.|.|.U.J.J.J.J.I.U.J.G.G.I.I.G.f.%.X.X.o.o.k.c.I.(.).I.J.l.k.&.:.l.&.l.I.|.#X#XOX|.XXXXXXXXXXXX|.|.'.'.XXXXoXOXoXOX#XI.&.O.o.&.&.o.&.&.&.o.f.f.f.f.i.i.o.o.o.&.k.;.k.;.k.l.l.z.J.L.l.l.l.l.l.l.l.l.k.v.I.l.X.W U W W W W  .X.o.f.g.g.f.f.f.&.&.X.o.o.O.o.o.o.O.o.X.&.o.X.X.X.X.X.&.&.f.k.f.f.c.I.L.L.L.L.l.c.c.l.l.I.E.I.I.I.I.W.|.l.U.#X5XfXfXoXU.I.W.W.W.W.W.W.W.XXU.XX$XXXXXXX@X@X@X@X.XW.|.@X@X@XXXXXXX|.|.XXXXXX|.|.I.I.I.I.J.z.z.L.L.z.z.z.z.k.k.o.o.o.k.k.b.i.s k k 3 3 W |.|.XX#X#X|.l.k.k.O.U O.v.4X.Xz.v.c.k.k.k.k.k.f.k.&.&.k.k.f.f.k.k.&.&.&.&.X.X.O.O.X.X.&.&.&.&.&.&.&.&.&.&.&.&.&.&.&.&.&.&.&.&.&.&.&.&.&.g.g.g.l.l.g.G.l.I.J.P.XXg.W E x I x x W Q X.X.X.X. . .X. . . . . . . . . .+.+.&.&.=.=.&.@.=.*.*.*.=.$.*.*.*.*.*.*.$.$.$.*.*.*.*.*.*.*.*.l.g.*.%. .Q Q  .%.",
"P.L.F.F.F.F.F.F.*.=.%.+.~  .~  . . . . . . .X.&.W.@X5X5XOX).'.'.+X[.*X*XuXuX*X$XfX$X$XW.P.*.~ I W c c W W W W Q W W W W W Q Q W Q Q Q  .&.L.U.U.U.U.T.T.XXOXoXoXW.f.X.f.g.f.o.&.X.&.P.K.K.`.`.[.=XeXuX=XuXaX*X`./.K.:.*.l.G.G.G.J.G.G.G.J.K.)./.K.K.5.K.K.K.K.G.J.K.).).).).XXXX).J.G.J.I.I.I.K.I.G.G.I.I.G.f.%.o.f.k.c.v.v.I.I.).K.J.J.l.:.:.l.J.K.|.OXOXOXOXOX.XXXXXXXXXXX).).oX'.`.`.'.oXoX$X|.c.&.o.&.&.o.X.o.o.X.X.o.&.f.i.i.o.o.o.&.k.k.k.l.l.l.l.z.z.z.z.>.l.l.l.k.k.k.l.l.k.f. .I x U  .W W  .X.o.f.f.f.g.g.f.f.f.f.&.o.O.O.o.f.o.o.O.X.o.o.X.X.X.X.X.o.X.f.k.&.f.c.L.v.l.l.G.G.L.L.G.l.v.v.I.I.I.I.L.I.l.U.@X$XfXfX@XP.I.W.W.W.W.W.W.W.XXW.XX@XXXXX#X@X|.W.W.W.W.@X@X#X@XXXXXXX|.|.XXXXXX|.I.l.l.L.I.I.L.L.L.L.z.z.l.k.f.i.i.o.i.k.k.b.X.k k s 8 Q .XZX#X#XXXI.k.&.l.z. .l O.I..X4X.X(.c.l.k.k.k.k.f.k.&.&.k.k.f.f.f.f.&.&.&.&.X.X.o.&.X.X.X.O.&.&.&.&.&.&.&.&.&.&.&.&.&.&.&.&.&.&.&.&.&.&.&.&.g.g.g.g.*.G.l.G.J.P.W.g.Q E x x I E W Q X.X.X. . . . . . . . . . . .+.+.+.&.&.&.&.@.@.@.=.=.*.*.=.=.*.*.=.$.*.*.$.$.$.*.*.g.*.*.*.*.*.*.&.%. .Q  .&.f.l.",
"F.L.G.G.F.F.g.g.%.%.~ ~ Q ~ X.%. . . . . .%.g.c.W.|.XX@X$X&X&XiX+X+X+X+X+X*XiXiX$XXXG.+.U I I E E l l V W W c B B W W Q Q W V x X. . . .l.|.|.P.U.U.T.'.oX+XoXoXL.f.X.f.k.f.X.&. .#.I.K.K.`./.{.=XeXuX=XuXaX*X'.`.K.G.G.J.U.).U.).U.K.K././.).K.K.K.J.K.K.K.K.4.K.K.P.K./.'.).U.U.J.G.J.P.J.I.K.P.G.G.I.I.l.&.X.O.&.l.I.(.(.I.L.K.J.G.G.G.G.J.).XXOX@X|.).).XXOX(.(.(.|.XXXXXXXX'.'.oX+X&X$XXXU.k.&.X.O.f.f.o.X.X.X.X.X.X.X.o.&.i.o.o.o.&.;.k.l.l.z.z.l.z.z.l.>.:.:.k.k.k.l.l.l.L.l.&. .Y I W Q W  .X.&.f.f.f.f.f.g.g.l.l.k.f.f.&.o.k.k.k.f.o.O.X.X.o.o.o.o.X.X.X.&.k.&.f.l.v.l.l.l.L.I.I.I.I.L.l.v.I.I.I.c.l.c.I.W.XX$XfX5XXXG.I.W.XX|.W.U.W.W.XXW.@X@XXXXX@XW.@X|.W.@X@X@X@X|.XXXXXX|.|.XXXXXX#X|.L.k.;.z.I.I.I.I.I.L.v.z.l.l.k.k.i.i.i.k.k.k.| c l s &.kXxX5X#X@XI.%. .;.v.z.| 9 k.(.k.(.}.l.v.c.k.k.k.f.&.k.&.f.k.k.k.f.f.f.&.&.&.&.X.X.X.&.X.X.X.o.&.&.&.&.&.&.&.&.&.&.&.&.&.&.&.&.&.&.&.&.&.&.&.&.*.g.g.*.*.l.l.J.J.P.W.g.Q I x x I I W X.X.X. . . . . . .Q  . . . .%.%.&.+.+.+.+.+.+.@.&.=.=.*.*.=.=.*.*.=.=.*.*.*.*.*.*.1.*.*.*.*.*.*.*.&. .Y Y %.l.I.I.",
"L.L.F.g.g.%.%.X.~ Q Q W W W Q X. . . .%.%.&.&.g.g.&.&.%.%.&.*.:.OX+XiXiXiXvXvXhX&.&. .W c B B c c B B E W W W W E W W W c c I W X.X. .&.l.K.U.U.T.K.].+XOXoX$XW.&.i.f.f.f.f.X.X. .&.l.I./.K./.'.{.[.uX[.{.[.[.[.{.`.`.'.'.U.).'.).).).)././././.K.K.J.J.J.J.J.G.P.P.K.K.P.J.G.G.J.G.G.G.J.J.I.P.P.G.L.L.l.&.&.&.O.l.|.|.I.J.I.).K.K.K.J.K./.'.OX'.'.OXXXOXXX'.'.).XXXX'.'.'.'.oXoXXXXXXX|.}.v.l.X.X.o.o.i.o.X.X.X.X.X.X.f.f.X.X.X.&.k.l.l.z.z.z.J.z.z.l.J.l.l.l.&.:.l.l.:.:.k.l.&.&.X.Q W W W W W X.&.f.f.&.f.k.f.k.f.f.&.&.k.k.k.k.l.k.k.f.o.O.X.X.X.X.X.u.f.&.X.O.f.l.k.&.k.c.L.c.c.I.W.I.G.L.L.L.l.l.l.l.L.L.L.|.|.XX#X5X#XW.I.G.I.XX@XU.I.|.@XXX|..X@X@X@X|.W.|.XX@X@X@X@X@X@XW.W.|.@X@XXXXX4Xf.k s x  .l.v.I.I.I.I.I.I.c.f.f.k.i.o.i.k.l.k.&.c 9  .&XhX#X5X&XOXG.&.&.f.k.v.W 3 k.}.&.v.I.k.l.k.o.c.k.O.v.&.o.k.k.k.f.f.k.l.&.&.&.&.O.O.&.&.&.&.X.X.X.&.&.f.&.&.&.&.&.&.&.&.%.%.%.%.&.&.&.&.%.%.&.&.*.*.g.g.:.l.g.J.P.U.T.&.K c x c W W  .X.X. . . . . .Q Q  . . . .X.%.%.%.%.%.%.%.=.&.&.&.&.&.&.*.*.*.&.&.=.$.$.$.$.*.:.:.*.*.*.*.*.$.=.#.=.$.*.l.J.I.K.K.",
"g.j.g.%.X.~ Q Q W W W W W W Q Q  . .%.%.&.&.&.&.&.&.&.&.&.&.*.*.' @.G.'.OX$XU._ Q W I c B V S B B B E W W W W W W W W I c I W Q X.X. .&.G.U.T.U.Y.Y.].+XOX$X$XU.f.i.i.f.f.&.X.X.X.&.l.I.).K././.{.[.+X[.{.{.'.'.`.`.`.`.'.K.K.U.'././././.).K.K.K.K.I.J.J.J.J.G.I.I.P.I.I.J.J.G.G.G.G.J.J.K.K.K.G.P.P.L.*. . .&.l.L.).|.I.J.J.J.4.4.K.U.'.'.OXOXXX'.OXOX'.OX'.'.XXXXXX'.{.'.'.'.'.'.XX|.|.E.c.f.X.X.X.o.o.i.f.o.o.X.X.X.X.&.f.l.l.l.L.L.J.z.l.l.l.l.l.l.J.J.L.G.l.l.l.l.l.l.l.l.&.X. .W W W W W | X.&.f.&.&.f.f.f.o.| W W  .o.&.&.&.&.k.f.&.o.X.o.o.X.X.u.u.f.&.X.O.&.k.k.&.k.l.I.L.c.L.I.L.L.I.l.l.l.k.l.l.l.L.c.|.|.|..X#X#X|.XXI.G.U.|.W.U.W.@XXX|..X@X@X@X|.|.XXXX@X@X@X@X@X@XW.U.W.XXXX@X@XE.| k k v | &.&.l.c.I.I.I.c.j.g.f.f.f.o.&.k.k.k.&.U L l.5XhX$X&X5X$XI.&.&.k.l.c.| 3  .E.c.c.l.v.l.l.k.k.o.X.l.o.o.&.k.k.f.o.k.k.;.&.&.&.&.&.O.X.X.X.X.X.X.X.X.X.%.%.&.&.&.&.%.X.%.%.%.%.&.&.&.&.=.%.&.&.&.*.g.g.:.l.*.P.P.U.U.@.I I I I W Q  .X. . . . . . . . . . . . .X.%.%.%.%.%.%.%.%.&.&.&.&.&.&.&.*.&.&.&.&.&.$.*.$.:.:.:.*.*.*.*.*.*.*.*.*.:.G.J.I.J.J.G.",
"%.%.~ Q W I W W I I I I W W X.X.%.%.&.&.&.&.&.&.=.&.&.&.&.&.&.&.@.@.1.K.OX$XK.U I x x c B V V V B E W W W W W W Q W I c I W  .X.X.|  .&.J.'.'.Y.Y.Y.oXoXoX$X@Xl.f.i.f.f.f.f.X.X.X.&.k.I.K.K.K./.`.{.[.[.{.{.{.`.{.`.'.{.`.K.K.K.`././.K.K.K.J.J.K.K.J.J.J.J.J.J.J.J.I.I.I.J.J.J.G.G.G.J.P.K.P.I.G.P.I.L.&. . .*.).|.).).I.G.G.4.*.G.U.OXOXOXOXOXOXOX'.'.'.'.OXOXXXXXoXoX{.{.'.'.OX'.XX|.}.v.f.X.o.X.X.X.X.&.f.o.X.o.&.&.f.f.c.I.I.I.I.I.L.z.l.l.z.>.:.:.l.l.l.l.z.l.l.l.l.l.l.k. . .Q W W W W W X.o.&.f.f.f.f.g.f.X.c l x I |  .O.O.&.&.&.&.o.o.f.&.o.o.X.X.i.o.o.O.&.f.k.f.f.l.I.L.l.c.c.l.L.I.l.l.l.l.l.l.l.l.l.|.#X|.|..X#X#X$X|.G.l.I.|.|.U.XXXX.X.X@X@X|.|.XXXX@X@X#X#X#X#XXXW.U.W.XXXX@X#XX.x k c | X.&.O.&.&.l.I.v.f.f.f.f.k.f.f.k.l.k.&.&._ &..XfXfX&X$X$X&XU.&.f.l.c.k.x s X.I.I.L.l.v.k.c.k.f.| O.c.o.O.o.k.k.o.o.k.k.k.&.&.&.&.&.&.X.X.X.X.X.X. . .Q O.&.&.&.&.&.X.X.&.&.&.&.&.&.&.&.%.&.&.&.&.&.*.g.*.l.*.P.P.P.P. .I I I W W Q X.X. . . . . . . . . . . . . .%.%.%.&.%.=.=.=.&.&.&.=.&.*.=.=.=.=.&.=.$.$.:.*.*.-.*.*.*.*.=.*.l.G.G.G.G.I.I.I.G.*.&.",
"W E I I I I W W W W I I W  .&.l.&.&.&.*.&.&.&.=.&.&.&.&.&.&.&.@.G.@.@.-.K.$XXX:.I x x c V V S B B W W W W W W W W W c I W X.X.X.X.|  .&.P.'.'.Y.Y.].oXoXoX$XXX*.f.f.f.f.f.f.X.X.X.%.g.J.K.J.K.K./.`.{.{.{.`.`.`.'.{.{.'.`.K.K.K.K.K.K.K.K.K.J.J.K.K.J.J.J.J.J.J.J.G.G.G.G.G.J.J.G.G.G.G.J.J.J.J.P.P.L.l.&. .*.L.OX|.U.P.J.G.J.G.U.'.oX+XoXOXOXOXOXOX'.'.'.'.OXOXXXXXoXoX{.{.oXoXOX@XXX|.c.f.X.| X.X.| ..X.o.X. . .&.l.L.I.L.L.I.L.L.I.I.L.J.z.z.J.>.:.:.:.:.k.k.k.l.l.L.z.k.&. .W W W W W W Q ~ X.o.&.&.&.&.f.f.X.W x k l I | X.o.&.&.f.f.&.f.&.o.o.o.X.X.X.i.o.o.X.X.&.f.f.f.f.L.c.c.l.l.l.L.L.l.l.l.c.c.L.L.L.l.|.#X|.|.|.@X#X$X|.L.l.L.W.|.U.XXXX|..X.X|.|.|.XXXX@X@X@X#X#X@XXX|.W.|.XX@X@X@XI k x  .O.&.k.&. . .&.c.c.f.f.g.f.k.k.k.k.l.k.&.&. .I.5XfX5XfX$X$X5X|.&.k.L.c.f.3 X.E.I.c.I.c.l.&.l.k.O.| &.c.k. .o.k.k.o.O.k.l.l.k.&.&.k.k.&.X.&.&.f.f.&.X.X. .&.&.&.&.&.&.o.o.O.O.&.&.&.&.o.o.&.&.&.&.&.&.*.g.*.l.*.P.P.P.J.Y I W W W Q  .X.X. . . . . . . . . . . . . . .%.%.&.&.&.&.&.&.&.&.&.&.&.=.=.=.=.=.=.*.*.:.:.:.-.$.*.*.*.*.:.l.J.I.J.G.G.G.l.&.+. .",
"c c c c I I I I I U Q  .%.&.g.l.*.*.*.g.&.&.&.%.&.&.&.&.&.&.&.&.=.@.@.4.J.XXXXl.Y I x c V V B B B W W W W W W W c c I W X.X.X.X.| |  .k.K./.T.T.'.+XoXoX$X$XP.&.f.f.f.f.f.f.X.X.X. .&.G.J.J.K.K././.'.{.'.'.`.`.'.'.'./././././.K.J.K.K.K.K.J.J.K.J.J.G.J.J.J.J.G.G.G.G.G.G.J.J.J.G.l.G.J.P.K.P.W.L.*.&.&.*.L.|.|.|.K.K.G.H.T.XX$X$X$X+XOXOXOXOXOXOX'.'.'.'.OXOX'.XX'.'.OXoXoXoXOXOXXXI.f. .| X.X...X.X.X.X.X.W X.k.I.|.|.I.L.L.L.L.I.I.J.J.J.J.J.J.l.>.k.l.k.k.l.v.L.c.f.X.W I W W W W W W ~ X.o.&.&.f.f.f.f.f.| W W W I | o.f.&.&.f.f.f.f.f.f.o.o.X.X.X.X.X.o.o.O.X.O.f.k.f.&.l.c.L.c.l.l.c.l.l.l.l.c.l.l.v.v.c.I.|.|.|.|.#X#X|.|.I.G.G.I.W.W.|.|..X|.|.|.|.|.XXXXXXXXXX@X@X@XXXXXXXXXXXXXXXXXI l x  .X.&.k.&.&.O.&.l.c.k.k.k.k.k.k.k.k.k.&.&.:.*.XXfX&X&XfX&X$XfX#Xl.l.L.l.&.l v..Xv.c.L.L.l.k.c.l.|  .l.c.l.X.&.f.f.o.o.&.k.l.k.&.k.l.k.&.X.&.&.f.g.f.f.&.X.&.&.&.&.X.X.X.X.X.X.&.&.&.&.O.o.&.&.&.&.&.&.&.*.*.l.*.J.P.J.J.Y U I W W Q  . . . . . . . . . . . . . . . . .%.&.&.*.*.*.*.*.*.*.=.=.=.=.=.$.$.=.*.*.:.4.4.-.*.*.*.*.g.G.G.G.G.G.l.l.g.%.%.Q U I ",
"c E I I I I I x l U +.=.*.*.*.*.g.g.*.*.&.&.&.&.*.&.&.&.&.&.&.*.*.*.:.4.G.K.XX). .I l c W V B V E W W W W W W W c W Q X.X.%.X.X. .| &.G.U.U.T.Y.].+XoXoX$XXXG.&.&.f.f.f.f.f.&.o. . .&.l.I.J.J.K.K.K./.'.'.'.'.'.'.'./.K.K./.`.`.K.K.K.K.K.K.J.J.K.J.J.G.J.J.J.J.G.G.G.G.G.G.G.G.G.l.l.G.I.U.|.U.L.g.%.%.*.G.).XXU.K.K.H.K.Y.+XiXiX&XoXOX'.'.OXOXOXOX'.'.'.'.OXOX).).'.'.OXoXoXOX@XXXI.l.X.| | X.....X.X... .| W k.l.I.I.I.I.I.I.I.I.I.I.J.J.>.J.J.J.l.l.l.J.J.l.I.I.c.f.Q c x I I W W W W ! ..X.o.&.&.f.f.f.f.f.l.c.c.k.f.o.f.f.&.f.f.f.f.&.f.f.&.&.o.X.X.X.o.o.O.O.X.X.&.f.f.&.f.l.L.L.c.c.l.l.l.l.l.l.l.l.l.l.L.I.|.|.|.|.|.|.I.U.U.I.I.L.I.W.W.|.|.|.|.|.|.|.XXXXXXXXXXXXXXXXXX@X@XXXXX#X#X@XQ x v I Y O.&.&.&.&.&.k.k.k.&.f.k.f.&.k.k.&.&.&.l.I.#X5X&X&XfXfX&XfXXXk.&.&.&.&.I.}.v.v.E.c.L.L.l.c.k.W X.c.k.l.O.&.f.f.&.&.&.k.k.k.&.k.l.k.f.&.X.&.f.g.g.f.&.o.X.X.X.X. . . . .X.X.X.&.&.&.&.o.&.&.&.&.&.&.&.&.*.l.*.J.J.J.J.Y U W Q Q  . . .Q Q  . . . . . . . .%.&.&.%.%.&.&.*.*.*.*.*.*.*.*.*.*.$.$.=.*.*.*.*.:.4.4.4.-.*.*.1.G.G.J.G.G.g.*.&.%.~ W I I I x ",
"V V I I c c x x Y  .&.:.l.*.*.&.*.g.*.&.&.&.&.&.*.&.&.&.&.*.*.*.G.*.=.@.@.G.|.XX#.U l x W B B V E E E E W E I I W Q X.&.&.X.X.X. . .&.I.'.U.T.].].+X+X$X$XU.*.&.&.&.f.f.f.f.&.&. . .%.l.J.J.J.K.K.H.K./.`.`.'.'.'.'.`.K.K./.`./.K.K.J.K.K.K.K.K.J.K.J.J.J.J.J.J.G.G.J.J.J.G.G.G.l.l.l.G.I.U.I.L.g.%.%.g.I.U.|.|.I.K.H.T.].rXpXpXiX$XOX'.'.OXOX'.'.'.OXOXOXOX'.'.'.'.'.XXXX@XOXOXXXI.k.X.X.X.| | ....X.X.| | X.X.I.L.L.J.J.J.I.I.I.I.I.J.J.6.6.J.J.6.l.G.J.J.G.l.c.l.%.Q c x c W W W W W ^ ! ~ u.o.&.&.f.k.k.f.f.E.E.E.I.c.k.f.&.f.f.f.f.f.f.f.f.g.f.f.&.&.o.o.o.X.O.O.X.O.f.f.&.&.l.I.c.c.c.c.c.L.c.l.l.k.l.l.l.L.I.E.|.I.L.L.I.G.L.I.U.I.l.G.U.W.W.|.|.|.|.|.XX|.|.XXXXXXXXXXXX@X#X#XXXXX#X$X$XL.%.Y I Y  .&.O. .l.v.l.o.O.O.O.k.o.&.f.&.&.&.;.I.OX$X&X5X&X&XfX&X&X).&. .O.&.L.4X#Xl.I.I.l.I.l.c.l.&.I O.v.&.l.&.&.&.&.&.f.&.&.&.&.&.k.k.k.&.&.X.&.f.g.f.f.&.X.X.X.X.X. . . . .X.X.X.&.&.&.&.&.&.&.&.&.*.&.&.&.*.l.*.G.J.I.I. .Q Q  .X. . . .Q  . . . . . .#.#. .&.*.*.&.&.*.l.g.g.g.g.g.g.g.*.F.*.*.*.*.*.1.1.4.4.4.4.1.*.*.*.G.F.G.g.*.=.%. .Q W I c x x c x ",
"c c c x c x I I &.*.*.:.*.*.*.:.*.*.&.&.&.&.&.*.&.&.&.*.*.*.g.*.l.*.*.l.:.J.XXXX:. .x c c c x W c E B E E E c c X.X.f.f.&.X.X.X. . .l.).'.K.T.].].rXoX$X$XI.%.f.&.f.f.f.f.f.&.&. . .+.l.J.J.P.K.K.K.5.K.`.`.'.{.'.'.'././.`.`.K./.K.K.J.K.K.J.K.K.G.J.J.J.J.J.G.G.G.J.L.I.J.G.G.l.l.l.G.I.I.l.&.%.%.f.I.|.|.|.).K.K.K.'.tXgXpXpXiXoXOX'.OXOX'.U.'.'.'.OXOXOX'.'.'.'.'.XXXXXXXXXX|.l. . .X.o.X.W | X.X.X.Q | X.f.I.I.I.I.(.(.J.J.J.J.J.J.J.6.J.J.J.6.z.l.l.l.k.k.X.Q W c c c W W W W W W B ^ ~ u.X.o.f.f.k.k.f.f.l.k.k.l.c.c.k.f.f.f.f.f.k.k.k.k.c.c.k.f.f.o.o.O. .O.O.X.X.&.f.&.&.l.I.c.c.c.L.L.I.L.l.l.l.l.l.l.L.I.W.I.L.l.l.L.I.G.I.|.U.l.l.I.W.W.|.|.|.|.|.XXXXXXXXXXXXXXXXXX#X#X@X|.|.$X5XfXhXXXl. .Y  . .U O.I..XI.;.;.;.&.k.o.O.&.&.&.&.:.|.&X$X$XfXfX$X&X5X&X).&.#.&.I.5X.X5X|.|.v.v.|.&.l.&.X.c &.I.&.l.k.f.&.&.f.k.&.&. .&.&.k.k.&.&.X.&.&.f.f.f.&.X.X.X.X.X. . . . . . .X.X.&.&.&.&.&.&.&.g.k.g.&.&.&.*.l.*.G.J.I.P.+. . .X.X.X.X. .Q  . . . .+.#.&.&.&.&.g.g.*.*.l.G.l.l.l.g.g.g.g.F.F.1.*.*.*.*.1.4.G.G.4.1.1.*.*.*.F.*.*.*.@.Q Y I I I x x c c c c ",
"I x x x I Q %.&.*.@.+.@.*.4.1.*.*.*.*.&.&.&.&.&.&.&.&.=.*.*.l.l.G.G.l.:.:.l.I.XXL. .x I I l c W E E W c x c W X.&.&.&.&.&.X. . .X.&.I.XXXXT.T.'.+X+XiXfXOXG.f.f.&.o.f.k.f.f.f.&.X. . .&.G.J.J.J.K.H.G.H.U.`.`./.'.'.`.`.`./.K.K.K.K.K.K.K.J.J.J.K.K.I.I.I.J.G.G.I.J.G.G.G.G.G.l.g.G.I.I.l.%. .Q Q *.L.U.|.|.|.I.K.G.+XjXiXiXjXpXiX$X+XoXoXoXoXOXOX'.'.'.'.OXOX'.oX'.|.XXXXXX|.|.I.&.W | X.| | X.X.X.X.| W  .k.I.I.I.I.I.J.J.J.K.J.J.J.J.J.J.J.>.J.J.>.l.J.J.k.%.c x k f k c W ~ ~ W W W V B ! X.f.f.f.f.f.f.f.&.f.k.k.l.l.k.f.o.o.O. .X.f.f.f.v.c.c.c.c.c.k.o.X.X.O.o.o.O.O.&.f.&.k.c.c.c.c.c.c.l.l.l.L.L.L.L.L.L.I.I.L.L.l.c.c.l.I.I.G.L.I.L.g.L.U.|.@X.X.X@XXX|.XXXXXXXXXXXXXX$X#XXXXXXXXX#X$X&XfXfX$XU.:.&.&.(.|.|.l.O.O.O.&.k.o.O.&.k.&.&.:.#X$X&XfX&X&XiX&XhX#XJ.&.l..X&X#X.X$XI.&.l.I.c.k.l.f.x | l.c.c.f.&.f.f.f.f.f.f.f.&.&.&.l.k.&.&.&.X.&.f.&.X.&.&.X.X.X.X.X. .| | | | X.X.o.o.o.o.X.X.%.&.&.&.&.&.&.&.*.l.l.G.I.J.l.+.%.&.&.&.%. . .&.&.&.&.&.&.*.:.l.*.*.*.*.*.l.l.l.l.F.1.*.F.F.G.*.*.*.G.G.G.G.*.*.*.*.*.*.*.=.=.*.g.*.%.Y I I I x x x c c c E E ",
"I I I W  .&.*.:.*.#.@.*.4.4.4.-.*.*.*.*.&.&.&.*.&.&.&.&.=.*.*.*.G.l.l.l.:.l.I.|.I.&.I c c c c W E c x x c W  .X.X.X.%.&.X.X. . . .l.U.XX'.T.'.].+X+XtXiX@Xl.&.k.o.&.k.k.f.f.f.&.X.Q  .&.G.J.J.J.K.G.5.K.K.`.'.`.'.'.`./././.K.K.K.J.K.K.J.K.K.K.K.K.I.I.J.J.G.G.J.G.G.G.G.G.l.g.l.l.g.&.X. .X.%.+.l.U.W.|.).).I.J.J.iXcXgXiXgXpXiXiX&X$X$X$XoXoXOXOX'.'.'.OXOXXX'.'.|.|.|.|.|.E.&.X.Q X.X.| Q | X.| Q Q X.&.c.I.L.I.I.I.J.J.J.K.I.J.J.J.J.J.J.J.J.J.I.I.l.&. .I W c l k l x W W W V V W V V W X.o.o.o.f.f.f.f.&.f.f.f.f.&.X.W I x c c c |  .o.c.c.c.c.c.c.k.k.f.o.o.o.O.O.O.&.f.&.k.c.c.c.c.c.c.l.l.l.L.L.L.L.L.L.L.I.L.L.l.l.c.G.I.I.G.I.W.I.l.l.I.|.@X|.|.@X@XXXXXXXXXXXXXXX@X#XOXXXXXXXXX#X$X$X$X&X5X$X#X#X#X#X|.L.;.;.;.&. .&.O. .&.&.&.&.l.$X&X&X&X&X&XiXiXfX#XI.l.I.OX$X#X&X#Xl.&.v.v.k.k.k.&.x W I.c.l.f.&.f.f.f.f.f.f.f.&.&.&.&.&.&.&.&.&.&.f.&.X.X.X.X.X.X.X.X. .| | | |  .X.X.X.X.X.X. . .&.&.&.&.*.*.&.*.*.*.G.I.J.l.%.&.&.f.&.&.&.&.&.&.&.&.&.&.&.:.*.*.*.*.*.l.l.l.l.l.F.F.*.*.*.*.J.G.G.*.*.*.*.*.=.*.*.G.G.G.G.G.g.%.Q I l d d d I I I I c x x l ",
"U Q  .&.g.l.l.l.*.$.:.G.G.-.-.4.l.l.l.*.*.*.&.&.&.&.&.&.*.*.*.*.l.l.l.l.l.l.J.).U.k. .c c I W c E c x c W X.X.&.X.&.%.%.&.X. . . .G.XXXXU.`.oX+X+X+X$X$X|.l.&.k.k.;.k.k.f.f.f.f.X. . .&.l.J.J.J.K.J.4.J.K./././.'././.K././.K.K.K.J.K.K.K.K.K.K.K.K.P.I.J.J.J.G.G.l.l.l.l.l.&.&.g.&.X. .Q Q X.%.*.J.W.|.).).I.J.J.K.hXcXjXgXhXiXfXiXiXiXiX$XoXOXOXOXXXOX'.OX'.'.).'.XX).).|.I.l.Q | | X.| Q | | Q W W  .f.L.I.I.I.I.K.K.J.J.J.K.(.I.J.J.J.J.J.J.l.I.).L.&.I l x Q W x l x c B V c c W W W V W | X.o.o.f.f.f.f.f.f.f.&.X.U x k s s l l l c I  .k.l.c.l.c.c.c.c.l.k.o.O.O.O.o.o.o.O.f.l.c.v.c.c.c.l.l.l.L.L.L.L.L.L.I.I.L.L.l.l.l.G.I.I.I.|.@X|.G.l.L.|.@X|.|.@X#X#XXXXX|.|.XXXXOXXXXXXXXXXXXX#X$X#XXXXX#X5X5X5X5X#XI.&. .O.#.#.O.&.O.&.&.&.&.*.J.&X&X&X&XiXiXiXiX5X#XI.l.I.OX&X&X&X).&.;.I.l.&.l.&. .x W #Xl.f.f.&.f.f.f.f.f.f.f.&.&.&.&.&.&.&.f.&.f.f.&.X.X.X. .X.X.X.X.X.| | | | X.X.X.X.X.X. .Q  . .&.&.&.&.&.*.*.*.$.l.G.G.l.&.f.g.j.g.&.&.&.k.k.:.:.&.&.&.&.*.*.*.g.l.l.l.l.g.g.G.G.G.F.F.*.J.G.l.*.*.g.g.l.g.g.g.g.g.&.=.%.Q I d d d x x x I x x x x x x x ",
"@.&.*.l.G.l.l.:.*.:.K.K.K.>.-.:.G.G.l.*.*.&.&.&.=.=.=.*.*.l.l.l.l.*.*.l.:.l.l.I.I.l.X.x x W W c c I W Q X.%.&.f.o.&.&.&.&.&.X.X.%.P.@XXXT.'.+X+X+X+X$X$XU.l.f.f.;.k.k.k.k.f.f.f.%. . .%.l.J.J.J.J.J.4.4.K.K././././._./././._.K.K.J.K.K.K.K.)./.K.K.P.J.J.J.G.G.l.l.l.J.l.:.&.%.%.X.X.X.X.X.X.%.U.K.).).).K.J.J.G.I.&XvXjXfXhXiXiXiX&X$X+XoXOXOXOXOXXX'.'.OX'.'.U.'.XX).|.|.c.o.| X.X.Q W | X.| W W  .&.c.I.I.I.I.I.K.K.K.K.K.K.(.I.I.J.J.J.J.J.J.J.k.O.I x I W W W c x x c B V c V W W W W W Q o.o.o.f.f.g.f.f.f.o. .c k 8 9 s x W I W Q W | &.l.c.l.l.c.c.v.c.k.k.O.O.O.o.o.o.X.&.k.c.L.v.c.c.l.l.l.L.L.L.L.L.L.L.I.L.L.l.l.l.l.I.U.|.XX#XXXI.g.G.W.@X@X|.@X$X#X#X@XXXXXXXXXXXXXXXXXXXXXXX#X$X$XOX).).|.|.|.|.l.l.l.I.J.:.#.#.;.&.k.l.k.&.:.I.&X&X&X&XiXiXiXiX5X.Xz.:.z.|.&XhX|.I.l.L.I.k.k.l.X.I x  .hXk.&.f.&.&.f.f.f.f.f.f.;.&.&.&.&.&.&.f.&.f.f.&.X.X.X. .X.X.X.X.X.X.| | X.X.X.X.X.X.X. .Q  . .&.&.&.g.g.l.*.*.&.*.l.l.l.&.f.g.l.k.g.g.g.k.k.k.k.k.&.;.&.*.*.*.l.l.l.l.g.*.g.G.G.G.G.F.*.l.l.l.l.G.l.l.l.&.&.%.~ Q I K d d s l x I I I c d d d l I U Q  .",
"G.:.G.G.G.G.:.-.-.4.J.K.J.>.:.:.G.l.l.*.$.&.&.#.*.*.*.*.*.*.*.*.*.*.*.l.l.:.l.J.I.J.&.I x W W x c W X.X.X.X.&.f.o.&.&.&.&.&.O.X.g.U.oXXX'.oXrX+X+X+X$XOXI.k.f.k.k.k.k.k.k.k.f.f.f.%.%.&.l.J.I.J.J.G.G.4.4.K.K.J.K.K._./.'././.K.J.J.K.K.K.K.)./.K.K.P.J.J.J.J.J.G.l.G.l.l.&.%.X.X.Q X.X.X.X.d.j.#X'.K.K./.).J.J.J.J.).$X$X$X$X$XoXOXOX'.OXOXOXOXOXOX'.'.'.'.'.'.U.'.XX|.|.W.f.W | | | W Q X.Q W I  .l.I.L.L.I.).U.U.K.K.K.K.K.I.(.I.J.J.J.L.L.L.I.k. .I x I W Q W c x x x c c V c W W | | W | | o.o.&.f.k.k.k.g.f.&.| x s s x W | X.| X.i.X.| X.c.c.l.l.l.l.l.z.c.k.o.O.o.o.o.O.X.O.f.l.v.v.v.c.l.l.v.v.L.L.L.z.l.L.L.L.L.l.l.l.l.U.XX#X#X#XXXU.l.l.I.|.@X|.@X$X$X$X$XOXOXXXXXXXXXXX@XXXXXXXOX&X&XOXXX|.I.l.l.l.l.k.:.:.:.:.K.).z.l.l.L.l.&.:.).fX&XiXiXiXiXiXiX$X|.z.:.l.K.XX$XI.(.#X|.z.k.k.k.| x W f.kXf.&.f.&.&.&.&.f.f.f.f.;.k.k.&.&.&.&.&.&.f.f.&.X.X.X.X.X.| | | | | | | X.X.X.X.X.X.|  .X. . .&.&.k.k.f.l.*.&.&.*.:.:.g.&.&.k.k.k.k.*.:.:.:.:.:.:.:.;.;.*.*.l.l.l.*.*.*.*.*.G.G.G.G.1.*.l.l.G.c.L.g.&.X.I x d d d d d l l x c c l l l l x I U Y  .+.=.*.",
"G.4.4.4.4.4.:.:.:.4.J.K.J.:.-.l.:.:.*.*.$.$.$.$.:.*.*.&.&.#.#.#.*.&.&.*.*.*.:.l.I.L.k. .x c c c I Q X.&.X.X.X.X.X.X.X.X.X.&.O.&.l.U.@XXXoX+XrX+XrX$X$XXXL.k.f.k.k.k.k.k.l.l.l.l.j.f.%.%.*.G.I.G.J.G.G.:.:.4.4.K.J.K.K./.'././.K.K.K.K.K.K.K.K.).K.K.P.J.J.J.J.J.G.J.G.l.g.&.%.X.X. .Q X.~ X.d.P.$X'.K.).).).J.J.J.J.J.J.).).U.U.K.K.K.U.'.OXoXoXXX'.'.'.'.'.'./.'.'.|.|.W.l.X.c W W | | X.| W I X.k.I.|.I.L.I.).).U.K.K.U.U.K.I.I.I.L.J.J.J.J.J.l. .I x I W W B x x x x c V W W c W X.X.| X.X.X.o.o.&.f.k.l.l.k.l.g.o.W l l W o.| X.X.X.g.i.X.o.c.c.l.l.l.l.l.k.c.k.k.o.o.o.o.O.X.O.&.k.c.v.c.c.l.l.L.L.L.L.l.z.l.L.L.L.G.l.l.l.l.|.#X$X#X#XXXW.g.g.L.|.@X@X@X#X$X$X$X$XOX@XXXXXXXOX@XXX).).OX&XOXOXOXXXI.l.l.J.G.k.&.&.G.oXhXhX|.L.v.I.l.&.l.|.fX&XiXiXiXiXiX&XOX).I.z.J.J.J.K.).&XhX#Xl.;.k.X.U x X.E.5Xf.&.&.&.&.&.&.&.f.f.f.&.k.l.k.&.&.&.&.&.f.f.&.X.X.X.X.X.| | | | | | | X.X.X.X.X.| | | X. . .&.&.k.k.&.&.&.&.*.l.l.l.l.&.g.k.l.l.k.*.*.*.*.*.*.:.:.:.:.*.:.:.l.:.:.*.*.*.1.G.G.G.G.G.F.L.c.c.l.&. .I d 9 8 8 8 s g x c c x x l s s v I &.&.&.&.*.*.G.G.",
"4.4.4.4.4.4.4.4.:.:.4.J.J.:.:.:.*.*.*.*.*.*.:.:.*.*.&.&.#.#.#.#.&.%.+.+.&.&.&.:.G.G.l.X.W c E Q X.X.%.&.X.X.&.&.&.&.&.&.&.&.&.&.*.P.XXoXoXoXrXiXtXiX$X|.v.k.k.k.k.;.k.l.c.l.c.l.l.f.&.%.*.G.J.G.G.l.l.:.:.4.G.G.K.K.K.K.K._./.K.J.K._.K.K.K.K.K.K.K.J.J.J.J.J.J.G.J.l.:.&. . .X.X. .X.X.X.X.j.|.oX'././.)._.J.J.J.J.z.l.I.I.G.J.J.K.K.U.'.OXOX'.'./.U.).'.'./.U.'.'.|.|.l. .I W W V W ..| W  .&.L.I.(.(.(.I.(.).).U.I.U.).).U.I.I.L.J.J.L.L.G.G. .Y x x W W E x l k v x c V V V | o.o.o.X.o.o.X.X.o.&.f.k.l.l.k.k.k.k.X.I x W X.Q X.| X.f.o.X.f.c.c.l.l.l.l.l.k.c.k.k.k.o.O.O.O.O.O.&.f.l.c.c.c.l.v.L.L.L.L.l.l.l.L.L.L.G.l.k.k.U.XX#X#X#X#X@XW.&.+.&.I.@X@X@X#X#XOXOXOX@X@X@XXXXXXXXX).).).XX+XXX|.|.(.I.l.l.J.*.|.fXvXvXcXcXvX&X|.z.J.k.&.I.$X&X&X&XiXiXiXiX$X).I.I.I.J.J.J.J.$X5XhX#Xl.;.k.W x x f.5X#X&.f.&.&.&.&.f.f.f.f.f.&.k.k.&.&.&.f.f.&.f.g.&.X.X.X.X.X.| | | | | X.X.X.| | | | | | | X. . . .&.k.f.&.&.&.&.k.G.l.:.l.g.k.l.l.l.k.:.:.:.:.:.:.:.:.:.:.*.*.*.*.*.:.*.1.G.G.G.G.G.G.G.G.c.l.&. .I l s 3 s s s s s f f f k k k k x Q X.f.l.l.G.:.4.4.4.4.",
"4.4.4.4.4.4.4.-.:.-.:.G.G.:.:.:.:.:.*.*.*.*.:.*.&.&.&.&.&.&.$.*.&. . . . .#.&.&.:.k.k.&.Q I W %.f.f.%.%.f.f.f.f.f.f.f.f.f.f.g.k.&.G.XX$XoXoXrXgXiXiX$X|.v.k.k.k.k.k.l.l.c.l.l.l.l.g.%.+.&.G.J.l.:.:.:.:.:.4.G.G.J.K.G.4.K.K._./.K.K.).K.K.J.J.K.K.K.J.K.J.J.J.J.L.L.l.&.X. . .X. .X.%.f.d.X.c.@XU./.'.oX'.J.J.I.l.I.J.J.I.I.L.I.I.K.).XXXXXX).K.).U.K.U.).).).U.XX|.XX|.&.l l | | W V Q W c &.E.#X|.I.I.I.).).(.).).U.U.).|.).I.J.J.J.J.J.J.l.l.v x x I E E E B l k k x c c V V o.k.k.i.X.X.X.| X.X.o.f.f.k.k.k.f.k.c.f.W x x c Q X.X.X.X.X.o.c.l.c.l.l.l.l.l.l.l.l.k.k.o.O.O.o.o.O.O.&.l.c.c.c.c.L.L.L.L.c.c.l.l.l.L.L.G.l.k.k.XX#X#XXX@X#X@XW. .Q  .L.@X@X@X#XOXOXXXXXXXXXOXOXXXXXXX).K.K.XX#X#XOX|.(.J.l.l.l.U.hXcXcXhXvXzXvXhX|.J.l.l.l.).hX&X&X&XiXiXiX$X#XI.L.z.I.J.J.K.).hX5X5X#Xl.l.f.c v K l.hX|.&.g.&.&.&.&.f.&.&.f.f.&.f.k.&.X.&.f.k.f.f.g.&.X.X.X.| X.| | | | X.X.X.| | | | | | | |  . . . .&.k.*.&.&.&.&.l.G.l.*.*.k.l.l.l.l.l.k.k.k.l.k.k.:.:.*.*.:.*.*.*.*.*.F.1.G.G.G.F.F.G.G.l.f.X.W l s s s s s s s f f f s s s s l I X.f.c.l.*.:.:.:.4.4.4.4.",
"4.4.4.4.4.4.4.4.:.4.4.4.4.:.-.*.l.l.l.l.l.*.*.*.*.=.=.*.*.*.&.@.&.&.&.&.&.&.&.*.l.*.&.#.#.&.*.:.l.l.l.l.G.G.L.G.l.l.l.k.*.&.g.l.=.I.XX$XoXoX$XiX+X$XOX).l.l.l.l.l.l.l.c.l.l.c.L.c.k.&.&.&.*.l.l.:.:.$.$.-.>.G.G.J.J.J.6.G.K.J.K.J.I.K.K.K.K.K.K.K.K.K.K.K.G.G.G.I.c.j.%.%.%.X.X.W %.%.Q X.L.W.W.|.|.|.XXXX).K.K.5.K.K.P.J.J.I.U.W.W.W.W.|.|.|.I.|.W.I.I.).).I.L.I..XW.&.c c W I | U c I  .l.(.|.|.).I.I.).).).).I.I.).).|.).(.I.J.J.J.z.z.(.l.Y k c W ~ ~ W E V k x V W c x | f.c.l.k.&.O. . .X. .X.&.f.k.k.k.k.l.&.&.l.X.l l | W X.f.f.X. .f.v.v.c.k.k.k.k.k.c.l.k.l.z.k.O.O.O.o.o.X.X.j.L.L.c.v.v.v.v.v.v.c.c.L.c.l.L.l.k.l.I.OXOX@XOX@X@X@XW.*. . .l.XX$X#XXXXXXXXXXX@XOXOXOX#X@X|.K.J.I.|.|.OXXX(.I.z.>.:.G.fXvXcXcXvXgXgXvXhXfXXXG.G.oX&XiX+X&X&X+X&XhX&XXXl.l.J.I.J.J.).#XhX5X5XhX5Xc.W I K P |.hX|.&.f.&.&.&.&.&.&.&.&.&.X.g.g.&.&.k.k.f.f.I.&.X.X.X.g.X.| | X.X.| | | | | | | | | | | | Q W W W X.&.&.&.&.f.l.l.l.*.*.:.:.:.>.l.l.l.l.l.l.l.l.l.l.g.*.*.*.*.4.4.g.*.l.G.G.G.L.L.L.c.g.f.W B f u u a s s x f s s s f f s s s K Q g.l.l.*.l.l.:.:.:.:.:.-.",
"4.4.:.:.4.4.4.4.4.4.4.4.4.4.-.*.l.G.G.J.J.G.l.*.l.l.l.G.G.G.G.l.*.*.*.*.&.*.*.*.:.*.&.#.$.$.:.:.l.l.l.l.G.G.G.l.g.l.l.g.*.&.*.g.l.I.|.XX@XoX$XtX$X$X#X).L.l.l.l.l.l.l.l.l.l.l.l.c.k.&.&.&.*.l.l.l.:.$.$.-.>.G.J.G.4.G.G.G.J.J.K.U.U.U.K.K.K.K.K._.J.K.K.K.K.J.J.I.c.%.X.X.X.X.W X.%.%.%.g.I.W.W.|.|.|.XXXX).U.K.`.U.U.K.K.U.).|.|.W.E.E.I.I.I.L.f.f.&.&.&.&.&.O.g.g.d.W c W W I v U  .&.l.(.|.(.|.).I.I.).).).(.I.I.).).).).I.J.J.6.J.z.J.(.l.Y l W ~ X.~ W V W Q V V V V V X.f.g.k.f.f.X. . . . .X.&.&.f.k.k.k.f.k.k.&.O.| U c  . .X.X.O.&.v.E.I.c.k.l.k.k.k.k.l.k.k.z.k.o.O.O.o.o.X.X.f.L.L.c.L.v.v.v.v.v.c.c.L.c.l.L.l.k.l.I.@XoX$X@X@X@X@X@X&.~  .G.XX#XXXXXXXXXXXXX@XOXoXoX$X@X|.I.L.I.(.|.5X#X|.J.>.>.J.).hXvXvXvXvXvXzXvXcXvXfXOXOX&XiX&X*XiX&X$X&X5X$X).L.J.I.I.J.J.).OX5X&X5X5X.Xf.W l T +.OXfXG.&.f.&.&.&.&.&.&.&.&.&.f.g.f.f.f.k.f.&.c.c.X.X.X.X.f.X.X.X.X.X.X.| | ......X.X.X.X...|  . . . .&.&.&.&.&.g.l.l.*.*.*.*.:.:.>.l.l.l.l.l.l.l.l.l.F.F.1.1.1.1.1.G.J.G.l.g.l.L.L.L.c.f.Q c B z f u u f f f f f s s s s f d x U  .*.g.l.l.l.*.*.*.:.:.:.-.-.",
"G.G.G.4.4.4.4.4.G.G.G.G.4.4.*.*.l.G.I.U.U.I.G.G.G.G.G.G.G.G.G.l.l.l.g.*.*.*.*.*.&.&.$.*.:.:.l.l.l.l.l.l.l.l.g.g.*.*.*.*.*.*.*.*.I.I.U.|.OXoX+X$XoX$X#X).I.c.c.l.c.l.l.l.c.c.l.l.l.k.&.+.&.*.l.l.l.:.$.$.:.:.G.J.>.G.G.G.4.G.J.J.U.K.P.J.J.K.K.K.K.J.J.J.K.J.J.J.l.f.X.X.X.%.%. .%. .~ &.P.W.|.W.|.|.|.|.|.'.T.U.OX'.U.).XXXX|.|.I.L.l.g.f.f.f.f.&.&.&.O.O.O.O.O.X.Q Q Q W I x l c  .l.I.|..X|.(.).(.(.(.).).).I.).).).|.).I.I.J.J.6.J.J.J.I.l.W W Q X.X.Q W E V Q V c c W | X.o.f.&.&.X. . . .O.&.&.&.f.f.k.k.k.&.l.l.&.f.v.f.| Y W W  .&.k.l.c.c.l.k.k.k.k.k.k.k.k.l.l.l.k.O.O.i.o.X.X.f.c.L.L.L.L.L.L.v.v.v.L.c.c.l.l.l.k.l.I.OX$X$XXX|.XX@X@X%.Q +.I.#XXXXXXXXXXXXXOXOXOX$X$X$X@X).I.L.I.(.(.$XOX).z.>.>.J.K.*X&X&X&XiXhXhXhXcXvXhX&X$XiX&X+X&X&X&X$X&X&X#XU.L.L.J.I.J.J.I.).|..X|.}.l.X.I l T G.$XfX&.&.f.&.&.&.&.f.&.&.&.f.g.d.f.g.k.f.f.k.I.l. .X.X.X.X.X.X.o.o.X.X.X.X.X.X.X.X.X.X.X.X.X.X. . .X.&.&.&. .&.k.l.l.*.&.&.$.:.:.l.l.k.l.l.l.l.l.l.g.g.F.F.F.J.G.*.*.l.P.P.L.L.c.j.&.~ W l f f u u u a f f f f f g f s s f g W %.g.L.l.*.*.*.*.*.*.*.:.:.-.-.",
"G.G.G.G.G.4.F.4.F.4.G.4.G.G.G.G.l.G.I.U.U.P.I.G.J.G.G.G.l.*.*.&.*.*.*.*.&.&.&.&.&.&.*.:.l.l.:.l.l.l.l.l.l.l.g.g.l.*.*.*.*.*.G.G.U.I.J.U.OX$XoXoXoXoXOX|.I.L.I.c.I.c.c.L.E.E.L.l.k.&.+.+.&.*.l.G.:.:.#.#.$.-.G.G.G.G.J.G.4.4.G.J.J.G.G.4.4.4.K.5.K.K.J.J.J.J.G.l.%.X.X.X.X.X.X. .%.Q  .l.U.|.|.|.|.|.|.).'.'.'.`.U.U.'.XXXX|.L.l.f.&.%.X.X.X.X.X. .O.O. . . .O.O.X.X.X. .c s x  .&.v.|.|.|.|.|.|.).(.).).).).(.I.(.).|.).(.I.J.J.J.6.J.J.J.I.l.W  .X.X.Q W W B B c c I | X.o.X. .X.X. . . .O.&.l.c.l.l.k.k.f.f.k.f.l.l.f.c.|.|.v. .X.&.l.c.l.f.&.k.&.f.k.k.k.k.k.;.k.k.l.l.k.o.O.o.o.o.X.%.l.L.L.L.L.L.v.v.v.v.L.c.L.l.c.l.l.c.L.XXOX#XXX|.XX@XW.%.Q %.W.$XXXXXOXXXXXOXOXOXOX$X$X$X@X).I.L.I.I.I.).(.I.J.>.>.-.-.*X&XiXiXgXgXvXhXhXhXfX&X&XiX*XoX+X&X&X&X5X&X#XU.L.J.J.J.J.J.J.z.l.(.}.l.X.Q W I T '.iXfX .k.&.&.&.&.&.&.f.&.&.f.g.f.f.g.f.f.l.I.I.f. . .X.X.X.X.X.o.o.X.X.X.X.O.X.X.X.X.X.| | X.X. . .X.&.&.&. .&.k.l.l.*.*.&.&.l.l.l.k.l.l.l.l.l.j.l.l.l.G.G.G.G.l.l.l.G.L.l.g.f.%.Q I x g g f u u u u f f f f f f g f s s f x %.g.L.L.g.*.*.*.:.:.:.:.:.:.:.-.",
"G.G.F.*.F.*.g.*.*.*.*.G.G.J.P.P.G.G.J.I.I.I.I.I.P.I.P.G.l.*.*.*.&.&.&.&.&.$.$.*.*.*.l.l.l.l.l.*.l.l.l.l.l.l.g.g.l.*.=.=.*.G.P.U.I.G.J.|.$X$X$XoXOXoX@X|.U.I.I.c.I.v.c.I.E.E.L.l.&.%. .+.&.l.l.G.:.$.&.&.$.:.>.l.J.J.J.G.l.:.:.l.:.:.-.-.:.:.G.4.K.G.J.I.I.G.g.&.%.X. .X.Q W  .&.*.&.*.P.).U.).XX).).).'.'.'.'.'.).'.|.|.I.l.&.X.&.%. .%.&.%. . . .O.O.O.O.X.O.&.l.X.W c l l X.I.I.|.#X.X|.).).).).).).).).(.I.I.).).|.).I.J.J.J.J.>.J.J.J.L.k.U X.X.~ Q W I I I x W  .X.X.X.X. . . . .&.&.k.J.I.v.c.l.l.k.f.f.k.k.k.f.k.c.}.#X#XE.|..X.X}.v.k.&.o.&.&.f.&.k.k.k.&.k.k.k.l.k.k.o.o.o.o.X.X.g.L.L.c.c.c.c.c.L.c.c.c.c.L.l.l.l.l.l.U.|.XX|.XX@XW.L.~ Q =.W.$XXXXXOXXXXXXXOXOXOX$X$X$XOX).I.L.L.I.I.I.(.I.J.J.l.:.$.+XfXhXvXgXgXgXhXiXiXiX$X&X&X&X&X&X&X5X5X5X$X|.I.L.J.J.J.J.J.l.>.:.L.I.k. .W I l Y oXfX&X .l.&.&.&.f.f.&.&.&.&.f.f.f.f.g.f.&.v..Xl.&.X.X.&.X. .X.X.X.O.X.X. .X.O.X.O.X.X.X.X.X. .&.X. . .O.&.&.&.&.k.G.G.l.*.*.*.l.l.l.l.l.l.l.l.j.l.l.l.l.G.G.G.g.G.I.I.L.&.W c l l l l x f s y u u s f f f f f f f g s a s x E g.g.g.l.g.g.*.*.*.*.*.*.*.-.-.-.",
"*.*.*.*.*.=.*.*.=.*.*.G.G.P.U.U.I.I.J.G.G.I.I.I.J.P.G.G.l.*.*.*.=.&.*.*.*.*.:.l.l.G.G.G.G.l.l.l.l.l.l.l.l.l.l.l.*.$.=.=.1.H.U.'.I.G.I.XX$X$XoX$XOX$X@X|.U.E.E.v.c.c.c.c.L.c.g.&.+. . .+.&.*.l.l.*.&.#.#.&.$.:.:.G.G.J.l.:.:.:.:.$.$.$.-.:.4.G.G.G.G.J.I.G.g.%.X.X. .Q X.%.&.I.XXU.K.).XX'.K.K.).'.'.'.'.'.'.'.'.OXXXU.l.&.O. . . .+. .&.&.&. . .&.&.&.&.&.&.O.O. .I x W O.k.v.}.)..X#X.X|.).(.(.).).).).(.I.I.I.(.).).(.I.J.J.J.J.>.J.(.J.z.&.U X. .Q W W W W I W  .%. .Q  . .X. .&.l.L.I.I.I.I.k.l.k.f.f.f.k.k.l.f.&.f.k.l.I..X@X#X@X|.v.k.f.k.k.k.k.k.f.k.k.k.;.k.k.k.k.l.k.o.O.o.&.X.X.f.c.L.c.c.c.c.v.L.L.c.c.L.L.l.l.L.L.l.G.P.U.|.@X@XW.g.Q Q *.W.@XXX|.XX|.XXOXOXOXOX$X$X#XOX|.I.J.z.I.I.(.I.J.z.l.l.>.:.).&XhXhXiXiXiXiXiXiXiX$X&X&X&X&X&X5X5X&X#XXXI.L.L.L.I.J.J.J.J.l.:.L.I.g.Q I x d @.+XiX$X&.k.&.&.f.f.f.f.&.&.&.f.&.f.f.f.&.f.L.|.&.&.l.f.&.X.Q X.X.X.X. . . .X.O.&.&.&.&.o.o.O.O.f.&.X.X.&.&.&.&.&.g.G.L.l.l.*.*.l.l.l.l.l.l.l.l.l.l.l.G.G.G.J.G.I.I.c.&.W l s s s s s s s s s s y u s f s s s f s s s s s l E Q %.=.=.%.&.=.=.&.=.$.=.=.$.$.$.$.",
"*.*.*.*.*.*.*.*.*.*.g.g.G.P.U.U.U.P.P.P.P.P.P.P.J.J.J.G.*.*.*.*.$.$.$.$.$.:.l.l.G.G.G.l.l.l.l.l.l.l.j.j.l.l.l.l.*.*.*.G.K.T.'.XXI.G.U.#X$X$XoX$X$X$X@X|.W.W.E.c.c.c.c.c.l.f.X. . . . .+.&.*.*.*.#.#.#.#.&.$.*.$.*.:.l.:.:.:.:.:.$.:.:.-.:.:.l.G.:.G.G.G.g.%.%.X.X.Q  .l.|.@X$XfXXX@XOXoX'././.`.`.`.`.`.'.'.).).XXK.k.&.X.X.X.X. .+.+.+.&.&.&.&.&.#.O.#.&.O. .W I U  .k.I.|.E.I.|.|.OX|.).).).).).).).(.I.I.I.I.).).).I.J.J.J.I.J.J._.(.J.l.&.I X.Q Q Q Q Q Q Q  .&.g.&.%.&.*.*.*.G.I.|.|.I.l.l.;.k.f.f.f.f.k.k.k.f.&.k.f.&.k.c.}.E.I.l.f.&.&.&.k.k.k.&.&.k.l.k.k.:.;.;.k.l.k.&.X.o.&.X.X.&.c.c.c.c.c.c.L.L.c.c.l.L.L.l.l.L.L.l.l.U.XX|.|.|.L.X.Q &.P.W.XXXXXX).).XXOXOXXXXXoX$XOX#XOX).J.z.I.(.(.I.l.k.:.l.>.>.XXfXvXvXgXiXiXiX&X&X&X&X&X&X&X&XfX&X#XXX|.I.L.l.l.I.I.J.J.J.J.l.k.l.l.&.Q x l l K.+X&XOXl.&. .&.f.f.f.f.&.&.f.f.f.f.f.f.&.k.l.l.&.k.|.L.f.f.Q X.X. . . . . .O.O.&.&.&.&.&.&.&.&.f.f.&.&.&.&.&.&.+.&.G.L.G.l.*.*.l.l.l.l.l.l.l.l.l.l.G.G.I.J.G.G.c.f.W s 8 4 s k x f s u s f x B s f k k f f f l l l x x I W Q X.~  .+.+.+.=.#.+.&.&.&.=.&.&.&.#.",
"*.*.*.*.*.*.*.*.*.*.g.g.G.P.U.U.U.U.U.U.U.P.P.P.U.U.P.J.g.*.*.*.$.$.$.$.$.*.:.l.l.l.g.g.*.g.g.l.g.g.g.g.g.l.l.l.G.G.G.U.XXOXOXXXP.I.|.#X$X@XoXtX$X$X@X|.W.W.E.c.c.v.I.c.f.X.Q U  . . .+.&.&.&.&.+.+.+.#.&.$.&.&.#.&.$.*.:.:.:.l.:.:.:.:.:.:.l.l.g.l.G.l.%.X.X.%.%. .&.|.5X5X$XOX@XOXoX'.'.'.'.`.`.'.'.'.'.'.).|.J.:. . .O.&.o.X.#.+.+.#.*.l.J.L.L.G.l.l.v.l.&.X.&.k.L.L.L.I.|.XX|.OX|.).(.).).).).).).I.I.L.I.I.I.(.I.I.z.z.I.).J.J.(.(.J.l.&.I  .Q Q Q ~ Q ~ Q &.G.U.U.U.U.U.I.U.U.|.I.L.l.:.&.k.k.k.k.k.f.f.f.f.k.l.l.l.k.f.&.l.l.l.l.k.k.k.f.o.k.f.o.&.k.c.l.k.k.;.&.k.l.k.&. .o.&.X.X.&.j.c.c.c.c.L.L.L.c.c.l.L.L.l.l.L.L.l.I.OX#XXX|.I.g.U  .l.W.XXXXOXXX).).XXOXXXXXXXOX$XXX#XOX).J.l.I.}.(.I.z.l.l.l.G.>.XX&XhXhXhXiXiXiX&X&X&XiX&X&X&X5X5X#X|.I.L.c.c.L.l.L.I.J.z.J.J.z.:.:.g.&.W x x U OX+X+X).G. . .k.f.f.f.f.&.&.f.f.f.g.f.&.&.l.&. . .l.4XE.f.f.Q X.X. . . . . .O.&.O.O.&.&.&.;.k.k.f.&.&.&.&.&. . . .&.l.L.G.l.*.&.l.l.l.l.l.l.l.l.l.G.G.I.I.I.G.G.I l s s s s s s f z x B W W V B B W W W W W W W W W W Q X.X.X.~  .%.=.*.*.*.=.&.&.&.&.=.=.=.=.=.",
"g.g.*.*.*.*.*.*.*.g.F.G.J.P.U.U.P.U.U.!.W.U.U.U.P.U.U.U.P.G.*.=.$.$.$.*.:.:.G.G.l.l.g.g.g.g.g.g.*.g.l.l.G.G.J.P.J.P.P.U.oX$XOXU.l.I.XX@X@X$X$X$X$X@XXX|.W.I.I.I.v.v.c.f. .W Q X.Q  . .%.%.%.&.&.+.+.+.+.+.+.+.+.&.=.*.*.*.l.l.*.$.$.$.:.l.l.l.l.g.g.&.%.~ ~ %.%.Y #.I.$X5X$X#XOXOXXX'.`././.`.`.'.'.T.K.U.oXXXG.+.%.&.&.o.o.o.&.&.+.#.J.).U.K.|.|.|.I.J.z.l.l.l.l.l.J.I.|.|..X|.OX|.|.|.).).).).|.|.).I.I.I.I.L.I.I.I.J.J.I.L.I.z.(.I.z.J.k. .W X. .Q Q ~ %.&.*.l.I.|.XX|.XX|.|.|.U.L.l.k.:.;.;.k.k.k.k.k.k.k.k.k.k.k.k.k.k.k.k.k.k.k.k.k.k.k.k.k.f.&.&.k.l.l.k.&.:.l.k.;.k.k.k.O.O.o.&. .X.l.c.l.l.l.L.L.l.l.l.L.l.l.L.L.l.k.l.|.|..X4X@Xf.I W j.I.W.|.|.XX@XXXXXXXXXXXXX@XoX$X#XXX|.).I.L.z.I.J.I.L.J.I.z.G.K.$XhXvXhXiXiXfXiX&X&X&X&X&X&X&X&XXX|.I.l.g.l.c.L.l.L.I.I.J.l.l.l.).|.I.Y l l s %.iX'.&X+X:.#.k.&.g.f.f.&.f.f.f.f.f.g.f.&.f.l.&. .k.#X|.&. . .X.f. .#.#.#.O. .&.&.&.&.&.&.&.&.&.&.f.k.l.f. .x v Y &.&.g.l.G.l.*.&.l.g.l.l.l.l.l.l.*.*.G.XXXXl.U d s k s s s s z x ! ! ~ ~ W W ~ ..~ | | ~ Q Q X.X.X.X.X.X.~ ~ %.%.*.*.*.*.&.&.&.*.*.*.*.&.&.&.=.=.",
"*.*.*.*.*.*.*.*.*.g.G.G.G.P.P.U.P.P.P.U.U.U.W.XXW.XXXXU.P.G.g.=.:.l.G.G.J.J.J.G.*.*.g.g.g.g.g.g.G.G.I.I.I.J.J.J.U.U.U.'.oXoXU.=.G.I.XX@X@X$X$X$X$X$XXX|.|.E.I.c.c.g.X. .W W W  . . . .%.+.%.%.%.%.+.+.+.+.+.+.+.+.&.*.&.*.*.*.*.$.$.:.:.l.g.g.&.%.%.%.X.X.X.%.%. .l.XX#X$X$X$X@XOXXX`.`.'.'.'.`.`.`.'.XXXXU.g. . .%.&.&.o.o.X. ._ #.K.$X&XOX).).|.I.L.l.l.l.l.l.J.l.l.I.|.OXOX|.OX|.|.).).).).).|.|.).).(.I.I.I.I.I.I.I.I.I.I.I.J.(.(.z.l.&.Q Q ~ Q Q ~ %.&.*.*.:.I.).|.|.|.|.).I.J.l.k.:.;.;.k.k.k.k.k.k.k.k.k.k.k.k.k.k.k.k.k.k.k.k.k.k.k.k.k.k.f.&.f.k.l.l.k.&.k.l.k.;.l.l.k.O.O.&.o. .X.l.l.l.l.l.G.G.l.l.l.L.l.l.l.L.l.l.L.|..X.X|.c.W x  .W.@X#X#XXXXXXX).XXXXXXXXXX@X$X$X#XXX|.|.).L.z.I.I.I.I.I.|.I.J.).#XfXhX&X$X&XiX$XiX&X&XiXiX&X$XOXI.G.l.l.l.l.L.L.L.L.J.z.z.I.(.OX&X$XI.v d l l L.iX{.&X+X:.#.:.&.g.f.f.&.&.f.f.f.f.f.f.O.&.l.k.#.&.z.k. . .o.X.X.O.&.&.&.&.&.&.&.&.&.&.&.&.&.&.&.&.&.&.X.W x v Y &.&.l.l.G.l.*.&.l.l.l.l.l.g.g.g.g.I.@X#XI. .l s s s s k k x V W ~ ..X...| ~ ~ | ~ | | | ~ ~ X.X.X.X.X.X.%.%.%.&.*.*.*.*.&.&.*.*.*.*.*.&.&.&.&.&.",
"*.*.*.*.*.*.*.*.G.G.P.P.P.P.P.P.J.J.J.J.J.P.P.P.U.U.U.U.P.G.G.G.J.P.P.P.P.J.G.*.*.*.*.g.G.G.G.G.G.J.U.U.U.U.P.P.P.U.XX@X@XXXG.@.G.W.@X@X@X$X$X$X$X$XXXXX@XW.v.j.f.X.Q W W W Q  .X.X. .%.%.%.%.%.%.%.%.%.%.%.&.&.%.&.&.&.&.g.g.*.:.:.:.:.g.&.%.X. .Q  .X.X.X.X.Q &.).&X$X@X$X$XXXoX'.U.U.OXoX'.`.'.'.OXOX).:. . .X.O.&.&.&.X.X. .:./.fXhX&X'.K.K.I.J.l.l.l.l.l.l.J.G.G.I.XXOXXX).XXXX).).).).).).|.|.).).).).(.I.I.I.I.I.I.I.I.I.I.|.|.l.&.X.W  .Q Q  .%.=.*.g.G.l.I.).).U.U.U.L.l.l.:.&.&.&.k.k.k.k.k.k.k.k.f.f.k.k.k.k.k.k.k.k.k.k.k.k.k.k.k.k.f.&.&.f.k.l.l.k.&.:.l.k.;.l.l.l.O.O.O.o. .O.l.k.l.l.l.l.l.l.l.l.L.l.l.c.l.l.L.I..X<X.XE.%.l x &.@X#X5X#XXXXX@XXXXXXXXXXXXX@X$X&X#XXXXX|.|.I.I.I.I.I.I.I.).I.J.).&XhXhXfX&XiXiX$X&X&X&X&X5X&XXXU.k.k.k.k.l.l.v.J.I.L.J.z.J.).OX&X&X&Xk.0 s d x |.&XoXiX+X:. .&.&.g.f.f.f.%.%.f.f.f.f.f.&.&.l.l.l. . . . . .X.&.X.&.&.&.&.&.&.&.&.k.&.&.&.&.&.&.&.&.X.X. .W I I Y &.&.l.G.G.l.*.&.g.l.L.l.l.l.G.P.I.@X5XW.X.d s s s s k x c V W Q Q X.X.X.~ Q W Q ~ ~ X.Q Q Q X.X.X. .~ %.f.g.g.&.*.&.*.*.*.*.&.&.*.*.*.*.*.*.&.&.",
"g.*.*.*.*.*.g.g.P.U.W.W.W.W.U.U.P.P.P.J.G.G.G.F.g.G.G.G.G.J.J.J.P.P.P.P.P.J.G.G.G.G.G.J.J.P.P.P.P.K.U.U.U.U.U.U.P.XX$X@XU.G.*.*.L.|.@X@X@X$X$X%X@X@X@X@X@XE.j.X.X.~ W W W Q X.X.X.X.%.%.%.%.%.%.+.%.%.%.%.&.&.&.=.&.&.%.&.*.g.g.*.&.&.&.&.%.X.Q X.X.X.X.X.X.X. .I.OX&X$XOX$X$XXXOX'.U.U.XXOX'.U.XXXX).I.*. . .O.&.O.X.X.X. .%.&.XX&XiX+XK.G.G.J.J.G.l.l.l.l.l.l.G.J.J.).OXOXXX).XX).).).).).).).(.(.).(.(.(.I.I.I.I.I.I.I.I.I.I.(.|.I.k.&. .W X.X.%.%.g.g.*.*.G.J.U.|.).K.I.J.l.:.;.&.&.&.;.k.k.k.k.k.k.k.k.k.k.k.k.k.k.k.k.k.k.k.k.k.k.k.k.k.k.&.&.f.f.k.l.l.k.*.l.k.:.;.l.z.l.O.O.O.O. .O.k.k.k.l.k.k.l.G.l.l.l.l.l.l.l.l.I.E..X.X}.k.W l Q E.4X#X#XXXXX|.XXXXoXoXXXXXXXXXoX$X#XXXXXOX|.(.I.I.(.(.I.J.I.J.l.I.hXhXhXfXiXfXfX&X&X&X&X&X$XXXI.l.g.g.k.k.k.l.l.l.I.I.I.I.I.).|.XX).|. .8 s s c |.+XoX*X+X4. .&.&.f.f.f.o.X.X.&.&.&.f.&.X.&.l.L.I. .U  .&.|  .f.&.&.&.&.&.&.&.&.&.k.&.&.&.&.&.&.&.&.&.X.X. .W Y  .&.&.l.G.G.l.k.&.g.l.l.l.g.G.P.|.@X$X|.%.d s g B s k x x c V W W Q ~ X.X.Q Q Q ~ ~ ~ X.X. . .X.X.X.X.%.%.g.g.g.&.*.*.*.*.*.*.*.*.*.*.*.*.*.*.*.*.",
"*.=.=.=.*.g.J.P.U.U.XXXXXX!.W.W.U.U.U.U.P.H.G.F.=.*.F.G.G.J.P.U.P.P.U.U.U.U.U.U.H.P.P.P.U.U.U.U.'.'.Y.T.T.'.XXXX$X$X$XXXP.l.*.*.L.|.$X#X@X$X$X%XXX%X5X#XW.c.X.W W Q X.Q Q Q X.X.X.X.%.%.%.%.%.%.%.%.%.%.&.&.&.&.&.&.&.%.%.g.g.*.&.&.&.X.X.X.X.~ X.X.X.X.X.Q %.k.#XOX+X$X+XOXOX@XXXXXXX'.XX'.'.T.'.XXI.+.Y  .O.O.&.X. . . .+.*.G.'.{.'.K.-.-.G.J.J.G.l.l.l.J.J.J.:.J.).oXOXXX|.).|.).).).).).).).).).).(.).).).).(.I.I.I.I.I.I.(.|.(.l.&.&.X.Q X.g.g.g.G.F.*.*.*.).|.|.U.I.J.l.k.k.k.;.k.k.k.k.k.k.k.k.k.k.k.k.k.k.k.k.k.k.k.k.k.k.k.k.k.k.k.k.k.&.f.k.f.f.k.l.k.l.l.:.&.;.l.l.k.o.O.O.O. .O.&.&.&.k.l.:.l.l.J.l.l.l.c.l.l.c.L.I.}.C.o.c s l %.@X5X5X$XXX|.U.).XXOXoXOXXXXXXXoX$X#XOXOXOX|.(.v.v.(.).I.J.L.J.J.|.hXhXfX&XiXfXfX$X&X&X5X$XXXI.k.f.l.k.k.k.l.z.J.I.I.I.I.(.).).).(.).).Y 8 d s Q #X+XoX*X+XK.#.+.f.f.f.f.o.%.%.f.&.&.f.&.X.&.l.I.).l. . .O. .X.f.&.&.&.&.&.&.&.&.&.f.f.f.f.&.&.&.&.&.&.&.&.&. .W W  .f.G.G.G.G.l.&.l.l.*.*.g.J.W.@X5X|.f.d a f x z k z x c c c I W X.X.X.X.Q Q X.X.Q X.X.X. . .X.X.X.%.&.g.g.&.*.*.*.*.*.*.*.*.*.&.*.*.g.g.*.*.*.*.",
"=.=.=.*.G.P.U.XXU.!.XXXXXXXXXXXXU.U.W.!.U.U.P.P.G.J.P.P.P.P.U.U.U.U.U.U.U.U.U.U.U.U.U.U.U.U.T.'.'.'.Y.'.oXoX$X$X$XXXI.I.I.L.g.%.L.|.$X@X@X$X$X@X%X$X$X@XL.X.W c W Q X.X.Q Q  .X.X.%.%.%.%.%.%.%.%.%.%.&.&.&.&.&.&.&.&.%.%.&.&.&.&.X.X.X.X.X.X.X.~ ~ X.X.X. .l.|.&XOXXXOXOXXXXXOX'.XXXXXXXX!.!.XXXXXXI. .Y  .&. .&.X. .&.&.*.G.).'.'.{.{.'.K.K.4.J.G.l.l.l.J.J.J.l.K.oXOXXX).).).).).K.K.K.).).).).).).).).).).).).(.(.I.I.I.I.(.).I.k.&.&.X.Q X.c.g.F.J.F.$.*.G.XXXX|.I.G.l.k.&.k.k.k.k.k.k.k.k.k.k.k.k.k.k.k.k.k.k.k.k.k.k.k.k.k.k.k.k.k.k.k.f.f.k.f.f.f.f.l.l.G.l.:.&.&.k.l.;.;.O.O.O. .O.&.&.&.l.J.l.:.l.l.l.l.c.l.l.l.c.l.f.| | c k l x Q c..X@X@X@XXX|.XXOXoXoXOXXXXXXXOXoX#XXXOXOX|.(.v.v.L.I.I.J.L.J.U.$XhXhXfX&XiXfXiX&X&X&X&XOXI.l.f.g.g.g.;.k.l.J.).(.).U.I.I.I.(.).).|.J.v 8 8 8 X.#XoX[.+X+XK.&. .&.f.&.o.o.X.X.&.f.&.&.&.O.&.:.J.(..X:. ._ X.f.f.X.&.&.&.&.&.&.&.&.&.&.f.f.&.&.&.&.&.O.&.&.&. .Y Y  .&.G.G.G.G.l.*.*.*.G.I.U.@X$X$XW.g.I s f x z u k z x V W Q X.X.f.f.%.X.Q Q Q ~ Q X.X.X.X.X.X.%.%.&.g.g.f.&.&.*.*.*.*.*.*.*.*.*.&.&.g.g.*.*.g.g.",
"*.*.G.J.P.U.XXXXU.U.XXXXXXXXXXXXU.U.U.U.U.U.U.U.U.!.!.!.U.P.P.P.U.U.U.U.U.U.P.P.@XXX'.).U.'.'.'.Y.'.].oXrXtX$XoXU.G.l.G.I.L.g.&.L.|.$X@X@X$X$XXX$X@XU.g. .W W W Q X.X.Q Q Q  .X.X.%.%.%.%.%.%.%.&.&.%.&.&.&.&.&.%.&.&.%.%.%.%. .X.X.X.X.X.X.X.X...Q X.X.&.f.E.&X$X+XoX'././.U.P.U.U.U.U.XXXXXXW.XXU.l. . .o.&.X.o. .X.k.G.J.'.$X&X+X*XiX&X'.6.:.J.G.l.l.l.J.l.l.J./.XXOXXX).).XX/.K.K.K.K.).).).|.|.|.).).).).).).).I.I.(.(.).(.I.I.l.&.&. .W X.L.g.F.G.F.*.1.P.XXXX).J.l.l.k.&.k.k.k.k.k.k.k.k.k.k.k.k.k.f.k.k.k.k.k.k.k.k.k.k.k.k.k.k.k.k.k.f.f.f.f.f.&.f.l.l.G.G.*.&.&.;.k.;.;.O.O.O. .O.&.O.&.J.).J.l.l.l.l.l.l.l.l.c.c.f. .s k z x W W E X.f.l.U.XXOXXXXXOXXXXXXXXX@XOXOX$X#XXXXXOX|.I.v.v.z.|.|.|.|.I.XXfXhXhXfX&X$X$X$X&X$X$XXXI.l.&.f.g.f.f.k.l.J.(.|.XX|.).I.I.I.).).).).&.0 9 1 1 f.@XoX[.+X+X'.&. .&.o.o.X.X.X.X.&.f.&.&.X.O.&.;.l.z..X(.&. .X.&.o.X.f.f.&.f.f.f.f.f.f.f.f.f.f.&.&.&.X.X.X.X. .W U Y Q &.L.L.G.G.G.*.*.l.K.@X$X$XXXP.+.I d d g f f f x x c W Q %.l.v.L.L.L.g.%.Q W W Q X.X.X.X.X.X.%.%.&.&.g.&.&.&.&.*.*.*.*.&.&.*.*.&.&.&.&.*.g.g.g.",
"J.J.P.U.XXXXU.U.U.U.XXXXXXXXXX@XXXXX!.!.!.!.XXXXXXXXXX!.U.P.J.J.g.F.P.U.XXXX@X@X$XoXOX'.'.'.'.'.oXoXrXtXtX+XT.J.J.P.U.|.I.g.f.g.l.|.$XXXXX$X$XXX$XU.&.W x x W X.X.X. .Q Q X.X.X.X.X.%.%.%.%.%.X.f.&.%.%.%.%.%.%.%.%.%.%.%.%.X.Q X.X.X.X.u.X.X.~ d.~  .&.g.G.XXfXXX$X+XK.G.J.P.J.P.J.J.P.!.XX!.U.XXl. .W  . .X.o.X. .&.G.U.).OXiXiX[.[.*X+X_.4.G.G.G.l.l.l.l.l.l.).).XXXX).).|.XX).K.K.K.K.).).).).).).).(.(.I.(.).).).I.I.).).).I.I.c.k.&.W I X.L.g.g.G.1.*.G.XXXX|.I.l.k.l.k.k.&.k.k.k.k.k.k.k.k.f.k.k.k.f.f.f.k.k.k.k.k.k.k.k.k.k.k.k.k.k.f.f.k.k.f.&.&.f.l.L.G.G.*.#.&.&.;.&.k.O.O.O.X.&.&.O.:.).OX).l.>.G.l.l.l.l.l.c.c.&.W c c x k B V ~ f.Q X.L.|.XXU.J.J.).|.XXOXOXOXoX+XOXXXXXXX|.I.L.L.|.$X5X5X&X#X&XvXfX5X$X#X@XXXOX$X$XXXI.l.&.&.f.g.f.k.l.l.I.(.(.XX(.I.I.I.(.(.I.L.L. .s x 3 8 c.@XoXoXoX+XXX:. .X.o.o.X.X.X.%.f.f.f.X.X.O.&.&.l.l.I.OXI.#. . .X.c.f.f.f.f.f.g.f.f.f.f.f.f.f.&.X.X.X. .X.X. .I Y  .W &.c.l.l.L.G.k.G.U.@X$X$XP. .d d s s g f s f B c I W Q X.j.E.|.@X<X@X|.L.%.Q W  .X.X.X.X.X.X.%.&.&.%.&.g.g.&.=.&.&.*.*.*.&.&.&.&.&.&.&.&.*.g.*.",
"W.W.W.U.T.'.'.'.'.T.T.U.T.!.!.!.!.T.T.!.!.!.!.!.XXU.G.*.%. .+.=.G.H.T.oXoXoXoXoXoXoXoXoXoX].oX+XiX$XOXU.K.H.H.J.P.J.P.U.I.l.*.&.J.|.#XOXOX$X#XXXg.~ x I W ~ ~ W X.X.X.Q Q W Q Q Q X.X.X.X.X.f.f.X.X.u.u.d.X.X.X.X.X.X.X.%.%.%.X.X.X.X.X.X.......X.X.Q  .l.XX$XoX$XXXP.I.I.I.I.U.G.I.I.I.P.U.!.|.U.I.Y U Q Q g. .Q *.I.K.'.*XiXiXeXeXeX=X{./.J.>.l.J.J.l.G.G.I.K.XXXX|.).|.).|.).).).).).).).).).).).).).).).K.K.).).).).I.I.I.(.}.v.x.k.o.W I I P.g.F.G.G.*.J.@X|.U.L.l.*.;.:.;.;.k.k.k.;.;.;.;.k.k.k.k.&.&.&.;.k.k.k.k.k.k.k.k.k.x.x.x.k.k.&.&.k.k.k.&.&.k.L.L.J.G.&.#.:.k.&.l.k. .|  .X.&.f.X.&.G.).XXK.:.-.G.:.J.l.g.c.&.I c W l k B W B W X.g.W I g.@X$XXXU.XXXX#XXXXX'.oX+XOXXX'.|.I.l.c.U.fXvXhXiXjXhX$XfXfX5XXXU.L.l.l.l.g.j.g.g.g.f.f.f.k.k.l.l.I.I.(.(.(.}.k.O.v.|.E.v.x.B f a s 8 l.$XOX'.oX@X#X&. .X.&.o.X.o.&.&.&.X.X.X.O.O. .&.l.:.(.J.).I. . .*.&.&.&.f.f.f.f.f.f.g.&.X.| Q Q X.X.X.X.| | W Q W W c o.c.c.L.I.L.l.v.j.%.X.I s s s s x l s s x V x x Y  . . .&.E.5X.X|.|.@X.XL.X.I Q Q  .X.%.f.f.&.g.&.&.&.&.&.&.*.l.*.*.*.*.*.*.*.*.*.g.*.G.G.G.J.",
"W.W.!.U.T.'.T.T.T.T.T.T.!.!.!.!.T.'.T.!.!.!.W.W.@XL.Q d d U *.XX'.T.Y.Y.Y.].rXtXoXoXoXrXrXrXyXpXoX@XU.P.P.P.P.J.P.P.P.P.P.G.*.@.J.).OXOXOXOX|.L.U l s d x E ^ W E W W W W W W W W Q Q Q Q Q X.X.u.u.u.......X.X.X.X.X.X.X.X.~ ~ X.X.X.X.X.....X.X.X. .&.K.oX+X+X$X|.I.I.I.I.I.P.J.I.I.I.I.U.|.|.I.G.Y U Q U =. . .l.P.).'.*XiXuXeXeXeX*X*X{.J.l.z.v.l.l.G.J.K.).|.|.|.|.|.).|.).).).).).).).).).K.K.K.K.K.K.I.J.(.).).).I.I.I.I.}.b.x.i.X.c x U L.F.F.G.F.F.P.@X|.U.G.k.*.*.:.:.;.;.;.;.;.;.;.;.k.k.k.k.&.&.&.k.k.k.k.k.k.k.k.k.k.x.b.k.k.k.k.k.&.k.k.&.&.;.l.J.P.G.&.#.k.&.&.l.f.| |  .X.&.f.&.%.*.K.XXK.K.K.K.G.l.l.G.c.~ x c x c B B W ~ ~ ~ W X.%.Q &.I.#XOXW.!.XXXXXXXXoXoXOXXXXXOX|.I.E.@XhXzXhXtXfXiX$XfX$XXXI.l.j.j.g.g.j.j.j.j.f.g.f.f.&.&.k.l.I.(.(.I.|.c. .| ;.l.b.v.u.N f y a 8 G.$XOXOX$X@X#X&. .X.&.o.o.f.f.f.&.X.X.X.O.O. .&.l.:.J.I.|.K.&. .=.*.X.O.&.f.f.f.&.&.X.X.Q Q W Q | X.X.X.| W Q Q W W x X.k.c.c.L.v.l.c l g l k s s k z s s x l s W f.&.&.&. . . .k.I.@X#X@X@X.XL.X.I W Q X.%.f.f.f.f.&.&.&.&.:.l.J.L.U.I.U.U.P.P.P.I.P.P.P.U.U.U.U.U.",
"!.!.!.T.W.'.T.T.T.U.W.T.!.!.!.!.T.T.T.T.!.!.!.!.P.=.Y I Y &.P.oX'.].oXoXoXoXrXrXoXrXiXgXgXpXtXrXT.U.P.P.P.P.P.P.U.W.W.P.P.J.g.+.K.|.OXOXXXXXI.*.&. .W W I I I I x x I W W W W Q W Q Q Q W W W Q X.~ ~ Q ~ X.X.X.Q X.X.~ Q Q Q ~ %.%.X.X.X.X.X.X.X. .%.G.XX+X+X+XXXU.I.I.P.I.I.I.I.P.I.J.I.U.|.|.I.*.U Y Y I Q Q =.G.'.OXoX*XiXuXeX=XeXaX*X'.J.l.z.z.l.l.J.K.U.).).).).).).).).).).).).).U.).).).).).K.K.K.K.K.K.I.I.).).(.(.I.I.C.x.i.i.| k l Q l.G.F.F.F.J.T.@XW.I.l.k.f.k.k.k.k.k.;.;.;.;.;.;.k.k.k.k.k.k.k.k.k.k.k.k.k.k.k.k.k.b.k.b.k.k.k.k.&.k.k.&.O.&.l.J.K.J.&.#.g.&.&.l.o.| | |  .f.g.&.%.$.G.K.K.K.K./.J.$.l.I.f.x g x g B W x V ....! W ~ X.X.W  .L.$X@X@XXXXXXX'.'.'.'.).|.XX|.I.W.@XhXjXhXfX5XlXfXfXXXI.g.&.f.g.g.f.j.j.f.f.g.g.g.g.f.f.&.l.I.}.|.}..Xf.| | O.i.k.v.B f f y 8 9 I.$XOXOX$X@X$Xg.X.X.o.o.&.f.f.f.X.X.X.X.X.X. .&.l.k.l.K.).).G.+.+.g.X.o.f.f.f.&.X.X.Q W W W W W Q Q X.| Q W Q Q W W X.f.f.X.W U l 8 s a a s s s s k k s l c x c %.E.I.I.L.k.&. .%.&.I.|.@X@X.XW.j.Q I Q %.f.&.&.&.f.&.g.k.l.L.I.|.|.|.|.|.|.|.|.|.|.|.|.XXXXXXXXXX!.",
"!.!.!.!.U.).U.T.T.T.!.!.!.!.!.!.T.T.T.T.T.!.!.!.=.=.*.P.XXoXoXoX].oX+XrXrXrXrX+XiXgXhXgXfX+XT.P.P.J.P.J.U.U.U.U.U.XXXXP.G.P.G.%.U.XX#XOX|.|.I.l.@XW.L.l.f.%.Q W I I I W W W W Q  . .X.X. . .Q Q W Q Q Q X. . .Q Q X.%.%.X.%.%.g.l.l.l.l.l.g.f.%.X. .&.U.$X$XoXoXU.I.I.I.I.J.G.J.I.I.I.G.I.|.|.|.U.&.U Y Q I I Y l.P.OXoX*X*XuXuXeX=XuXaX*X_.z.z.z.l.l.z.I.).).).).).).).K.K.K.K.).).).).).).).).).).).).K.K.).).I.(.).).).(.I.I.b.i.i.i.V s l %.g.G.G.*.G.U.@X@XU.I.l.k.k.k.k.k.k.k.k.;.k.;.k.k.k.k.k.k.k.k.k.k.k.k.k.k.k.l.l.k.b.b.c.b.k.k.k.k.k.k.k.&.&.&.l.L.K.K.&.#.f.&.&.k.o.| | |  .&.g.&.&.&.*.G.K.K.K.).J.:.l.L.Q g x x l c x x B | ..! ..W W X.X.W  .L.4X$X$X@XXX)././.'.).|.|.I.L.E.#XfXfXhXfX5XfXfX$XP.l.&.&.f.g.g.f.f.f.f.f.f.f.f.g.l.f.&.&.v.}..X|.}.o.|  .| o.b.i.f f f y 8 0 P.$XOXOX$XOX$X*.X.X.o.X.o.f.f.&.&.X.X.X.X.X.X.&.l.k.:.K.).XXXX*.+.*.&.f.f.f.&.X.| W c c c I W W W W Q W W W W W W B V V k s 4 s s 4 l g g k k k k k k V W x I &.I.E.I.U.|.U.L.l.&.&.X.k.I.E.|.@XE.%.W  .%.f.&.&.&.g.c.L.L.I.U.|.|.|.|.|.|.|.|.U.U.U.|.|.U.U.W.U.U.U.",
"|.|.|.U.U.U.U.U.U.T.T.XX!.!.!.T.T.T.T.T.!.!.!.XXP.H.U.oXiXiXtX+XtXrXrXoXoXtXfXgXjXhX$XOXT.P.P.P.P.P.P.U.W.W.W.W.W.@XXXP.L.P.L.&.U.|.XX|.U.I.I.I.#X|.I.I.I.G.l.&.X.X.Q W I I I I W W  .X.X.X. .Q  . . . . . . . .f.j.l.l.l.G.U.|.|.|.|..X|.W.c.f.X.X.l.XX$XoXOXOXP.P.P.I.I.L.G.L.P.P.L.L.U.|.XXW.W. .U Y  .U K U G.).+X*X*XuXuXuXuXuXuX*X/.6.>.J.z.l.l.J.(.)./.).K.K.).).).K.K.K.).).).).K.).).).K.K.K.).K.).).|.).).(.(.I.I.z.l.i.y...| x s x &.g.G.G.F.J.XX@XXXI.I.c.l.l.k.k.k.k.k.k.k.k.k.k.k.k.k.k.k.k.k.k.k.k.k.k.k.b.c.c.v.b.b.c.c.z.l.l.z.l.l.l.k.&.&.l.I.U.K.&.#.&.&.&.k.X. .| | Q &.f. .*.&.&.:.J.K.).).K.G.l.f.x l ^ x c l x Q ..~ ~ ..~ u.X.W Q &.%.U E.|.#X$XXX).).).OXXXOX|.I.L.|.5X$X$XfXfX$X$X@XI.g.g.g.g.g.g.g.l.f.f.f.f.f.f.f.f.l.k.f.k.z.I.I.I.f.| | | | o.i.V u f g a a d P.oXoX'.oXoX$Xl.%.X.o.o.o.o.o.f.o.X.X.X.X.X. .&.l.:.:.J.K.XX$XK.+.+.k.k.f.&.X.W c x l x c W W W W W W W W W W V B B s s u y u s l l s f k z x V V V c c I I &.I.|.I.I.).|.|.|.|.I.L. .&.f.f.L.|.L.X.W  .&.f.f.g.l.L.I.I.|.|.|.|.).I.|.|.|.|.|.|.|.|.U.).W.|.|.W.W.!.",
"|.|.|.U.U.U.U.U.U.T.XXXX!.!.T.T.T.T.T.'.XXXXXXXXoXXXoX+XtXrXrXrXrXrXrXtXiXfXfXfX$X%XXXU.J.J.P.P.U.P.P.P.W.W.W.W.W.W.W.L.L.P.L.g.G.I.U.I.G.l.I.W.|.I.G.J.K.K.J.G.L.c.g.&.X.X. . .I I W Q  . . .Q  . . . .%.g.c.L.I.U.U.U.U.U.XXOXXXoXOX&X$X|.l.&.X.&.I.#X$XoX'.'.P.P.P.I.P.G.l.G.L.L.G.P.U.XXXXW.I. .U U Q Y K ` K.'.+X*X*X*X=XuXuXuX*X'.J.:.>.J.l.z.I.(.).)./._.K.K.).K.K.K.K.K.).).).).).).).).K.K.).).|.|.|.|.).I.I.z.l.l.&.O.....| W l s W g.g.G.G.G.U.@XOX|.I.I.c.l.l.k.k.k.k.k.k.k.k.k.k.k.k.k.k.k.k.k.k.k.k.k.k.b.b.c.v.v.b.b.c.c.c.c.z.c.v.L.L.J.k.&.l.I.U.K.&.+.&.&.&.k.X. .| | W &.f. .&.+.#.l.K.).).).U.I.g.W g B W x x l W d.x.d.X.~ ~ ~ X.Q Q  .X.~ ~ g.W.@X#X@XXXXXXXOXOX).k.f.|.fX$XfXfX$X$XXXG.&.&.*.l.l.g.f.g.k.f.f.f.f.f.f.f.f.f.f.k.l.l.k.&. .Q | | | | o.| s u f g a s d P.oXoX].+XoXfXl.&.X.o.X.X.X.X.X.X.X.X.X.u.X.X.f.l.k.l.J.J.'.$XXX4.#.k.f.&.X.W c x l l x c W W W V V W c c c B c x f f f f f f s s s f x x B V W | W W l c &.U.|.U.|.|.|.).).|.|.@X#XL.l.f.X.&.g.&. .X.&.g.l.L.I.|.|.E.|.|.|.|.|.).I.|.|.|.|.|.|.|.|.U.U.U.U.|.|.XXXX",
"|.W.U.U.U.U.U.U.U.U.XXXXXXXXU.U.T.T.'.'.'.OXoXoXoXoXoXrXtXrXrXrXrXtXpXgXgXiXoX!.P.P.U.U.U.P.L.c.I.P.L.L.P.E.E.E.E.P.L.L.G.l.g.g.l.l.L.G.l.l.I.W.U.I.G.J.J.K.6.K.|.E.I.I.I.L.l.l.&.X. .Q  . . .Q  . .&.k.L.U.XXXXW.U.U.U.U.).|.'.`.'.{.+X$X).g. . .c.@X$X$X@X'.U.P.P.P.I.L.l.l.G.G.G.G.P.W.@XXXW.l.W Q I U Y L +.).'.+X*X*X=X=X*X*XuX+XK.4.z.z.l.z.I.).|.).(./._.).).).).(.(.(.).).).).).).).).).).).|.|.|.).I.I.l.k.&.&.&.&.O.| | ..| x s s Q g.F.F.G.P.XX@XXXU.).I.L.c.l.k.k.k.k.k.k.k.k.i.i.k.k.k.k.k.k.k.k.k.k.c.c.c.b.c.c.c.k.c.c.c.z.z.v.v.L.I.I.I.l.&.:.J.K.K.&.+.&.&.&.l.| |  .Q W &.f. .&.+.#.l.I.K.I.I.I.l. .x c E B B x c Q f.c.j.d.~ d.W W d.~ E W f.W ~ &.I.|.XXXXXX.X.X|.l. .I l.5X5XhXfX#XXXP.*.*.&.&.f.j.f.f.f.g.j.j.j.j.f.f.f.f.f.k.l.k.&.X.| W | X.| X.o.X.V z f h f a s s I.$XoX'.+XoXfXG.&.X.o.X.| | X.X.X.X.u.X.u.X.X.f.l.k.l.l.J./.'.+X'.:.&.X.| W c x x x c c c V V B B c c c c x x x f f y a f f f f B B V ! ! W V W W c W U &.).#XXXXXXX|.|.|.).|.|.XX#X#X|.I.l.g.f.&.&.k.l.L.I.W.|.|.|.|.|.|.|.|.|.).).I.I.I.U.U.U.).U.U.U.U.U.U.U.U.U.",
"|.W.U.U.U.U.U.U.U.U.XXXXXXXXU.U.T.T.T.'.OXoXoXoXoX].oX+XrXyXpXjXgXgXpXtXrXoXT.P.P.U.P.L.L.c.L.L.P.L.L.L.L.P.E.E.P.c.g.g.g.g.g.g.g.l.l.l.l.G.I.W.I.J.J.J.J.4.6.J.L.I.E.|.|..X|.W.W.I.f.X. . . . .g.l.I.|.OX|.W.I.).U.I.I.K.U.|.'.`.`.{.+X+X).*. . .L.#X$X#X@X'.U.P.P.P.I.L.l.l.G.l.l.G.P.W.@XXXW.%.W  .I K Y L $./.'.+X*X=X=X=X*X+X&X'.G.l.I.I.k.z.I.|.OXXX)./._.).).).).).).).).).).).).).).).).).|.U.U.L.k.&.&.O. . . .X.O.X.| ..u.| x s l Q &.G.G.G.U.OXOX'.K.|.I.L.l.l.l.k.f.k.k.k.k.k.i.i.k.k.k.k.k.k.k.k.k.v.v.c.c.b.b.b.k.k.c.c.c.z.z.v.v.L.I.).U.l.&.:.J.U.G.&. .&.&.&.l.W W  .W W &.g.+.&.+.#.l.J.J.l.l.I.k.I x Q E g W c W Q  .%.c.h.X.~ X.~ ^ ~ X.X.W %.X. .&.L.|.#XXX#X#X|.k.x s X..X$XvXfX|.U.*. .l.k.f.f.f.l.l.k.f.l.l.j.j.g.f.f.f.f.k.k.f.X.| | X.X.X.W | f.| u z f u a y s 9 I.$X].].+XoXfXG.&. .o.X.| | | | X.X.u.X.u.X.X.f.c.k.l.l.J.K.K.+X&XK. .W I x l x c c c c c c B c x x c c x x x f f u f f f f f f B ~ W | | W V W V x x &.|.#X#X$X@X).I.(.|.|.|.|.|.|.|.@X#X@X|.L.l.l.L.I.I.|.|.|.E.I.|.|.|.|.).).I.I.I.I.U.U.U.U.).|.W.U.U.W.U.U.U.U.",
"G.L.l.*.*.J.U.|.!.U.U.U.XXXX'.U.U.'.'.'.'.'.oXoXoXrXtXrXgXcXcXjXrX+XoXXXT.U.U.P.P.L.g.f.f.g.c.c.E.E.L.L.L.L.L.L.L.L.l.g.g.*.*.g.l.l.G.l.g.g.G.I.I.I.J.J.K.J.J.6.I.|.I.l.L.L.L.I.|.|.|.L.&. . .%.J.(.|.|.U.|.).K.I.K.U.).).).).'.'.{.oX+X&XI.+. . .&.#XXX$XXXOX4.P.P.P.P.P.L.L.G.l.l.P.W.W.|.W.W.X.Q I Y Y v L :./././.{.=X=X=X[.iXoXK.G.G.z.z.z.I.|.#XOX|.).).).I.).).(.).I.I.I.(.).).).).).).).L.l.f.&. . . . . . . .X.X.X. .| X...B x s d %.&.g.*.G.XX@X@X'.P.).).(.L.k.&.&.k.k.k.k.k.k.k.k.k.k.k.k.k.k.b.c.v.c.c.b.b.c.c.c.b.k.k.z.v.v.v.z.z.I.I.(.I.:. .#.G.K.4.@._ +.g.f.&.W W  .W W %.g.&. .@.*.*.*.g.l.L.l. .x x E B B E l W X. .X.g.c.c.g.d.%.~ ~ ~ ~ %.Q ~ X. . .%.L.|.|.|.l.&.Q c Q c.fXxXhX|.&.&.g.k.f.k.l.c.I.I.I.I.c.c.c.k.g.f.f.f.f.k.f.o.| W | X.Q Q X.o.| c k z f i u f 8 d J.iX+X+XoXoXfX).#.&.X.o.X.| V | | | ~ ..u.X.X.X.f.L.l.l.l.K././.oXK.U I c x x x c c c x B B x x x x l l l f f f h u f u y f W ! ~ ! W W V V V c c x &.I.$X&X$X$XoX'.|.|.|.|.|.|.|.|.|.|.|.|.|.E.I.I.}.(.(.(.(.(.(.(.(.(.|.|.|.|.}.I.).I.I.I.I.I.U.U.U.U.U.U.U.|.|.W.",
"&.&.%. .+.l.U.XX!.W.U.U.U.U.T.'.OX'.'.`.'.oXrXtXpXtXpXzXnXcXtXT.oXXXXX!.U.U.P.P.g.j.f.d.%.f.d.g.c.j.g.g.g.g.j.g.g.g.g.&.%.*.g.l.l.G.I.L.l.l.L.I.G.I.K.J.>.>.6./.z.L.l.l.L.L.L.|.|.|.|.|.l.k.k.G.J.(.|.).).).).K.K.U.).)./.).).`.{.[.oX*X$XJ.+. . .&.|.XX$XXX'.:.P.L.L.L.L.G.g.g.l.L.P.W.@XW.I.L. .Q W W Y v Y 4././.{.{.{.[.=X*X+X'.J.G.l.z.z.z.I.)..X.X).J.).XX|.).).).|.).).(.).(.I.J.l.:.&.&.%. . . . . . . . . . .X. .X. .| | ! x l s d d.=.g.*.P.@X@XOX'.K.).).).I.l.k.&.k.k.k.b.k.k.x.x.k.k.k.k.k.b.k.c.c.c.k.c.k.c.l.c.c.z.z.z.l.l.z.z.z.I.I.I.I.:.+.#.:.K.4.@.+.&.k.f.X.W W  .W W %.g.%.%.&.&.*.l.G.L.L.&.W x c E B B c l W X.X.X.j.c.c.L.g.f.%.X.~ W W ~ X.X.X.~  .&.j.c.l.f.X.Q x W f.5XhX5XI.&.&.&.&.f.f.l.c.L.I.I.I.v.c.c.c.l.c.l.k.f.l.c.c.f.o.X.X.f.f.i.X.W k s f f f a f 8 0 I.iX+XrX+X+XfXXX+.&.X.X.| W V | | | | X.X.X.X.X.f.l.G.G.G.K.K.K.`.:.I I c x x l x c c c B x x x x x l l f f f f h h y y f x ^ Q W W Q Q | | V c W  .|.#X5X5X$X$XOXU.).|.|.|.|.|.|.|.OXOX#XOX|.|.E.E.|.|.|.|.).).).).(.(.|.|.|.(.}.}.).I.I.I.I.I.U.U.I.I.U.U.|.|.U.G.",
"%.%.%.%.*.I.XX@XXX@X$XoXOXOX$XiX+X+XiXiXiXiXiXiXgXzXcXnXcXtXY.H.U.U.U.U.U.P.L.l.&.f.d.f.d.d.d.d.f.f.f.%.%.%.&.&.%.%.%.=.&.*.l.G.J.J.I.I.G.L.L.I.|.L.g.l.G.:.-.>.G.l.*.l.I.I.I.|.|.|.XX|.|.U.|.|.L.I.|.).).).K.K.K.).).).'././.`.{.[.[.+X$XJ. . . .%.I.|.OXXX'.*.G.L.L.L.G.l.g.g.L.L.I.W.|.W.l.&.Q Q W I I v U >._./.{.{.{.{.*XiX/.K.G.l.l.z.z.z.(.(.(.I.&. .&.L.OX|.I.J.I.I.L.l.:.;.;.&.&.O. . .W W W Q  .X.X.X.| Q | | | | | | V B f l s g %.*.g.*.U.%XOXOXOX).).(.|.).J.l.k.k.l.l.c.c.k.k.b.b.k.k.l.l.c.z.c.l.l.l.c.l.c.z.c.z.v.c.l.l.l.l.z.z.I.I.I.J.l.#.#.:.K.4.=.@.*.l.f. .Q W  .W W %.g.%.&.+.%.&.l.L.l.f.W c l E W B B B l W  . .X.g.L.L.L.L.c.g.%.%.~ W ~ ~ X.X.X.Q X.X.X.&.X.X.Q x c X.E..XE.l.&.f.f.&.l.l.c.c.L.I.I.I.E.I.I.v.c.c.c.k.c.c.v.c.b.f.u.X.X...| W x s f z f f h f 8 d I.iXrXrXrXiXhX$X+.&. .X.| W V | | | X.X.X.X.X.X.%.&.l.G.G.K.K.K.K.#.I c c x x x x x x x x x x x x g f f f f f f h h y x ! ! W Q Q W c c W I l l | k.#X5X5X&X$XoXOXU.).).|.|.|.|.|.|.OXOX#XOX|.|.|.|.|.).|.|.).(.).).|.|.|.(.}.(.}.}.(.I.(.I.I.I.I.I.G.I.U.U.|.|.I.*.",
"I.I.W.|.@X$X5X5X5XfXhXhXhXhXgXjXgXhXhXgXpXpXgXgXcXnXcXhXoXXX!.U.P.P.U.U.P.L.j.f.%.f.f.f.f.f.f.d.f.f.f.%.%.&.&.&.+.%.&.*.l.l.G.J.J.J.J.G.G.L.L.L.X.I I %.G.I.K.).U.I.l.l.I.G.L.XX|.|.XXXXXX|.|.|.I.I.|.|.).).K.K.K.).'.'.'.'.`.`.].[.oXtX$XG. . . .%.G.U.XXOX'.$.l.L.L.l.l.g.g.g.L.I.W.W.I.g.%.Q W W x x I L U &.J._.'.{.{.{.{.+XK.G.l.l.z.J.z.z.(.I.z.>. .v I #.I.z.k.&.&.&.&. . . . . . . . . . . . . .X.X.X. .W Q | | X.Q W W B B f g d g j.=.g.*.U.oXOX'.'./.).).|.).K.J.l.k.l.l.l.c.c.k.c.c.l.l.l.l.z.l.l.l.l.l.z.l.z.z.l.v.v.c.z.l.l.z.z.J.I.z.l.l.l.$.&.$.4.*.=.=.l.l.&.W  .Q  .W W %.g.&.+.+.&.g.l.l.%.W c l c W B B B B g W  .Q  .&.l.G.G.G.G.G.g.g.%.%.Q ~ Q Q X.X.X.X.X.&.X.X.| c l W X.f.l.&.&.f.l.l.c.c.c.c.c.c.c.c.v.v.I.I.v.v.v.c.v.x.f.o.o.o.....~ ! V V z f z N f f f f 8 d P.iXuXyXuXpXhXfX+.&. .X.| W W | | | |  . .X.X.X.X.X.g.l.:.J.K.K.K.@.I c c x x x x x x x x l z f f f f f s s s f h u y B ! W B W W W  .W I I x x X.I.|.#X5X5X$XOXOX'.).).|.|.|.|.|.|.|.OXOXOX|.|.|.).).).).).).(.(.(.|.|.).(.}.(.}.}.(.(.I.I.I.I.I.I.I.U.U.U.U.|.|.U.",
"fXfX5X5X5X5X5X#X5X5XfXhXvXvXjXgXvXzXzXpXiXiXvXcXnXvXtXU.W.%X@XW.P.P.E.P.L.j.f.%.f.f.d.d.f.f.d.d.d.d.d.%.%.&.&.&.&.*.l.J.I.J.I.J.K.K.J.J.I.L.g.%.8 s I %.&.&.G.@XOXXXI.J.I.G.G.|.XX|.|.|.XX|.).I.U.U.U.).).U.K.K.P.U.'.'.XX'.'.'.'.].oXtX$XG.Q +.X.%.g.U.XX$X'.*.l.l.c.c.l.l.l.g.L.I.W.W.g.~ I I x c l x |  . .;.>.>._.'.OXOX/._.4.G.l.l.z.J.I.I.(.z.l.;. .c Y  .&.&.O. . .| W W  . . . .| Y Y Y  . . .X.X.X.Q W W W | X.| W V B f f f g g g =.=.=.*.U.oXXX'.'./._./.).).).I.G.k.l.l.z.l.l.l.c.v.v.z.l.l.l.l.l.l.l.l.l.l.l.l.l.l.k.l.z.z.z.z.l.l.l.:.*.:.:.:.*.:.-.$.=.*.l.l.%.Q  . . .W W %.l.*.%.&.k.l.c.&.W x c c B B B x B B g W X.Q Q &.:.l.:.l.G.J.J.G.g.g.%.X.Q W Q X.X.u.u.f.X.X.X.V l c W X.f.f.f.l.v.v.l.l.c.c.c.c.c.c.c.c.v.v.I.I.E.E.k.i.X.| ..| ........| ! V f f f f f f f 8 l K.iXuXuXaXgXgXhX+.O. .X.| | | | | | | | |  .X.X.X.X.&.g.*.J.K.K.K.+.c c c x x l x x x l x k f f f f f s f f h h u u s B W V c U | W W I I I I I | &.z.|.hXhX5X$X#X@XXX|.|.|.|.|.|.|.|.|.#XOX|.|.|.|.|.(.(.(.(.(.(.(.|.(.(.(.}.}.}.}.(.(.I.I.I.I.I.I.I.U.U.I.I.|.$X5X",
"hX5X#X|.W.I.L.l.l.G.I.XXiXgXgXgXgXzXcXcXzXzXcXnXjXoXP.!.XXW.W.@XE.E.L.v.j.g.f.%.f.f.d.d.d.d.d.f.%.%.%.%.%.%.&.&.g.G.I.K.K.K.I.J.K.6.J.J.G.&.W g I E X.d.%.Q  .%.XX#XXXU.I.J.J.|.|.|.|.|.XXXX).U.).U.K.).).).K.K.P.K.'.'.'.'.XXOX'.].oX$X%XG.~ %.%.%.&.U.XXfXOX:.l.l.l.c.G.l.l.g.L.P.P.g.+.I K l l I I W &.:.:.>.>.>.J./.OXOX).>.G.G.G.z.J.J.I.I.I.v.l.O.| U W  . . .X. . . . . .X. . . . .| |  . . . .X.X.X.Q Q W Q | | W V B z f f a g g g =.=.=.$.U.oX'.`.'./././.'.).).K.J.G.J.J.J.z.l.l.c.v.z.z.l.l.l.l.l.z.z.l.l.l.l.l.l.l.;.k.k.z.l.l.k.k.:.:.*.*.:.:.:.:.4.*.*.l.l.*.X.Q  . .Q W W &.L.l.l.G.L.L.k.X.I l W E B B B x x x g Q X. . .&.:.:.:.4.J.J.K.J.G.G.j.d.X.~ Q ~ ..u...u.X.Q Q W c W I X.f.l.l.c.I.v.l.c.v.v.I.I.I.I.I.I.I.c.c.k.g.f.X.| | | X.X.......! ..~ V f u f f n f f 8 l U.iXuXuXaXgXgXvX .O.|  .| | | ..| | |  . . .X.X.X.X.&.g.g.J.J.K.K.Y x c c x l l x x l k f f f f f s s s f f h h u u x B V W c c c I I U Q +.&.&.&.O. .l.OX5X&X$X$X&XOXOXOXXX.X.X.X|.|.#X#X#XOXOX.X.X|.XX|.|.(.(.|.|.(.(.(.(.}.}.(.(.(.(.I.I.I.I.L.L.I.I.U.I.I.XX5XhX",
"XXI.l.*.&.%. .%. . .+.$.G.'.+XiXrXiXgXzXzXzXvXvX'.K.P.XXW.L.E..XE.L.c.j.h.d.f.f.d.d.d.d.%.%.%.%.X.%.+.%.%.&.g.g.l.G.I.K.K.J.J.J.6.6.K.G.#.Y x g W ^ W X.g.j.%.Q I.OX#X|.U.K.K.).XX|.|.XXXXXX|.).|.U.I.).|.U.U.U.U.U.'.'.'.'.'.XX'.'.OX$X$Xg.~ %.%.%.%.U.XXhXoX4.g.g.l.l.l.l.l.l.L.g.*.+.Y K l l x  .X.&.l.l.l.J.l.>.>.J.'.XXK.l.G.G.J.J.J.z.z.z.z.v.l. .c W  .X.f.o.X.X.X.X.X.X.Q | Q |  .X.X.X.X.Q  . .X.X.| ~ Q Q W V V x k f f f f g h g %.=.*.=.P.oXOX'.'./.'.'.'.'.`./.K.J.).(.(.I.z.l.l.v.l.z.J.J.I.I.I.I.I.I.I.J.J.J.J.z.z.z.z.l.l.l.:.:.:.:.:.:.:.G.G.G.G.4.G.G.g.=. . .X.| Q W W f.U.I.|.I.l.&. .W c x E B B B B B g f f W X.X. .&.$.-.G.4.J.J.J.J.J.J.L.c.j.d.X.~ X...~ X.~ W ~ W B W V | f.k.c.v.v.v.l.c.v.v.I.v.v.c.v.c.l.f.o.X.| | ..| | X.X.X.| ..W W W W B z f f f n f f 8 l U.iXuXdXaXgXgXcX .&._ | | | | ..| |  . . . . . .X.X.%.g.g.G.I.J.G.U x c c x l l x z k f f f f s s s s h h h f f s s f x W o. ._ _  .I.|.XXXX#X#X.X(.&.;.l.I.|.|.#X#X#X#XOXOXOXXX.X.X|..X#X#X#X#X#X#XXX).|.(.(.(.(.(.I.I.(.(.}.}.}.(.).(.I.I.I.I.L.L.L.I.I.I.|.$X5X5X",
"l.&.%.&.f.&.X.%.g.&.%. .+.*.K.oXoX'.K.K.{.+X+X$X).K.G.G.E..XW.L.L.c.M.h.d.f.f.d.%.%.d.d.d.%.X. .%.%.+.=.&.l.G.I.G.J.J.J.J.K.J.J.5.K.K.&.I d I ~ ~ d.h.d.d.%.%. .&.XX$XXXU.).).|.XXXXXXXXXX|.|.|.|.U.I.).|.U.P.K.).).'././.).'.'.'.'.OX$X$Xg.~ %.%.%.+.U.XXhXoX4.g.g.g.g.c.l.g.g.L.g. .U I I I l c f.l.l.l.l.:.>.J.l.>.z.I.|.U.J.J.J.J.J.z.l.l.z.O.z.l.| c | g.c.v.g.X. .X.X. .| X.X. .Q Q  . .X.Q Q Q Q Q Q W W | Q W B x f s f g g f g s g %.=.*.*.K.oXOX'.'.`.'.'.'.'.'.`./.K.OXOXXXK.J.z.l.J.l.J.I.).|.XXXXXX).).).).K.K.I.I.I.I.z.l.l.k.k.k.:.l.:.:.:.G.G.J.K.J.P.P.l.+. . .X.| W I W g.W.W.@XE.f.W x x x c B B B B B B f a s E X.X. .%.$.$.G.G.K.J.J.J.I.I.I.E.P.c.g.X.~ Q X.u.~ W ~ W B W c W X.f.v.E.v.c.k.k.k.k.f.f.o.X.X.X. . .X.| X.X.| | ..| ..! ! ! ! ! ! ! V z f f f m f s 8 K U.iXuXdXyXgXgXcX .O.| | | | | | | | O.O.O.X. . .X.%. .&.f.l.G.I.G.K x c x x x x x k f f f f s s s s f f f h s s s s c Q c.#X5XOX#XhXvXvXvX5X#X#X#X).|.I.l.k.l.I.).|.$X$X#X#XOXOX.X.X|.|.|.#XOXOX#XOX(.(.).(.(.(.I.I.I.I.(.(.).|.}.(.).(.I.I.I.L.L.L.L.L.I.|.$XfX5XXX",
"f.f.%.%.X.X.X.X.%.%.&.&.X.X.f.I.iXK.4.H.`.iXhXOXP.P.I.I.U.U.I.P.c.j.d.f.f.f.d.X.X.X.%.%.%.%. . . .&.*.g.l.:.l.J.K.J.G.I.U.I.I.K.J.XXl.Y W x g ~ u.d.c.h. .&.g.Y *.].$X'.).|.|.|.@X|.|.|.#XOX|.U.U.|.|.|.).K.).).U.).'./././.`.`.{.{.oX+X).*.+.@.=.Q +.G.@XvXfX*.G.F.F.L.j.g.j.P.g.X.I l l l c  .k.k.k.k.l.l.l.l.J.z.J.I.I.l.l.I.z.z.z.z.z.l.l.k.k.z.k.| c  .l.c.c.k.&. .X.X. . .W W Q  . . . . .Q Q Q Q Q W W W W E c k s s f x g s f s s I %.&.+.*.K.oX+X[.`.`.'.XX'.'.'.'./.K.'.+XOXK.K.).OXXX).J.J.'.oX/.K.'.K.).K.P.K.).P.G.K.I.J.G.*.$.:.G.J.:.:.J.G.*.*.J.P.P.J.*. . . .X.Q X.W l U L.#X.XE...x x c l x W ^ B B ^ B f y y s c X.%. .Q @.*.G.K.J.*.=.l.I.I.J.P.G.L.I.W.c. .Q X.~ W ~ ..~ B W c V | f.c.k.o.i.i.X.| W W | | | | X.| | | | | | | ......A A ! W ! ! V N f n n n h x s 6 *.fX+X].aXyXgXOXDX_  .| | | | | | | |  . . .X.&.&.X. .X.%.%.&.c.I.&.c x x B x x f f f a f f f f a u f h i f s y y s x g.l.|.hXjXiX*XgXpXvXvX&XXX#X#X(..X}.(.|.I.:.>.(.I.}.#X$X$X#XOX.XXX(.(.).|.XX.X|.|.|.|.).).(.I.I.}.(.(.(.(.(.(.).).(.I.I.I.I.I.I.L.|.5XfX5X|.l.%.",
"f.f.i.f.u.X.X.X.X.X.f.f.u.X.f.c.XX'.'.'.+XhX&XK.I.I.I.P.U.P.G.l.j.d.d.d.d.f.%.X.X.X. . .+.+.%.+.:.*.*.*.l.l.G.G.#. .+.$.l.G.G.J.J.J._ l W W x ! d.d.d.f.%.&.&. .5.].+XOXXX|.|.@X@X.X|..X#X@X|.U.|.|.|.).).K.K.K.K./.`.`.'.'.'.{.{.{.+X+X'.*.@.@.@.+.+.G.$XvXiX4.F.F.F.F.j.L.j.g. .I l l x U X.;.k.l.l.l.l.l.l.z.l.l.z.L.L.l.z.I.I.v.v.z.l.k.k.k.k.k.o.c U O.l.c.l.k.&.O. . . . .| |  . . . .| | X.X.Q W c x l f c c x f s s f l g s s s s I %.&.+.$.K.oX+X[.`.`.'.XX'.'.'.'.`.K./.{.'.K.H./.'.'.`.G.4.K.'.'.U.'.U.).).U.U.U.K.G.K.K.G.4.*.*.4.G.G.J.J.*.*.J.G.@.*.$.%. .Q  . .Q X.Q I d U k.v.l.W x g W ~ W B B ^ B B B f h y y f c X.%.%.+.*.G.G.P.G.=.&.l.L.I.J.P.P.J.P.U.L.g.Q I W u...B B ! V V V | X.X.X.| W W ..........u.X.X.X.| | | | ..........A A V S V W ! V B N n N n f g d 0 G.iX+XdXdXuXpXfXcXO.| | ..| | X. . . .| |  .X.&.&.X.X.X.X.X.&.l.c.&.c x B B x f f f f f f f f s a a f f f u u y s I  .g.*.U.iXgXiXiXpXpXgXgX*XXX|.|.(.}.}.|.|.|.(.z.l.l.v.v.I.I.|.#X#X|.|.|.|.XXXX(.|.I.I.I.I.I.I.I.I.(.(.(.(.(.(.).).|.).(.J.J.I.I.).#X#X#X|.I.l.g.&.",
"f.f.i.i.i.u.X.X.X.X.i.f.f.X.X.&.l.XX$X$XfXhXOXG.J.I.U.W.U.L.g.f.f.u.X.X.X.X.X.X.X.X. . .%.&.&.*.G.:.$.*.l.l.$.#._ Y _ #.>.G.J.J.I.J.U 0 I Q W ~ d.u.~ f.j.&. .$.`.+XtXoXOXU.U.@X.X.X.X.X@X|.|.U.|.|.|.).U.I.K.K.K././.'.'.'.'.`.{.{.oXoXU.*.+.+.+.=.+.*.$XvXiXG.g.L.L.g.L.E.j.Q x l s v W O.k.v.l.l.l.l.l.l.l.l.l.k.l.z.z.l.z.I.I.v.z.k.k.k.k.k.l.&.| v | k.v.c.k.k.k.&. . . .W  . . . .| Q Q W W W c x l l g l l l g s s f g l g s s d s x %.&.&.*.K.oX+X'.`.`./.).U./.`.`././.`.'.'.'./.K.'.'.OXU.G.G.U.'.'.K.U./.U.K.K.U.K.G.J.K.G.4.-.4.G.G.K.P.G.@.@.*.=.Y #.+. .Y Q %.%. .X.W d d W X. .I x x x B B B B B B B f f h y y u s E X.%.%.+.g.J.J.P.G.=.&.l.I.I.J.U.P.J.G.P.I.L.l.Q l W | W B B c c W W c c V W V V V W W W ! V W W V V V V V V V V V V V z z z z x B B f f n n m g s d Q '.iX+XuXdXuXiXvXhX&.c | | | | X.X. . . . . .X.X.X.X.X.X.X.X.X.&.f.X.c B B x f f s f f f f f s s f f f i i u y a x X.g.g.:.G.'.iXpXpXiXgXpXpXiXOX|.).|.}.|.}.I.).XX(.J.I.I.z.l.l.v.I.|.|..XOXOX.X|.(.I.(.}.}.}.}.}.I.I.(.(.).|.).|.).).).).I.I.I.).|.#X5X#XI.g.%.%.%.%.",
"f.f.i.i.f.u.X.X.u.X.u.i.f.u.X.X.&.K.XX$XhXfX).I.I.U.U.W.I.G.g.%.X...X.X.~ X.X.X.X.X.%.%.&.*.g.k.:.$.$.:.l.:.#.Y L L Y #.:.J.I.J.J.J.&.U I c c ~ X.X.Q &.l. . .U.+XtX+X+XOXK.I.@X.X.X.X.X|.|.|.).I.).).).U.U.K.K.)./././.`.'.'.'.'.{.oXoXU.=.+. .+.=.+.=.$XvXiXU.F.L.L.L.L.j.X.x l l l I X.k.l.c.l.l.l.l.l.l.:.;.;.:.l.l.z.z.z.L.v.l.k.;.;.k.k.z.l.O.c v O.k.c.l.k.k.k.&. . . . . . . .W W W W I l l l s d l x x g g g f f f g l g f g g d x X.&.&.:.P.OXoX'.`.`.U.U.K.K.K././.`.K./.'.{./.G.K.OX'./.J.4.G.'.'.U.U.U.U.K.K.K.K.K.4.4.4.4.4.4.G.G.G.+.T T T K T  .#.#. .Y  .%.%.X.Q x s g W W x l B W W B x B B B f f f a h u u u s E X.X.X.=.G.P.P.P.P.G.l.G.U.U.J.P.K.J.G.G.P.P.|.c.Q s l Q Q c x c W c l s l x B B B x z k z f x x z k z z z z z k k k z z z k s k k f f i f f B B a s *.oXtXrXyXdXrXpXhXJ.O.c | | | | X.X.X.X.X.X.X.X.X.X. . .X.X.X.X.X.X.W c B B g f s s s f f a u a f f f f u u u y s W &.l.g.:.G.K.oXaXgXpXgXgXpX&X$X#X|.|.}.v.&. .&.J.|..X|.|.(.I.z.l.l.l.(.|.|..X.X|.|.|.|.}.|.}.}.}.(.(.(.(.).|.).).).).I.I.I.).|.|.#X#X|.I.l.&.%.%.%.%.",
"f.f.f.f.f.u.u.i.f.i.X.X.i.f.i.X.+.*.I.$XhX$XI.W.I.P.L.L.g.g.&.%.~ X.~ ~ Q Q X.X.%.&.*.g.g.g.*.*.&.$.:.:.>.:.-.$.` _ +.#.>.K.J.J.J.I.J.#.W I I W W Q Q %.&.Y #.#XiXtX+XoX@XK.I.@X.X.X|.|.|.|.|.|.I.K.).).).).).).XX)././.'.OXoXoXoXoXoXOXU.g.=.+.+.*.+.#.$XzXgX+XG.j.L.L.j.~ K l l x Y X.f.l.l.k.l.k.k.k.k.&.&.&.;.k.l.l.l.l.L.L.l.k.&.&.&.&.k.l.l. .I U &.l.l.k.k.k.k.&. . . .X. .W W W c x x x l l l g l l l l g l l g f f f g g f g x g x X.&.&.*.K.OXoX{.`.`.K.K.K.K.K.K./.`.5.H./.'.K.*.G.'.U.U.P.4.G.U.'.'.K.K.K.K.K.K.K.K.4.5.G.K.G.4.*.$.L 0 q 0 q q T @.+.+.+. .Q  .X.Q x s s l c c c c l W ~ W B B x s u s s s s f a u s E X.X. .=.G.P.P.P.P.P.J.I.I.I.J.K.K.K.J.J.G.l.L.|.E.X.l l I W c c c x l l x B l k k f f f f z x x x x x B x x z z z z z k k k k k f f f f n N B B 3 d G.$X+XuXrXiXiXgXXX .W W X.| | | X.X.X.X.X.X.X.X.X. . .X.X.X.X. .Q W I c B x f f f f f f s u u s f f s y y f f l c X.f.j.*.:.G.G.K.+XpXgXiXgXiXOX$X$X.Xc.&.W c c I _ :.|.I.E.}.|.I.L.v.l.L.I.(.|.|.|..XOX}.}.}.}.I.I.I.I.U.U.U.U.U.U.U.U.I.).|.|.OXOX|.|.k.&.&.&.f.f.&.%.",
"f.f.f.f.f.u.i.i.f.f.u.X.X.f.f.f. .+.G.fXhXXXG.I.L.g.g.f.%.%.%.X.~ X.X.~ Q Q  .X.&.f.g.l.l.l.*.$.$.-.:.:.:.J./.XXXXXXOXXX/.K.J.K.J.J.J.l.*.&.X.Q I W  . . . .l.&XiXiXoXOXXXP.I.@X.X.X|.|.|.|.|.|.I.K.).).|.|.|.|.XX).).'.OXoXoXOX/./.).P.J.*.=.=.=.=.+.=.oXvXvXfXl.g.g.j.%.x s x x W X.&.l.l.l.f.k.&.&.&.&.&.&. .;.l.l.l.l.l.z.l.l.k.k.&.&.&.&.&.;.| I  .;.l.k.k.k.k.k.&. . . . .W I c c x l l l l l l l c c W W c c x l f f f g f s g E x x  .&.&.*.K.XXoX`.K.K.K.K.K.K.K.K.K./.H.K.`.'.U.4.G.P.XX@XW.J.G.K.U./.K.K.K.K.K.H.K./.K.H.K.K.K.4.*.+.T @.#._ T +.@.+._ +.+. . . . .Q s s g x x c E W W ~ W x f f f u y s f f f f f u a E X.X. .&.J.U.H.P.P.P.P.P.I.J.P.K.K.K.K.K.J.G.l.L.|.|.l.W l l c c x x c B E V c x x x z x B B x x x x B B c c c c x x z z k k k k f f f f f f x x a I P.$X+XrX+XpXiXfX&.Y Y | X.X.X.X.X.X.X.X. . .X.X.X.X.X.X.X.X.X.X.Q W c x x f s s g x f a f s s s s s y y f x W W Q %.f.&.&.*.G.G.G.'.iXgXiXgXfXOX#X#XE.X.s s c  . .I  .k.E.}.|.|.|.}.}.|.}.}.|.(.I.I.I.I.}.}.}.}.}.}.}.}.U.U.I.I.U.U.).).OXXXOX#X#X|.J.&.&.&.&.&.f.f.f.f.",
"f.f.f.f.i.X.u.X.X.f.f.X.X.f.f.X.X.+.I.fX5XI.g.g.f.d.%.%.%.X.X.~ ~ X.X. .Q Q X.X.&.f.g.l.l.*.*.$.:.>.4.4.4.K./.oXhXvXvX&XXX/.K.K.K.J.J.J.I.I.I.g.=.+. . .+.G.OX&X$XtXOXU.U.U.I.|.|.|.|.|.|.|.|.|.K.U.).|.|.|.XXXXXXXXXXXX@XXXK.J.:.l.:.*.=.&.%.=.=.+.+.$.'.vXvX+X&.f.%.X.E x l x W X.f.k.k.k.k.f.&.&. . .O.&.&.O.&.l.l.k.k.l.l.k.l.l.k.k.f.&.&.&.O.U U O.k.k.k.l.k.k.k.&.&. .W Y I I c l l l l l l l c W W Q X.X.Q W E x f f f g f s x W c x ~ &.&.*.J.'.XXT.K.K.K.K.U.K.K.H.K.K.K.K.U.'.XXU.G.*.I.J.G.l.l.J.K././.K.K._.J.5.J./.J.J.K.K.K.J.G.$.G.U.U.G.*.:.=.+. .+.+.+. .X.Q I s g x x x c B B ! V f u 3 y s f s f f f f f f u a E X.X.%.*.P.U.H.K.P.P.P.P.I.J.K.H.H.K.K.K.J.J.I.G.G.|.|.L. .l x x x c B E W W W W W W W V B B x x x x l l l l x x c c x x x x l l f f f f f f g s d  .U.tX+X+XrXiXiX).U Y W W X.X.X.X.X.X.X.X.W  . .X.X.X.X.&.X.X.X.X.X.W x l x f y f B W x u f f s s s s s f x W W W Q %.f.&.*.*.*.G.G.U.oXgXgXgXhX5X@XE.%.l u l X.f.&. . .O.I.I.I.I.I.E.|.|..X|.|.}.I.L.k.&.v.v.v.I.}.}.|.|.W.E.U.U.U.|.XX@X#XOXXXOX#X|.k. .&.&.&.&.f.f.f.f.",
"f.i.f.f.i.X.X.X.X.f.f.i.X.X.X.X.%.%.W.5XE.&.&.%.%.%.%.%.%.X.X.~ ~ X.X.X. . .X.%.&.&.*.*.*.*.*.*.:.>.J.K.J.J.J.J.).OX+X'.J.4.4.4.6.6.J.J.G.I.).I.I.*.+.+.&.OXhX$X+X+XXXK.K.U.U.|.|.|.|.|.|.W.|.|.U.).|.|.|.|.|.XXXXXXXXXXXXP.$.+.&.&.&.&.=.&.g.g.*.+.@.$.K.iXhXK.X.%.X.I l c I x X.f.l.k.&.f.f.f.&. . . . .&.&.&.&.l.l.k.k.k.k.&.k.k.k.k.k.k.k.k.| c U &.k.k.k.z.k.k.l.k.&. .I x I x x l l l l l W W Q Q Q  .~ ~ X.Q W c g f f g f s x W I x Q &.=.*.J.'.XXT.K.K.K.U.U.K.K.H.K.K.5.5.G.U.OX'.*.Y I K I Y *.G.U.XX)._.K._.K.6.5.K.J.J.J.K.K.U.K.J.I.G.l.G.l.@.+.@.+. . . .X.X.W d s x B x x c x f u y y s f f f f f x x f f f f s y I X.X.%.l.P.U.P.P.J.P.I.I.I.I.G.G.G.K.G.G.J.K.J.U.U.G.I.|.I.%.d K I I I B W W E W W ~ ~ ~ W W B c c x x l l l c c c W W | | | W c x z z z f f f s x *.XXtXtX+XiXoX$X&.l U  .x o.o.X.X.X.X.X. .Q  .X.X.X. .X.X.X.X.X.X.X.W x l x s y f ! ! B y a s s u y s x W B W W c W X.f.&.g.=.*.G.J.P.oXfXhXhXhX5X|.&.l 3 k W i.o.X.X. . .X.o.f.l.l.v.I.E.I.L.I.I.W.I.c.k.k.k.k.k.v.v.I.I.E.I.U.U.|.XX$X$XXX).U.|.#XXXl.&.&.&.f.f.f.f.f.f.",
"X.X.u.X.....X.f.f.u.X.X.o.i.X.X.%.E.W.g.%.%.%.X.X.X.~ ~ ~ ~ ~ ~ X.X.X.X. .X.%.&.&.&.l.l.*.&.*.G.>.6.J.J.J.4.4.4.J.6.J.J.J.J.J.6.6.K.J.6.4.G.J.U.I.I.I.J.I.).XX&X+X'.U.K.I.I.W.|.|.|.|.|.|.|.XXXX).XX@X#X@XXX|.|.XXXX#X@XI.&.#.:.*.*.*.*.g.&.&.*.*.&.&.&.:.4.$._ j.X.I x x x c I X.&.f.f.k.f.&.O.X. . . .&.&.&.&.l.f.&.&.f.&.&. .X.&.g.g.&.X.W U v U  .&.k.l.l.l.k.k.l.l.&.Y c I x x x x x x x c Q Q X.X.X.X.~ Q W X.X.E g s f s f g x W W I ~ &.=.*.G.J.U.'.T.K.U.K.K.H.K.H.H.H.K.H.K.U.K.=.T 0 0 I U K I *.U.).K.K.K././.K.5.K.J.J.P.).U.P.G.G.P.P.l.&.+.+.+. . . . . .X.Q l s s f x B x x x f s s s s f f x x x x x f f x f s 3  .&. .=.I.U.P.K.K.K.P.P.G.:.$.G.5.K.K.H.H.K.J.J.J.P.I.J.I.|.XXg.%.I I Q Q Q I W W W W W W W E E I B c x c W Q X.X.&.f.f.X.| W W W W B x f f k g 8 Q W.oXtXiXoXfXXX*. .I I W W o.f.o.X.X.X.X.Q  . . . . .X.X.X.X.X.X.X.X.X.I s f f f x B g f s s u u s s x B W W c x W X.f.f.&.*.*.*.*.*.J.XX$XhXhXhXfX*.8 s s ..X.X.o.X.X. . .X. .&.W W X.W f.X.X.&.f.c.L.E.E.E.v.k.k.f.f.k.l.g.k.l.I.XX#X$X@XU.J.J.J.I.XXW.&.f.&.f.f.f.f.%.%.",
"u.f.f.f.u.X.X.i.f.f.f.X.X.Q | X.v.E.L.%.Q X.%.~ %.X.X.~ ~ X.~ X.Q X.X.X. .X.X.%.&.&.*.l.*.*.:.G.J.J.J.J.6.4.6.J.6.6.6.J.J.K.6.6.J.6.J.4.>.4.J.I.J.K.|.|.|.).).'.'.U.P.U.U.I.I.|.|.|.XX|.|.|.XXXX).|.XX#X@XXXXXXX#XOXXXK.:.+.+.*.*.*.*.*.g.&.*.*.+.*.*.*.$.$.=.#.W I c x l l I Q X.&.&.f.&.&.O.O. .X.O.X.X.X.&.&.&.&.&.&.X. . . .&.&.o.X.| W W W  .&.&.:.l.l.:.;.k.k.l.k.O.U x I W Y W I I W W W Q Q Q X.X.X.~ Q Q X.~ I g s f f f g x W W W ~ %.=.*.G.J.P.U.U.H.U.K.K.K.H.H.H.H.K.K.H.-.+.T K K d K K l I =.G.G. ._ +.:.K.G.4.4.K.I.J.G.@.Y T Y *.=.=.+.+.+.+.+. . .X. .Q I l f f f f x k x x z s s l l x B B B c B B x f x f s 3  .&. .&.I.U.P.K.K.P.K.G.l.l.:.G.5.K.K.H.H.K.J.J.P.P.I.J.I.).XX#XI.%.I x I Q ~ W W E I I I E W E W W Q X.X.%.&.f.f.&.o.X.| W c W W W V x k f k l d %.@X$X+XtXiX$XL. .| Y I W X.o.f.o.X.X.X.X. . . . . . .X.X.X.X.X.X.X.X. .W l s a f f f f u y y u s s l c B c I I c W X.f.g.&.*.*.*.*.*.J.XX$XiXhXhX@XI < W X.d.X.X.|  . . . .W  .&. . . .s x x c W  .%.g.c.v.v.C.E.E.v.l.f.&.g.k.G.I.XX#X$X$XU.J.J.I.U.XX|.&.&.&.f.f.f.f.%.%.",
"f.f.d.d.f.i.X.X.X.X.f.X.| | u.h.L.c.%.Q Q X.X.Q Q Q Q Q Q Q ~ X.Q X.X.X. . . . . . .&.*.l.l.l.J.K.K.J.J.G.G.K.J.4.J.J.J.K.K.J.J.4.J.4.4.>.4.J.K.J.U.XXOXXX|.K.K.K.P.P.U.U.U.I.|.|.|.XX|.|.|.XXXX'.XXOX@XXXXXXX@X#XXXI.*.+.+.&.&.*.*.f.&.f.f.&.&.%.*.g.*.&.&.&.+.s d x c l l W X.&.&.&.&.&.O.O.X. .X.&.&.X. .X.&.X.X.&.X. .W  . .&.X.Q W I W  .&.k.k.l.l.l.:.&.&.;.k.l.k. .I x I  . . . . . . . .Q Q Q Q Q Q ~ ~ ~ X.Q c f s g g f x x E W W ~ %.&.*.F.1.G.J.K.G.K.K.H.K.G.G.5.5.K.K.K.-.T 0 0 d d d I  .g.g.%.Y Y Y  .:.I.K.G.G.G.G.*.+.K 9 d I +. .X. . .%.+.%. .X.X.Q x s f g f f f f k k x x l l c V W W W W B V B B f f f s s X.%. .&.I.U.P.K.P.P.J.:.*.l.G.K.K.K.H.H.K.H.K.K.P.K.J.I.I.U.|.$X@XU.g./ I I I Q W I I K I I I  . .%.g.l.l.l.l.j.f.&.X.Q W I c W W W W c l k s c I l.$XtX+XtXfXI.X.I | | W Q f.X.o.X.X.X.X.X. .X.X. . . . .X.X. .X.X.X.X. .W I s a s f f u y y 3 s l c c c c c c I I Q %.f.g.&.&.*.*.*.*.G.U.@XiXhXvX$XI s %.X.| Q W W  . . . .x I Q I | X.x I c c I W W Q X.X.f.b.v.E.E.c.f.&.f.g.k.L.W.XX#X#XU.I.I.U.W.@X|.g.&.&.f.f.f.&.&.&.",
"i.f.i.u.i.X.X.u.X.u.f.X.X.X.h.C.f.X.Q Q X.X.Q W Q Q Q Q Q X.~ X.X.X. . .Q Q Q Q  . .+.*.l.G.G.G.>.4.G.G.G.J.K.J.>.4.G.J.K.K.K.J.G.J.J.4.4.G.J.K.U.).XXXX).U.U.).K.K.U.U.W.U.|.|.|.|.|.|.|.).XXOXXXOXOXXXXX|.XXXX@X|.G.+. .&.*.&.&.&.&.&.&.&.&.&.g.*.&.&.g.g.+.I s d x x l l W X.f.&.&.&.O.O.X.X. .&.&.O. . .X.&. . .X.X. . .X.&.Q Q I I W X.f.l.l.k.k.k.:.:.;.&.;.l.l.&. .I I Y  . . . . . . . .Q Q Q Q Q Q Q ~ ~ Q W l f f g g g x x E W Q ~ X.&.g.*.*.*.G.J.G.G.G.5.4.4.4.4.4.4.H.K.J.*.@.+.%.Q Q %.L.W.l. .I +.+.&.l.G.G.l.*.L.G.l.%.U K U %.%.%.%.%.%.X.~ ~ X.X. .E s a f g f f f k k x x x c c V W W W W W W W W B f f f f s X.%. .*.K.U.P.K.K.J.G.:.:.G.J.J.H.H.H.H.K.H.K.K.P.K.P.I.I.I.U.XX@X@XXXJ.@.Y K U Y Y Q Q  .%.%.*.*.l.L.I.L.l.&.&.%.X. .Q W W W I W W W W c l s c  .I.$XfXiXrXoX&.W c W Q Q X.f.X.X.X.X.X.X.X.X.X.X. . . . .X.X. .X.X.X.X. . .Q f f f f f u y s u s c W c c c c x I W  .&.f.g.&.&.*.*.*.=.l.I.|.fXgXjXfX=.I f.X.W Q X.X. .Y I v I I c x X.f.X.X.W W W I c c c c W | X.&.f.k.f.k.&.f.&.k.l.I.|.|.U.P.U.|.|.@X|.l.&.&.&.&.f.&.&.&.",
"f.i.X.X.X.X.f.f.g.f.u.X.| X.X.i.Q W W Q X.Q Q Q Q Q  .X.X.X.X.X.X.X.Q W W W  . .%. . .&.l.l.l.G.>.G.J.J.J.J.G.l.:.:.G.J.J.J.J.J.K.K.K.K.G.K.P.U.U.).|.).U.U.U.|.U.U.U.K.U.U.|.|.|.|.|.|.|.XXOXOXXXXXXX'.!.!.|.XXXX|.l.+. .&.g.&.&.&.*.*.*.*.&.&.g.*.&.&.g.&.Q d l l l l l W | o.f.f.o.&.&.X.X.X.&.X. . . .X.&.&. . . . .X.X.X.X.I I W Q X.f.l.c.k.k.;.:.;.:.>.:.k.l.k.&.| I I W | | |  . . . .| X.Q Q Q Q Q ~ Q ~ W x f f f f l g l x E W Q ~ ~ &.g.*.*.*.G.J.G.4.4.4.4.4.4.4.4.K.G.G.G.P.W.W.W.P.j.j.c.c.%.~ ~ j.l.L.L.G.l.l.l.I.L.c.g.%.~ X.%.%.%.%.X.~ Q W W ~ Q W x s s f g g x x x x x x c W W W W W W W W W W W B l s f f d X.X. .g.U.U.P.U.K.4.4.G.G.J.J.J.J.K.K.K.K.K.K.K.K.P.P.P.P.P.P.T.XXXXXXU.J.g.=.Y +.@.*.l.G.P.I.G.G.J.I.I.l.&.%. . .X.~ ~ Q Q Q I W W W W c l l x g.U.OXfXgX].4.W W V V W X.&.o.X.X.X.X.X.X.X.X.X.X. . . . .X.X.Q  .X.X.X. . .X.x f f f s u s s k c I I c x x c x I  .%.&.g.*.*.&.*.*.*.*.g.L.K.hXiXiX&X&.v X.X.Q X.X.W x l v c &.&.X.&.c.f.Q W E c c c c B B c x x c I Q X.f.l.&.&.&.f.k.l.L.I.U.U.XXXX|.@X|.l.&.f.f.f.i.o.i.i.",
"f.i.X.X.i.f.f.f.f.X.Q W W W W W Q W W Q W W Q  .W Q Q  . . . . .X. .W W W |  . .%. .+.&.:.l.l.l.J.J.J.J.J.G.:.$.&.:.:.G.J.J.J.J.G.K.J.K.J.K.K.).J.K.|.|.U.U.U.U.U.U.U.I.I.U.|.|.|.|.|.XXXXXXOXOX'.'.XXXXXXXXXX@X@X|.G.&.&.&.&.X.&.&.&.*.*.*.*.*.=.*.g.&. .Q I l l l s s l Q X.&.o.o.o.o.&.&.X.X.&.X. . .X.&.O.X.X. . . . . .W I I W W X.&.f.f.f.k.k.:.;.;.:.:.l.k.l.k. .Y Y W  .| |  . . . .| | Q Q Q Q Q Q Q Q Q c s s f f f l g l x I W Q Q W =.g.g.*.*.G.G.G.G.4.5.5.4.4.4.-.K.4.*.G.P.P.g.%.~ W Q ~ Q I I Q X.f.g.f.%.%.d.g.%. .Q Q Q W W Q Q W W W W E E E W B g f f g g x x B B W c c c c X. .Q Q Q Q ~ | ~ W W B x s f f l X.X. .l.U.U.P.U.H.4.4.J.J.I.J.I.J.K.K.K.K.K.K.P.K.P.P.P.J.J.P.U.U.U.'.XXXXU.U.J.J.J.P.I.P.P.P.G.J.J.J.l.&.+. . . .X.X.~ Q W W W W W W W W x l I G.XXoXfXiXK.Y I W W V W o.f.X.X.X.X.X.Q X.X.X.X.X.X.X. . . . . .Q | X.X.X.X.X.B f u u s s s f c V I c x x x I I W  .&.&.*.&.&.&.*.g.*.*.*.G.I.oXiXgXhXG.0 x W x l k 9 s U ;.I.|.I.&.l.v.X.W I W W W W W W W W W W W W  .X.X.&.f.f.f.f.&.k.k.l.U.U.XXXXW.XX|.l.&.&.f.f.o.i.i.i.",
"f.i.i.f.f.i.X.X.W W B c W W W V Q Q W W W Q Q Q Q Q  .X. . . . . .Q W W  . . . . . .+.&.:.:.:.l.G.G.G.G.G.l.*.&.&.&.:.G.J.J.J.G.G.J.J.J.G.J.K.).P.K.|.|.U.U.W.U.U.U.U.P.U.|.|.|.|.|.XXXX@XXX'.'.'.XXXXOXXXOXXX@XXXU.G.l.f.&.%.%.&.&.&.*.&.*.*.&.&.&.f.X.Q I K x s k k s l Q X.o.o.o.O.O.&.X.X.X.X.X. .X.&.&. .|  . . . .W U c x Q Q Q X.&.f.f.&.k.k.:.;.:.:.:.:.l.k.&. .Y |  .| | Q  . . . .Q Q Q Q Q Q Q Q Q W W g s s f f f g s g l x W Q Q I ~ %.g.g.F.G.G.G.G.4.4.5.4.4.-.-.*.4.G.G.g./ K 9 8 a d d g d d d a d d s a d g g d s 9 d d d g g g g g g g g g g g f f f g B B B B ^ V V W W W | X.|  .X.X.X.......~ V V c l f l c X.X. .G.U.U.K.K.H.G.G.J.P.I.J.I.I.P.K.K.K.P.P.P.P.J.J.H.H.H.H.G.H.K.T.'.'.'.U.XX'.U.P.J.G.G.J.G.J.J.G.=.+. . . .X.X.~ ~ ! ! W W W W W W W c l Q U.$XiXiXT.] T W V W W | X.o.o.X.X.X.Q Q X.X.X.X. .X.X.X. . .|  .W W | X.X.X.X.~ x u u s f x x W V c x x c c I I Q %.&.&.&.&.&.&.*.g.*.&.*.G.J.K.iXgXhX$X&. .&.Q W W W &.I.#X5X4XE.X.c.I.W W Q ~ ~ ~ ~ ~ ~ ~ X. .X.X.X.X.X.X.X.&.f.f.f.&.&.k.l.J.P.U.U.U.|.|.L.&.&.f.f.i.i.i.i.",
"X.o.i.i.f.X.Q W V V V W W W W V I W W W Q X. .I %.%.&.f.&.&.%.%.W W W Q  .X. . . . .+.&.*.:.l.G.:.*.&.*.:.:.*.&.#.&.:.G.J.J.J.G.G.G.J.G.G.G.P.U.U.).U.U.I.U.|.|.U.).|.W.|.@X@X|.|.XXXX@XXX'.).).OX@X@X@X@XOXXXXXXXI.l.l.l.&.=.&.&.&.&.*.&.*.*.f.g.%.Q I W W E d s k l s k W | X.X.X.X.O.o.X.X.X.X.X.X.&.f.O. .U W |  . .W c x x X.X. .X.&.f.j.g.f.&.&.&.&.*.:.k.l.k.X.Y I W  .W W W Q  . .Q Q Q Q Q Q ~ Q Q W W E s y s s s f g f g l l W ~ W x Q %.g.g.g.F.G.G.4.4.4.4.4.:.:.*.:.G.G.*.Q I d d I x d a 8 a a a a s s a a s s a s a a a a a a s s s s s s s s d a s f f g B B B W W W V I W  .X.W Q | X.X.X.X...X.~ V V V x l l c  .X.%.G.).U.K.H.K.K.K.K.J.P.K.I.I.P.K.K.K.P.P.P.P.J.J.J.J.H.H.K.K.H.G.G.H.U.'.U.K.G.*.*.G.J.K.J.K.K.G.&._ Y  . .X. .~ W W ! W W W W W W W I x X.|.fXhX$X$.K Y Q V V | X.X.X.f.X.%.X.Q Q X.X.X. . .X.X.X.X.| W  .W I Q X.X.X.X.X.B u u f x B W V c x x c I I I U  .&.&.&.&.&.&.&.*.g.g.*.*.G.J.H.fXiX&XhX5X#X5X@X.X.X#X5X5X5X#X#XE.f..X@XW x I I W E W W ~ X.X.X. .X. .X.%.&.&.&.&.&.&.&.&.k.l.l.G.U.U.P.W.|.L.%.%.f.f.o.o.i.o.",
"o.o.i.o.| W x k V W Q W V B B W I U W Y U W  .X.L.l.j.j.f.f.X.Q Q U W X.%. . . . . .#.&.&.&.:.:.&.&.:.:.:.*.&.:.k.:.k.l.G.J.G.l.G.G.G.G.J.I.K.U.U.).|.|.).U.).|.|.U.I.|.XX|.|.|.|.XXXXXX|.|.XXXX#XXXXXXX#XXXXXXXXXI.l.l.G.l.=.%.*.&.&.&.*.g.f.f.%.X.W W W W E g g k s f l c W Q W | X.o.X.| X.X.| X.f.o.X.X.Q W X.| W c x c W Q  .X.X.X.X.f.f.g.f.f.f.&.&.k.k.k.k.&. . .Q W Q  . . . .X.X.X.~ Q W Q Q Q W I x x s s s s s s s s k k x V W B B B c X.g.c.l.k.k.G.*.1.1.*.*.*.g.l.G.g.%.Q x f f g g g g g f s s f g g h s s a a a a h h h s s a s d s s s s d d d d g d s s x W Q Q Q Q |  . .X.o.X.X.X.X.X.X.X.X.X.X.Q V x x f s I  . .+.l.U.K.J.P.J.K.K.K.G.K.K.J.J.J.J.J.G.G.J.I.J.G.G.P.I.P.J.P.K.H.J.K.P.P.K.G.J.J.G.G.G.4.$.l.I.L.#.Y  .%. . .X. .Q Q W W W Q W W Q Q W I c f.5XvXfXG. .U U I W W W ~ X.f.d.%.&.&.X.Q  .X.X.Q X.X.X.X.Q Q X.Q W W W  .X.X.X.X.W x f x c c x c c c c x I I I Q %.&.&.&.&.&.&.&.&.*.*.*.l.G.G.K.oXhXhXhX&X$X$XfXfXfXfX&X&X&XiXhXJ.*.|.#XG. .l Q W W Q ~ Q ~ X. . . . .%. . . .&.&.&.&.&.&.&.&.&.g.l.l.g.l.L.E.&.&.%.o.&.f.f.&.",
"i.X.| V V V c c x B V W W W B c U I I I Q %.f.l.L.l.j.f.f.%. .Q Q W Q X.%. . . . . .&.&.&.&.:.:.&.;.:.k.:.:.:.:.k.l.l.G.G.J.I.I.G.G.G.G.J.I.I.U.U.).|.|.).U.).|.|.U.U.|.XX|.|.|.XXXXXX|.|.|.XXXX#XXXXX#X#XXXXXXX|.I.l.l.G.l.*.&.*.&.&.&.&.g.f.f.Q Q W W Q Q W E x x l g l x x c Q  .X.X.X.| X.X.X.o.X.| X.X.%.X.W c x x c W W Q Q W Q  .X.X.&.&.f.f.f.&.f.&.f.f.X. .W W W Y W Q W W W Q Q Q Q W Q  .X. .W c l l s l I W W I l d k s s k z z x x x W X.f.f.k.k.l.G.G.J.J.J.G.g.g.c.d.W g s f g B g g g g g g g g g g g g g g g g h h h s f g g s s s d d l K U U W Q Q I W Q X.X.Q  .X.X.X.X.X.X.X.X.X.X.X.X.X.X.X. .W c x x f f I  . . .l.I.I.J.P.K.K.K.K.G.H.K.H.K.K.J.J.K.G.J.$.$.*.G.P.P.U.P.P.K.J.G.G.G.J.J.G.K.J.G.G.G.4.*.l.l.k. . . .X. . . . . .W W W W W W W Q W I I W l.@X5X|.&.Y I Y Q Q W W X.%.%.X.X.&.&.X.W Q  .X.~ X.X.X. .Q Q Q Q W W W  .X.X.X.X.W x l x c c x I c x x x I I W  .%.&.&.&.&.&.&.&.&.*.*.*.l.G.G.J.OXfXhXhXfXiXiX&XiXiXiXiXiXiXiX&XJ.G.$XhX$X|.U.%. .Q ~ ~ Q ~ X. . .+.+.%.%.%.%.&.&.&.&.O.O.O.&.&.&.&.&.&.f.c.I.f.&.&.%.&.%.%.X.",
"X...V x z x V V W c l l V W W W I I I Y &.l.I.I.c.l.j.f.%.X.Q Q Q W  .X.X. . . . . .&.*.:.:.&.&.&.:.:.l.:.:.:.:.:.k.l.k.&.&.k.l.l.l.G.G.J.I.I.K.U.|.|.|.).U.).|.W.|.|.XXXX|.|.XX#XXX|.|.|.|.XXXXXXXXXX@XXXXXXXXX|.J.l.l.G.G.*.*.*.&.&.&.&.&.&.&.Q Q W W I I I E g g g g g g g g c E W W W W Q X.X.X.X.V x l l l W W W W X.X.X.X.X. .X. .X.X.X. . . . . . . . . . . .Q  . . .Q  .W W W Q Q Q Q W W U W I x l l l Q  .&.f.f.%. .W c f s s f f f k s k c c W  . .&.+.+.&.g.G.L.g.f.~ E s a s f g x x x x x B B B B g g f f f f f f g h s s g g x g I I I U Q Q  . .X.%.%.%.X.%.X. .X.%.&.f.&.&.X.X.X.X.X.X.X.X.X.X.X.Q B c x x k f W  . . .:.I.I.J.P.J.K.P.K.K.G.K.K.K.G.G.G.G.G.:.@.#.&.*.l.l.l.*.:.l.:.*.$.*.l.G.J.I.J.G.l.G.l.*.k.&. . . . . . .X. . . .Q W W W W W Q W I c W X.L.E.I.&.W U Y  .X.Q W W X.f.%.Q X.%.&.X.W Q  .X.X.X.X.X. .Q Q Q Q Q W W Q X.X.Q ~ W x x c E c x I c x x x I W  . .&.&.&.&.f.*.&.&.&.*.*.*.g.G.G.G.'.iXhXhXfXiXiX$XiXiXiXiXfXhXgX$XK.).5X5X$X$X5Xl.&.~ Q ~ ~ ~ X.%.%.+.+.+.%.%.%.&.&.&.&.O.O.&.&.&.f.&.&.X.&.l.v.f.f.X.X.%.f.f.&.",
"V V V c x x x x W V c c V V W I l I  .&.l.I.I.L.l.l.f.&.X.Q W W W Q  .X.X. . . . . .&.:.k.*.&.&.;.:.k.l.l.l.l.l.k.:.&.#. . . .#.l.l.G.J.I.I.I.I.U.).|.|.).U.).).U.|.XX#X#XXXXXXXXX|.|.|.|.|.|.|.|.XXXXXX|.|.|.XXU.G.l.G.G.G.l.l.*.*.&.&.&.&.&.%.Q Q Q W I I W ~ W Q W E E I I x g d g s s l x I c E E E E E E E l x I W Q Q W W  . .Q W Q Y Y Y  . .Y _ _ _  . . ._ Y  .+. .Y Q Q Y U U U I I I I v l l l I Q  .g.k.l.k.g.g.g.f.X.c s s s f f f s s s s k l l l l l I Q X.X. .W s s s s l x g g x x x x x B B B g g g f f f a a h g g g I ^ W W ~ X. .+.+.+.+.&.%.g.g.&. . .X.&.f.k.l.k.f.&.O.X.o.o.X.X.X.X.X.X.| W x x B x x l  .#.+.+.l.I.I.I.J.G.G.K.K.K.G.K.J.K.G.K.J.G.:.=.+.+.+.@.+.+. ._  .+.+.+.+.+.$.l.J.J.J.l.:.l.*.*.&. .Y  . . . . .X. . . .| Q Q Q Q W Q W I I W X.f.f.&. .I I Y  .Q W W Q X.f.d.X.Q %.f.%. . . .X.X.X.X.X.Q Q Q Q Q Q W W Q  .Q Q W E c c E E c x x x x I I W  .X. .&.&.&.&.f.*.*.&.&.*.*.*.g.l.G.G.U.$XhXhXhXfXfXfXfXgXhXgXgXgXvX$X).|.#X|.I.|.#XW.g.X.Q ~ X.X.%.&.%.%.+. . .X. .&.&.&.&.X. .X.X.&.f.f.&.&.&.l.c.g.f.f.%.%.X.X.X.",
"x x c c c c c c x V Q Q W c l l I  .k.L.I.I.L.c.f.f.&.X.Q W W W W  . . . . . . . . .&.&.:.*.&.&.:.k.l.l.l.l.l.l.:.&.O._ _ _ _  .l.G.G.J.I.I.I.K.I.U.|.).).U.).).W.XX#X$X#X#X#X#X|.|.|.|.XXXX|.U.XXXX#XXXXX|.|.XXJ.G.l.G.G.l.l.G.*.*.*.&.&.&.&.%.Q Q Q U Q %.j.P.L.L.L.F.g.%./ ~ Q Q I K x K K I g g x x J g K I g I Q ~ ~ ~ ~ %.Y Y Y Y Y Y Y _ _ _ Y U Y Y Y _ +. .+.+.+. .Y Y  . .Q Y Y U U I Q  .Q Y +.@.g.G.l.l.g.*.*.*.g.l.&.Q x s d d s s k k k k k k k s l s s l x x f s a s x B c x x x x x x x x x x x B B B x g f f s s g ^ E E W ~  . . .+.=.&.*.*.*.*.l.l.&. . .&.:.l.l.l.k.&.&.O.O.o.o.X.X.X.X.X.X.Q B x c B x x x  .+.+.+.l.I.I.I.G.l.:.G.K.K.J.K.J.J.J.P.K.J.*.+. . . . . . .+.+.U _ _ _ Y  .+.&.G.J.J.l.l.k.*.&.O. .|  . .|  .X.X. . . .| Q Q Q Q W W Q Q W W W c W Q | W I I W Q ~ ~ ~ X.d.%.X.W X.f.f.X.X.X. .X.X.X.Q Q Q Q W Q Q W W Q Q Q W E B c c I I c x l x I W  .X.X.X. .&.&.&.&.f.*.&.&.&.*.*.*.l.l.G.J.K.$XhXhXhXfXhXhXhXhXhXgXgXgXhXXXI.).|.I.G.|.#XW.l.%.~  .X.X.%.%.%.%.%.%.%.X.%.f.&.&.X.X. . . .o.&.f.f.f.&.f.f.c.g.f.X.X.Q W c ",
"V c x x x c I W W W W c c c W X.f.l.L.I.L.l.c.c.&.%.X.Q W W W W W X.X. . . . . . . .&.&.&.&.&.&.:.k.l.l.l.l.k.l.&.O._ _ _  . . .G.G.J.J.I.I.U.K.I.U.).).).).).|.XX#X$X$X$X$X#XXXU.|.|.XXXXXX|.U.@X#X#X@XXXXXXX|.G.G.G.G.G.l.l.G.l.g.*.&.&.&.&.&. .Q U U  .g.P.W.!.!.!.!.W.P.P.P.P.P.G.g.*.=.=.%.%.~ E I J d J I I Q %.=.%.%.=.g.G.G.G.J.J.P.K.K.J.K.K.4.4.4.4.4.K.4.4.G.G.:.*.*.G.G.l.*.*.*.$.=.*.*.l.G.l.l.l.:.*.*.*.*.*.*.*.*.G.&.Q W W I c c x x x x x x k k k k s f f l f s f x x x f s g x x x c x x c x x E E B B x f f s g W X.Q W Q %.+.*.*.g.l.l.l.l.l.l.l.*.+. .+.:.l.l.l.k.&.#. . .O.o.o.X.X.X.X.X.X.W c x B c x x c  .+. .+.l.J.J.I.G.*.$.:.G.J.K.P.J.J.J.P.P.G.*.@.#.&.@.+.+. .+.+._  . ._ Y Y  . .k.l.J.l.l.l.&.#. . . .O. .|  .O. . . .| Q Q Q Q Q W W Q Q W c x s l W o.&. .Q  .X.X.~ ~ Q X.X.X.W X.f.%.X.X.X.Q X.X.Q Q Q Q Q Q  .Q W Q Q Q W I c c c c c c c x x I W  .X.X.X.X.X.%.&.&.&.f.*.&.*.*.*.*.*.*.l.G.J.K.OXfXhXhXhXhXhXhXhXfXfXfXiX&XK.J.I.U.G.I.XX#XI.g.%.X.X.X.X.%.X.%.%.%.%.f.f.f.f.f.f.&.X.X. . .| X.X.X.X.X.X.X.X.X.Q W W W B c ",
"c c c x x c I W W I x l I X.l.I.I.L.L.L.l.k.l.g.%. .Q W W W W W W X.%.X. . . .Q X.X.&.&.&.&.&.&.k.l.l.l.l.k.k.k.#.#. . . .O.&.&.I.I.I.I.I.I.U.U.I.U.|.|.|.|.XXXX$X5X5X$X$X$X@X|.U.XX@X#X#XXXXXXX#X#X#XXXXXXX|.U.l.l.G.G.G.l.l.G.l.l.*.&.&.&.&.&.@. .U Y *.P.U.U.T.T.!.oXoXoX%X%X%X%XoX@XXXXXT.U.P.H.G.J.P.P.U.XX%X$XfXfXfXfXfXhXiXiXfXiXiXfXfXhXgXgXgXgXiX*X+X{.`.K.H.K.K.K.J.J.U.P.P.K.P.P.P.K.4.G.J.G.4.*.$.=.*.*.*.4.G.4.*.*.G.$.+.+. .W W W V V c c z z z z z z z z z z B B k k s s d d x c I I I I I c c c c c B B x l f f E ~ %.Q Q %.*.*.G.J.J.J.J.J.G.l.J.:.+._ +.:.z.l.l.l.:.&.#. . . .O.O.X.X.X.X.| | V x x B l s f I  . . .+.G.I.G.I.J.:.&.$.l.G.J.P.J.J.I.I.J.G.l.:.l.l.:.$.+. . . . . . ._ | |  . .&.k.l.l.l.k.&. . . . . . . . .X. . . .Q Q Q Q Q Q Q Q ~ Q c l l l l W f.j.&.X.X.X.X.~ W W X.X.Q Q X.X.X.X.X.X. .X.X.Q Q Q Q Q Q X.Q Q Q Q Q W c c c c c I I c c W W  .X.X.X.X.X.X.%.%.%.&.f.*.&.*.*.*.*.*.*.l.l.J.G.).iXhXhXhXvXhXhXiXiXiXiXiX&X).I.I.I.G.I.W.I.l.&.%. .X.X.X.%.X.%.%.%.%.%.&.&.%.%.X.X.X.Q Q  .W W W W W W V V B B B B B V V V ",
"x c c c c c c x l l c  .f.L.E.E.I.L.l.l.l.k.&.%.%. .I I W W W W W X.%.X. . . .Q X.%.&.&.&.&.&.g.k.l.l.l.k.k.:.:.:.l.k.;.&.&.l.J.K.I.I.I.I.I.U.U.I.).|.XX|.XXXX#XfXfXfX$X$X$XXXU.|.XX#X#X#XXX#X$X#X#XXX|.|.XXU.J.l.l.G.G.G.*.l.G.G.l.g.&.&.&.=.=.@.Y T @.P.@X$XoXrXrXrXrXrXrXrXrX+XrXtXtXiXiXtXtXtXtXtXfXtXtXtXtXfXfXfXfXfXfXfXfXhXhXfXiXiXiXiXiX*XiXiXiX*X'.K.3.5.4.*.-.-.*.*.4.G.G.*.:.G.G.G.G.G.G.:.$.@.@.*.4.*.*.*.=.=.*.*.4.@.+.+. .Q U I W | | Q V c z x c N N N z f f f f l s s l I W W W U I I W I I I c B W W W W V B x W ~ ~ Y  .*.G.G.$.-.:.G.J.J.J.J.).:._ Y $.I.I.l.l.l.l.:.&.#.O.O.X.X.X.X.X.X.| ~ x x x B k s s I  .+. .&.J.I.J.K.I.:.#.&.*.l.G.I.J.J.J.G.G.G.G.J.l.l.l.:.&. . ._  .Y Y Y |  . .|  .&.k.l.k.&. .Y  . . . . . .X. . . . .Q Q Q Q Q ~ ~ X.~ W g s l x s l X.f.X.Q ~ d.~ ^ E Q X.X.~ X.X.Q W Q X.X. .X.Q Q Q Q  .Q Q X.Q Q Q Q W W c c c c I I I I I X.X.X.X.X.X.X.X.X.%.%.X.&.f.*.&.*.*.*.*.*.*.l.l.G.G.U.&XhXjXjXvXvXjXhXiXiXiXiX&XXXI.L.I.I.I.I.l.&.%.%.%.X.~ %.%.%.%.%.%.%.X.X. .Q Q W W W c I W I c c c c x x x V V B B B B B x ",
"W c l l x I I c x Q &.l.L.I.I.L.L.L.l.&.&.k.&. .x I W W Q Q W W Q X.X.X.X. . .Q  .X.%.X. . .&.g.k.l.k.k.:.*.*.k.:.l.z.J.J.J.J.J.U.K.I.J.J.I.K.U.I.|.OXXXXXXX#X#X5X5XfX5X#X|.U.U.|.XX#X#XXXXXXXXX|.@XXX|.|.XXU.G.G.G.l.l.l.l.G.G.L.G.*.=.=.=.=.#.$.R +.G.oXoXoX+XaXaXpXpXpXaXyXyXrXyXyXaXaXaXiXrXaXtXiXiXaXaXtXrXrXrXtXiXiXaXpXpXiXiXiXiX$XoXY.H.5.3.3.5.3.$.<.4.[ -.-.@.@.4.*.+.Y T T *.K.4.*.$.4.4.4.4.1.*.*.*.*.*.*.1.*.*.*.*.@.' Y Y  . . .W Q W Q W W V x k z N N N f u f B s d W %.g.l.l.l.L.L.L.l.&.X.W c I W Q Q ! V x f W Y Q +.*.l.>.:.:.>.6.K.J.G.J.I.:.' _ -.J.G.>.l.L.z.:.&.O. . . . .O.o.o.X.X.~ W f x x k s s x W %. .+.l.I.I.I.I.G.l.*.&.&.&.l.G.l.G.G.G.I.I.I.G.G.G.G.&.#.&.+.Y  . . . . . .| Y  .&.k.L.l.&. ._  . . . . . . . .| | | | | Q Q Q | Q W c x l l x l x c B W W ~ | ..~ W E B E E W Q Q Q Q Q Q Q X.Q Q Q Q Q Q Q Q Q Q Q Q W I c c I I I c x I  .X.X.X.X.X.X.X.X.&.%.X.X.X.X.&.&.*.&.*.g.g.*.l.l.G.J.G.P.oXhXvXvXhXhXhXhXiX$X&X&X&X#XU.l.l.G.G.l.l.%.&.&.f.&.&.%.%.%.%.%.%.%.X. .Q W W I I I I c c c x x x x x V V B B x B B V V W ",
"s I X.X.I l l l f.c.I.I.I.I.I.L.L.l.k.&.&.&.X.W I I W Q Q W W W X.%.%.X.X. . .X.X.X.X. . . .&.k.l.l.l.k.:.:.:.k.:.k.l.l.z.J.J.J.U.U.I.I.I.I.U.U.K.|.XXXXXX#X&X5X5X5X5X$X@X|.U.U.XXXX|.XXXX#X$XfXXX@XXXU.U.|.I.l.G.G.l.l.l.l.G.G.G.l.*.=.=.=.=.$.=.@.G.OXtXtXiXpXsXsXsXsXsXsXsXsXsXpXpXyXuXyXrXrXrXrXrXrXrXrXrX+XrXuXiXaXpXaXiXiX+XoX'.H.4.$.$.$.3.$.$.3.3.$.@.$.[ $.-.$.*.*.=.Y K 0 K @.G.K.4.*.4.4.1.1.1.*.*.*.1.1.1.1.1.*.*.*.*.@.+._  .Q W W W W W  .X.| W c S N f z z f s s W Q %.g.G.G.G.G.l.l.G.l.k.f.%. .W W Q | | W B k U Y  .&.l.4.>.:.-.6.6.4.4.K.J.:.+._ @.4.J.J.z.J.J.l.;.&.#.#.#.&.k.k.f.f.X.Q W B x x z f s s c W  . .&.G.I.I.I.I.l.*.&.&.&.&.k.l.G.I.I.G.G.L.G.l.l.l.*. . .$.:.&. . .| | Y |  . .k.k.l.l.k.O. . . . . . . . . . . . . .| | | Q Q X.| W x k k x x l l l c B B W W W E B B x B c E W W Q Q Q Q Q Q Q Q Q Q Q Q Q Q Q Q Q W W I c c c c c I W Q X.X.X.X.X.X.X.X.X.&.%.X.X.X.X.%.&.&.&.*.g.g.*.l.l.G.J.G.K.OXfXvXjXhXhXhXiXiX+X&XiX&XXXI.*.*.l.G.L.L.l.l.g.&.%.%.%.%.%.%.X.~ Q Q W W W W W W W I I I c c c x x c V V B V B V B B B B ",
"Q I d s d W &.l.L.I.I.I.I.I.I.I.L.k.&.&.&.&.W I I U Q Q Q W W W X.X.X.X.X.Q  .X.X.X.X. . . .&.g.l.l.l.k.k.k.k.k.:.k.l.l.l.J.J.I.U.U.I.I.I.I.U.).U.|.OXXXOX$X5XfX5X$X$X@XXX!.U.U.XXXXW.XXXX@X@X@XU.XX@XXXXXXXU.l.G.G.G.G.l.l.l.G.l.g.*.=.=.=.=.*.+.G.oXiXiXiXpXjXsXsXsXsXsXsXsXsXzXzXjXsXsXaXaXaXrXrXrXuXuXuXuXuXuXuXuXuXrX[.`.Y.H.G.*.@.+.+.@.$.$.@.@.-.4.$.@.[ ' [ $.:.*.=.Y K 0 9 9 K &.J.K.4.4.4.:.:.*.*.*.4.*.*.-.-.*.*.*.*.4.-.#.+. .Q W Y W W W  .X.X.X.X.~ V z k s s l I g.l.l.G.G.G.G.4.*.l.G.G.G.L.l.f.X. .Q Q X.~ V l I Q %.:.G.>.-.-.>.5.6.:.:.J.G.#.Y +.:.J.I.J.J.J.k.&.&.O.&.&.k.k.z.l.k.&.X.W B x B x f s s l I  . .+.*.J.I.I.I.I.&.&.&.&.&.k.k.l.l.l.&.&. . . . .k.k.&. .#.:.J.J.&. . .Y Y  .+.&.L.G.l.l.&. ._  . . . . . . . . . . . . . . . .Q X.Q V l f f k x x x x B B B B B x B x x x x x B c W W ~ Q Q Q Q Q Q Q Q Q Q Q Q Q W W W I c c c c x x I  .X.X.X.X.X.X.X.O.O.O.&.%.%.X.X.X.%.&.&.&.g.g.g.*.l.l.G.G.G.J.'.iXjXjXjXhXhXiX+X+XiXiX&X5X|.L.L.I.U.I.L.*.&.%. . . . . .~ ~ Q Q Q Q Q Q  . .X.X.X. . . .W W W c c c x x c V W W W W W W ",
"x l x Q f.v.I.I.G.G.G.G.G.I.K.P.G.&.&.&.&. .I I U W  . .Q W W W  .X.X.X.Q Q Q  .X.X. . . . .%.&.g.l.k.k.*.g.k.k.:.k.l.l.z.J.J.).U.I.I.J.I.I.U.U.).XX#X#X#X&X5X5X5X$XXXW.W.W.U.U.W.W.XX@X@XXXP.g.&.l.I.U.|.|.G.&.l.l.l.l.l.l.l.l.g.g.*.*.=.#.@.@.$.T.iXiXiXaXgXjXzXmXzXzXzXzXzXzXsXsXzXzXzXjXpXaXpXaXiXiXiXuXrX+X{.{.'.`.K.5.4.<.$.$.=.*.*.*.:.4.*.@.@.*.4.$.' ` ` ` #.:.*.Q d s d d 9 9 U *.G.G.:.4.:.*.*.*.*.*.*.*.-.-.*.*.*.$.$.$.#.+. . . . .W W W  .X.O.&.f.&.f.X.W s d  .l.I.P.J.G.G.4.4.4.4.G.G.G.G.I.G.l.%.X.Q Q X.| W c x Q *.l.G.>.>.>.>.6.>.:.l.G.*. ._ $.J.J.J.J.J.l.&.&. . .&.k.l.v.l.l.f.o.X.W B x B f f s s l W X. .#.l.I.I.G.G.G.:.k.k.k.l.l.l.l.c.l.&. . . . .Y l.l.l.k.l.z.l.k.*.&.+. .+.&.g.l.U.L.G.l.*. . . . . . . . . . . . . . . . . . . .Q Q W c x z k k x x B B B B B B g x x x x c c c x c B W W Q Q Q Q Q Q Q Q Q Q Q Q W W I c c c c c c I Q X.X.X.X.X.X.X.X.O.O.O.&.%.%.%.X.X.X.%.%.&.*.g.g.*.*.l.l.G.G.G.U.$XhXjXjXhXfXiX+X+XiXiXiX#XU.l.l.G.l.&. . . . . .Q Q Q Q Q Q Q  .%.%.%.&.%.&.&.&.f.&.&.X.X.X. .| Q W I c c c c V V W W W ",
"d Q c.E.E.L.l.c.I.P.U.I.I.I.J.G.l.&.&.&.%.U x I U Q  . .W W W  .X.X.X.X.X.Q Q Q X.X. . . . .X.X.f.g.g.g.&.&.*.k.:.l.z.z.J.J.J.).I.J.J.G.J.I.I.U.|.OX$X&X5XfX5X5X$X@XW.U.U.U.U.U.P.P.U.@X$X@XP.g.&.*.G.I.U.U.G.*.l.l.l.l.l.l.l.l.*.l.l.*.=.@.@.@.K.+XpXiXrXaXjXjXsXsXsXmXzXzXzXzXzXzXcXcXzXgXpXiX$X+XOX`.K.H.5.4.*.*.*.*.*.-.4.:.*.*.*.*.*.$.&.#.$.#.#.$.*.@.` L P ` #.l.*.W d s s g x s K  .:.:.:.:.:.:.*.$.$.$.*.*.*.*.:.*.*.-.@.@.#.+. . . .&.Q W U U Q  .f.l.l.L.L.g. .+.G.XXP.K.G.4.4.4.4.4.G.G.4.4.G.J.J.l.%. .Q Q  .Q W c I  .g.l.:.-.>.6.6.-.:.G.G.*.+. .$.J.I.J.G.J.l.&.&.%. .X.&.l.c.I.l.k.f.X.Q B x f m f f s k I  .O.+.*.J.J.G.G.l.l.l.l.z.v.L.L.v.L.L.c.g.X. . . . .l.l.G.G.J.J.l.&.l.l.:.:.l.G.J.I.I.G.G.l.*.+. . . . . . . . . . . . . . . . . . .X.W V x x z x x z z B B B B B B x x B B c x x x x x x x c V W W Q Q Q X.Q | Q Q Q W W c c c c I I W  .X.X.X.X.X.X.X.O.O.O.O.O.O.%.%.%.X.X.X.+.+.&.&.g.g.*.*.l.l.J.G.G.P.OXfXjXhXfXfX&X+X+XiXiX&XU.g.%.%.&.%. .Y  . .Q Q Q Q  . .+.%.&.&.g.*.f.&.&.&.&.&.&.&.&.&.f.f.&.&.o.X. . .W I c x x c E W ",
"c.c.c.l.j.l.L.I.J.P.I.I.I.J.G.:.*.&.&.&.Q I I U W Q  .Q W W  .X.f.f.&.X.Q Q Q Q  .X. . . . . . .&.&.&.&.&.&.&.*.:.l.z.J.J.J.J.J.G.G.l.l.G.I.U.).XX#X5XfXfXhXfX&XXXXXU.U.U.U.U.U.U.P.P.U.XXXXP.G.I.G.l.l.G.G.J.G.l.l.l.l.l.l.l.l.g.l.G.*.=.#.*.5.tXiXpXuXuXaXsXsXsXsXjXzXzXzXzXzXcXzXjXiX+XOX'.U.G.G.:.*.=.@.@.+.=.@.=.@.=.*.:.l.l.:.*.=.&.&.&.&.:.*.$.:.*.+.Y U U _ &.l.%.I d g a x W W W  .#.#.:.:.:.:.:.$.$.$.$.$.$.*.:.:.:.:.#.#.#.+. . .%.%. . .W U Y  .&.*.l.G.G.G.G.H.P.K.H.H.5.5.5.5.5.5.4.4.1.1.G.J.J.l. . .~ Q  .Q W W I  .g.l.:.-.>.6.6.-.:.G.:.+. .&.J.J.J.G.:.l.:.#.&.X. .X.f.l.c.c.l.k.&.X.W x f f f f f f c W X.&.*.G.J.J.G.l.l.l.L.L.v.v.L.c.c.l.l.l.g.%. . .%. .l.l.l.k.l.l.l.:.G.G.G.G.J.J.I.I.G.G.l.G.l.&.+._  . . . . . . . . . . . . . . .| X.W x s u s k x z z z z z z N z x x x B x x x x x x k k l x c V W W Q Q | | | Q Q W I c x c I W Q X.X.X.X.X.X.X.X.X.O.O.O.O.&.&.%.%.%.X.X.X.+.+.%.&.*.*.*.*.*.:.J.J.G.J.XXiXhXfXiXiX&X+X+X&X$XOXI.g.Q Q Q  . . .Q Q Y Q  .%.&.g.l.l.l.l.g.*.&.&.&.&.k.k.&.&.&.&.f.f.&.&.X.X.X.X.W I W W Q X.X.f.",
"v.c.j.g.I.I.L.l.G.J.J.G.J.K.G.$.*.k.&. .I I I U Q Q  .W W W X.f.f.d.X.W I W Q X.X.X. . . . . . .X.X.%.%.&.&.&.&.;.k.z.J.J.J.J.J.G.G.G.G.J.I.).|.$X5XfX5X5X5X$XXXU.U.U.U.U.U.U.U.U.P.J.J.P.P.P.J.I.G.*.&.&.&.*.*.l.l.*.*.*.*.l.l.g.l.g.*.=.*.P.oXiXiXrXuXyXyXyXyXsXgXgXgXgXpXpXiX'.U.G.*.=.@.@.@.=.%.+.%.&.*.*.*.g.g.*.*.*.*.*.*.g.*.&.&.&.g.k.l.l.*.:.l.*.+._ _ _ #.l.k.Q l g x x ^ ..X. . . . .&.*.*.:.:.:.*.&.*.*.:.:.:.l.l.:.:.#.#.#.&.&.%. . . . .Y Y Y  .+.$.1.1.1.G.H.H.1.H.5.5.5.5.5.5.5.4.1.4.4.H.K.G.=.Q  .%.X. .Q W Q I  .g.l.l.-.>.4.>.>.>.:.#.Y +.g.G.G.G.:.:.$.&.+. . . .X.f.g.f.&.&.O. .U x k f f f f f x W X.o.&.l.G.J.l.l.G.l.l.l.z.c.c.c.l.c.c.I.I.L.l.l.c.L.l.l.l.:.k.k.l.l.l.J.J.J.K.K.K.K.J.G.G.G.G.G.*.+.+. . . . . . . . . . . .| | |  .| X.| V z f f f z z z z z f f f z x x B B B B x x x x l l l l x x x c W Q Q Q Q Q W I c x c W Q  .X.X.X.X.X.X.X.X.&.&.&.&.O.O.O.O.X.X.X.X.%.X.+.+. .+.&.*.*.*.*.*.G.J.G.G.U.$XiX$XiXiX+X+X+X$XoX).*. .Q U Q Q  .+.%.&.*.l.l.G.L.L.G.l.l.*.&.&.&.&.k.k.k.k.&.&.&.&.&.&. . . . . . .W Q X.%.f.l.c.L.",
"g.L.P.L.l.l.L.U.U.U.P.J.J.J.G.=.g.k.%.I l I U I W Q Q W W W %.j.X.Q x d d x Q X.X.X. .Q Q Q  . .X.X.X.X. .+.&.&.&.:.l.J.J.J.G.G.G.G.G.G.J.K.|.|.fXfXfX5X$XOXXXP.P.U.!.W.U.U.U.U.U.P.P.P.U.U.XX|.|.P.J.G.G.G.l.l.l.l.*.*.*.*.l.l.l.l.*.=.#.G.@XfX$X+X+XrXuXrX[.].T.T.U.K.5.1.@.+.@.=.=.=.*.*.*.*.*.*.&.&.g.*.g.g.*.*.g.*.g.*.g.g.g.g.g.g.g.*.*.*.&.&.*.*.&. .Y _ _ &.l.&.I s d l ....X.X. .W Y  .#.#.$.:.l.:.*.*.*.$.*.:.:.l.l.l.>.&.#.#.&.&.&. . .+.+. .Y Y Y Y =.4.G.1.$.1.H.P.5.H.5.5.5.5.5.4.4.4.G.H.P.H.*.+.Q  .%.%.X.Q Q Q I  .*.G.G.:.>.4.-.K.J.#.Y Y &.G.:.:.:.l.$.+. .&.Q U W  .X.f.X.Q | U c l s f f f f f g c Q X.&.&.G.J.G.l.:.l.J.z.l.l.c.c.l.l.l.c.l.c.c.l.l.c.L.l.l.l.l.G.G.l.l.:.I.K.P.I.P.I.P.I.J.G.G.G.G.*.#.+. . . . . . . . .Q | | | | Q Q Q %.%.%.X.Q I x s l l l l g k g f x l x x x c c c x x l l l l l d d l c W W Q Q Q E c x x c W X.X.&.X.X.X.X.&.&.X.&.&.&.&.O.O.O.O.X.X.X.X.%.%.%.+. .+.&.&.*.*.*.*.G.G.G.4.K.OX$XoX&XiX&X+X$X+XOXK. . .%.*.l.G.G.I.U.|.#X5X$X|.I.g.g.*.&.+.+.&.&.k.k.g.&.&.&.&.&.&.&.&.%. .X.%.%.&.%.%.&.g.j.g.g.g.",
"L.G.G.G.G.G.G.G.P.G.I.U.P.l.l.g.g.X.W I W I I I W Q Q W Q X. .W f g B a s s 4Xf.X.X.X.X.X.X.X.X. . .X.X.X.%.&.&.*.G.L.G.G.L.P.G.:.G.J.l.G.U.#X$X$XkXfXXXXXXXK.K.H.U.T.T.U.P.P.U.P.P.P.K.P.K.J.J.P.I.U.|.I.*.$.l.l.l.:.:.:.:.l.:.G.*.@.*.U.$X$X$X#XXXK.G.l.*.&.+.+.+.+.+.+.+.+.%.+.%.%.=.&.&.*.*.&.&.&.&.&.=.*.*.*.$.*.*.*.*.*.*.&.*.*.*.*.:.:.:.*.*.:.*.+.Y Y Y &.l.l.Y d d I I Q  . . . . ._ _ _ +.$.-.$.$.:.G.$.$.#.&.=.$.*.*.:.$.$.&.*.&.&.%.Q  . .Q U L _ +.*.*.1.G.G.4.G.G.G.G.H.H.H.P.H.H.4.J.U.P.g.+.~ ~ X.X.%.X.X.X.Q W U  .#.:.l.l.l.l.I.:.+.Y _ +.&.&.k.&. . .&.&. . .l x x c I E c x x x l l f f g l l s g I  .&.g.G.K.G.4.l.G.l.l.c.l.c.v.l.l.l.l.v.c.c.c.c.c.c.l.k.c.l.l.l.l.l.l.g.I.J.P.I.I.I.J.G.L.G.l.l.k.k.g.g.*.*.%.=.+. . .Q  . .W I W f.E.|.OXoXtXpXiX+XOXOXoXtX5XXXG.*.=.+. . .W I I I I I U W  . .X. . .W &.f.f.X.Q W W W x x x I W  .X.X.X.X.O.&.X.X.X.X.O.&.X.X.&.X.X.X.X.X.%.%.%.X. . .X. . .%.*.k.l.l.G.G.G.G.J.).OX$X5X$X$X&X$XOXK.G.*.G.W.|.|.|.|.|.$X#XXX|.U.I.l.*.g.f.&.&.&.&.f.f.&.&.&.&.&.&.&.&.&.&.%.+. .+.=.*.%.=.*.g.g.g.g.g.",
"G.G.G.G.G.J.J.J.P.G.I.U.L.l.g.g.%.Q I I W I I W W Q Q W W W I x x g B g c E 6XQ.X.X.X.X. .Q | Q  . . . .X.%.%.%.&.l.L.L.L.P.P.G.G.:.:.l.P.XX5XfXhX5XXXP.U.U.U.T.U.T.T.T.U.P.P.P.P.K.K.P.K.P.J.J.J.K.U.I.l.:.:.l.l.l.:.:.:.:.:.:.$.*.G.P.|.XXU.I.l.*.&.%.%. . . .%.%.%.%.%.%.%.%.X.%.%.&.&.&.&.&.&.&.&.&.=.$.*.*.$.*.*.*.*.*.*.=.*.*.*.*.:.:.:.:.:.:.:.$.+.Y Q  .*.l.*.Y l l I U  . . . ._ Y _ U ` ' #.$.=.#.$.:.:.$.=.@.@.@.=.&.$.&.&.&.*.&.%.%. . . .Y U Y +.$.*.:.g.G.G.G.G.G.J.G.1.*.*.F.G.J.K.K.U.G.&. .Q Q X.X.X.X.X.X.Q W U  .&.l.G.G.G.l.l.+.U U  .#.&.#.&.#.O.#.&.O. .I l l l x x x x l x x l l f f l l g d x W  .&.*.G.K.G.G.:.l.l.c.c.v.v.c.l.k.k.G.G.l.l.c.l.l.l.l.l.l.l.g.*.g.*.*.*.l.l.l.G.J.J.P.I.I.l.l.k.l.l.l.l.G.g.=.+.Q Y U U Y %.l.I.|.XX|.|.rX].].rXpXpXtXrXgXvXvXhXiXiXfXfX$X#X@X.X|.|.|.|.@X|.|.|.|.|.E.L.g.l.g.%.~ B B B x x c I  . . . .X.X.X.&.X.X.X.X.O.&.X.X.&.X.X.X.X.X.%.%.%.X. . .X.X. .%.&.k.l.l.G.J.J.J.J.K.@X&X$X$X$X5XfX&XXXK.#X#XXXU.I.G.G.G.I.G.G.l.l.*.&.+.&.&.&.&.&.&.&.f.%.%.%.%.%.%.%.%.&.&.&.%.+.%.=.*.*.g.G.G.G.G.G.G.",
"L.G.G.G.J.J.I.I.P.G.I.I.G.g.g.f.X.W I I W W W W I Q Q W I I x x W c ~ W Q Q 6X<X . . . .| Q W W  . . . . .%.%.%.&.l.G.G.G.G.G.l.:.:.J.XX$X5XfXhXhXU.*.P.U.P.U.'.U.T.T.T.U.U.P.P.K.K.P.K.U.U.K.J.I.|.U.l.&.:.l.:.l.l.l.l.:.:.:.*.*.G.U.U.U.G.*.+.+. . . . . .X.X.%.%.+. .+.+.+.+.+.%.%.&.&.&.&.&.*.*.=.$.=.=.*.*.*.*.*.*.*.*.*.*.*.*.*.*.l.:.:.$.:.-.$.$.+. . .+.l.g.+.I l I Y Q  . . . ._ Y _ _ Y _ +.+.&.$.*.l.:.*.=.=.@.@.#.#.#.#.&.$.*.&.%. . .Q Q Y Y +.$.:.:.:.G.G.G.G.G.G.G.1.$.=.=.=.*.*.-.$.=.@.%.~ ~  .X.X.X.X.Q Q Q Q Y  .&.k.l.k.&.&. .U v L  .&.&.#. .#.&.&.O.W x l c x c x x x x x x x x x x x l x l l c  .%.&.k.G.G.G.l.l.l.c.v.v.c.c.l.l.l.l.G.J.l.:.:.:.k.l.l.G.G.G.G.J.G.G.J.H.G.G.G.l.*.:.F.l.l.*.&.&.&.&.&.*.&.%.%.%.%.*.G.J.XXU.'.XXOXoX$XiX+X].].pXzXcXzXjXgXgXfX$X$X$X&X5X5X5X#X@X#X#X#X#X@X|.|.E.I.I.L.l.c.c.j.X.~ B x x x c E Q X.X. . .X.X.X.%.X.O.&.O.X.X.O.O.&.X.X.X.X.X.%.%.%.X. . . . . . .&.g.l.l.G.J.K.J.J.K.OX&X$X$X&XfXfX&X@XK.XX|.I.G.*.*.*.*.l.*.*.*.*.*.&.&.&.&.%.%.X.&.&.&.&.&.&.&.&.&.&.&.%.&.&.=.%.%.=.&.g.l.G.P.P.G.P.P.",
"G.L.G.G.J.J.I.I.P.G.I.I.l.g.g.%.W W I I W W I I I W Q W I I W W Q X.f.Q Q X.4XW.W W W Q |  . . . . . .X.%.%.%.%.*.*.l.l.l.G.G.l.G.).$XfXfXhXhXhXU.+.=.U.U.U.U.U.U.U.T.T.U.U.P.P.K.P.P.U.U.'.).).XX).G.$.&.:.l.*.:.:.l.l.l.:.:.:.I.P.P.G.*.+. . .+.+. . .%.%.%.%.%.+.+. .+.+.+.+.%.%.%.%.&.&.&.&.*.*.=.$.=.=.*.*.*.*.*.=.$.*.*.*.g.*.=.$.:.:.-.$.$.#.#.$.#.@.=.=.L.*.Q I v U  . . . . . . ._ |  .Y Y Y  .+.&.l.G.*.*.=.=.@.@.=.$.#.#.&.&.&.+. .Q Q Y Y  .+.$.:.G.l.l.G.G.G.G.G.G.1.*.*.$.=.=.@.@.+._ _ Y  .%.%.%.X.~ Q Q Q Q Q  .Q  .%.&.%. .Q Y U I I Y X.&.&.&. .&.&.X.W x l s W W E B B B B c x x x x x x x x x c Q X.f.g.l.l.G.l.l.c.c.v.v.v.c.c.l.l.G.l.G.4.4.5.H.K.).OXOX$XfXfXfXfXfXfXhXfXiXtX$XoXOXXXXXOX@XOXXX).).U.U.U..X|.W.W.U.).XXOX$X+XrXrX+X].].].rXpXzXnXcXcXvXjXjXhXiX#X@XXXXXXXL.L.L.L.L.I.I.I.I.L.l.l.k.g.&.f.c.l.f.X.W B c c B E Q X.X.&.O. .X.X.X.X.&.O.&.&.X.X.&.&.&.&.X.X.X.%.%.%.%.X. . . . . . .&.&.k.k.G.J.J.K.K.).$X&XfX&X&X&X$XXXK.G.*.*.*.*.*.*.*.&.*.*.&.&.&.&.&.+. .X. .X. .&.&.&.&.&.&.&.&.&.&.&.+.+.%.&.&.&.&.*.l.l.G.G.G.G.G.G.",
"l.l.G.G.G.I.J.I.P.J.I.P.g.g.g.%.U I I I I I I I I W W W I I Q X.X.X.X.W X.v..Xf.W W W W  . . . . . . . . . .+.+.*.$.*.l.G.G.J.J.$X5XfX$XfXhXfXXXI Y G.XXU.U.'.K.U.U.U.T.T.T.T.U.XXW.U.U.XXXXXXXX|.l.+.+.*.*.*.*.*.l.l.l.l.l.l.l.U.J.*.@.+. . .+.+.+. . .X. .X.X.+.+.+.+.+.+.%.%.%.%.%.%.=.&.&.&.*.*.$.$.$.*.*.*.*.*.=.=.=.=.*.*.*.*.=.$.*.4.$.$.' ' +.*.*.*.*.g.P.&.U I U Y  . .Y _  . ._ _ U Y  .Q Y Q  .%.*.l.*.*.*.$.=.=.$.$.@.&.$.&.+. .Q Y Y Y  .+.$.l.l.:.:.:.4.4.G.G.G.G.1.1.*.$.$.=.+.+.=.#.+.+.+.%.%.%.X.~ X.Q Q Q  . .Q  . . .W I c x c I W  .X. .X.X.X.X.X.W x d l c Q Q W ^ ^ ^ B B x x x x B x x x x W X.&.f.k.l.l.c.c.c.c.c.c.c.c.c.c.l.F.1.F.H.H.'.].rXsXzXcXcXcXcXzXzXcXcXcXcXzXvXvXjXgXhXgXhXgXgXhXhXhXhXhXhXfXfX5X5X$X$X$XoXoX].].dXdXdXyXpXjXnXnXDXcXjXoXT.).:.$.#.+.+.+.%.%.X.X.X.%.%.&.&.f.g.l.l.l.k.g.l.L.l.f.X.W x l c c W Q X.X.X.X.O.X.X.X.X.&.&.&.&.&.X.%.O.X.X.X.X.X.%.%.%.%.X.X.X.X.X.X. .%.&.&.g.k.l.l.G.P.|.OX$X$X$X$X@XXXU.I.G.*.*.g.l.l.l.g.&.+.%.+. . . . . . .#.&.&.&.&.&.&.&.&.&.&.&.&.&.&.&. .%.&.*.*.*.g.l.l.G.G.G.G.G.G.G.",
"l.l.G.G.G.I.I.I.I.J.P.I.g.g.g. .I W W I I W W I W W W I I I W X.X.W E Q L.4XW.W Q Q Q Q W  . . .X. . . . . .+.+.$.&.*.G.K.).XXOXfXfXfXfXhXfXP.I d @.U.!.P.U.XXT.!.!.T.!.XXXXXXXX@X@XXXXXXXXX|.|.G.+.Y  .&.&.&.l.*.l.l.l.*.*.*.l.*.=.+. . .+.%.%. . . . . . . . . . . .+.+.%.%.&.&.%.%.%.%.&.&.*.=.=.$.$.*.*.*.l.*.*.=.&.&.=.*.*.*.*.*.*.$.-.$.$.` ' +.-.4.4.F.G.G. .I I U Q Y Y Y _  . . .U v l Q Q Q Q Q Q  .%.g.l.*.*.*.=.$.&.$.$.&.&. . .Y Y  . .+.*.l.l.l.:.:.:.G.G.G.G.G.G.G.1.$.=.=.=.$.$.*.=.@.+.+.+.X.X.X.%.X.X. .Q Q Q W W Q W W I c I c W Q  .Q W W Q W Q W x d l W X.Q W W E ^ B B B x x B B B B B x x Q X.f.f.k.l.l.c.x.x.x.c.c.c.c.g.g.F.G.P.T.rXpXjXzXbXnXnXnXnXnXzXjXjXzXcXcXcXnXcXzXzXzXjXgXgXgXgXgXgXgXgXgXhXhX5X5X&X$X+X+XoX+XdXyXaXaXsXbXnXFXFXnXjXoXP.*.+.+. . . . .+. .X.X.Q Q Q Q Q Q Q Q  .&.g.l.l.l.l.c.f.X.W x g l c E Q X.X.%.&.O.&.&.&.&.&.&.&.&.&.&.X.X.X.X.X.X.X.X.%.%.%.%.X.X.X.X.%.&.&.&.&.&.&.:.*.*.*.J.).XXXXXXU.K.I.G.G.G.l.l.G.l.l.*.&.%.%.%.+.+.+.+.%.%.%.+.&.&.&.&.:.:.*.*.&.&.&.&.&.&.&.&.&.&.*.g.l.l.G.L.G.L.L.G.G.G.G.G.",
"G.G.G.G.I.I.I.P.I.I.U.I.g.g.f.Q I I W I I W W I W I I W W W W Q X.W  .c.|..Xf.W  . .Q W Q  . . .%.+.+. .+.+.&.&.l.:.G.).OX$X&X&XfXfXhXkXfXP.I q Y G.!.U.U.T.!.XX'.T.T.T.XXXXXXXXXXXX@X@XXXU.G.*.%.+. . .+.%.&.g.g.l.l.g.&.%.&.&.+.+.+.+.%.%. . .Q  . . . . . . . . . .+.+.%.&.&.&.&.%.%.%.&.&.*.&.&.=.=.*.*.:.l.*.*.&.&.&.=.*.*.*.4.G.4.1.$.3.4.{ ' @.4.4.4.4.G.&.U d I Q Q Y Y Y  .&.&.#._ v l I W X.X.Q Q Q  .&.*.*.l.:.*.$.#.$.$.&.+. .Y  .+.&.=.*.l.G.G.G.G.G.G.G.G.4.4.G.G.G.G.1.$.$.1.1.G.*.=.@.+.Q Q %.%.%.%.X.X.X. . .Q W Q Q Q W c V c V W Q Q W W W W I I I x l x W X.W W W W ^ B B x x x B B B B B B B | f.f.f.f.k.l.v.x.c.x.c.c.l.g.*.G.T.oXaXjXzXbXbXbXbXnXnXbXzXzXzXzXzXzXzXzXnXnXnXnXnXnXzXzXjXzXjXjXgXgXgXgXjXgXgXgXiXiXuXuXuXuXpXbXnXnXbXnXnXbXgX@X4.#.@.+. . . . . .%.%. .X.&.X.X.X.X.X.X.X.X.X.X.f.c.L.v.l.f.Q W x l l x I W X.X.o.X.X.X.&.&.&.&.&.&.&.O.O.O.X.X.X.X.X.X.&.O.&.%.%.%.X.X.X.X.%.&.&.&.&.&.&.&.*.*.*.:.G.J.I.I.G.l.l.l.l.l.l.l.*.&.&.&. . .&.&.&.&.&.&.g.k.g.&.&.&.:.:.:.:.:.:.&.&.&.&.&.&.&.&.&.&.k.k.l.l.G.P.L.L.L.G.l.l.l.G.",
"G.L.G.P.I.I.P.K.I.I.U.U.l.g.f.Q K I W I I W W W W I I Q X.Q W Q Q Q c.@X|.f.I  . .Q W W Q  .&.&.&.%.%.%.&.*.:.l.J.J.).$XfXfXiXfXhXhXkXhXU.K 0 Y *.!.!.U.XXXXU.XX'.T.U.T.T.XXT.U.U.XXXXXXU.G.+.Y  .&.g.%. .%.*.*.l.l.l.&.+. . .+.+.%.%.%. . .Q W  . .X.X. .Q Q  . . . . .+.&.&.&.&.&.%.%.%.&.&.*.&.&.&.=.*.*.l.l.*.*.&.&.&.=.*.*.1.G.G.5.4.$.3.3.3.$.$.4.G.4.4.G. .l s I  . .Y Q _ O.:.l.:.#.U v l W X.%.X.Q Q  . .%.=.*.l.:.$.$.$.=.&.+.Y _ +.#.*.l.G.G.G.G.G.G.4.4.G.G.G.4.G.G.G.G.G.G.H.G.G.G.G.4.$.+. .Q +.%.%.%.%.%.X.X. .Q W Q X.| W V c x W W W W Q Q W W c I I c c c W ~ W W W W ^ ^ B x x x B B B B B x V ..f.f.&.k.k.l.c.c.c.c.l.l.g.*.K.'.pXzXnXbXbXbXbXbXbXbXbXbXbXbXzXzXjXrX'.Y.].rXjXzXzXzXzXzXzXzXcXzXjXgXpXgXgXgXaXaXaXsXzXnXnXDXFXJXFXzXyXyXdXR.@._ Y _  . .+.+. . .X.&.&.X.X.f. . . . . . . . . .Q X.f.c.c.%.W l g d l x I W Q &.&.&.X.X.X.&.&.&.&.&.&.&.&.X.X.X.X.X.%.X.X.&.O.&.%.%.X.X.X.X.X. .%.&.&.&. . .+.*.*.*.$.&.$.l.G.G.l.l.l.l.:.*.*. .&.&.&.&.&.&.k.&.&.&.&.&.&.&.&.&.&.&.&.&.&.&.&.:.:.:.:.:.:.:.*.&.g.k.k.g.l.l.G.G.G.G.G.g.g.g.g.",
"I.I.I.I.I.I.K.K.J.K.U.G.g.g.%.W U W W I W W W W W I I I W Q X.%.%.E.@XW.&.U U  .Q Y Y U U  .%.&.&.l.G.I.I.I.|.OXOX$X&XfXiXfXfXhXvXcXhXF.d 0 Y $.!.!.T.T.T.T.XXXXU.U.T.T.T.U.U.U.XX!.W.U.J.*.%.*.%.%.&.%.%.+.%.&.g.&.%. . . .%.%.%.X. . .X. .I l x W  . . .W Q Q  . . .+.+.+.&.*.&.&.&.&.&.&.&.&.=.&.&.&.&.&.=.=.*.*.*.*.*.*.*.*.J.G.4.4.4.4.4.4.5.3.5.H.4.4.4.*.l x I W  .Q Y I Y &.l.:.:.:.+.K l x E W  . .Q Q Q  .&.l.G.:.*.*.*.#. .Y _ #.:.G.G.G.G.G.:.*.*.*.:.G.G.G.G.4.G.G.G.G.G.G.G.G.G.G.G.G.*.#. .Q  .%.%.%.X.X.%.X.Q W Q Q W W W W c l W W E c l x E W c E c x x W W E W W W E B B c x V V B B B B c x W f.g.%.X.g.l.k.l.l.k.;.$.4.Y.].sXzXbXbXbXbXbXbXbXbXbXbXbXbXbXzXzXpXdX].].].'.R.R.`.dXpXjXzXzXzXcXcXzXzXjXgXpXyXeXsXmXmXbXnXFXJXJXnXuX`.K.4.@.R _  . . .+. . . .X.X.&.&.%.%.%.f.&.X.X. .X.X.X.X.X.X.X.X.X.Q c l s s s l c W X.f.X.X.X.&.&.&.f.f.&.&.&.&.X.X.&.&.X.X.&.&.&.&.O.X.%.%.%.X.X.X.X.X.X.%.&.&.&.&.&.&.*.*.*.*.*.*.k.k.l.l.l.l.:.*.&.&.&.&.&.&.&.&.&.f.%.&.&.&.&.f.g.k.l.l.k.k.;.;.&.&.&.&.&.;.:.:.;.&.k.&.&.k.l.k.l.l.G.L.I.I.P.L.L.G.",
"I.I.I.I.I.K.K.U.J.U.U.G.g.g.%.U U I W I I W W W W W I I W Q X.X.f.j.f.X.W U W Q I I I I Y &.l.I.W.XX#X$X5X$X$X&X5XXXXX&X#XK.).5XlXP.I : 9 Y =.F.!.T.U.T.!.!.T.U.U.U.U.U.U.U.T.U.U.P.P.G.G.*.=.=.%.%.&.%.%.+.+.+.%.%. . . . .%.X.X.X.X. .W I l d d x I U U U W Q  . . .+.+.&.&.*.$.&.&.&.&.*.*.=.&.&.&.&.&.&.=.=.*.*.*.*.*.*.l.l.G.4.4.4.4.5.5.3.3.$.4.5.1.*.*.@.I I I W W Q W Y Y &.k.:.&.:.&.Y l g g x W Q  . .Q Y Q +.*.:.:.l.*.&.+.+.@.:.G.G.G.:.:.$.*.=.=.&.*.:.4.G.G.G.G.G.4.4.4.4.4.4.G.G.4.4.:.#.+. . .%.%.%.X.X.%.X. .W Q Q W W W W W I W W W I c c c E l c x l g x x g x x x x x x x x c c c c B c c x Q %.j.f.*.l.G.l.:.:.:.>.K.[.aXsXzXbXbXbXmXbXmXmXbXbXnXbXbXbXbXzXyXdX].].].+XrXrXuXaXpXjXjXjXjXgXjXzXzXcXcXcXzXzXsXmXmXbXnXMXnXnXsXrXK.4.*.=.+. . . . . . . . . .X.%.&.&.%.%.%.%.X.X. . .X.X.X.X.X.X. .Q W x l s l s s l W  .X.&.&.&.&.&.&.&.&.f.&.&.&.&.X.X.o.o.X.O.&.&.&.&.X.X.%.%.X.X.X.X.X.X.X.%.&.&.&.&.&.&.*.*.*.*.*.*.*.*.*.*.*.*.*.*.&.&.&.&.f.&.&.&.&.&.&.&.&.&.&.g.l.l.L.J.J.z.z.J.J.L.z.l.:.;.;.;.k.k.l.f.&.k.k.g.*.l.l.l.l.l.l.l.G.L.",
"U.U.U.U.U.U.K.K.J.U.U.G.g.*.X.I U I I I I I I I W W W W W W Q  .Q  .Q I U U I l l I Y +.l.U.#X5X5X5XfXfXfX$X#XXXI.U.I.I.|.$X#X|.%.d = = J / F.U.T.U.U.T.XX!.P.F.1.F.G.G.H.H.P.P.G.g.*.*.g.*.%.%.%.%.&.&.%.%.~ ~  .~ Q Q ~ ~ ~  .Q  .X.W l s s s x I W W W W Q  . . . .+.+.&.&.g.$.&.&.&.&.$.*.&.=.=.=.=.$.=.=.=.*.*.*.*.l.l.l.l.G.4.4.4.4.5.5.5.4.-.4.4.*.$.@.Y I I I W W W Q Q U &.l.$.$.-.-.&.I l s s x W Q  . .U I Y +.*.l.G.*.=.#.$.G.K.G.4.-.*.@.@.@.@.=.@.=.$.$.*.4.4.G.4.G.G.G.G.H.H.G.G.4.G.G.*.&.+. . .~ ~  .X. . . .W W W Q W I I I I l l l x x x x l l x l l l x x l l x x c E E W W c c I c I I c x ~ %.f.g.g.*.*.:.:.4.K.{.aXzXzXbXzXzXmXmXmXbXbXbXbXbXbXbXbXbXsXsXpXpXpXpXgXgXjXzXcXzXzXzXjXjXgXpXgXiX+X'.'.+XgXzXbXnXMXJXJXnXsX[.5.4.4.$.=.+. .X. . . . . . . . .X.%.%.%.%.X.X.X.X.X.X.X.X.X.X.X.X.Q I x l s s s x s s c X.&.f.&.&.&.&.&.&.&.&.f.f.&.&.&.&.&.O.&.&.&.&.&.&.&.X.X.X.X.X.X.X.X.X.X.X.%.&.&.&.&.k.k.:.:.:.*.&.&.&.&.&.&.&.&.&.&.&.&.f.f.f.f.&.&.&.&.f.f.f.f.f.f.l.l.l.k.k.k.k.k.k.k.L.v.l.l.k.k.k.k.k.k.k.k.&.&.&.k.*.*.*.g.g.l.L.I.",
"U.W.W.U.U.U.K.K.I.U.U.G.g.=.Q I W I I I I I I I I I I I W W W W I U U U I U U U  .&.G.|.#X$X5X5X$X#X@XXXXXXX|.U.U.XX|.I.|.#XL.I = 8 d E / =.P.XXU.U.T.T.T.U.H.1.1.1.1.1.G.G.F.F.*.=.=.=.=.%.=.%.%.%.%.%.%. .~ ~ Q Q Q Q ~ ~ Q W W W B l s 8 s l W Q Q Q Q Q  . . . .+.+.&.&.*.l.&.&.+.+.&.&.&.&.=.=.=.&.$.$.=.=.l.g.*.*.*.l.l.l.G.G.G.G.4.5.G.H.G.4.4.4.$.*.@.U l x c W W W Y Y U &.l.$.#.:.:.:.X.W s s l I I I +.Q U U  .+.*.l.*.=.@.*.G.K.G.-.$.@.' ' #.=.=.=.#.@.@.$.4.4.G.4.1.1.1.1.1.1.1.1.G.J.J.G.*.+.Q Q Q Q Q  . . .Q Y U W ~ Q I x I I U I I x I I x l s l l x c c c c l l x x x c c c x I I I I I I I j.g.g.P.P.G.G.K.K.{.uXzXzXzXbXzXzXzXmXmXmXbXbXbXbXbXbXzXzXzXmXsXzXzXzXjXgXhXhXgXrXrX+X+X].{.'.`.H.K.H.G.4.4.K.Y.sXbXnXnXmX[.9.] 3.4.G.G.*.%.X.&. .O. . . . . . . .X.X.X.X.X.X.X.X.X.X.X.X.X.Q Q W c l s s s d d s s l Q f.l.k.&.&.&.&.&.&.&.&.f.f.&.&.&.&.O.&.&.&.&.&.&.&.X.X. .X.X.X.X.X.X.X.X.%.%.&.&.&.&.k.l.l.k.:.&.&.&.&.&.&.&.&.#.&.&.&.g.f.f.f.&.&.&.&.&.f.f.f.f.f.f.&.&.X. . .Y U U I U  .O.&.l.c.l.c.v.l.l.l.l.k.*.*.k.g.g.l.l.G.L.I.U.",
"W.W.U.U.U.U.P.P.I.U.U.G.*.+.Q I W W I I I I I I I I I I I I I I U U I K U +.l.G.U.|.#X$X$XOX|.U.|.W.U.|.XXXXXXXXXX|.|..XW.&.x 3 8 h I E =.P.!.!.U.T.!.U.P.H.F.F.H.H.G.G.G.G.F.F.=.=.=.=.%.%.&.g.f.%.%.X. .~ ~ ~ ~ Q Q ~ ~ Q W I W x f u s k c W Q Q Q W W Q Q  . . .+.#.&.&.*.l.#.#.+.#.&.&.&.&.&.&.&.&.=.=.&.=.*.*.*.*.*.*.l.l.G.G.G.G.G.4.G.J.K.G.4.*.$.*.@.l s l I W Q W Y Y U #.l.:.$.$.-.:.k.X.Y I I Y Y I  .Q Q Q Q  .&.l.G.*.$.*.4.G.4.-.-.@.+.+.@.=.=.@.#.@.@.$.4.4.4.4.G.G.4.4.4.4.4.4.G.K.K.J.*.+.Q U Q Q  . . . . . .Q  .~ Y U U  .%.P.l.g.&.%.+.~ Q x x x x x l l l c c c c c x x x d l K I I I I U *.=.=.G.J.J.U.oXuXpXzXzXzXzXzXmXsXmXbXbXbXbXbXbXzXzXzXzXzXzXzXgXiXiX+XoXoXOX).K.G.5.5.5.5.5.4.4.4.K.K.K.G.-.:.4.0.`.{.0.3.<.4.5.K.G.G.l.*.X.X.&.#.+. . . . . . . . .X.%.%.X.%.X.X.X.X.X.~ W V x l l f f k l l k s l Q &.l.l.l.;.&.&.&.&.&.&.f.f.f.f.&.&.&.&.&.&.&.&.&.&.X.X. . .X.X.X.X.X.X.X.X.%.&.&.&.&.&.g.k.l.k.k.g.&.&.&.&.&.&.&.&.&.&.&.k.f.f.&.o.X.X.&.&.&.&.&.&.&.X. .W U I x l k s s k 4 k W O.k.v.E.|.I.I.I.I.v.l.k.k.k.l.P.I.I.I.I.I.",
"W.W.|.W.U.U.P.I.I.I.I.l.=.Q I I W W I I I I I I I I I I I I I I U U U  .l.|.XX|.XX|.|.|.).U.I.J.XXXXOX#X#X#X@X|.W.|..XI.X.l s s a I Q =.L.!.XX!.U.T.T.U.H.F.H.P.U.U.H.G.G.1.*.*.+.*.*.=.%.%.&.g.f.%.~ Q ~ ~  .~ ~  .~ ~ Q Q I I B f y y s V Q X.W W W W Q  .X. . .+.#.&.&.$.*.:.&.&.#.#.&.$.$.$.*.*.*.*.*.*.*.*.*.*.*.*.*.*.*.*.G.G.G.G.l.:.:.4.G.4.G.$.=.l.&.l s l W X. . .Q Q Y #.:.$.#.#.$.$.l.;.&.O.&.&. . .I Y  . . . .=.l.J.G.G.4.4.5.5.5.G.4.*.$.$.$.=.=.=.$.$.*.4.4.4.4.K.K.H.H.H.H.G.G.4.4.K.G.*.@. .Q  . .X.X.X.X. .%.=.+. .Y Q +.l.P.W.U.I.I.P.G.G.G.%.X.Q W x l l l x x x x x x c x l I Y Q Q ~ %.=.=.+.=.G.K.'.oXaXjXzXzXzXjXsXzXbXbXbXbXbXzXzXzXzXaXaXuX+X[.[.'.`.G.5.4.G.G.G.G.*.G.K.K.K.K.K.K.K.J.J.J.G.l.l.I.K.5.3.3.<.4.K.K.K.J.G.:.*.=.&.&.l.#.#.#.#. . . . . .%.%.%.%.X.%.X.X...| W V c l f k f f f k s s s s W f.c.l.k.k.:.&.&.&.&.f.f.f.f.f.f.f.&.&.&.&.&.&.&.X.X.X. . . .X.X.X.X.X.X.X.X.X.&.&.&.&.&.&.*.k.k.k.&.&.&.&.&.&.&.&.&.&.&.&.&.f.&.&.X.X. . . . . .X.X. .W x v x l k k s s k k s l x W | X.f.c.I.|.|.|.}.I.c.k.l.L.U.W.W.U.I.I.",
"W.W.W.|.U.P.I.J.I.I.G.*.%.Q I I W W I I I I I I I I I I I I I I Q  .&.G.|.XX|.I.I.I.I.I.K.U.K.K.XX@X$X$X@XXX|.|.@X@XE.Q s a s 3 g ~ F.~.%XXX!.!.U.T.T.U.H.H.P.T.U.H.G.1.$.=.@.@.=.=.=.%.%.%.%.%.%.X.~ Q ~ X.X.~ ~ ~ Q Q Q Q I x l s y u x W ~ X.Q Q Q  .X.X.%.+.+.+.#.&.$.$.*.*.&.#.#.#.&.$.$.$.*.*.*.*.*.*.*.*.*.*.*.*.*.*.*.*.l.G.G.l.:.$.:.l.G.G.G.*.*.I.g.l s x W Q Q W W Q  .+.&.#.+.@.$.:.k.:.;.:.k.;.&.+.L I  . .+. .+.&.J.J.J.G.G.5.K.H.K.H.K.5.G.4.g.*.*.-.4.4.4.4.4.4.1.1.1.*.*.*.$.$.$.-.4.:.=.+. .Q  .%.X.X. . .%.%.&.=.=.=.*.G.P.U.G.G.J.J.J.J.J.I.j.&.X.W W I I W x I I W  .X.X.%.l.J.P.U.P.P.U.W.XXXXXXoXtXiXgXzXgXjXjXjXsXjXbXbXnXbXsXpXrX].Y.K.`.`.K.5.4.4.*.@.*.*.:.l.G.G.G.J.J.K.G.J.G.J.G.G.&.:.J.I.I.L.l.:.l.l.l.l.J.J.:.+.G.G.G.*.=.=.4.K.&.#.#.#.#.+.+.+.+.+.%.%.+. .~ ~ X.Q W c c x l f l l k k k f s s Q f.c.c.l.k.k.:.;.;.&.&.f.f.g.l.f.f.f.&.&.&.&.&.X.X.X. . . . . . . .X.X.X.X.X.X. .X.&.&.&.&.&.&.g.&.&.&.&.&.&.&.&.&.&.&.&.&.&.&.&.&.&.X. . .U I Y Y Y I c v l s s s s s s l l l I W W c x x W | X.l.I.|.|.|.I.L.L.I.I.W.W.U.I.I.",
"W.W.W.|.U.P.I.J.J.J.G.*. .U I I W W I I I I I I W I I I I I W U &.L.W.U.G.G.P.P.I.I.P.U.|.|.U.I.K.'.XXXX|.|.@X4X|.X.s s g s s g j.%.F.@XlX@XU.U.T.U.U.U.P.U.U.U.U.H.G.*.=.+.+.+.=.=.%./ %.=.%.~ X.~ Q ~ X.%.X.Q Q Q Q Q Q W I x s s s f B W Q Q Q  .Q Q  . .Q Q +.#.&.$.*.$.*.*.+.+.+.+.&.&.&.&.*.*.*.*.*.*.*.*.*.*.*.*.*.*.*.*.l.l.G.l.:.*.:.G.G.J.J.:.l.U.G.I s x W W U I U Y  .+.+.' _ +.$.:.;.;.:.:.:.;.&.#.Y U Q  .+. . . .G.G.J.G.G.5.K.H.K.H.H.K.G.G.J.J.4.4.G.G.4.4.4.G.G.G.G.4.4.4.4.4.*.-.:.$.@. .Y U Q  .%.+. . .+.+.@.=.*.J.P.P.J.G.*.F.J.G.g.=.=.&.&. .W I I U  .&.c.L.I.|.#X5X5XfXfXfXhXfXfXlXlXfXfXfXfXiXiXiXpXiXiXaXsXjXzXzXzXzXyXR.5.1.4.4.4.4.*.4.-.-.:.K.K.G.:.G.J.J.l.l.G.I.I.J.J.J.J.J.J.G.I.J.l.k.k.l.G.G.l.L.J.l.k.l.I.I.G.G.G.4.=.@.4.U.*.&.$.&.&.+.%.%.+.X.%. .Q Q W W Q W c l l l l l x x l l l l k s f.v.I.c.l.k.k.:.;.;.;.;.&.f.l.l.k.f.f.&.&.&.&.&.X.X. . . . . . . . . .X.X.X.X.X. . .X.&.&.&.&.&.&.&.&.&.&.&.&.&.&.&.&.&.&.&.&.&.&.&.&.&. .W x l I c x l l s s s s s k k l x x x l c W I x l x x l  .l.I.|.|.|.I.I.I.U.W.W.U.W.|.",
"W.W.W.XXW.I.I.U.G.G.l.&.Q I E W Q W I I I I I I I U I v l U &.L.I.I.I.I.U.U.P.P.U.U.U.).|.).U.I.P.|.|.|..X<XQ.h.^ x f a a 3 d f.+.=.oXhXoXP.U.U.K.K.P.U.U.T.U.U.P.F.=.=.=.=.=.%.=.%.%.%.%.%.%.%.X. .Q W W Q ~ ~ Q Q Q Q W Q E E x x g x E W W W W W  . . . . .Y %.&.&.&.&.*.*.&.%.+.&.&.&.&.&.&.&.&.&.&.&.&.&.*.&.&.*.&.&.&.*.l.l.:.:.:.G.:.$.#.:.G.G.G.G.G.G.l.W W W U U T Y @.@.$.'.fXK.P Y -.:.-.:.:.:.:.&.&. .K Y &. .Q _ K @.1.4.4.4.G.G.4.4.G.G.G.G.4.4.4.4.5.5.4.4.5.4.4.4.$.$.$.4.5.5.G.4.G.G.$.+.Y Y Y Q +.%.@.+.+.+.=.*.:.G.J.K.G.*.$.*.@.@.=.=.+.=.g. . .W l v +.W.5X$X$X5XfXfXfXfXfXfXfXfXfXfXfXfXfXhXgXgXpXiXrXuXuXiX+XiXzXcXcXjX+X1.4.4.G.G.G.G.G.G.G.G.G.G.G.G.G.G.J.I.J.G.l.l.l.l.G.J.P.P.I.J.G.G.G.G.G.G.G.l.l.:.:.l.l.l.G.G.G.G.G.G.:.=.=.*.G.&.g.k.&.f.f.&.X. .X.%.X.Q I c c W W Q Q W W E W x x x s s s c  .I.L.L.l.k.:.:.k.&.&.&.:.l.l.l.k.l.&.%.%.&.&.%.X. . . .Q Q Q  . . . . .X.X.X.X.X.%. . .&.&.&.+.&.&.&.&.&.&.&.&.%.=.&.&.&.&.&.=.&.&.&.&.&.X.I l I I l s s s s 9 8 k s k c c x c |  .| W c c x x c c k X.}.I.E.#X|.W.U.U.U.W.W.W.W.",
"W.W.W.W.W.P.G.I.I.G.f. .W I E W Q W W I I I I I x I I I Y  .k.L.L.L.G.I.I.I.K.K.K.K.).XXXX).U.U.|.I.U.#X4XQ...B h f a y g Q %.*.$.oXfX+XU.T.T.H.U.U.U.U.U.P.P.J.g.*.%.+.%.%.%./ %.%.%.+.+.+.+.+. . .Q W W Q Q ~ Q Q Q Q W Q E E x g f g c W Q Q I I U W | | Y Y  .%.&.&.&.*.*.&.%.%.&.&.&.&.&.&.*.*.*.$.*.&.*.*.&.*.*.&.&.&.*.l.l.:.$.$.*.*.$.&.$.*.:.G.G.G.:.l.&.X.Q Y T Y +.1.T.H.iXvX$X@.` $.-.-.$.$.:.:.*.*. .l U %.Q I Y  .*.4.4.$.4.G.J.G.G.G.G.4.4.5.H.7.5.5.H.4.4.4.4.4.4.4.5.H.K.K.5.4.G.G.F.*.+.Y Y Y +.=.*.*.*.*.*.*.G.G.G.4.*.$.@.@.=.=.@.@.=.*.*.%.Y Y Y Q &.I.#X5XfXfXiXiXtXtX$X$XtXtXiXiXfXfXfXhXtXiXiXiXiXuXuXiXvXhXhXhXfX$XXXG.G.G.G.G.G.G.G.G.G.G.G.G.G.G.G.G.G.G.J.J.G.l.G.G.G.G.I.I.I.I.G.G.G.G.G.G.G.G.G.l.:.:.:.G.G.G.G.G.G.G.:.$.=.=.$.l.&.&.&.&.&.f.f.X.&.X.W c x c Q X.X.%.X.X.....u.u.B g g x s s W g.L.G.l.l.k.k.k.l.l.k.:.l.l.l.l.k.g.g.&.&.g.g.&.%. . .X.X.X. . . . . . . .X.X.X.X.X.X.X.%.%. . .&.&.&.&.&.&.&.&.%.=.&.*.&.&.=.=.&.*.&.&.&.X.I x I l s s s s s s s l x c c c c Q X.X.X.X.Q W c c x V k | c.E..X#X|.W.W.W.U.W.W.W.W.",
"W.W.W.W.I.L.G.I.I.l.%.W I I W W W I I I I I x x I I Y  .&.k.l.l.l.l.G.G.J.J.J.J.H.U.'.'.U.U.W.|.|.|.|.@XL.W f s s f a s Q g.g.*.@XjXgXT.H.Y.T.U.XXU.P.P.J.G.g.g.&.%.%.%.%.%.%.%.X.X. .X.%.%.%.%.~ Q Q Q Q Q Q Q W Q Q Q W W W E E g s f l E W Q I I I U | |  . . .+.%.%.&.&.&.%.+.%.&.&.%.%.&.&.*.*.*.*.*.&.&.&.&.&.*.&.&.&.&.*.*.*.=.&.&.=.=.=.@.=.:.G.J.J.G.l.L.f. .I T Y @.G.K.5.oXvXoX` L @.-.-.$.-.$.:.:.*.+.l I  .U K  .G.G.5.1.$.4.K.P.*.G.G.G.G.G.5.5.5.5.H.K.H.H.K.K.H.T.Y.K.T.T.K.5.1.G.F.*.=.+.Y Y Q *.*.G.J.J.J.J.G.J.G.*.@.@.+.+.+.+.=.@.@.*.l.*.Y U U Y +.G.XX$X#XXX|.U.P.P.J.K.K.K.P.U.T.XX@XoXoX$XtXtXiXiXiXaXiXiX$X$XOXJ.4.4.$.G.G.G.G.G.G.G.G.G.G.G.G.G.G.G.G.G.G.G.G.l.l.G.G.J.J.I.I.I.J.G.G.G.G.G.G.G.G.G.G.:.:.:.G.G.G.G.G.G.G.:.$.$.$.$.$.&.&.+. .+.=. .W W I x I Q &.l.c.f.f.d.X.X.u.u.d.B f g B s s Q E.l.l.l.l.k.k.l.G.l.l.l.l.l.l.l.l.l.g.&.&.&.&.X. . . .X.X.X.X.X.%. . . . .X.X.X.X.X.%.%. .Q  . .&.&.&.&.&.&.&.&.&.=.&.*.*.&.&.&.&.*.&.&.&.X.W c c s s s s k l l l x c c x x W X.&.X.X.X.X.Q W c x c x V X.I.@X#X|.|.|.W.W.W.W.W.W.",
"W.W.W.U.I.P.G.I.I.g. .I I I W W I I I I I I I I W  . .&.g.k.&.&.*.k.G.G.J.J.J.J.P.).'.U.I.I.|.|.|.|.E.X.x f f f f f f Q l.g.g.U.vXjXtXT.T.G.F.!.U.P.G.F.*.=.=.%.%.%.%.%.%.%.%.%.X.X.%.%.%.%.%.%.~ Q Q Q Q Q Q Q W W W W W W E E E B g g g x x c I I I I W  . . . .%.&.&.&.&.&.+.+.%.%.=.%.%.&.&.&.=.=.*.*.*.&.&.&.&.&.&.+.+.+.#.&.#.#.@.&.&.&.&.#.$.l.G.J.J.G.l.k.X.W v K Y 4.OXU.5.'.iXK.` +.K.-.$.#.#.$.:.l.*.+.U K U U Y *.K.K.G.4.:.K.).G.Y  .&.G.J.G.4.4.4.H.K.K.K.T.'.'.'.+XoXT.K.H.H.5.G.G.g.*.@.Y T Y +.g.G.J.P.P.J.J.J.*.*.@.+.+.@.@.@.@.=.=.=.*.*.+.I T Y  .*.U.#X@X|.*.=.#.+.@.+.=.=.@.@.$.*.G.J.J.H.@XoX+XtXiXaXpXpX'.H.G.4.=.*.G.G.G.J.J.G.G.G.G.G.G.G.G.G.G.G.G.G.G.G.G.G.:.*.l.G.J.J.J.J.J.J.J.J.G.G.G.G.G.G.G.G.:.:.G.G.G.G.G.G.G.:.:.$.$.$.$.&.&.#. .U U U U I I U X.l.E.E.I.c.X.X.X.X.~ ~ ..u.B g g l d x &.W.c.l.l.l.l.k.l.G.G.G.G.G.l.l.l.l.L.l.f.&.&.&.&.&.&.&.X. .Q  .X.&. . . . .X.X.X.X.X.X. .I I  .&.&.&.&.&.&.&.&.&.&.=.&.*.*.&.&.*.*.*.&.&.&.%.W l d s s s l x c c I x c c x I X.X.X.X.X.X.X.Q W c k x V c I l..X@XXXXX|.W.W.W.W.W.W.",
"W.W.W.I.I.I.I.I.l.%.W I I I E c c x x x I W W Q X.&.&.g.&.&.&.&.&.k.G.P.J.J.K.K.U.'.U.I.I.|.@X#X.Xc.W s s c x u a f E g.P.G.T.fXcXgXY.Y.T.1.=.U.P.L.F.=.=.%.%.%.Q Q ~ ~ %.%.%. . . .+.+.%.%.%.%.~ ~ Q Q Q Q Q Q E E ^ E E E E E B B x x x x x x c x x x I Y W  .+.&.&.&.&.&.&.+.+.+.%.%.%.%.%.&.&.&.&.*.*.*.g.g.*.*.&.&.+.+.+.+.+.+.&.=.*.*.*.*.*.*.l.l.*.=.+.+.W Y I I U +.U.fXOXK.G.4.+.+.:.G.-.$.#.#.$.:.l.l.+. .I K Y *.G.I.J.G.4.J.U.I. .8 9 K +.*.*.*.H.T.H.H.K.K.K.'.'.'.oX'.K.5.4.5.H.K.G.g.=.+.Y Y Q +.g.G.G.G.G.G.g.*.@.@.@.@.@.=.=.*.*.=.*.g.=.Y I I T +.G.|.#X$XXXU.*.*.&.&.&.&.*.l.*.*.:.l.l.G.G.G.U.U.'.oX+XiXpXgX'.G.4.4.*.4.J.J.G.G.G.G.G.G.G.G.G.G.G.G.G.G.G.G.G.G.G.l.*.$.$.:.G.G.G.G.G.J.J.I.G.G.G.G.G.G.G.G.l.l.l.G.G.G.G.G.G.G.:.*.*.*.*.=.@.@.@.Y U Y  .+.g.L.|.XX|.I.f. .X.X.X.X.X.~ ~ ~ x c g s l X.c.I.L.J.J.l.l.k.l.l.l.l.l.l.G.l.l.l.l.l.l.c.c.l.l.g.l.j.&.X.Q W Q  . . . . . . .X.Q Q Q x d l  .&. .&.&.&.&.&.&.&.&.&.&.&.*.&.&.*.g.*.*.g.&.X.I s s s s l x c c I I x x c W X.f.o.X.| | | | Q W x k x W V x X.L.|.|.|.|.W.W.W.W.W.W.",
"W.W.W.I.I.U.I.L.%. .U I I I I x c I I I W Q  .X.&.&.g.g.&.&.&.*.f.k.G.I.P.P.U.U.).).K.I.U.@X#X|.l.c 4 f x s y s a ~ g.g.G.T.tXjXjXtXY.H.H.1.$.G.G.F.g.=.%.%.%.%.~ ~ %.%.%.%.%.%.~ ~ ~ ~ ~ ~ ~ ~ Q Q ~ Q Q W W W E E E E E E E E x x B E E E E E c c x c I Y W  .%.&.&.%.%.&.&.%. .+.%.%.+.+.%.&.&.&.&.*.*.*.g.*.&.&.&.&.%.%.+.+.+.@.=.*.*.*.*.*.=.=.&.=.+.Y T U U Y Y U U  .G.OX&XU.*.+.' $.:.+.$.$.$.#.$.:.*.*.+.%.U l +.I.I.G.4.*.*.J.G.&.l 1 9 v Q  . .+.G.U.G.H.H.5.5.H.H.H.H.5.5.5.5.5.H.K.G.g.=.+.T Y +.=.*.*.*.*.*.=.=.@.@.+.@.=.=.=.=.=.*.*.*.*.+.K K T K @.U.$X5X$X|.J.G.l.l.*.*.k.l.l.l.l.l.G.l.l.l.G.g.g.G.K.OXiXfXhXOXG.*.4.4.4.G.4.G.G.G.G.G.G.G.G.G.G.G.G.G.G.G.G.G.G.G.l.*.=.=.*.l.l.l.G.G.J.J.J.G.G.G.G.G.G.G.G.l.l.G.G.G.G.G.G.G.G.l.:.*.*.*.*.*.J.J.G.G.J.U.XX#X@XXXU.l.&. .W  .X.X.X.X.X.~ ~ x c s 8 c k.E.l.L.L.J.l.l.k.l.l.l.l.l.l.l.l.l.l.l.c.I.I.c.&. .W Q  .%.%.%. . . . .Y Y Q  . .Q W W c d s I  . . .&.&.&.&.&.&.&.&.&.&.&.=.&.&.g.g.*.k.k.&.Q x s 3 s s l c c c c c c c W X.g.f.X.| | Q Q  .| W c k x W W c U f.W.|.|.|.W.W.W.W.W.W.",
"W.W.U.I.P.I.L.g. .Q I I I I I c I W Q  .X.%.%.&.&.&.&.&.&.g.k.*.g.l.J.I.H.H.P.U.U.U.U.U.XX#XE.&.l s s B f ; 3 x W j.G.F.H.T.tXjXfXoXY.P.1.$.*.1.g.*.=.=.%.%.%.%.%.%.%.%.%.%.%.%.~ ~ ~ ~ ~ ~ ~ W ~ ~ ~ ~ Q W W W ^ ^ ^ E ^ ^ ^ W B B B B c c W W W W W W W W Q  .X.%.%. .X.&.&.&. .X.X.X.X.X.X.%.&.&.&.&.&.&.&.%. . . .X.%.%.%.+.+.=.&.&.=.=.=.&.%.+.+. .Q Q Q  . . .+. .Y Y Y +.OXXXXX).J.G.G.$.$.$.#.#.*.*.*.*. .+.U U l.K.G.:.*.*.G.G.%.l 8 s W W Q Y U T +.@.G.H.G.4.4.4.4.1.1.4.4.G.G.G.G.G.G.G.=.Q T T +.=.=.=.@.=.=.=.@.@.@.@.#.=.=.=.=.=.*.*.*.@.T K T Y R G.OX$X$XXXG.*.l.l.k.k.k.f.g.g.g.g.g.g.g.g.g.g.*.*.*.G.).+XiXgX'.:.=.:.*.*.:.:.l.l.l.l.l.G.G.G.G.G.G.G.G.G.G.G.G.G.G.G.:.*.*.*.*.*.l.G.G.G.G.G.G.G.G.G.G.G.G.G.G.G.G.G.G.G.G.G.G.G.G.:.*.*.:.G.K.'.oXoXoX$X$X$X|.P.l.&.+.+. . .X. .X.X.X.Q ~ X.l l s s Q c.E.c.L.L.J.l.l.l.l.J.l.J.J.J.l.l.l.l.c.c.g.&.W x s 8 8 d U  .+.+. . ._ Y Y  .X.X.Q W x l d I W  . . .&.&.&.&.&.&.&.&.&.&.&.&.&.*.g.l.l.k.f. .x s s s s s x c c x x c W c | g.k.X.Q Q X.| Q | | W x s W c W W I &.W.|.U.U.U.U.U.W.W.W.",
"W.W.U.P.P.P.l.&.Q U I c c I I I W Q X.&.f.f.&.&.f.&.&.&.k.l.k.&.g.l.J.I.J.J.P.U.U.U.U.W.#X@Xf.s s s u y y s l x j.g.*.G.Y.R.rXbXtXY.Y.T.$.R *.G.=.=.%.%.%.%.%.%.%.%.%.%.X.~ ~  . . .~ ~ ~ Q ~ Q W ~ ~ ~ Q W W W W ^ ^ ^ ^ ^ W W E B c x l l x c W W W W W W W W  . . .Q  .&.&.&. .X.X.X.X.X.X.%. .X.%.%. . . . .Y Y Q  . . . . .+.%.%.+.Q Q  .+.Q Q Q  .+.&.g.l.*.&.&.&.&. .Y U &.J.&XhX).#.$.>.#.#.#.&.*.*.*.&. . .U  .I.I.$.*.G.*.G.l.U 1 3 W  . .Q Q Y Y Y Y G.H.H.4.4.H.H.4.G.G.4.4.4.1.4.G.J.G.=.Q T Y +.*.=.@.+.+.@.=.@.@.@.@.#.@.=.=.*.*.=.*.*.Y K T Y Y K.OX$X$XU.G.*.&.g.k.k.l.l.l.l.l.g.k.k.k.l.l.l.l.G.l.l.G.U.OXiXiX'.4.$.G.*.$.:.:.*.*.*.l.l.l.G.G.G.G.G.G.G.G.G.G.l.G.J.G.l.:.:.l.:.*.l.G.G.G.l.l.G.G.G.G.G.G.G.G.G.G.G.G.G.G.G.G.G.G.G.l.*.*.l.J.U.OX$X$X$X$XXXP.:.&. . .@.&.+._ %.X.X. .Q  .X.X.l s s x X.c.I.L.l.l.l.l.l.l.J.L.G.L.I.J.l.l.l.l.l.f.Q l 8 8 8 9 3 9 l I U U Y Y _ Y Q  .X.X.Q W d d x Q  . .Y  .&.&.&.&.&.&.&.&.&.&.&.&.&.*.g.l.l.k.&.U s 8 s l s g c W c c c c W c X.c.g.W c Q X.| Q Q Q W l s | x W  .I %.|.U.U.U.U.U.U.W.W.W.",
"U.W.I.G.P.W.l.Q Q W I I W Q  . .&.%.%.&.f.f.&.&.f.f.g.k.k.g.&.&.l.P.U.U.P.P.U.XXXXU.U.#X#Xc.I 8 x f s f s u W j.j.%.F.H.5.oXjXjX].T.P.G.$.=.$.F.+.+.%.=.%.%.%.%.%.+.%.+.+. . .Q  .+.+.+.%.+. .Q Q Q Q Q Q Q Q Q ~ ~ E g g ~ ~ B B B c x x l l g x x l l x I W Q  . .Q Q  .%.&.&. . . . . . . . . .X.%.&.%.%. . .W W W U W W Q Q Q Q  .Q Q Q Y Y Q Q Q +.&.g.g.*.&.+.+.+.+. . . .U U $.K.J.:.$.#.#.#.#.#.:.&.&.+. . . .@.*.G.4.*.*.G.P.*.K < 8 W X. .Q Q U K T Y U.'.'.H.1.4.G.4.G.G.4.4.4.G.G.G.G.*.@.Y T Y +.=.+.+.@.@.=.=.=.=.=.=.=.*.=.=.=.=.*.*.Y T T T Y P.@X$XfX@XG.=.*.l.l.k.l.l.l.l.l.l.k.k.l.l.j.j.j.g.g.k.:.l.P.oX+X+X'.:.$.:.*.*.*.$.*.*.*.*.&.&.*.l.l.l.l.l.G.G.G.G.G.G.G.G.G.G.G.G.G.G.l.l.l.G.G.G.l.G.I.G.G.J.G.G.G.l.*.*.*.l.G.G.G.G.G.G.l.G.G.I.$XoXoXoX$XOXG.' +.+.@.@.+.+.+.+. .O.X.X.X.X.X.X.c s 8 x f.I.I.v.L.I.I.).I.I.I.).L.l.k.l.l.:.k.L.I.X.l s s 8 s l l l l 9 l l 0  . .L  .X.Q X. .d 8 s d I Q  . . .&.&.&.&.&.&.&.&.%.%.&.*.*.*.*.l.G.l.U 3 8 d f f f x E W I c c c c X.g.c.f.X.Q W W Q X.X.W x s s W V W W U &.U.|.P.P.U.U.W.W.W.W.",
"W.U.U.U.U.L.%.U I W W X.X.%.%.%.&.&.&.&.f.f.f.f.f.g.g.g.k.g.k.g.G.P.U.U.P.K.U.XX@XU.XX5X|.Q s s x f f s s x &.W.I.g.G.H.5.rXjXgXY.Y.P.P.G.*.*.F.+.%.+.+.+./ Q Q =.+.+.+.Q Y Y Y / +.+.+.+.+.+.+.+./ Q Y Y E Q Q I E E E E ! ^ g B B B c x x l l x l l l x c I W Q W W Q  .X.%.&. . . . . . . . . . .X.%.%.X. . .W W W W W W W W Y Y Q Q Q Q Y Y  .+.+.%.=.=.&.&.&.&.%.+.+. . . . .U  .#.#.&.:.&.#.#.;.:.;.&. . . .Y Y +.$.G.G.4.*.G.G.=.l 1 s  .Q I I Q Y K T +.oX'.K.1.*.1.4.4.4.4.1.1.1.1.1.1.1.=.+.Y T T +.@./ +.+.@.=.=.=.=.=.=.*.*.*.*.*.*.=.@.T T T Y =.U.$X$X@XP.l.*.*.l.k.k.l.l.l.l.l.l.k.k.l.l.l.j.j.g.l.k.*.l.J.oX&X&XXX4.$.:.*.$.:.$.*.*.:.*.&.&.*.l.l.l.l.l.G.l.G.G.J.J.G.G.l.l.l.G.l.l.G.G.G.G.G.G.K.*.=.J.G.@.+.*.&.&.&.&.&.*.l.G.G.G.l.l.*.*.g.G.XX$XfXoXJ.@.+._ +.+.@.@.+.+.+.#. . .X.X.X.X.X.X.l 8 s  .l.L.L.I.I.I.I.I.L.l.l.J.l.l.l.l.l.k.k.L.l.Q s s s l l I W U U l I U U G.+.I  .&. . .Q s s d c U Q  . ._ %.&.&.&.%.&.&.%.%.&.*.g.*.*.g.l.G.g.I 8 s g f f f x E W c x c c c Q o.f.&.X.X.X.W | X.Q I x l l c I W Y Y g.|.U.P.P.U.U.W.W.W.W.",
"U.I.U.|.U.*.Q Q I Q %.f.f.f.&.&.f.&.&.f.f.j.g.f.k.g.g.&.g.k.k.l.I.P.P.U.U.U.XXXX!.%X5X@X&.s 3 s x g s a f Q c.@XXXP.H.H.Y.gXzXpXY.K.U.Y.U.H.G.G.G.G.F.1.*.*.=.@.*.*.$.=.+.+./ Y / R / +./ / / Y / R Y T T Y Q ~ ~ ~ Q x g I x g E E B B B x x x x x l l x c I I W W W W  .X.X.X. . . . . . .X.X. . .X.X.&.X.X.X. . .W W W W Y Y U Y Y Y  . . . .+.@.&.@.+.+.@.=.=.&.&.+.+. . . .&. . ._ _ &.l.;.;.:.>.>.&. . .Y +.Y Y  .=.G.G.G.*.*.g.=.I 8 s W  .W U U K K / G.$XT.1.@.$.$.*.1.1.1.$.@.=.$.$.1.*.=./ T I Y +.+.@.@.=.=.*.*.*.*.*.*.*.*.*.*.*.*.@.Y T T T @.U.@X&XXXJ.*.*.g.l.l.k.k.g.g.l.l.l.l.k.l.l.l.l.g.g.g.l.l.:.:.J.XXiXiXOXG.$.:.:.$.:.:.*.:.l.:.*.*.g.G.G.G.l.l.l.l.l.l.G.G.G.l.l.l.l.G.l.G.G.G.G.G.G.G.#.*.l.:.#.+.=.l.&.=.*.*.*.*.l.G.:.:.*.*.&.&.=.=.4.'.$X).@.Y _ @.+.#.&.+.+.+.+. . . . . .X.X.X. .l s x f.I.z.l.(.I.I.I.I.J.l.k.k.l.l.l.l.l.*.l.G.X.c 8 s x c W W  . .Y l I T Q |.*._  .&.X. .W 8 s x W Q Q Y Y _  .&.&.&.%.&.&.%.&.&.*.g.g.*.g.G.l.&.x 8 s g f g s x W E l k l c c W Q | | X.X.X.| | Q W c x c W x I W U Q G.|.J.P.P.P.U.U.U.W.W.",
"I.I.W.W.L.%.Q Q Q %.f.l.j.&.&.&.f.f.f.f.j.l.l.j.l.g.&.&.g.k.l.L.U.P.P.P.U.XXXXXXU.5X5Xf.s s k f B x s y d X.L.W.$X@XU.K.T.jXjXrXY.P.P.T.'.T.T.T.T.T.T.T.U.U.U.U.U.U.P.H.G.4.1.*.$.$.=.=.=.+./ R R R Y Y T T Y I Q Q W x g x c B E E E B B B x x c x x x x x c I W I I W W  .X.X.Q Q Q Q  . .X.X. .X.X.&.&.&.&.&. . .W W Y Y W _  . . . .+.+.+.+.+.+.+.+.+.+.&.$.*.=.&.+.+. . . .&. . . . .&.l.#.;.>.>.;.O. .Y Y  .Y Y +.*.G.G.4.*.1.F.*.+.l 9 8 W  . .I d T J.$XXXG.=.=.$.$.$.1.1.$.$.=.=.=.$.1.*.+.Y T I Y +.=.*.*.*.*.*.*.*.*.g.g.*.*.=.=.=.=.+.K K T Y G.$X&XXXI.g.&.*.l.l.g.k.k.g.g.j.j.l.l.k.l.l.l.l.g.g.*.g.l.*.$.J.'.iXiX$XJ.:.:.:.:.:.:.*.:.l.:.*.*.l.G.G.G.G.G.l.l.l.l.G.G.l.G.G.G.G.G.G.G.l.l.:.*.*.*.*.*.+. .*.K.J.+.G.G.I.I.G.l.l.l.*.*.*.&.&.&.&.&.=.:.G.*.#.+.@.#.#.#.+.+.+. . .#.O. . . .&.&.X. .x I X.c.I.l.l.I.I.I.I.I.I.J.l.l.k.l.l.k.&.:.l.l.W s 3 k W Q Q Q Q  . .K K T  .#XL. . .X.X.X.W s s l I W U U U _  .&.&.&.&.&.&.%.&.&.*.g.g.*.g.G.l.X.l 8 l g f x f x E x s u s x c x x c W W W W Q Q W c x c I W c W W I Q G.U.G.P.P.P.P.U.U.W.W.",
"I.U.U.l.=. .Q Q %.f.j.l.f.&.&.&.g.g.g.j.l.l.l.l.l.g.g.g.k.l.L.I.U.P.P.P.U.XXXXXX$X$XP.l = s V x x g s s K %.l.L.#XoX'.Y.rXzXjXR.R.P.H.Y.XXXXoXoX'.XXOXOXOXOX'.OXoXOXoX'.T.T.T.U.Y.K.U.K.H.G.H.4.1.1.$.=.+.Y T T d K K K x x c c I I c c B B x x B B x x x c B I W I I I W Q W W W W W W Q  . .X. . .X.X.&.&.&.&. . .W I I Y  . .+.+.+.+.+.+.@.+.+.+. . .+.&.&.&.*.*.$.&.&.&.X.X.|  .O. ._ O.&. .;.;.;.+._ _ _  .Y Y +.=.4.G.4.1.1.*.1.G.G.+.K 9 d Y Y K Y P.$X$X1.$.$.1.1.$.1.G.*.$.$.$.$.$.1.1.=.+.T T T +.=.*.*.*.*.*.*.*.*.=.*.*.=.@.+.Y Y T T 0 T @.*.XXfX$XL.l.f.f.g.l.l.f.k.k.g.g.g.k.k.l.*.l.l.l.g.g.*.*.g.F.*.*.G.'.tXiX&XJ.:.:.$.$.:.:.:.:.:.l.l.l.l.G.G.G.l.l.l.G.G.G.G.G.G.G.J.J.G.l.:.*.$.=.&.&.&.=.G.=.=.G.G.=.*.J.J.P.P.G.g.&.&.&.&.&.=.&.&.&.&.&.*.=.#.+.&.$.&. .+.&.&.&. . . .#.&.O. . .&.&.X. .W &.l.c.v.L.I.I.L.L.I.I.I.L.l.l.k.l.l.:.*.l.G.l.x u 3 l Q X. .Q  .%.+.Y T T +.$XU. . . . .X.X.x 8 s x I I I U _  .&.&.&.&.&.%.+.%.&.*.l.g.*.g.l.l.%.x s g g s l x B B f 3 3 s x c x x c c c c x W W c c c c c W c I Y I  .G.U.G.K.K.H.P.P.U.U.W.",
").|.I.@.Q Q Q Q g.j.j.j.j.f.k.k.j.j.j.j.l.l.l.l.g.g.k.k.l.l.L.I.P.P.P.U.!.XX@X@XfXP.U s 8 s x ~ x g s g ~ g.l.G.U.@X'.'.pXzXpXH.R.P.H.Y.T.'.oXoXXX'.'.'.'.'.{.'.oXoXoX].oX].].'.oX].].].].'.'.'.Y.Y.'.T.K.G.1.*.=.+.U l d d x I c c c c B B x x B B x x B B B B W I I I W W W W W W W W W Q  . . . . . .X.X.X.X.X. .W I I Y |  .+.+.+.+.+.+.+.+.&.+. . .+.#.+.+.*.*.$.$.&.&.&.O. .X.O. .Y  .#. .&.#.O. ._ _  . .Y  .=.*.G.G.4.*.1.$.*.G.G.G.*.+.I Y T T *.$X$XG.=.$.1.H.4.1.1.G.$.$.$.$.$.$.$.$.@.Y T T Y =.*.*.*.*.*.*.*.*.*.*.+.+.Q Y I K K J 0 T =.P.@X$X$X|.&.f.l.l.l.l.g.g.g.k.g.l.k.g.*.*.*.*.*.*.*.*.*.*.*.G.4.4.G.'.+XiX$XJ.:.:.$.$.:.:.:.:.:.l.l.l.l.G.G.G.l.l.G.G.G.G.G.G.G.G.G.G.:.$.=.&.&.&.=.$.*.*.*.G.K.P.G.G.U.XXI.P.l.*.&.=.%.%.=.=.=.=.&.*.*.&.@.&.&.#.#.&.&.+. . .%. . . .O.&.&.#.O.O.&.&.&.X. .k.L.l.l.I.).(.L.L.L.L.L.G.k.&.&.k.l.:.l.I.L.k.s 4 u x Q  . . . .%.%.Y I K Y $XU. . . . .X.%.Q s d x x x I U _  . .&. . . .+. .%.&.*.g.g.*.g.l.l.&.I s d g s g B B x f 3 3 s c I c c c I c x l c c c c c c c c x x U  .&.I.U.J.J.J.J.J.P.P.U.W.",
"XXJ.=. .Q Q ~ %.c.c.j.j.j.l.l.l.l.l.j.j.l.l.l.g.f.g.k.l.L.L.I.I.I.P.U.U.XX@X$X$X!.Q q s x l x ~ x s a I %.g.G.G.P.XXOXoXgXzXyXR.P.P.P.Y.U.K.T.'.'.'.'.'.'.{.{.{.].].].].].].].].].].].].].].].].].].].oXoXOXXXXX@XU.*. .W I x x x c c x x x x x x x x x B B B B I I I I W W W I W W W W W W Q |  . . . . . .X.X.X. .| W I Y W Y +.+.+.+.+.+.+.+.#.@.+.+.+.+.+._ @.@.=.$.&.&.&.X.i.X.X.O. . .#.#.O. . ._ _ _ Y Y Y +.*.J.G.4.1.*.1.1.1.1.F.G.G.G.=.=.+.@.H.XXP.@.$.1.G.1.$.=.=.=.=.=.$.1.1.$.$.=./ T T I +.*.*.*.*.*.*.=.=.@.@.+.T I I I K K K K T =.K.OXiX$XK.l.f.k.l.l.l.l.k.k.g.k.l.l.l.*.*.=.&.&.&.&.&.&.=.*.*.G.G.H.K.'.+X*X+XJ.:.:.*.*.:.*.:.:.:.:.l.l.l.l.G.G.G.l.G.G.G.G.$.&.@.&.$.*.$.&.&.$.*.l.G.G.G.l.I.G.*.$.XXhXfXG.|.I.g.=.=.&.&.&.=.%.%.=.&.*.&.=. .+.&.&. .#.&.&.X. . . .X.O.&.&.&.&.&.#.&.&.&.&.&.l.c.l.l.J.I.I.J.J.J.J.G.l.*.&.&.k.k.:.l.L.*.Y 4 3 u x Q Q Q X. . . .U T K Y $XG. . .&.X.X.&.X.I c x x x I U Y  . .%. . . .+. .+.%.*.g.g.*.*.l.G.l.Q s s d s f x B x x s s l B c c I W c c c c c c c c I W W c c c  .&.l.G.P.J.J.G.J.J.H.P.U.U.",
"|.*.Q Q  .Q %.j.L.c.j.j.j.l.l.l.c.g.j.j.g.g.g.g.&.g.l.G.I.I.I.I.P.P.U.XXXX@X$X$X%.l 6 s E W W W E a 8 I g.g.g.G.J.XXXX+XjXzXyXR.H.P.U.Y.K.H.H.K.'.'.'.'.'.{.'.'.].].].].].].].].].].].].].].].].].'.'.'.'.T.T.T.XXXXXXXXU.g.Y d K K x x x x x x g g g x B B B B c x c I W Y W I W W W W W W W W  . . . . . . . .%. . . .W I I I +.+.+.@.@.@.@.+.+.+.#.@.+._ +.+.+.#.&.$.&.&.X.X.f.| | &.O. . . . . ._ _  ._ Y I  .&.G.G.G.-.*.4.*.G.G.F.$.*.*.F.F.F.F.G.G.1.1.1.F.J.G.=.+.+.+.R +.@.=.1.1.$.=.+.T K K T =.*.*.=.*.=.@.+.Y T T K K K K K K T K T *.XXoXoX&XXX*.&.c.c.c.l.l.l.k.k.*.k.l.l.l.*.=.&.#.&.&.@.+.&.=.*.*.G.K.K.K.'.+XuX+XJ.$.:.*.$.:.*.:.:.:.:.l.l.l.l.G.G.l.l.G.G.G.G. .Y U Y  .#.&.&.*.l.J.I.P.J.J.l.*.:.J.K.U.P.).#X#XU.g.%.%.=.&.=.=.%.+.=.&.&.=.+.&.&.&.#.+.+. .Y X.X.X. . .O.&.&.&.&.&.&.O.&.f.l.c.l.l.L.J.l.l.J.l.l.l.J.J.l.k.&.&.k.l.:.l.l._ 7 3 2 u x Q W Q X.%. . .L T K +.5Xl.Y  .&. .X.%. . .W I x I I U U  .%.&. . . .%.+.+.%.&.g.g.*.*.l.c.L.X.s 8 s s s f x B B c c B V x x V x c c c W W I c c W W W I W I %.G.G.J.J.G.J.G.J.J.H.P.U.U.",
"P.%.Q / / Q %.L.g.g.g.g.g.g.g.g.j.j.j.g.g.g.g.g.g.l.G.G.L.L.P.P.P.T.T.T.%X5X@Xl.8 s x c c W W E l 1 s %.f.g.L.*.U.U.+XpXpXjXpXK.P.P.H.H.H.H.G.5.H.K.`.'.].'.'.'.{.].].].'.'.`.Y.'.'.].'.].].].].].].].'.Y.Y.Y.Y.'.Y.T.'.oXoXK.4.Y I T I I I K J g g x E E E E B I I I I U Y Y Y  .Y Q  . .Q W  . . . . . . .+.+. .+.+.Y T Y Y I K I T +.=.=.@.+.@.@.@.@.+.+.+.+.+.+.#.&.&.&.&.O. .X.X. . . .X. . . . ._ U U _  .l.:.G.G.G.:.*.$.1.1.1.1.1.1.1.*.F.1.1.1.1.1.1.1.G.g.=.+./ ' +.+.+.' =.1.G.=.R Y T K I Y =.*.=. .Y I K K K I K J T K K K K L @.H.OX&XfXOXJ.&.&.l.f.l.l.l.j.g.l.l.g.l.l.l.G.*.=.=.@.=.*.=.%.=.&.+.&.$XjXiXoX[.].].OXG.=.*.G.:.*.G.l.l.l.l.l.l.l.G.G.G.G.G.l.*.g.G.%.+.%.=.*.*.g.J.U.U.U.K.K.P.U.U.oXOXXX`.U.U.U.U.U.G.&.+.+.+.+.+.+.+.+.&.&.&.@.+.&.&.#.#.+. . . . . .+.#.&.&.&.&.&.#.#.#.#.&.&.k.l.g.k.l.l.l.l.I.L.J.J.L.G.:.&.&.&.*.l.l.&. .0 # 3 2 4 x |  . . . ._ Y K L @.I.XX . . . . . . . . .W U Y Y  . . .#.#.#.#.O.O.O.O. .&.&.l.l.l.l.l.g.P.G. .d 8 s s s x c l x B V V x c V V V c c c x I W W W I I I g.G.P.P.J.G.G.J.G.J.H.J.J.P.U.U.",
"g./ Q / %./ j.L.g.g.g.g.g.g.g.g.g.g.g.g.g.g.F.g.F.G.G.J.P.P.P.P.K.T.T.XX%X5XL.I s s l c W Q E x s 3 x &.j.l.L.g.P.P.+XpXgXzXpX7.P.P.H.H.H.H.G.5.5.H.K.T.'.'.].].'.'.'.{.{.'.].'.{.{.{.{.{.{.{.{.].].].].].].].].].].'.'.'.].].'.T.P.1./ Y T I I Q E I E E E E W I I I Y  . . . . . . . . . . . . ._  ._  . .+.+.+.&.=. .Y Y Y T I I I Y / =.=.=.@.@.@.@.+.+.@.#.#.#.#.&.&.&.&.&.O.O.X.X.X.X.X.X. . . . .Y _  .#.l.:.:.*.*.$.$.*.4.F.F.F.F.F.F.F.G.G.G.G.F.F.G.G.g.*.=.+.+.' ' ' ' +.$.$.=.R T Y K I U Q Q Q Y I I I K d J K K T T K K Y @.G.'.+XoXoXXXK.l.*.*.l.j.l.c.l.g.g.l.l.k.l.l.l.*.*.=.@.=.@.+.+.*.*. .l +.#XvXvXgXrX].rXoXP.G.G.G.*.$.:.l.l.:.:.:.l.l.l.l.g.l.G.l.g.g.G.g.*.*.g.*.&.*.l.G.*.@.$.4.H.J.G.4.4.4.4.4.4.4.4.l.*.+.+.+.&.&.+.+.+.+.&.&.&.#.+.&.&.#.#.+. . . . . .#.#.&.&.&.&.#.#.#.#.#.&.&.&.l.l.k.l.k.:.l.L.J.l.k.l.:.&.#.&.l.k.l.l.&.&._ 8 3 2 4 c X. . .#.+._ w 0 _ K.U.&. . . . . . . . .%. . . . .&.&.&.#.#.#.#.O.O.O.O. .#.&.*.l.l.l.l.g.G.g.=.U d s s s x c l z x B B x V V V V c I W W I I x I  .g.G.F.G.P.P.P.G.G.G.G.J.J.J.P.T.XXXX",
"%./ / %.j.j.g.F.g.g.g.g.g.g.g.g.g.g.g.g.g.g.g.g.G.L.P.P.P.P.P.P.U.T.XX$X$XW.~ s s l c W ~ X.E d s a W f.g.l.P.G.G.H.oXpXjXzXaX5.K.P.H.H.H.H.G.G.G.G.H.H.K.`.{.].].'.'.{.'.'.].[.{.{.{.{.'.'.'.'.].].].].'.].].].].].].`.Y.Y.].+X+XoXoXXXU.H.G.*.@.@. .Q U U U U U U U U U U U U  .Y Y  . . . . . . . . . .O.&.&.&.&.%. .Q U U U U I I I I Y +.=.&.+.+.+.+.+.+.#.#.#.#.&.&.&.&.&.&.O.X.X.X.X.X.X. . . . . . .&.*.G.>.$.=.&.=.$.*.*.1.1.1.1.1.1.1.1.1.1.1.1.1.1.F.*.*.=.+.+.+.' ' Y @.4.$.Y T I I d I Q Q U K l l 0 K T T K K K K T ' *.H.'.+X+XoXoX/.G.$.=.*.g.l.l.l.c.l.j.g.g.g.l.l.l.*.*.&.=.=.=.=.=.=.g.g.Q l Y G.$XjXvXiX].+XoXU.J.G.G.*.$.:.l.*.*.*.*.:.l.G.G.l.g.l.l.g.g.g.l.g.g.g.*.=.=.&.*.=.@.@.=.=.+.+.+.+.@.@.@.@.@.@.&.+.+.+.&.&.&.+.+.+.+.+.&.&.&.&.&.&.&.#.+.+. . .#.#.#.&.&.&.&.#.#.#.#.#.#.&.&.&.l.l.g.k.g.k.l.J.J.k.k.&.&.+.#.&.l.l.l.k.&.k.l.&.c k k c |  . . .+.L K Y I.#XJ.U  . . .X. . . . .%. . . .&.&.&.&.&.&.#.#.O.O.O.O.+.&.&.*.*.*.l.l.G.*.*.l.&.I s s s d l l z x x x V V V c c c c W I W Q %.&.g.L.I.G.J.P.P.P.G.G.G.G.G.J.H.U.XXXX!.",
"%.j.g.j.g.g.g.g.g.g.g.g.g.g.g.j.g.g.g.g.g.g.g.g.G.L.P.P.P.P.P.P.T.U.oXfX@X .d d f c W ~ X.Q x s 3 s ~ j.c.L.G.J.G.J.T.tXjXzXaX7.U.P.H.H.H.H.H.H.H.H.5.5.5.H.K.K.'.{.'.'.'.{.{.{.{.{.{.{.'.'.'.'.].].].].'.'.'.'.'.].].].'.'.'.].'.].oXrXtXtX+XoXoXOXXXU.P.J.G.G.&.#.@.+.+. ._ _ Y Y Y Y Y Y Y _ _  . .&.&.&.O.O. . . .W U I U U Q Q U I K K T  .+.+.+.+.+.+.+. .#.#.#.#.&.&.&.#.&.&.X.X.X.X.o.O.&.#. . . .&.:.G.l.:.*.$.#.&.$.*.@.$.$.*.$.*.1.1.$.$.$.$.$.*.$.1.=.@.+.+.R ' ' ' R *.G.=.Y I K K l I Q Q I K l K J K T T T K T Y @.P.@XoXoXoXoX'./.K.$.@.=.g.l.l.g.l.l.l.g.g.g.g.l.l.*.*.&.=.@.@.@.&.g.g.%. .W U U Q &.U.fXiXoXOX$XU.G.g.g.*.*.:.*.*.$.$.$.:.l.l.G.g.g.g.*.&.&.*.&.&.&.&.=.+.=.&.=.1.G.*.+.R Y ' ' ' @.$.$.$.@.@.#.+.+.+.+.+.+. .+.+.+.+.+.&.&.&.#.&.&.&.&.#. . .&.&.&.&.&.&.#.#.#.#.#.#.+.%.%.%.l.g.g.g.g.k.l.l.l.l.k.&.&.#.&.&.l.l.l.k.&.k.I.l.f.W l v I U U Y T K +.).OXG.+. . . .%.%. . . . . . . .X.&.&.%. .O.O.#.#.O.O.+.+.#.&.&.&.&.*.*.l.G.*.*.G.l.%.I d 8 s l x B B B x V W V c c c I I W  .g.L.U.P.G.G.J.J.P.P.P.G.G.G.G.P.H.P.W.XX!.P.",
"g.g.g.g.g.g.g.g.g.g.g.g.g.g.g.g.g.g.g.g.g.g.g.g.g.F.G.J.G.P.P.P.U.XX$X@X&.d 8 x g W ~ X.W E g s 1 x %.j.L.G.G.J.G.H.K.oXjXzXiXY.K.U.H.H.H.H.H.H.H.H.H.H.5.5.5.5.K.`.'.].].].'.'.].].].].'.'.'.'.oXoXoX].].].].'.].].oXoXoX].Y.Y.'.Y.K.K.K.`.[.+X'.'.'.'././.J.J.K.K.U.K.U.K.U.K.#.@.+._ Y Y P L U Y  . . . . . .W U I c I W W W Q Q Y U I K K I  . .+.&.&.+.+.+.O.O.O.#.&.&.&.#.O.O.O.O.X.X.X.X.&.#.#.#.#.&.l.G.:.:.$.$.$.$.$.$.@.@.$.$.*.$.*.*.$.$.$.$.*.*.*.1.=.@.+.R R +.+.=.G.J.F. .I K K d I I U I I K K I T K H H P +.G.U.'.oXoX'.'.oXoX'.4.:.$.$.*.l.l.l.l.l.l.l.j.l.l.l.l.g.*.&.&.@.@.@. .%.&.X.I l x W I U U  .K.$XtXiXfXXXG.=.*.*.*.*.*.*.$.&.$.*.:.l.*.=.+.+.+.+.+.@.+.+.@.@.+.@.#.&.=.*.G.G.G.*.*.=.+.#.@.@.@.@.@.#.&.&.+.+.+.+.+.+.+.+.+.+.+.%.&.&.&.&.&.&.#.#.#.#.&.&.&.&.&.&.#.#.#.#.#.O.+.%.%.%.&.g.g.g.k.l.l.k.:.k.l.:.&.&.&.&.k.k.G.l.&.:.J.G.k.Y l l L L L P P ' J.OXK._ U &. . .+. . . . .%.&.&.&.&.&.&.&.%.O.O.O.O.+.+.+.+.&.&.&.&.&.&.=.*.g.G.g.g.l.g. .x s s d x c c x x x x c I W W  . .l.l.G.G.J.J.J.P.J.J.J.P.P.J.J.J.P.P.P.P.W.W.L.g.",
"j.g.g.j.j.g.g.g.g.g.g.g.g.g.g.g.g.g.g.g.g.g.g.F.g.g.G.G.G.P.I.P.U.fXfXg.d s x l x W ..~ B g s a 1 W f.g.L.G.G.J.J.H.H.].jXcXiX'.U.U.K.H.H.H.H.H.G.G.H.H.H.H.5.5.5.K.Y.'.'.].'.'.].].'.].'.'.'.'.'.'.Y.Y.Y.T.Y.Y.].T.K.K.Y.Y.K.K.K.5.4.2.4.3.7.7.`.{.{.+X+X{.'.{.'.'.oXoXoXoXoXoXU.U.K.4.-.$.@.+.+. .Y U U Y  . .Y I v c I I W W I U Y Y U U I I Y Y  .+.&.&.&.&.O.O.O.O.#.#.#.O.O. .O.O.X.X.X.O.#.#.#.#.#.&.:.l.$.$.$.$.*.$.$.$.*.$.$.*.4.4.4.4.4.4.4.4.4.4.4.4.1.1.1.1.$.1.4.G.!.J.+.K d l x x U I I K l l K K 0 K Y +.4.K.'.OXoXOX'.'.oX+XU.-.@.*.:.:.l.:.l.l.l.l.c.l.l.l.l.l.*.*.&.=.@.@.&.&.&.X.W I x l x I x W U I  .G.#XhXhX$XJ.*.=.*.$.&.*.*.$.$.*.*.*.:.+.Y U U Y Y  .+.+.@.&.&.@.&.&.&.G.=.=.*.P.U.G.*.$.$.$.@.@.@.@.+.#.+.+.+.+.+.+.#.+.+.+.+.+.+.%.&.&.&.#.&.#.#.&.&.&.&.&.&.&.&.&.#.&.#.#.O. .%.%.%.&.&.f.g.k.l.k.&.&.*.k.*.&.&.&.&.l.l.L.I.k.k.G.l.*.Y K K L K K P 4.U.XXJ.&. . .#. .+.%. . . .%.&.&.&.&.&.&.&.&.%.O.O.O.O.+.+.+.+.&.&.&.&.&.&.=.*.g.G.l.*.g.G.g.Q d s s s s s s s l l I Q X.&.l.L.I.I.P.G.G.G.J.P.J.J.G.J.J.J.G.J.G.P.P.L.L.L.g.%.",
"g.j.j.g.g.g.g.g.g.g.g.g.g.g.g.g.g.g.g.g.g.g.F.g.g.g.G.G.P.P.U.U.$X$XU.I 9 l I l ^ ~ ! ^ x f s a s X.j.g.G.G.G.J.J.H.G.`.zXcXiX].U.K.K.H.H.H.H.H.H.H.H.H.H.H.H.H.5.H.H.K.K.T.T.T.T.T.T.T.Y.K.K.K.K.K.K.K.K.5.H.H.K.H.4.4.5.5.5.5.1.4.4.5.5.5.4.$.3.4.5.5.5.5.6.6.K.K.U.`.'.'.OX[.oX+XoX'.'.`.U.K.G.4.:.$.=.=.$.*.+._ U U Y U Y _ U U U Y Y Y Y U U U Y Y  .+.+.#.+. .O.O.#.#.&.#. . . . .+.%.+.%. . . .#.#.&.*.*.&.&.=.=.$.$.$.$.*.$.$.<.3.3.3.<.3.3.$.<.$.$.$.1.H.P.K.K.U.U.P.P.G.+.K d d x x K I I I K K J K K T ' 4.`.oX'.'.`.'.T.'.OXOXK.$.' =.*.:.:.*.*.:.l.g.l.l.j.*.&.&.&.&.&.&.%.%.&.&.&.%.W x c I I c I x W W I I Y G.fXhX$XXXJ.*.=.=.=.*.*.*.*.*.*.$.&.+.T K K L Y  .+.+.&.=.&.#.&.=.@.G.*.=.=.G.J.J.*.G.:.*.$.$.@.@.#.+.+.%.+.+.+.+.+.+.+.+. .+.+.+.&.#.#.#.#.#.#.#.#.&.&.&.&.&.&.&.&.&.#.#.O. .%.&.&.f.f.&.&.&.g.&.&. .&.k.&.&.&.&.&.l.l.L.L.l.l.G.G.G.#.Y P K K ' 4.OX'.J.@._  .&. . .&.%. . . .&.&.&.%. .%.&.&. . .&.#.#.#.+.+.+.+.&.&.*.*.*.*.*.l.G.G.F.g.l.l.g.*.Q l 8 8 8 8 s x Y  .%.*.l.G.P.U.I.P.P.P.P.G.G.G.G.G.G.G.G.G.G.G.F.L.L.g.g.g.g.j.",
"g.g.g.j.F.g.g.g.g.g.g.g.g.g.g.g.g.g.g.g.g.g.g.g.g.g.G.P.P.I.U.W.fXJ.I 9 d d s g ~ ~ ^ B f f a 3 d &.l.*.G.J.G.J.G.H.4.'.zXcXiX].K.K.K.H.H.H.H.H.K.K.K.H.G.H.H.H.H.H.5.4.4.5.5.H.H.H.H.H.5.5.5.5.H.H.H.5.H.5.H.H.5.5.5.H.H.H.5.5.5.4.1.1.4.4.3.3.5.5.6.6.4.3.>.>.-.4.5.K.`.oX+XuX'.oXoX[.[.+XoX'.'.oXoX{.'.K.K.G.-.+.` _ _ U U _  .Y U U Y Y Y Y U I K K K U Y _ +.O. .O.&.&.&.&. . . . . .%.%.%. . . .+.&.&.&.&.#.#.#.#.#.$.$.$.$.$.$.$.$.$.$.$.$.$.@.@.@.@.@.@.4.H.P.U.U.K.J.G.U d 9 l I I x x K I W I K K K T G.K.'.oX`.K.Y.'.`.T.U.K.*.' +.4.*.*.*.$.*.*.:.G.g.g.g.&.%.+. . .%.%.%.%.&.&.&.&.I x l I I I W Q W W I Q W x X.#X5X$X@XP.g.=.*.l.*.*.:.:.:.*.&.&.=. .T K U T Y +. .&.&.&.@.&.=.@.*.*.*.=.@.=.G.U.G.4.*.@.@.#.@.&.+.%.&.&.+.+. . .+.+.+.+.+.+.+.&.#.#.#.#.#.#.&.&.&.&.&.&.&.&.&.&.&.#.#. . .&.&.f.f.f.&.X.%.&.&. .+.&.k.&.&.&.:.k.J.l.l.J.k.l.J.J.G.$.' P F P K.gXOX4.+._  ._  . .&.&.%. . . .&.&.&.&.&.&.&.&.&. .&.#.#.#.+.+.+.+.&.&.*.l.l.l.G.G.G.*.*.G.G.g.g.G.g. .l s d x Q %.g.l.G.I.I.I.U.U.U.U.P.J.G.G.J.J.J.J.G.G.G.G.F.g.g.F.F.g.j.g.j.j.",
"g.g.g.g.g.g.g.g.g.g.g.g.g.g.g.g.g.g.g.g.g.g.g.g.g.F.P.P.P.U.!.@X@XI % 8 I g s x ~ ~ B g f f s 3 Q %.g.l.l.G.J.G.H.4.4.oXjXcXpX'.K.K.T.K.H.H.H.K.K.K.H.H.H.H.H.H.5.5.5.5.5.5.5.5.5.5.H.H.H.H.H.H.H.H.H.H.4.4.G.4.H.H.H.H.4.4.4.G.H.H.G.1.1.1.4.4.K.5.6.6.6.6.6.4.4.3.3.3.H./.`.`./.{.oX[.+XuX+X].].[.rXrXrXrX+X+X[.`.K.5.4.3.$.$. ._ U L L U Y _ U L L U K l v L U U ` _ _  .&.:.#.#.#.#.#.#.#.#.&.&.#.#.#.&.&.&.&.#.#.#.=.$.$.:.$.-.$.$.$.$.$.$.-.$.$.$.$.$.-.4.1.1.1.4.G.$./ T d d l x x x x x I I I I d d Y *.@X'.'.'.'.'.`.`.'.K.4.$.@.@.@.@.*.$.$.&.&.=.=.=.&.%.%.%.+.+. . . . .%.&.&.%. .~ c c c c x E W Q Q Q Q I x c W U P.$XhX@X*.@.$.=.$.*.*.:.*.*.$.&.&._ K K U  .+.+.@.#.#.&.&.&.=.=.=.=.=.=.=.=.*.G.U.J.=.@.@.#.#.#.#.+.+.%.+.+.+.+.+.+.+.+.+.+.+.&.+.#.&.&.&.#.#.&.#.#.#.#.&.&.&.&.&.&.&.#. .&.&.f.X.&.f.f.g.g.&. .#.&.&.&.&. .&.l.l.l.l.l.l.l.l.G.G.4.Y q R +XgX`.*.$.@.#. . . . .&.&. .%.&.&.&.&.&. . .%.&.&.&. . .&.&.#.+.&.&.+.*.*.l.l.l.l.*.*.*.*.*.*.*.*.g.g.G.G.G.L.L.L.L.L.G.J.I.P.U.U.U.U.U.U.U.U.J.G.G.J.G.G.G.F.g.g.g.g.g.g.g.j.j.j.j.j.",
"g.g.g.g.g.g.g.g.g.g.g.g.g.g.g.g.g.g.g.g.g.g.g.g.g.F.P.P.P.P.U.U.g.x 1 s s s f W ! B g f f s s a %.*.l.G.l.G.J.G.K.G.K.+XvXzXpX].K.`.'.T.K.G.H.K.H.H.H.G.G.G.G.H.G.5.5.5.5.5.5.5.4.4.5.5.5.5.5.5.H.H.H.H.4.4.G.5.H.H.H.G.4.4.4.H.H.H.F.F.G.G.G.G.K.K.J.4.4.4.4.>.H.5.3.3.5.5.5.3.4.7.K.K.`.+X+X[.[.dXdXdXrXeX[.[.uXuX+X[.[.{.{.{./.K.$.+.' _ L K Y L L L L K T _ Y U U U ` _  . .O.#.+.#.&.&.&.&.&.&.&.&.#.#.&.&.$.$.=.$.$.:.:.:.$.$.-.-.-.$.$.$.$.$.$.-.4.4.4.4.4.4.*.@.+.T 0 q d d l x x x x x I I I K I Y $.K.XXXX'.`.`.'.`.'.5.4.$.@.@.@.$.$.=.=.&.&.&.&.#.&.+.%.%.%.+.%. . . .+.%.&.&. .Q I c B c c I I Q Q X.X. .W x c I I T P.fXfXP.@.#.l.$.*.*.*.*.*.*.*.&.=.$.=.#.+.+. .@.@.#.&.&.&.=.&.=.=.=.=.=.=.=.=.J.J.G.=.+.@.#.+.+.+.+.+.+.+.+.+.+.+.+.+.+.+.+.&.&.#.&.&.#.#.#.#.#.#.&.&.&.&.&.&.&.&.&.#. .X.%.&.f.f.f.f.&.f.&.%.&.&.&.&.&.+.&.l.l.l.l.l.l.l.l.G.J.*.@.K.gXzX+X4.@.@.#.+. . .X.O.&.&. .%.&.&.&.&.&. . .%.&.&.&.%. .&.&.#.+.&.&.&.*.*.l.l.l.*.*.*.*.*.*.g.F.F.F.F.G.G.G.L.L.G.L.L.J.J.I.K.U.U.U.P.U.U.U.U.J.G.G.J.G.G.G.F.g.g.g.*.g.g.j.j.j.j.j.j.",
"g.g.g.g.g.g.g.g.g.g.g.g.g.g.g.g.g.g.g.g.g.g.g.g.g.L.P.P.P.G.l.l.g.X.I d a s f B B f f f f a s d %.*.l.l.G.J.P.J.J.U.$XjXcXzXiX'.`.'.oX'.K.5.G.K.H.H.H.H.H.H.H.H.H.H.G.G.G.G.G.G.4.4.4.G.5.G.4.4.G.G.G.G.G.G.G.G.G.G.G.G.G.G.G.H.H.H.P.P.H.H.P.H.P.J.K.4.4.4.>.>.3.4.4.4.3.5.5.3.3.5.3.3.3.K.`.K.Y.`.{.[.eXeXuXuXeXrXrX+X[.[.[.[.+X'.K.K.5.-.+.` P L T K K K P Y Y Y Y Y U Y Y Y  . . .+.+.#.&.&.&.&.#.&.#.&.&.&.#.#.#.#.=.$.$.$.@.@.$.$.*.$.$.$.$.$.4.4.4.-.$.@.+.+.' T K 0 0 0 d d l x x x x I K K J K Y *.P.T.'.XX'.Y.`.{.].`.$.@.@.@.@.$.$.*.=.=.#.@.#.#.#.#.@.@.=.+.%.+.+.+.%.%.%.%.%. .I x c B E E I W Q X.X.X. .W c V W I K *.U.@X$XU.&.&.=.=.&.&.$.*.*.:.*.P.OXOXP.*.+.+.+.@.#.#.&.&.&.&.@.&.&.=.*.=.&.+.*.J.I.l.#.@.@.+.+.+.@.@.%.%.%.&.+.+.+.+.+.+.%.&.&.&.&.&.&.&.#.#.#.#.&.&.&.&.&.&.#.&.&.#. .X.X.X.f.f.%.X.X.&.&.&.&.&.&.&.&.#.&.l.J.J.G.J.G.G.l.G.J.*.*.OXvXjX'.@.=.@.+.+.X.O.O.&.&.%.%.&.&.&.&.&.&.&. . .&.&.&.%. .#.&.&.&.*.*.*.:.*.*.*.*.*.*.F.g.g.G.G.G.G.G.G.G.G.G.J.G.G.G.G.I.I.P.U.U.U.U.U.U.U.U.I.L.G.G.G.F.g.g.g.g.g.g.g.g.g.j.j.j.j.j.j.",
"g.g.g.g.g.g.g.g.g.g.g.g.g.g.g.g.g.g.g.g.g.g.g.g.F.L.P.P.G.g.*.g.L.c.X.l s f f s x s a g f y s I &.*.l.G.G.J.H.J.4.OXgXcXcXgX+X'.'.'.'.'.T.K.K.H.H.H.H.H.H.H.H.H.H.H.H.H.H.G.G.G.G.G.G.G.G.G.G.G.G.G.G.G.G.G.G.G.G.G.G.G.G.G.H.H.Y.T.T.T.U.U.U.U.P.K.K.G.K.K.J.6.-.>.3.4.5.6.7.7.7.7.5.>.3.6.5.3.3.9.8.0.`.{.[.[.rXrX+X+XuXuXrX+XoX'./.K./.K.H.G.@.@.' ' Y P K K Y Y Y Y Y Y U U Y Y Y _ _  . . . . . .#.#.&.&.&.#.#.+.@.#.&.#.#.@.$.*.$.*.$.$.@.$.$.*.$.@.+.' ` L P T T J J K I l l l l I x x K K K K T =.U.XXT.T.'.'.Y.'.[.].7.@.@.@.$.$.=.=.=.=.@.@.@.@.@.@.@.+.@.=.=.%.%.%.+.%.&.&.%. .W I x c B E I E Q ~ %.X. .Q I c W W W Y =.@.G.$X$X*.+.&.#.#.#.#.&.&.*.l.U.$X$XU.*.@.+.+.+.@.#.&.&.#.#.#.=.&.&.*.*.&.+.&.*.G.J.:.#.+.#.+.+.+.+.%.%.%.%.+.+.+.+.+.+.%.&.&.&.&.&.&.#.#.#.&.&.&.&.&.&.&.&.#.&.&.&.X. .X.X.X.%.X. .X.&.f.&.&.&.&.&.&.#.&.l.J.J.G.J.J.J.l.l.l.l.:.:.P.'.K.@.#.+.+. .%.O.O.&.&.&.%.&.&.&.&.&.&.&. . .&.&.&.%.+.&.&.&.*.l.l.l.l.l.*.*.*.g.F.G.F.G.G.G.G.G.G.J.G.J.J.J.G.G.G.G.I.I.U.U.U.U.U.U.U.U.I.P.G.l.g.g.g.g.g.g.g.g.g.f.g.g.j.j.j.j.g.g.",
"j.j.j.j.j.j.j.j.g.g.g.g.g.g.g.g.g.F.F.g.g.g.g.F.L.L.G.G.G.g.g.g.j.j.X.l s f f f m f f f s y d Q g.*.G.J.G.G.G.G.U.tXzXvXhXoX`.`.].'.Y.`.'.`.U.H.K.K.H.H.H.H.H.H.H.H.H.J.H.H.H.H.G.H.G.G.G.G.G.G.G.G.G.G.G.J.J.J.G.G.G.G.G.G.H.K.U.T.T.T.U.U.U.T.U.K.K.K.J.J.6.6.6.6.5.6.6.5.5.6.5.6.5.6.5.6.5.6.3.3.3.3.3.3.3.3.{.`.`.{.oX+X+XoX[.[.{.`.K.K.Y.`.`.`.`.K.5.$.' Y Y U U Y Y _ Y U L L L U U Y Y Y  . . . . .#.&.$.#.#.#.#.$.$.$.$.$.*.*.-.*.$.@.@.+.+.+.' Y Y P P P T Y T d d d I l K K I K K K K K T Y +.G.oXoX'.'.`.`.'.+X+XY.$.] @.$.$.$.=.&.@.=.=.#.#.+.#.#.#.@.@.@.@.@.+.%.%.%.&.f. .W I I c I I E E I Q  .%. . .Q I c W W W I =.@.@.XX@Xl.=.+.+.+.+.+.#.#.&.@.:.J.J.:.@.+.+.+.+.+.+.#.#.#.#.&.=.+.&.*.*.*.&.=.+.=.I.J.=.+.$.&.&.&.&.%.%.%.%.+.+.+.+.+.+.+.&.&.&.&.&.&.#.#.#.&.&.&.&.&.&.&.&.#.#.&.&.X. .X.X.X.X.%.X.X.&.&.&.&.&.&.&.&.&.&.k.l.l.J.L.J.J.l.l.&.k.l.l.:.*.#.+.#.@.+.+.&.O.O.O. .X. .&.&.&.&.&.&.&.%.&.&.&.&.&.&.&.&.*.l.l.l.l.l.g.g.*.g.F.G.G.G.G.G.G.G.J.J.H.G.G.G.G.G.J.G.G.I.I.U.U.U.U.W.W.I.I.L.L.l.g.g.g.g.g.g.g.g.g.g.g.g.g.g.g.g.g.g.g.",
"j.j.j.j.j.j.%.j.g.g.g.g.g.g.g.g.F.F.F.g.g.g.g.F.L.G.G.g.g.g.g.g.%.g.g.~ f y i z g f f f a a g X.G.G.J.J.G.G.G.U.hXjXvXgXoX`.`.'.'.'.Y.`.'.'.'.K.K.K.H.H.G.G.J.J.H.H.H.H.H.H.H.H.H.G.G.G.G.G.G.G.G.G.G.G.G.J.J.G.G.G.G.G.G.G.J.K.H.K.K.K.H.K.`.'.`./.K.5.6.4.4.>.6.6.J.J.J.6.6.6.6.6.6.6.6.6.6.6.6.5.6.4.>.-.-.$.-.$.$.-.H.`.'.'.{.{.`.`.K.K.'.oX+XuXiXuX+X{.5.$._ Y U U Y _ Y Y Y Y U U U U U Y _ Y _  . . .+.#.#.#.@.#.#.@.@.@.+.+.+.+.+.' _ Y Y T P L L L L L U Y T I d d d d K K K K K K K K w L +.4.U.OXOX'.'.`.`.oXrX+X5.' ' ' @.@.@.#.=.=.=.=.&.#.#.#.#.#.@.@.@.@.@.@.%.%.%.&.%.U l x c c I I I I I Q +.=.%. .Q I c W V c I +.+.=.@X$XG.+.+.+.+.+.+.+.+.#.+.#.#.+.+.+.+.+.+.+.+.@.+.@.+.@.&.&.=.=.&.*.*.*.$.+.+.l.J.*.#.*.&.&.&.&.%.%.+.+.+.+.+.+.+.+.+.&.&.&.&.&.&.#.#.#.&.&.&.#.#. . . .#.&.&.&.X. .X.X.%.f.f.%.X.&.&.&.&.#.#.&.&.#.&.&.l.l.G.J.J.J.l.l.l.&.&.J.J.&. .@.#.#.&.&.O.X.X.X.X. . .&.&.&.&.&.&.&.&.&.&.&.&.&.&.&.&.l.G.l.l.*.l.l.F.F.G.G.G.G.G.G.G.J.J.J.J.J.G.G.G.G.G.G.G.G.G.J.I.I.P.P.I.I.G.l.l.g.g.g.f.%.d.d.d.f.g.g.g.g.g.g.g.g.g.g.g.g.",
"j.j.=.=.%.%.%.%.g.g.g.g.g.g.g.g.F.F.F.g.g.g.g.G.L.G.F.g.g.g.g.g.g.j.x.h.! a u f f n g f y a ^ %.G.G.J.J.G.G.XXtXvXjXiX'.`.'.OXoX'.'.'.'.'.'.'.'.U.K.U.H.H.H.H.H.H.H.H.H.H.H.H.H.H.H.G.G.G.G.G.G.G.G.G.G.G.G.G.G.G.G.1.1.1.F.G.H.4.5.5.5.3.7.`.[.K.K.5.6.4.4.4.>.>.6.J._.J.J.J._.J.6.6.6.6.6.>.>.6.>.z.J.z.z.J.J.:.:.-.:.:.G.K.'.{.`.`.`.`.{.[.rXrXuXuXuXrX+X{.K.#.+.Y U U Y Y Y Y Y Y Y Y Y Y Y Y Y Y Y _ _ _ _ _ _ Y _ _ _ ` Y T Y U U U L T T K K K K T T T L I U I I d d d d K K K K K K K K K ' 4.K.`.T.T.'.oX'.].rXrXT.1.' ] { @.@.@.#.=.=.=.=.&.#.#.#.#.#.@.@.@.=.@.@.&.&.g.g. .l s x c x I I I I I Q / @.+.Q U x x c V x Y T Y K.$X@X*.Y +.+.+.+.+.+.+.+.+.+.+.+.+.+.@.@.+.+.+.+.+.+.@.+.@.=.&.=.=.&.=.*.&.&.+.#.*.l.:.*.&.&.&.&.%.+.+.+.+.+.+.+.+.+.+.#.&.&.&.&.&.+.#. .#.+.#.+.#.+. . .#.&.&.&.%.X.X.X.%.f.f.X.X.X.X.+.&.+.#.&.&.#.#.&.k.l.l.l.l.l.l.l.v.f.&.k.k.+. .&.#.#.+.#.&.&.X.O.%.%. .&.&.&.&.&.&.&.%.%.&.&.&.&.=.+.&.l.J.G.l.*.l.l.G.G.G.G.G.G.J.G.J.J.J.G.G.G.J.J.G.G.G.G.G.G.G.G.G.G.L.G.G.l.l.g.f.f.f.&.%.%.%.%.d.d.g.g.g.g.g.g.g.g.g.g.g.g.",
"j.j.j.j.=.j.%.%.g.g.g.g.g.g.g.g.F.c.F.g.g.j.g.G.l.l.g.g.g.*.g.&.v.d.d.c.d.B y u h m g a ; s W g.F.4.G.G.G.K.tXvXjX$XK.H.`.oXoX'.'.].+XoX'.'.'.oX`.T.T.U.U.U.P.P.H.K.H.K.H.H.H.H.K.H.H.H.H.G.H.H.G.G.G.G.G.G.G.G.G.1.1.*.*.*.G.G.5.7.7.5.4.5.`.[.5.3.>.>.>.6.5.5.6.J._._.J.6.6.6.6.>.>.6.6.6.6.J.>.>.>.>.>.z.z.z.z.J.z.&. . .*.J.oX{.{.{.[.[.[.eXeXrXrX[.[.rXrX].4.&._ U Y Y Y Y Y Y Y Y Y Y Y Y Y Y Y Y U T T P P L P Y Y Y Y L U U L L T L L L T L L U L L K K U U I x d d d d K K K K K K K K +.4.`.+XoXY.Y.].+X].oXtX+XH.$.@.$.$.$.$.@.#.=.=.=.=.#.@.@.@.#.#.@.@.=.=.@.&.&.&.I.l.Q d s c I l I I I I I Q / %.~ Q U x c W W c U T *.$X$X*.+.=.+.+.#.#.#.#.+.+._ _ +.+.+.+.+.+.+.+.+.+.+.+.+.+.+.=.&.&.=.%.@.&.+.*.=._ +.G.G.&.*.&.&.&.+.+.+.+.+.+.+.+.+.+.+.#.&.&.&.&.&.#. . . . .#.+.+.#.#.#.&.&.&.&.%.%.X.X.X.X.X. .Q X.%.%.#.+.#.&.&. . .#.:.k.l.l.l.l.l.l.O.c.I.k.%.&.&.+.+.+.#.&.&.&.X.O.%.%. .%.&.&.&.&.&.&.%.&.&.&.&.%.+.+.&.G.I.L.g.*.g.l.G.G.J.J.J.G.H.H.H.J.G.G.G.G.J.G.G.G.G.G.G.G.G.l.G.l.l.k.g.f.g.f.&.&.%.%.X.X.X.d.%.d.d.g.g.g.g.g.g.g.g.g.g.g.",
"g.g.%.%.%.=.=.j.g.g.g.g.g.g.g.g.j.j.j.j.j.j.j.j.j.j.j.g.j.g.g.j.g.X.X.l.l. .g s f a a a f g Q g.G.4.4.4.T.iXvXvX'.).U.`.'.OX'.'.OXOXOX'.oX+X+X].].+XiXoXJ.J.P.J.K.Y.T.Y.Y.K.H.K.K.K.K.H.H.K.H.K.:.J.J.J.J.J.J.G.J.G.=.=.=.*.G.J.J.G.1.*.H.'.'.H.4.4.-.-.-.4.5.5.6.6.J.J.6.6.6.6.6.6.6.6.>.>.>.>.>.6.J.>.,.+.#.;.&.#.&.:.&._ L L $.G.U.'.[.[.[.+XeXuXrXeXrXrXrX].'.K.$.` L L Y +._ Y U U U Y Y Y Y Y Y Y P P P P P P P P T U U I I K K K K K K K K K K I K K K v W I l s s s d x d l I I K 0 I @.U.'.+X+X].{.].rXiX].tXpXT.=.=.=.*.-.-.@.@.@.$.=.@.+.+.+.@.=.=.#.=.+.@.=.=.+.*.K.XXI.+.d s I I s x c I I I U Q ~ Q X.Q I x I W I K $.XX$XP.+._ +.@.@.@.@.+.+.+.+.+.+.@.@.+.+.+.+.+.+.+.+.+.+.+.+.+.+.%.=.=.&.&.&.&.&.=.#.&.&.*.*.*.*.*.*.&.&.&.+.+.+.%.&.%.+.%.%.&. . . . .X.&.&.&.&.&.#. . . .+.X.X.O.X.X.X.X.X.X.X.X.X. .W  .&.&.&.&.&.&.+.&.&.&.*.:.*.k.L.L.l.k.l.L.l.&. . .&.&.&. .%.&.&.&.%.&.#.&.&.&.&.#.#.&.&.&.%.%.%.=.&.=.$.*.*.*.&.g.j.L.L.l.l.G.G.J.P.J.J.J.J.J.J.G.G.G.G.G.G.H.H.H.H.I.v.l.f.&.&.&.&.f.f.&.&.X.X.X.X.X.X.d.d.d.d.f.f.%.d.g.j.j.j.j.F.",
"g.d.%.%.%.%.=.j.g.g.g.g.g.g.F.g.j.j.j.j.l.l.j.l.l.l.l.l.l.g.f.f.&.&.&.&.k.&.I a f a h a g I %.G.4.K.K.H.+XzXgX`.).U.U.U.'.XXXX'.OXOX'.'.oXiXiXrXrXrXfXtXU.H.U.U.T.Y.].].'.'.`.'.K.K.Y.`./.K.K.K.-.G.J.J.J.J.I.J.G.*.=.*.*.*.F.J.*.P.U.G.*.*.*.$.4.4.$.$.-.>.4.6.6.6.6.6.6.6.6.6.6.6.6.6.>.>.>.>.6.6.>.>.,.:.>.>.#.#.&.:.;.#. . . .+.$.K.`.{.[.[.rXeX[.[.[.dX].Y.`.K.:.@.' Y Y T Y Y Y _ _ _ Y U Y Y Y Y P P P G P G P P L L I I L K U U U U Y Y K L I I U L U I l l x x x d 9 8 U K 0 q q T *.XXoX+XrXrX+X].rXyXaXaXpX+XG.@.@.@.*.-.-.@.#.@.$.$.@.#.@.@.=.=.=.=.=.*.*.=.:.'.$X$X$XXXl.I s x E x d x I I I W Q  .X.X.W W W W c s +.J.XX).:.#.+.+.@.@.@.@.+.+.+.+.+.+.#.@.+.+.+.+.+.+.+.+.+.+.+.+.%.%.%.=.=.&.&.&.*.&.&.&.&.&.&.&.&.&.&.&.&.&.+.+.+.+.%.%.+.+.+.+. ._ Y  . . .&.&.+.#.#.#.+. . .+.X.o.&.X.X.X.X.X.X.X.X.X. .W W  .*.$.$.&.&.&.&.&.&.&.*.&.k.l.z.l.k.l.G.k.&. . .&. .&.&.&.%.%.X.%.%.+.#.&.&.&.&.&.&.%.+.=.=.*.&.*.*.$.*.=.&.f.j.c.c.c.l.G.G.G.G.G.J.J.G.G.G.G.G.G.H.K.K.U.U.U.U.P.l.l.k.f.&.&.&.&.&.&.&.X.X.X.X.X.X.X.X.u.d.d.d.X.%.d.j.g.j.j.g.g.",
"%.%.%.%.%.%.%.=.j.j.g.g.F.F.F.g.g.j.g.g.j.j.l.l.l.l.l.l.l.g.f.f.X.f.f.&.:.l.X.8 f f h s g Q g.G.G.5.T.iXzXgXOXG.U.K.K.U./.'.'.'.oXOX'.'.+XgXgXgXpXiXgXiXT.J.U.T.K.Y.Y.Y.T.T.'.'.Y.`.{.{.'.`./.K.-.l.G.G.J.K.U.P.=.=.=.G.G.=.=.G.*.P.U.J.*.*.*.*.*.*.-.$.$.$.>.6.>.>.6.>.6.>.6.6.6.6.6.6.6.>.6.6.J.6.>.:.>.l.l.>.l.:.:.l.l.:.&. .Y _  .$.J.'.oX+X*X+X[.{.`.].Y.K.K.H.H.5.-.@.' P Y Y Y Y Y Y Y Y Y Y Y Y Y P P T K T K K K K I I K K K K K L T T L L K K K K K l U I d 9 9 d l K q q 0 T @.G.oXiXgXpXiXiXrXrXtXaXiXjXiXH.@.@.@.@.*.*.*.@.@.$.*.=.$.=.@.@.=.=.=.=.@.=.@.@.G.OX$XOX#X#XU. .d d x x x x I I I I I W  .W I I W I I I J.XX|.:.#.#.#.+.+.+.+.+.+.@.#.@.+.@.#.@.+.+.+.+.+.+.+.+.+.+.+.+.%.%.%.=.=.=.&.&.*.*.*.&.&.=.=.%.+.+.+.+.+.+.%.+.+.+.+.+.+.+.+.+. . ._ _  . . . . . .&.&.&.&.&.&.&.&.o.X.X. .X.X.X.&.&.X.W I c I &.*.&.&.#.&.&. .&.&.&.&.&.k.k.k.l.l.l.&. . . .%. .%.&.&.%.X.X.%. . .%.&.&.&.&.&.%.%.%.%.g.g.g.=.*.*.*.=.%.&.g.L.c.c.G.J.J.G.G.4.G.G.G.G.G.H.P.U.).'.'.'.).K.J.G.&.f.&.&.&.&.&.&.&.&.&.X.X.X.X.X.X.X.X.X.X.X.X.X.d.d.d.g.g.g.f.d.",
"%.%.%.%.%.%.%.%.%.j.*.g.F.F.F.g.g.g.g.g.j.l.l.l.l.l.l.l.l.j.f.f.f.l.l.&.&.k.X.l s h h s g %.g.G.4.K.tXzXgX'.K.U.K.K.K.U./.'.'.XXoXoXOXoXiXgXjXgXpXiXfX+XJ.G.P.U.4.5.K.K.H.H.K.`.`.`.{.{.'.'.`./.G.G.G.:.G.P.U.U.=.+.=.G.F.+.+.F.G.G.4.*.4.J.H.5.*.-.-.$.@.$.-.6.6.6.6.>.>.>.6.6.6.6.6.6.6.>.6.6.J.J.l.l.>.;.#. .:.;.&.;.l.l.&. . . . .#.:.K./.'.[.+XoX'.K.K.K.K.7.H.K.K.K.5.*.@.+._ Y L L U _ _ Y Y Y U Y U L K K K T K K K K K K K K K K K K K L P L P P P P Y l K I K 0 0 0 0 F Y 4.OXtXfXpXpXjXgXpXaXiXaXpXpXgXgXY.+.+.=.=.$.=.*.*.@.@.$.*.$.*.$.$.=.=.=.=.=.*.=.*.U.@XOXXXXX|.OXXXl.W c l s x c c I I I I I Q W W I l d W k.XXXXJ.=.+.#.#.+.+.+.+.+.@.@.@.+.+.+.@.@.+.+.+.+.+.+.+.+.+.+.+.+.+.%.%.%.=.=.=.=.&.&.*.*.&.=.%.+.+.+.+.+.+.+.+.+.+.+.+.+.+.+.+.+. ._ Y U U _ _ Y  . . . .&.&.%.X.&.&.&.X.X. . .X.X.&.&.X.Q I x x  .*.k.&. .&.&.+.&.&.&.&.&.&.g.k.l.l.:.&. . . .%. .%.&.&.&.%.%.&.X. .X. .X. .%.%.%.%.%.g.g.g.&.%.*.*.*.*.*.g.g.L.L.P.J.J.G.G.G.4.4.G.G.K.U.'.XXOXOXOXXXU.I.l.*.&.&.&.&.&.&.&.&.&.X.X.X.X.X.X.X.X.X.X.X.X.X.X.d.d.d.d.d.g.d.d.d.d.",
"%.%.%.%.%.%.%.%.%.%.*.g.g.g.F.g.g.g.g.l.g.l.g.g.g.l.l.l.l.l.f.g.g.l.l.k.&.&.%.X.a a a s E %.l.G.G.hXcXiXU.'.'.K.K.U.U.U.`.'.'.XXoXOXoX$XiXiXpXiXiXiXiX'.$.$.J.H.G.H.K.K.H.K.T.'.`.`.`.`.`.`.`.`.K.J.4.$.:.G.K.K.+.Y +.1.*.+.+.F.G.1.@.@.-.G.4.$.4.4.-.-.$.$.-.4.6.J.6.6.6.6.6.6.6.6.6.6.6.>.J.J.z.l.l.&. .U v v U U Y  .&.l.l.O. . . . . .+.-.4.K.'.+X{.7.5.5.K.H.H.H.H.K.H.G.5.4.*.+._ ` Y Y Y Y Y Y Y U U I v I I L K K L L L T T K T T T P P F F H q q q q 6 = 6 6 6 6 H ' $.].rXgXjXjXjXjXjXjXpXaXaXaXpXgXsXzXrX$.P @.*.&.:.=.*.-.$.@.*.*.$.$.$.$.@.=.@.=.=.=.=.G.XXOX).K.U.U.XXXXI.g.X.W x d d d l x I W W W I I I x I &.U.@XJ.$.=.#.@.+.#.+.+.+.+.@.@.@.+. .+.+.@.+.+.@.#.+.+.+.+.+.+.+.+.+.+.+.+.@.@.@.@.@.=.&.&.&.&.#.@.+.+.+.+.+.+.+.+.+.+.+.+.+.+.+.&.U U U L L U Y U I I U Q  . . . .&.&.&.X.X.X.X.X.X.&.&.X.| W I x I &.k.&. .X.&.&.&.&.&.&.&.&.&.:.G.l.&.&. . . . . . .X.X.X.%.&.&.X.X.X. . . .~ X.%.%.g.g.l.j.%. .*.g.g.g.g.F.G.G.J.J.G.4.4.5.5.5.G.H.U.'.OX@X@X@XXX).P.G.*.&.%.X.&.&.&.&.o.O.O.O.X.X.X.O.O.O.O.o.%.X.X.X.X.d.f.d.d.d.d.g.d.d.d.d.",
"%.%.d.d.d.d.%.%.%.=.=.g.g.g.g.g.g.g.l.l.g.l.l.l.g.j.l.l.l.l.l.l.l.f.f.l.&. .&.L.s y ; s W f.G.P.iXjXjXoXK.'.'.K.K.U.U.`.`.'.'.XXOXOXoX$XtX+X+X+XiXiXiX'.=.=.G.H.H.K.K.K.K.K.T.'.`.K.K.K./.`.`.`./.K.4.$.*.G.G.G.Y Y R $.$.=.=.G.@.*.4.G.4.4.-.*.4.4.4.-.$.$.-.>.4.>.J.J.6.6.6.6.6.6.6.6.6.>.>.J.z.k.O.I l 0 l l v U U Y &.L.L.k. .O.O. ._ _ +.$.:.K.'.`.H.5.H.K.H.H.5.5.5.G.K.G.K.K.G.4.*.@.` L _ Y Y Y U I I c I I I I L L L L L K K w w F F F F G ' <.K.'.rXrXgXgXOX*.' 4.rXjXjXzXzXzXjXjXjXjXpXpXaXpXpXjXjXjXjXT.Y Y &.&.#.$.$.*.-.*.$.*.*.=.@.$.=.@.#.@.#.=.@.G.J.G.*.:.:.#.I.I.G.l.g.f.%.~ c x d s s d d d x l v  .&.l.I.|.K.*.#.$.:.@.+.#.+.+.@.@.+.+.+.+. .+.+.@.+.+.@.#.+.+.+.+.+.+.+.+.+.+.+.+.+.+.@.@.+.+.+.&.&.&.=.=.&.&.&.&.+.+.+.+.+.&.&.+.+.+.&.&. .&.&. ._ _ _ U Y Y W  .X.%.X.X.&.&.f.&.X.X.X.X.X.&.&.X. .W W c l  .&.k.&. .&.f.&.&.&.&.&.&.&.:.l.k.&.#. . . . . . .X.X.X. .X.%.X.X. . .Q Q ~ ~ %.f.g.j.g.&.%.+.g.g.G.G.G.G.G.G.J.G.4.1.1.5.5.R.'.OX+X$X$XOXXX|.J.G.l.&.&.&.&.&.&.&.&.&.O.X.X.X.X.X.O.o.O.O.&.o.X.X.X.X.X.u.f.d.d.d.d.d.d.d.f.f.",
"d.d.d.f.f.f.f.%.%.%.g.g.g.j.g.g.g.g.g.g.g.l.l.l.l.l.l.l.l.k.k.g.j.f.f.k.&.&.g.E.g ; - s ~ g.U.@XvXfXoXOXOXU.U.T.K.U.U.U.U./.'.XX'.OXoXtX+XoX+XrXpX+X$X+XG.+.*.U.H.P.K.K.H.H.K.K.K.U.T.`.`.`.`.`././.K.K.G.J.G.*.R R +.=.*.*.1.F.@.*.G.H.G.4.4.G.4.4.:.:.-.$.$.$.:.>.6.J.J.6.6.6.6.6.J.6.>.>.z.z.l.&.Y l s l x Y |  . .Y  .l.L.k.O.O.O.#.O. . . ._ :.J.K.K.J.J.K.K.H.5.5.5.5.5.5.H.H.K.K.K.4.@.' +._ Y U I I I c W I I I L T K K G F F F K P P R {.].[.+XrX[.dX].R.oXrXrXiXjXnXnXjXzXzXjXjXjXsXpXaXpXpXjXjXjXjXjXoX$.Y +.+.+.&.&.$.4.4.*.$.*.$.@.@.$.$.@.#.@.@.=.G.K.I.l.&.*.$.+.l.*.&.%.=.g.l.j.f.%.Q I I I I I U Q  .*.I.|.|.).:.&.#.:.:.&.+.+.#.#.#.#.+.+.+. .+.+.+.+.+.+.+.+.+.+.+.+.+.+.+.+.+.+.+.+.+.+.+.+.@.@.@.@.&.&.&.&.&.&.&.&.+.+.+.+.&.&.&.+.+.&.&.*.:.J.).J.:.&.&. . . . . .&.f.f.f.&.f.f.f.&.X.X.X.X.&.&.X.Q W W c l I X.l.g.%. .&.&.&.&.*.*.&.*.*.l.:.&.+. . . . . .&.l.g.X.Q  .X.X.X.Q Q X.X.X.%.f.g.g.%.%.%.%.&.F.G.G.G.G.G.G.G.G.4.4.5.K.R.].].+X+X$XoXOXU.J.G.=.&.&.X.X.O.&.&.o.o.o.o.o.X.X.X.X.o.o.&.&.&.&.&.X.X.X.X.X.X.d.f.f.f.f.f.f.f.f.f.",
"d.d.d.d.f.f.f.f.%.%.g.g.g.g.g.g.g.g.g.g.l.l.l.l.l.l.l.l.k.k.f.f.c.j.g.k.&.&.g.c.^ ; & d %.l.XXfXlX$XXXU.T.@XXXK.K.U.U.U.U.U./.'.'.OX$XiXtXoXrXpXpX].oXfXU.Y @.T.H.K.K.K.5.5.H.H.K.U.`.'.'.'.'.`.'.XX'./.).U.J.*.+.+.=.=.*.*.*.$.G.4.4.4.4.4.4.4.4.4.:.-.:.-.$.#.#.:.>.J.J.J.J.6.6.6.J.6.6.>.J.z.k. .c l x W  . . .X.W x Y k.L.k.O. .O.O.&.#. ._ U #.l.J.K.K.K.G.K.G.5.5.K.K.G.5.4.5.5.H.H.5.4.*.+.' Y U I I I I U I I L K K G G F F T ' $.H.'.+X+XrXrXuXyXrXyXrX].rXpXaXjXzXzXjXbXbXjXjXjXbXjXsXpXpXjXjXjXjXjXvX1.Y ' #. . .&.&.$.4.4.-.$.*.$.@.@.$.$.=.=.#.=.$.G.$.$.l.l.&.+.$.&.&.@.&.g.L.I.P.W.L.g.g.j.l.L.L.l.I.U.I.G.I.J.G.#.$.:.:.:.:.#.+.#.#.#.#.+.+. . .+.&.&.#.+.+.+.+.+.+.+.+.+.+.+.+.+.+.+.+.+.+.+.+.=.=.@.+.+.&.&.&.&.&.&.&.+.+.+.+.&.&.&.&.&.&.*.:.#.J.XX).I.J.J.l. . .Q  .%.f.f.&.X.f.f.g.f.&.X.X.X.&.&. .W W I x v l W k.l.&. .&.&. .+.&.*.&.&.*.l.&.#. . . . .Y  .k.I.I.&.W Q %.X.X.Q Q X.X.%.%.j.j.f.%.Q ~ %.g.G.G.G.G.G.G.G.H.G.5.7.R.R.].rXrX].'.'.U.G.$.@. . . . . .X.X.X.X.X.X.X.X.X.X.X.X.o.o.&.f.f.&.o.&.i.i.u.X.X.X.d.d.d.d.d.d.f.f.f.f.",
"f.f.f.d.f.f.f.f.g.f.g.f.f.&.&.&.g.G.P.L.g.g.l.L.L.L.l.l.j.j.j.j.g.j.j.k.l.G.L.L.%.a * = g.U.$X$XU.T.T.T.XXXX'.T.'.U.K.K.U.'././.'.oXtX$XoXoXiXgX+X].tXiXP.R +.J.G.P.Y.P.G.G.4.<.5.H.`.'.'.`.`.'.oX`./.'.OXH.*.$.@.@.$.1.1.F.1.1.4.4.4.4.4.4.4.4.4.4.>.:.:.$.$.:.#.,.>.>.J.J.6.6.6.J.J.J.J.>.l.z.k.W s x  .o.X.X. .&.%.Y Q *.G.G. .O.&. . . .#.#. .O.&.&.:.l.l.G.G.G.G.K.H.K.K.K.H.H.H.H.G.5.5.5.K.*.$. .+.K U I I I K K K P P P $.5.T.].+X+XrXrX+X].].].dX].`.R.Y.Y.rXjXzXjXjXzXbXbXzXjXsXsXsXsXbXjXzXzXjXnXzXT.+.' _ +.O.O.&.&.*.-.-.-.*.*.$.@.@.=.$.$.*.*.*.*.:.:.*.$.*.*.*.*.=.&.&.=.*.*.l.I.c.L.I.W.W.I.I.|.U.K.K.U.K.J.l.:.:.:.$.:.:.#.#.#.#.#.#.+.+.+.+.+.&.&.@.+.+.+.+.+.+.+.+.+.Y +.=.+.+.#.&.+.+.+.@.&.+.+.+.+.@.@.@.@.&.+.+.+.&.+.+.+.+.&.+.+.+.&.*.*.:.:.J.OX&XOXI.k.k.&.%. .X.X.f.f.&.&.f.f.f.&.X.X.&.f.f.X.Q  .W c c l l X.l.&.&.&.%.&.&.&.&.&.$.&.:.&.&.+.&.&. .Y l  .&.%. . . .X.Q ~ ~ ~ X.%.g.g.%.%.%.~ Q %.g.P.P.P.P.G.1.G.H.G.1.Y.].+XtXpXrXY.K.4.$.$.&.#.+.&. .X.X.X.X.| | | | X.X.X.| | | X.X.X.X.o.o.o.o.o...X.X.X.X.u.u.u.X.X.X.X.X.i.i.i.",
"f.f.f.f.d.f.f.f.g.f.g.g.g.%.%.%.g.g.G.L.L.L.L.L.L.L.L.l.l.j.j.j.j.j.j.k.l.G.L.L.~ 8 ; a P.XX$X'.P.P.U.T.T.!.!.T.).U.K.K.U.'.'./.OXoXtX$X+X+XiXgX+XoX+XtXT.+.+.G.G.H.H.H.H.K.5.4.4.5.K.K././.`.'.'././.'.K.4.@.$.*.*.$.1.F.G.F.1.4.4.4.4.4.4.4.4.4.4.>.:.:.$.$.:.$.&.;.>.J.J.J.>.>.6.J.J.J.>.l.z.o.x s l X.o.o.&.&.&. .Y Y +.l.I.O.O.O.O.O. .O.#.&.&.&.&.&.&.&.&.:.:.G.G.K.K.K.K.K.K.K.H.H.H.H.H.K.P.OXG.@.0 0 K l K Y ' @.<.5.K.].].].].'.Y.Y.`.Y.].{.`.7.7.Y.].Y.R.`.rXpXpXsXzXsXsXsXsXsXsXbXbXbXbXnXbXzXzX+X' +._ _  .O.O.&.&.$.*.*.*.*.*.*.*.=.$.$.$.*.*.*.*.*.:.$.$.*.*.*.*.*.&.&.&.&.$.l.I.G.G.G.U.U.I.G.J.I.I.J.J.J.G.:.$.$.#.$.:.*.&.#.#.#.#.#.#.+.+.+.+.&.&.@.+.+.+.+.+.@.+.@.+.Y  .+.Y #.+. .+.@.&.+._ @.+.+.+.@.@.@.@.&.&.&.&.+. . . .+.&.&.&.&.*.&.#.#.+.+.:.l.:.&.#.&.&.%.X.X.X.f.f.&.&.f.f.f.&.X.X.X.f.&. .W W W l c c l W f.f.&.&.%.&.&.&.&.&.$.&.*.&.&.+.&.&.&. .U  .X. . . . .W Q ~ ~ ~ X.X.%.%.%.%.%.X.%.*.G.P.G.J.J.G.1.4.G.4.Y.].rXpXiX+XY.4.@.+._ +.+. . .&.X.X.X.X.| | | | W | | | | | | X.o.o.o.o.o.o.X.X.X.X.X.X.X.X.X.X.X.X.X.o.i.i.i.i.",
"i.d.d.d.d.d.g.g.f.f.f.f.f.d.%.%.%.j.g.F.L.L.L.c.L.L.L.L.c.g.j.j.c.l.j.k.l.l.L.P.~ a ; I W.@XXXG.G.P.U.!.!.XXXXXX).K.K.K.U.`.'.'.OXoX+XtXtXrXiXiX+X+XoX+X@X$.Y 1.1.1.1.1.G.K.K.H.4.4.4.5.K.U././.'.'.'.'.K.$.@.*.1.1.1.1.4.G.1.1.4.4.4.4.4.4.*.*.4.4.:.:.*.$.$.$.:.#.#.;.J.J.J.6.>.J.J.J.z.l.l.l.W k s c X.o.&.&.&. .+.+.Y _ l.OX:.O. .O.&. . .&.&.&.#.O.O.O.O. .#.#.&.&.:.:.G.4.G.4.>.4.G.G.K.K.G.G.P.*.$.P ' ' ' $.4.5.7.R.Y.].{.{.].Y.Y.Y.Y.'.Y.Y.].{.].{.].].].].rXjXjXjXaXsXsXjXsXsXsXsXsXsXbXbXbXjXnXzX'.R ' _  . . . .#.&.$.$.$.$.*.*.*.:.$.$.$.*.*.*.*.*.$.$.*.*.:.:.g.l.l.*.#.@.@.#.*.G.I.G.G.G.I.I.G.G.G.G.G.:.l.:.*.$.$.&.:.l.l.&.#.#.#.#.#.#.#.#.#.#.&.&.@.+.+.+.+.+.&.@.&.@.Y  . .U U T K Y @.&.@. .+.+.+.+.+.+.+.+.&.&.*.*.+.Y Y  .+.&.&.&.&.&.&.+.#. ._  . . . . . . .X.%.%.&.&.&.&.&.f.f.f.&.X.X.X.&.&. .W W I l c W s s X.l.&.&.%.%.&.&.$.$.=.&.&.&.&.+.&.&.&.%.Q Q Q  .X.&.&.X.X.X.X.X.X.X.X.X.~  .%.%.g.G.L.P.G.G.G.G.G.G.H.4.Y.oXiXgX+XH.@.+. ._  . .&.&.&.&.X.X.o.o.o.X.| | c V W | W | | X.X.X.o.o.o.X.X.X.X.X.X.X.....| | | X.X.i.i.i.i.o.",
"i.d.d.d.f.f.g.g.d.f.f.f.f.d.%.%.%.%.%.g.c.L.j.j.c.c.L.L.L.c.c.c.c.c.g.k.l.l.L.P.d.h ; W !.XXJ.$.P.U.~.XXXX!.XX@XU.U.K.K.K.`.).'.XXOXoX+XrX+X+X+X+XrX'.oX$XG.Y *.$.1.$.1.1.G.H.H.5.4.4.4.G.K.K.K.'.`.'.'.K.4.$.*.*.*.$.1.1.G.G.4.4.4.4.4.4.*.*.*.4.4.>.:.*.$.$.$.*.&.#.#.>.J.J.J.J.J.J.z.l.>.>.k.x k z W X.o.X.X.&. .+.&._ L :.&XJ.&. .O.&. . .&.O.O.#.O.#.#.+.#. . .+. .+.+.#.+.$.=.&.$.*.-.4.G.K.G.4.] 3.9.0.0.0.`.`.`.`.`.`.].R.Y.Y.Y.'.Y.'.'.Y.'.].+XrX[.'.'.].].rXpXjXaXyXyXyXaXsXjXzXbXbXbXbXbXjXjXDXjX5.Y +._ _  . . .#.#.$.$.$.@.$.$.*.*.$.$.*.*.*.*.*.*.$.$.:.*.:.:.l.g.l.*.&.&.@.+.@.-./.J.4.:.4.G.G.J.4.:.*.$.*.*.*.$.$.:.>.J.l.;.#. .#.#.#.#.&.&.#.#.&.&.@.+.+.+.+.+.&.@.=.&.+.+. .U l l L _ +.+.@.#.+.+.+.+.+.+.+.+.+.+.&.&.+.Y U Y  .+.+.+.+.&.&.+.&.&.#.#.#.O. . . . .X.%.%.&.&.&.&.&.f.f.f.&.X.X.X.f.f.X.X.X.| W c Q l 1 W l.&.&.=.&.&.&.&.$.=.&.&.&.&.&.&.&.&.&. .Q W Q X.&.&.%.%.d.d.X.X.X.X.%.%.%.%.*.l.I.P.J.G.G.G.G.G.H.5.4.Y.+XiX$XK.@._  . . . .&.&.&.&.&.X.X.o.o.o.o.| | x x c V W | | | | | X.X.X.X.X.X.........X.X.| | | | X.u.i.i.o.o.",
"u.u.d.d.h.h.g.g.d.d.f.f.f.f.f.f.d.%.d.g.F.L.j.g.j.g.c.c.L.L.c.c.c.c.l.l.l.G.P.P.%.d a g.%X@X4.@.U.!.XXXX!.U.XXXX).U.K.K.K.U./.'.OXOXoX$XtX+X].'.+X+XT.XX$XJ.Y =.=.=.1.1.$.$.4.H.K.G.4.4.5.H.H.K.K.H.K.U.K.G.*.@.$.$.$.*.1.G.G.4.4.4.4.4.4.-.-.*.:.4.:.:.$.$.$.*.&.&.&.&.;.:.>.J.J.J.J.>.:.l.:.&.k k x | o.&.X.X.&.&.#.+.K w $.&X).:. .O.#. . .&.X.X.O.#.#.#.#.#.&.&.&.O.+.#. . .#.#.+.+.+.#.&.$.G.G.H.<.0.0.dXdXdXdXdXdXdXyXyXyXrXdXdX].].{.{.'.Y.+XrX`.1.@.G.OXoX'.'.].+XiXjXzXzXbXnXnXnXnXnXnXnXnXnXDXJXiX` L _ _  . .+.+.+.#.$.*.@.@.@.@.$.$.*.*.*.*.*.*.*.:.:.:.:.:.:.*.*.*.l.*.=.=.@.+.+.$././.K.K.4.G.G.4.:.*.*.*.*.:.l.:.$.&.:.z.l.&.#. .#.#.#.#.#.&.&.#.&.&.@.+.+.+.+.+.+.+.#.&.+.#.+.T T L T +.$.=.@.@.+.+.+.+.+.+.+.+.+.+.+.+.+.Y U U U  .+.&.&.&.&. .+.&.&.&.#. . . .#.#.%.%.&.&.&.&.&.&.f.f.f.&.X.X.X.&.&.&.&.&.X.X.c | W 1 s f.&.g.&.&.&.&.=.=.=.=.&.*.:.&.&.&.&.&. . .Q Q Q Q Q Q X.X.X.X.X.X.%.&.&.&.&.*.G.J.I.G.J.G.G.G.G.G.5.5.'.$X+XJ.#. . . . .|  .&.&.o.X.X.O.O.O.O.X.X.X.X.c c c V | | | | | | X.X.X.| | | X.X.X.X.| | | | | ..X.u.i.u.o.o.",
"u.i.i.d.f.h.g.g.g.d.f.f.f.f.f.f.g.d.d.j.j.L.j.g.g.g.j.j.j.c.c.c.j.g.l.l.L.L.P.E.~ d g ~.lX$X*.@.T.!.!.!.W.U.U.T.'.U.U.K.K.U./.).OXoXoX$XtX+X].Y.].].T.OX$XJ.+.=.@.=.1.1.$.@.$.4.K.G.5.4.5.5.5.5.H.K.K.U.`.K.G.4.$.$.$.$.1.1.G.4.4.4.4.4.4.4.-.-.:.4.:.*.$.$.$.*.&.&.&.&.#.#.:.>.J.J.J.>.:.k.:.O.s s x W X.&.&.O.&.&.+.P L ' /.hXK.:. . .#. . .&.&.&.#.#.O.O.O.O.&.O.&.&.&.&.#.#.#.#.+.+.+.+.#.#.&.=.H.].bXnXMXnXsXyXdXdXdXdXdX[.dX].`.R.`.{.].[.gXiXT.@.F F +.G.'.`.T.T.'.+XiXsXzXzXzXzXzXsXsXpXsXzXnXnXnX$.G ' _ _ _  .+. .+.@.$.*.*.*.*.*.$.=.*.*.*.=.$.*.*.:.:.:.:.:.*.g.*.*.*.*.=.*.@.@.@.$.K./.'./.K.K.-.$.*.$.*.*.:.l.l.l.*.;.:.z.l.:.&.&.&.#.+.#.&.;.&.&.&.&.@.+.+.+.+.+. ._ +.@.+.#.+.T Y K T +.G.G.#._ +.+.+.+.+.+.+.+.&.+. . . .Y U K K  .*.l.l.l.+.Y  .#.#. . . .+.&.&.&.&. .%.#.&.&.&.&.f.f.f.f.X.X.X.X.&.&.&.f.f.f.Q W | 3 3 f.f.f.&.&.&.&.=.=.=.&.&.k.l.k.&.&.&.&. . .Q Q Q W Q  . .Q Q Q W  .%.&.*.*.*.G.G.J.J.G.J.G.G.4.4.4.H.K.+X&XXX&.Y  .O. .| | X.o.&.o.O.O.O.O.O.O.o.X.X.X.| | | | | o.o.o.o.o.o.X.| | | | | | X.X.| ......| X.o.u.u.u.o.o.",
"u.i.i.d.d.f.f.f.d.d.f.f.f.f.f.f.d.d.d.d.j.j.j.j.g.g.j.j.j.j.j.j.g.j.c.G.P.I.U.W.Q d I @XfX@X$.4.XX!.!.!.W.U.!.T.'.'.U.K.K.K././.'.OXoX$XtX+X].Y.].Y.'.oXXXG.@.@.=.=.1.1.$.=.@.*.4.4.G.G.5.4.4.5.H.K.U.`.`.`.T.K.1.1.1.1.1.1.G.4.4.4.4.4.4.4.4.4.*.4.:.*.$.$.=.$.&.&.&.&.&.#.#.:.J.J.J.:.:.l.:.O.k z k x W X.X.O. .#._ L @./.+X+X-.#.'  .+.+.&.X.&.&.#.#.#.+.+.O.O.O.O.O.O.O.O.#.O.O.#.#.#.#.#.#.*.#.4.].nXLXLXLXMXMXMXnXbXzXzXzXzXsXsXjXjXzXzXzXpX`.+.K F L Y _ @.*.4.5.5.4.<.$.$.<.5.R.Y.0.0.0.9.0.dX{.[.G F ' _ Y Y  .+. .+.+.=.*.4.G.G.4.-.*.*.$.=.=.=.*.*.*.:.:.:.:.l.l.l.l.l.*.$.$.@.+.@.$.K._./._././.K.:.$.$.*.*.l.G.G.l.:.:.:.>.:.&.#.#.>.;.#.#.#.&.&.#.#.#.@.+.+.+.+.+.+. .+.@.+.@.+.U T L +.G.J.:.+._ +.+.+.+.+.+.+.+.&.+. . .Y U U U  .&.G.G.G.l.#.Y  .&.&. . . .&.&.#.#.+. . .#.#.#.&.f.f.f.f.f.X.X.X.X.X.X.&.&.f.f.X.B | u 1 f.j.&.%.&.&.&.=.=.=.&.&.k.J.l.k.&.&.&. . .Q  . . .%.&.Q Q  . . . .%.&.&.*.G.J.J.J.G.G.G.G.G.G.4.5.T.+XiXoXJ.+. .X.o.X.| | o.i.k.i.o.o.o.o.O.O.O.O.X.X.o.X.| | o.o.o.| | | | | | | | | X.X.X...| | | | X.X.o.o.o.o.o.o.",
"u.u.f.d.d.d.f.f.d.d.f.f.f.d.d.f.%.~ ~ %.d.j.j.j.j.j.g.g.d.d.d.d.g.g.c.L.P.I.U.W.W d K @X$XU.#.J.XX!.!.!.!.XXXXXXXXXX'.U.K.K.K././.'.oX+X+XoX].'.].Y.'.oXT.1.=.@.$.@.1.1.1.$.@.@.$.*.4.4.4.4.5.5.5.K.K.K.K.K.T.T.4.1.1.1.1.1.1.1.4.4.4.4.4.4.4.4.-.*.*.*.$.=.=.*.$.&.&.&.;.;.#.+.>.J.l.:.:.l.k.&.c x s s x |  . . . ._ Y -.OXXX$.+.+.+. .+.&.&. .&.&.#.&.#.#.#.&.&.&.&.&.&.&.O.O.O.O.#.&.&.&.&.#.+.+.' } dXsXnXbXbXnXnXbXsXyXuXpXuXyXrX+X].Y.4.$.' P K K K U _  .+.+.@.@.@.@.@.{ $.<.7.Y.'.'.`.`.0.0.eX`.uX[ ` P Y U Y  .+. . .+.@.*.4.J.K.G.4.:.$.$.=.@.=.=.*.*.$.$.$.:.:.l.l.l.l.*.=.@.@.@.@.-.K.5.4.4.K.'.'.K.$.$.*.:.l.G.G.l.:.&.#.#.+._ U ` J.>.&.#.#.#.#.#.#.#.@.+.+.+.+.+.&.+.#.&.+.#.+.L Y $.'.+XK.+.Y +.+.+.+.+.+.+.+.+. . . ._ U L U  .l.J.I.G.G.l.$.+.Y  .&.&. . . . . . . . . .#. . .&.&.f.f.f.f.X.X.&.X.X.X.o.&.f.f.g.k X.s < f.c.%.&.&.&.&.&.&.=.&.&.l.I.G.k.&.&.&.%. .Y  . . . . . .X.%.&.&.&.*.*.&.*.G.I.I.G.G.G.G.G.H.H.H.H.oXfXfX).$. .X.O.X.X.o.O.o.i.f.o.X.X.o.o.o.O.o.O.X.X.o.o.X.X.X.o.| | c c c c c V | | X.X.X.X...| | | o.o.o...........",
"X.X.f.f.g.g.d.d.d.d.d.d.d.%.W g g a s E %.d.j.j.j.j.d.j.j.j.j.j.j.F.L.P.W.W.W.W.~ d %.@XXX*.*.W.@X~.~.!.!.!.!.XX!.'.'.U.K.H.K.K.'.'.OXoXoXoXOXT.'.'.'.XXY.1.+.R $.1.1.1.1.1.1.$.<.<.<.2.2.<.<.<.5.5.K.K.K.5.5.4.4.4.1.1.4.4.4.1.<.<.1.1.1.1.1.*.4.G.:.$.$.*.*.&.$.$.:.$.:.:.:.;.;.;.:.k.l.l.z.z.X.X. .I l k v I Q Y K &.$X#X&.K &.&. .O. .&. . .+. .#.#.#.#.#.#.O.O.O.O.O. . .O.#.#.#.#.#.#.#.#.+.#.+.' ' $.4.4.5.5.3.3.3.-.$.$.' ` ` P P P ` ` _ _ U U U I U Y Y _ +.#.$.-.4.G.-.-.4.K./././.`.K.K.[.'.oXH.L ` Y Y Y Y Y  .+.+.@.$.>.-.:.-.:.-.$.$.*.*.*.*.=.&.*.*.:.l.G.G.G.G.=.@.+.@.*.@.+.-.K.'.4.[ [ 4./.G.#.$.:.*.*.l.*.&.&.&.&.&.#._ L L  .:.:.#.+.#.+.#._ +.+.#.#.+.+.#.#.#.#.#.#.#.+.' $.*XiX4.$.$.#.+.+.+.+.+.@.@.@.+. . . .U L  .>.J.J.K.J.4.>.>.$.#.Y  .%.&. . .+.&.&.%. . . . . . .&.&.&.X. .X.X.Q X.X.X.%.f.f.d.f.g.x Q k x l.%.%.&.&.&.&.&.&.=.&.*.G.I.I.j.%.X.&.&.&.&.&.&.&.$.&.&.&.;.k.l.k.&.&.g.G.I.P.G.g.G.J.K.K.5.5.K.'.tXfXOXG.+. .&.X.o.&.o.O.X.O.&.o.&.o.o.o.o.o.o.o.X.X.| | X.X.X.| W x s s k k x V Q X.X.X.X.X.X.X.X.X.o.X.X.X.o.X.O.X.",
"X.X.f.f.g.g.d.f.j.g.j.d.d.~ I d x g g ^ ~ u.d.d.j.j.j.j.j.j.j.g.F.F.L.P.W.W.W.W.~ d ~ W.W.g.F.!.~.~.~.!.!.!.!.XXXXXX'.U.K.H.K.K.'.'.'.OXOX'.U.K.'.XXoXoXU.1.@.@.<.1.1.1.1.1.<.<.<.<.<.<.<.<.<.<.1.4.5.5.5.5.1.1.4.4.2.2.1.4.4.<.1.1.1.4.4.1.1.1.4.4.G.*.*.:.k.&.#.$.#.$.:.>.:.&.:.:.:.:.k.k.l.k.&.f.f.%.Q I l l K U Y *.W.G.Q U I  .W &.W &. .&.+.#.#.#.#.#.#.#.#.#.#.#.#.#.#.#.#.#.#.#.#.#.#.#.#.&.#. ._ _ _ _ Y Y P ` ` ` ` ` _ _ _ _ ` _ _ _  ._ _ U I I U U U Y _ _ +.#.#.$.$.$.-.G.J.6.K.K.K.K.'.'.oXK.P ` Y Y Y Y Y  .+.+.+.$.-.-.:.:.:.:.$.$.*.*.*.&.&.&.=.*.*.*.4.4.4.4.@.=.@.$.*.+.+.4.`.`.*.@.$.4./.J.$.:.l.*.*.*.*.&.&.&.&.&.#._ L L _ #.#.[ #.,.$.#.#.#.&.#.#.+.+.#.#.#.&.&.&.#.#.@.,./._.$.+.#.+.#.+.+.+.+.=.=.%.+.#.#._ ` _ -.6.5.4.6.6.6.>.>.#.' Y  .%.&. . . .&.&.&.+. . . . . .X.&.&.&.%.%.X. .X.X.%.%.d.d.d.f.c.I W l I l.%.&.&.&.f.&.&.&.&.*.*.J.U.P.g.%.&.&.&.&.&.&.:.:.-.>.&.&.;.;.;.;.&.:.P.I.U.I.J.G.G.P.H.7.K.K.].tXiXiXP.$.+.&.&.O.X.&.X.X.X.&.&.&.&.o.o.o.o.o.o.X.X.| X.X.X.X.X.W x k l l x x c W Q X.X.X.X.X.X.X.X.X.X.X.X.X.X.X.X.X.",
"X.X.f.f.g.g.d.d.g.d.d.d.d.~ I d E ^ ^ E W X.d.d.d.d.d.g.g.j.j.j.F.F.L.P.W.W.E.P.~ I / L.P.G.P.!.!.!.!.!.!.!.!.XXXXXXXX).K.K.K.K.'.XX'.XXXX'.U.K.T.'.oX'.H.<.@.@.$.1.1.1.1.1.<.<.<.<.<.<.<.<.<.<.<.<.2.2.2.2.2.2.5.4.2.2.1.1.2.<.4.4.4.4.4.4.1.1.4.G.l.:.:.l.:.&.@.#.$.$.:.l.:.#.:.:.;.;.;.;.;.;.&.k.k.k.&.O. .Y I Y  .&.g.Q l x d I Q f. . . .&.#.#.&.&.&.&.&.#.#.#.#.#.#.#.#.#.#.#.#.#.#.#.#.#.+.#.#.+. . ._ Y _ _ _ +.+.@.@.+.O._ _ _ _ _  . . ._ _ U I I I U U U U Y Y Y _ _ +.+.#.:.-.:.4.J.K.H.U./.oX`.+.` _ Y Y Y Y  .+.+.' @.$.$.-.:.-.$.$.$.*.*.*.=.&.&.=.*.*.*.4.:.*.*.@.*.*.*.$.' @.H.+X`.$.-.5.5.K.J.+.#.*.*.*.g.*.&.&.&.&.&.#. .U L _ #.+. .&.#._ _ +.#.#.#.#.#.#.&.#.#.#.#.#.#.$.$.,.>.#.[ #.#.#.&.+.+.+.+.@.@.+.+.+. .` ` $.4.6.>.4.6.J.5.J.>.$.+. . .&.%. . . . .%.%.&.&.%.%. . . .&.&.&.%.&.%.X.%.%.%.%.f.f.d.f.I.Y Y c U &.O.&.&.g.l.&.%.&.&.=.*.P.U.J.g.&.&.&.&.&.&.;.:.:.:.:.#.&.&.&.&.&.l.G.P.P.P.G.G.G.P.P.4.R.Y.].tXgXiX'.*.+.+.&.&.O.X.&.X.X.&.&.&.&.o.X.o.i.o.o.o.X.X.| X.X.X.X.| c k s x c c c c W Q | X.X.X.X.X.X.X.X.X.X.X.o.o.X.X.X.",
"X.u.f.f.d.d.d.d.d.%.%.%.%.~ I g E W W B E ~ d.d.d.d.d.d.d.d.d.g.F.F.L.P.W.P.L.L.%.Q %.L.P.W.~.~.!.!.!.!.W.W.!.XX@X@XOX'.K.K.J.K.).U.U.U.'.XXXXOXT.'.'.T.H.1.=.@.$.1.1.1.1.1.<.<.<.<.<.<.<.<.<.<.<.<.<.2.2.2.1.4.5.2.2.2.2.2.2.<.4.4.4.4.1.1.1.4.:.G.:.:.*.:.:.&.#.$.>.:.:.:.:.&.&.;.;.;.;.k.k.l.:.&.&.&.k.k.g.&.&. . .&.%.I 9 9 l I &.I. . . .%.#.#.&.&.&.&.&.#.#.#.#.#.#.#.#.#.#.#.#.#.#.#.#.#.+.+.#.#.#.#.+.+.+.+.+.@.#.@.+.+._ _ _ _ _ _  . . . ._ U I I I U U U U U U U U U ` _ +.#.$.:.6.).K.K.K.K.oX'.$.Y _ _ _ Y Y  .+.+.+.@.@.$.-.:.$.+.$.$.*.*.*.*.*.*.=.*.*.G.4.:.*.*.=.4.4.*.@.' $./.&X'.*.-.H.K./.4.@.#.*.:.l.l.*.*.&.&.&.&.#. ._ U  .&.#.#.&.#._  ._ +.#.#.#.#.$.$.#.+.+.+.+.#.#.#.,.$.#.,.:.:.&.#.#.+.+.+.@.@.+.+.+._ _ +.-.J.6.>.-.4.6.J.6.>.#.+. . .&.%. . . . . .%.&.&.&.&. . . .%.%.X.X.%.X.X.%.%.%.%.f.f.d.f.E.| Y I Y &. .&.&.g.g.&.%.&.=.+.G.U.XXI.*.&.&. .&.&.&.;.:.&.#.#.&.&.&.&.&.*.l.G.G.G.G.G.P.P.P.P.5.Y.[.rXiXgXOX*.+.+.%.&.&.&.X.&.X.X.&.&.f.&.o.X.o.o.o.o.o.X.X.| X.X.X.X.X.W l s x x c c I W Q  .X.X.X.X.X.X.X.X.X.X.X.X.o.o.X.X.",
"X.X.f.f.d.g.d.f.%.%.%.%.%.~ E I I W W x x ~ d.d.d.d.%.~ %.d.g.g.F.F.L.P.P.P.c.g.%.%.g.W.W.@X@X!.!.!.@X!.W.U.U.!.XX@XOX'.U.K.J.K.U.P.P.P.U.XXoX$XoXoXOX'.K.4.$.' 1.1.1.1.1.1.1.1.<.<.<.<.<.<.<.<.<.<.<.<.2.1.4.5.4.1.2.2.2.2.<.$.1.1.1.1.*.*.:.:.:.l.l.*.*.:.:.$.#.l.J.J.:.&.;.;.;.;.;.;.;.>.l.k.z.l.;.&.;.;.&.&.l.&.&.&.Q d s d x U k.#X&. . .#. . .#.&.#.#.#.#.#.#.#.#.#.#.#.#.#.#.#.#.#.#.#.#.&.#.#.+.+._ _ _ _ _ ' ' ' _ _ ` _ _ _ _ _ _  . . . ._ U U I I I U U U U U Y Y Y Y Y _ +.#.#.>.J.K.K.H.K.'.'.G.L _ _  ._ Y Y  .+.+.@.#.#.$.-.=.+.#.#.=.$.*.*.*.*.*.1.G.G.4.4.*.*.*.4.4.*.@.' *.'.oXoX5.$.G./.).$.*.*.:.l.l.*.&.&.#.&.&.&.&. . . . .&.#. . . . .&.+.&.$.&.#.$.&.#.+.+. . .+.+.#.#.#.#.$.$.$.$.$.#.@.#.+.+.+.+.@.+.+.+.#.:.G.J.J.6.-.>.>.:.:.$.+.Y  . . . . . . . . . .%.&.&.%.%. .%.%.X.X. . .X.X.%.%.%.%.f.f.f.&.E. .Y U Y  .%.&.&.&.&.&.&.&.&.@.4.J.P.G.*.&. . .&.&.&.:.*.*.=.&.&.&. .+.*.l.G.G.J.J.G.J.P.P.P.P.K.].rXtXiXtXK.' +.+.%.&.&.%.O.&.o.o.&.&.f.&.o.X.o.o.o.o.o.X.X.X.X.X.o.o.o.| V x k x x c V W | | X.X.X.X.X.X.X.X.| X.X.o.o.o.X.X.",
"X.X.i.f.d.f.d.f.f.d.d.d.d.%.Q E E W W E W X.d.d.d.d.%.~ ~ d.g.g.g.F.F.L.L.L.j.j.%.f.P.!.!.@X@XW.W.!.@X~.W.U.U.U.XXXXXX'.U.K.J.P.U.U.P.J.G.P.!.OXtXtX+XoX'.K.4.@.1.1.1.1.1.1.1.1.<.<.<.<.<.<.<.<.<.<.<.<.<.2.2.4.4.1.<.<.<.<.<.$.1.1.*.*.*.*.4.:.*.:.:.$.$.:.l.:.>.J.(.J.&.#.&.:.l.k.:.;.;.;.;.;.;.;.;.;.;.;.&.&.k.&.l.&.x s I X.I I l.5X&. .+.&. . .#.&.#.#.#.#.&.&.&.&.&.&.#.#.#.#.#.#.#.#.#.#.&.#.+.+.+._ _ +. .+.+.+.+.+.+. ._ _ _ _ _ _ _ _  . ._ Y U U U U U U U U U Y Y Y _ Y Y _ +.+.#.-.H.K.K.K./.'.K.K Y _  ._ Y Y  . .+.#.#.#.#.$.&.+.+.+.@.#.*.*.*.*.G.G.G.G.4.*.*.*.:.4.*.@.@.@.4.oX'.+XK.4.H.'.XX-.#.#.&.$.&.&.+.&.#.&.&.&.&.&.#. .&.&. .x l s l Q  .#.&.#.#.$.$.#.#.+.+.+.+.#.#.&.&.#.$.:.+.+.$.$.@.@.+.+.+.@.+.+. .+.#.-.>.:.>.>.4.6.>.$.&.&. .Y  . . . . . . . . . .X.X.%.%. . .&.X.X.X. . .X.%.%.%.%.%.d.f.f.&.I.&.Y Y Y  .&.%.&.+.+.&.*.&.&.*.U.G.4.G.$.+. . .%.&.&.k.l.l.l.*.l.&. .+.l.G.G.G.G.G.G.G.G.G.G.H.'.+XiXiX+XT.*.Y @.@.%.%.%.&.&.&.&.&.&.&.f.&.o.X.o.o.o.o.o.o.O.O.X.o.o.f.i.o.X.| x x V V W | | X.X.X.X.X.| | X.X.| | X.o.o.o.X.X.",
"X.X.o.f.f.f.f.f.g.g.g.d.d.%.%.%.~ W W ~ %.%.%.d.d.j.d.%.%.j.g.j.g.F.F.F.L.F.g.g.g.g.W.@X!.!.!.W.W.!.@X~.U.U.P.U.U.XXXX'.U.K.J.P.U.U.U.J.G.G.J.P.oX$XtX$X+XoXT.H.1.1.1.1.1.1.1.<.<.<.<.<.<.<.<.<.<.<.<.<.<.<.2.2.4.1.<.<.<.<.<.$.<.<.$.*.*.4.G.G.*.:.:.&.$.G.J.J.I.I.I.k.&.&.;.;.k.k.:.;.;.&.&.&.O.O.O.;.;.;.;.&.k.&.f. .s l X.&.Y U G.5X*. .+.+.+.+.#.&.#.#.#.#.&.#.#.&.#.#.#.#.#.#.#.#.#.#.#.#.#.+.+.#.#.+.#.#._ _ _ _ _ _ _ _ _ _ _ _ _ _ _ _  . ._ _ Y U U U U U U U U Y Y Y _ U L _ ' +.+.@.4.H.4.K.H././.F Y _  . .Y Y Y _ +.@.#.@.#.=.$.=.+.+.#.&.$.$.$.*.G.G.1.*.*.*.*.*.G.:.@.+.@.$.G.oX'.+X'.`.'.oX$X).*.$.&.$.*.&.&.&.&.&.&.&.&.&.&.&.&. .l 8 3 1 s U &.:.:.#.#.$.:.&.#.#.#.#.#.#.#.&.&._ $.K.-.' @.$.@.@.' +.+.+.+.' _ _ +.$.$.@.@.$.:.:.$.#.#.&.+. . . . .X.X.X. . . . . . .X.X.X.X.%.X.X.&.&.X.X.&.X.X.%.%.%.%.&.&.I.&. .Y Y  .g.+.&. .+.&.=.Y Q g.fX`.4.4.*. .Y +.&.&.g.l.G.G.G.G.*.&.&.*.l.G.J.G.G.G.G.G.1.G.P.T.iXpXgXiXOX4.+.+.+.+.+.+.&.&.&.&.&.&.&.&.&.&.&.o.o.o.o.o.o.o.o.O.X.X.o.i.f.i.o.X.W | | | | | | X.X.X.| | | | | | | | X.o.o.o.X.X.",
"X.X.o.f.f.f.f.f.f.f.g.g.g.g.g.g.d.~ Q %.d.d.%.d.d.g.g.d.j.g.g.j.g.g.g.g.F.j.g.g.g.L.!.%XXXW.!.W.W.~.@XXXU.P.P.U.U.XX'.).K.K.J.P.P.U.U.P.G.G.G.G.U.OXtXtXtXrX+XOX4.4.4.4.1.1.<.<.<.<.<.<.<.<.<.<.<.<.2.2.2.2.2.2.4.1.<.<.<.<.<.$.<.<.1.1.:.:.G.J.&.:.:.&.:.J.K.).(.I.l.&.&.;.;.&.&.&.;.;.;.;.&.&.#.#.O.O.&.&.;.;.l.&. .x s I &. .+.Y I.fX*. .+.+.+.+.#.&.#.#.#.#.#.#.#.#.#.#.#.#.#.#.#.#.#.#.#.#.#.+.+.&.#._ _ +.+.+.+.' ' ' _ _ _ _  ._ _ _ _ _ _ _ _ _ Y Y U U U U U Y Y Y Y Y _ L L ` +.#.#.@.$.5.4.5.4.K.).w T Y  . .Y U Y Y _ @.#.@.@.=.*.:.#.&.$.$.*.:.:.:.G.G.*.*.$.$.*.*.G.*.' ' $.*.G.oXoX+XoX&XiX+XiX&X@X).I.J.l.&.+.&.&.&.&.&.&.&.&.&.&.W 8 < 8 d W f.XXXX).:.#.$.$.#.#.#.#.#.#.#.#.#.#.K $.$X).@.@.$.@.@.@.' @.@.+.' +.' ' @.$.@.@.$.+.+._ _  .+.&.%. . . . .X.X. . . . . . . . .X.%.X.X.%.f.j.&.%.&.X.X.%.%.%.%.&.&.c.k. .W Y X.k. .*.+.%.*.Q 0 K =.nXiXH.H.4._ Y +.&.&.g.l.G.G.G.G.*.*.*.*.l.G.J.J.H.H.P.H.H.U.oXiXzXvXvXhX'.@.Y +.+. . .+.&.&.&.O.f.&.&.&.&.&.&.o.X.o.o.o.o.o.o.o.X.X.o.o.i.i.o.X.o.o.o.o.X.X.| | | | | | | | | | | | X.o.o.o.o.X.",
"X.X.X.o.&.f.f.f.f.j.j.g.g.g.j.d.g.g.d.d.d.d.d.d.d.%.%.d.j.j.j.j.j.j.g.F.L.j.g.%.g.P.@X@XXX!.W.P.F.W.@X~.U.P.P.U.U.U.U.'.'.'.K.P.U.P.G.J.P.G.G.G.*.U.$X$X+X$X$X$X+XK.1.1.5.4.1.<.<.<.<.2.2.<.<.<.<.<.<.<.2.2.2.2.2.2.2.2.<.<.<.<.3.<.1.4.G.G.l.:.&.z.;.O.J.l.&X).I.z.;.;.;.l.k.;.l.l.;.;.;.;.&.O.#.#.,.,.#.#.&.&.l.;. .l d I X.X.&.T P.hXJ. .&. .+.+.#.&.&.&.&.&.#.#.#.#.#.&.&.&.&.#.O.O.#.#.#. .+.+.+.+.+.+.+. .+.+.' ' _ _ _ _ O._  . . ._ _ _  . ._ _ Y I I I Y Y Y T Y Y Y Y _ U L U _ +.+.' $.$.5.4.4.'.).Y L Y  . .Y Y Y Y _ +.+.+.#.:.G.$.$.$.$.$.$.-.:.G.*.*.*.F.4.4.4.4.4.+.+.*.4.-.U.iXoX&XhXhX&XoXOXOXJ.J.J.J.G.l.&.+.&.&.#.&.&.&.&.&.f.x 8 s s l W Q *.|.&XXX$. .#.$.$.#.#.#.#.#.#.$.K l K vXXX-.-.$.-.$.' ' +.+.+._ ' @.4./.`./.K.K.4._ _ U  .*. .&. . . .X.X.X.%.%.X. . . . . .X.X.%.X.X.&.f.f.f.f.%.%.%.%.%.&.&.&.l.|. .v &.&.&.&.*.&.&.+.T 0 K +.iXoXH.4.G.$.Y Y *.l.J.I.J.G.*.$.G.G.G.J.J.G.J.G.G.H.P.Y.].tXjXzXcXiXgXiX$.T +.+.%.%.%.&.&.&.&.&.o.&.&.f.&.&.o.o.i.o.o.o.o.o.o.o.o.o.o.o.o.o.o.i.i.o.o.o.o.o.i.o.o.i.i.o.X.| | | X.X.X.X.X.X.| | ",
"X.X.o.f.f.f.f.f.g.j.g.g.g.j.g.g.%.d.d.d.d.d.g.g.d.d.d.j.j.j.j.j.F.F.L.L.L.F.g.g.l.W.@X@X!.!.!.P.L.!.@X!.U.P.U.U.XX!.'.U.).)./.U.P.J.G.J.P.G.G.G.J.P.U.T.oXiXtX$XtX'.H.4.4.1.1.1.<.<.<.<.<.<.<.<.<.<.<.<.2.2.2.2.2.2.4.2.2.2.<.<.2.<.1.4.G.G.l.:.&.l.:.&.l.I.OX).J.l.;.;.;.l.l.k.;.;.k.l.l.l.;.&.#.,.;.;.;.&.&.&.&.&. .s s W %. .T T P.fXXX*.*.+.+.+.#.#.&.&.&.&.#.#.#.#.#.#.&.&.&.#.O.O.#.#.#. .+.+.+.+.+.+.+.+._ _ _ _ ' ' ' ' O.O. . ._ _ _ _  . ._ _ Y U I U U U T T Y Y Y Y U U U Y _ +.+.+.*.-.5.5.G.'./.' L Y _  . .Y Y Y Y _ +.#.$.G.G.G.:.:.:.l.:.4.4.4.*.*.F.G.4.4.4.4.G.=.@.:.4.4./.iXoXiXgXhX$X/.G.:.G.:.:.:.*.*.&.#.&.&.#.&.&.&.&.&.&.l 8 d x I W W U $.).$X&XOXG.+.#.+.+.#.&.#.#.#.K K L hX/.-.>.4.>.-.$.@.@.@.+.' ' $.K.'.`./././.K.'  .Y  .&. .%.Q  .Q  . . . . .%.X.X. . . . . .X. .X.%.f.&.f.f.%.%.%.%.%.&.&.&.l.|. .I &.&.&.&.&.&.&.Y 0 = 6 T H.Y.K.H.H.*.=.G.l.G.G.J.J.G.G.4.J.G.J.G.G.4.G.G.'.'.].oXrXaXgXjXtXiXfXU.Y Y =.~ %.%.%.%.&.#.&.&.O.&.&.&.&.o.o.o.o.o.o.i.o.i.i.i.o.o.i.i.o.o.i.i.i.o.o.o.o.o.o.o.o.o.i.o.X.| | X.X.X.o.o.o.X.X.| ",
"X.o.o.&.f.f.f.f.f.f.g.g.g.g.g.g.g.f.g.f.%.%.%.d.g.g.g.g.j.g.g.F.F.F.F.F.g.g.j.j.L.W.@XXX!.W.W.W.P.~.@X!.U.P.U.U.U.!.XXXX'.'./.).P.J.G.J.J.G.G.J.J.G.*.G.P.oX$XtXtXoXT.P.1.1.<.1.1.1.<.<.<.<.<.<.<.<.<.<.2.2.2.2.2.2.1.2.2.2.2.<.<.<.1.4.G.G.l.k.&.;.l.:.l.OX).).z.k.k.;.k.l.l.k.l.l.l.l.;.&.&.&.;.;.:.>.:.;.&.&.#.&. .d d Q %.Y T +.OXfXXX*.&.@.#.#.#.#.#.&.&.&.&.&.#.#.#.#.#.#.#.#.O.O.#.#.O. .+.+.+.+.+.+.+.+._ _ _ _ ' ' +.+._ _  ._ _ _ _ _ _  . . ._ Y U U U U U T Y Y Y Y U Y Y _ _ _ +.+.*.$.4.K.K.'.).$.T Y Y  . .Y Y Y U _ +.#.#.:.G.J.G.l.:.:.G.G.:.$.G.G.G.G.4.4.:.:.:.*.*.4.4.K.'.+X&X*X+X`.5.$.#.$.*.$.&.&.&.&.=.&.&.&.&.&.&.&.&.&.W 8 1 x W X.X. .Y L K _ G.$XhXhXl.$.#.#.#.#.#.&.Y +.' iXK.-.5.6.>.6.4.-.#.+.+.' { 7.{.{.`.`.{.'./.-.+.Y  .%. . . . . . . . . . .X.X.X.X.X.X.X.X.X.Q  .X.f.%.&.f.%.%.%.%.X.%.&.f.l.|.&.Y +.&.&.&.@.&.$.+.K 0 Y J.K.Y.T.K.U.G.F.P.G.G.J.J.G.G.G.G.G.G.G.G.K.K.Y.'.].oXrXaXjXjXjXjX+XjXfX$.T %.g.~ %.%.%.%.+.#.#.#.&.&.&.&.&.O.o.o.o.o.i.i.i.i.f.k.i.i.i.i.i.o.o.o.o.o.o.o.o.o.o.o.o.o.o.o.X.X.X.X.X.X.o.o.o.o.X.X.",
"X.o.o.f.f.f.j.j.f.f.f.f.f.g.g.g.c.c.j.j.g.d.d.d.g.g.g.g.j.g.g.F.j.g.g.g.j.j.g.j.E.W.XXW.W.W.W.W.!.@X@X!.U.U.U.U.P.U.OX@XOX'./.K.P.J.G.J.J.G.J.J.*.G.F.=.@.*.U.$XtXrXoXT.H.1.<.1.4.1.2.<.<.<.<.<.<.<.<.2.2.2.2.2.2.2.4.4.2.2.2.2.<.<.4.5.G.J.l.l.&.&.l.l.>.&XJ.).k.k.;.;.k.l.l.l.z.l.;.;.;.&.&.:.;.;.:.:.:.&.&.&.&.*.#.I d U Q Y $.OXfX$XP.+.+.&.#.#.#. .#.#.&.&.#.#.#.#.#.#.#.#.#.#.O.O.#.#.O. .+.+.+.+.+.+.+.+. ._ _ _ ' ' ' ' _ _ _ _ _ _ _ _ _  . . . ._ Y U U U U Y Y Y T U L Y  . ._  .+.#.@.$.-.K.K.U.K.4.Y Y Y _  . .Y Y T _ +.+.+.#.$.:.G.G.:.4.G.G.:.$.4.F.F.G.4.:.:.*.=.*.*.*.4.K.'.oXoX'.5.@.' ' $.4.$.#.&.&.&.&.*.*.&.&.&.&.&.&.&.&.I 8 8 W &.&.&.&.&._ L L Y $.).&X#XJ.&.#.+.+.#.*.@.*.@.'.>.>.5.5.4.5.J.6.$.+. .+.3.Y.{.`.`.{.{.`.'.4.+._  . . . .X.X.X.X. . . . . . . . .X.X.X.X.X.Q  .%.f.%.%.f.&.%.%.%.X.X.&.k.k.U.l. .+.&.&.&.=.*.*.=.@.=.XXjXiXoXK.H.T.U.G.G.G.G.J.G.G.4.G.H.K.H.K.T.'.oXrXrXrXrXrXaXsXjXzXzXzXzXOX+.Y &.f.%.%.%.%.%.#.#.#.&.&.&.&.&.o.&.&.o.o.o.o.i.i.i.i.i.i.i.i.i.o.o.o.o.o.o.o.o.o.o.o.o.o.o.o.o.o.o.o.o.X.X.o.o.o.X.X.X.",
"X.o.o.&.f.f.j.j.j.j.g.g.g.g.g.g.j.j.j.j.j.j.F.F.g.g.g.g.j.j.j.g.j.F.F.F.F.F.L.L.E.W.W.W.P.P.P.W.~.%X@X!.U.U.U.U.U.XX'.'.U.K.J.J.J.J.G.J.J.G.G.J.*.G.J.*./ Q *.P.oX+XtXoXY.5.1.1.5.4.2.2.2.2.2.2.<.<.2.<.1.1.4.4.2.2.4.4.4.2.2.2.2.4.5.K.J.J.l.l.l.;.l.l.l.&XJ.).;.f.k.k.k.k.l.l.z.;.;.l.z.l.l.l.:.&.&.&.$.$.&.&.&.&.&.+.Y U +.*.$XgXtXU.G.@.+.#.#.+. . . .+.#.&.#.#.#.#.#.#.#.#.#.#. .O.#.#.#.O.#.#.+.+.+.+. .+.+.+.' ' _ _ _ _ ` ` _ _ _ _ _  ._  . . . . ._ Y Y Y Y Y U U U U U _ +.+.+. .+.#.@.$.-.5.K.K.J.K.@._ Y _  . .Y Y Y  .+.@.+.+.#.*.J.K.G.K.K.K.4.-.*.1.*.*.4.:.*.*.=.:.4.*.4.K.U.K.5.4.-.$.@.@.$.$.#.#.&.&.=.=.=.&.&.&.&.&.&.&.&.&.Y l I &.&.&.&.+.&.&.$.#.Y U #.K.fX).:.#.#.+.#.*.*.4.@.5.-.3.5.3.4.6.K.6.#. . .+.7.`.`.`.`.{.{./.{.5.' _  . . . .X.X.X.X. . .Q Q Q Q Q  . .X.X.X.X.~ Q X.%.X.X.%.&.%.%.%.X.X.&.l.*.I.J.+. .&.$.=.*.&.=.=.=.*.U.fXtXY.1.G.T.T.J.G.G.G.J.J.H.H.K.K.'.].oX+XrXrXrXuXpXaXyXyXaXjXbXnXDXhX*.Y +.%.X.%.%.%.%.&.&.&.&.&.&.&.&.&.&.&.&.f.o.o.o.o.o.o.o.o.i.i.o.o.o.o.o.o.o.o.o.o.o.o.o.o.o.o.o.o.o.o.o.o.X.o.X.o.o.o.X.X.",
"X.o.o.&.f.f.f.g.g.g.g.f.g.g.g.g.g.g.g.g.g.g.g.g.g.F.F.F.g.g.g.g.F.F.L.L.E.P.P.P.W.W.W.U.P.L.P.!.@X@X~.W.U.W.T.U.@XXXK.G.4.4.4.4.J.J.G.K.J.J.G.J.P.J.G.g.=.%.%.=.P.T.oXoXT.Y.H.1.5.4.2.2.1.1.2.2.<.2.2.2.2.4.4.4.2.2.4.4.4.4.2.2.4.5.5.H.J.J.l.l.k.k.k.l.J.OX_.J.&.&.k.k.k.k.k.l.l.;.l.z.z.:.&.;.G.:.&.#.&.$.*.$.$.=.G.J.G.*.P.$XiXoX4.+.*.4.@.+.+.+. . . . .#.#.#.#.#.#.#.#.#.#.#.#. .O.#.#.#.#.+.+.+.+.+.+. . .+.+.' ' _ _ _ _ ` ` _ _ _  . . . ._  . . . ._ _ Q Q Y U U U U Y _  .#.#.+.+.#.#.$.4.4.4.H.H.J./.:.+.Y _  . .Y  .Y _ +.#.&.&.$.:.G.G.4.G.J.J.>.:.*.*.*.G.4.4.4.:.4.G.4.4.4.G.G.5.5.4.4.-.-.$.$.@.+.#.&.*.&.&.&.&.&.&.&.&.&.&.&.&.Y l U &.&.#.&.&.#.+.+.+.Y Y $.XX&XK.$.&.$.#.#.#.-.4.$.3.4.7.6.6.6.6.J.>.+. . .#.Y.`.`.`.`.{.{./.{.J._ _  ._  . . . .Q Q Q Q W W X. .Q Q Q Q Q Q ~ W Q X.X.X. .X.%.X.&.&.X. .&.J.*.J.).&._ $.$.$.*.&.=.*.*.=.*.H.P.K.H.P.T.P.G.G.*.G.K.U.`.{.'.].oX+XrXrXiXuXaXyXpXaXaXaXsXbXnXnXnX).Y _ &.%.X.f.%.%.%.&.&.&.#.#. .X.X.O.&.&.f.f.o.o.o.i.o.o.o.o.o.o.o.o.o.o.o.o.o.o.o.o.o.o.o.o.o.X.X.X.o.o.X.X.X.X.o.o.o.o.X.X.",
"X.o.o.&.&.f.f.f.f.f.f.g.g.j.g.F.g.j.j.j.j.j.L.L.P.W.W.W.P.L.L.L.W.P.L.P.W.W.W.E.W.E.W.W.P.L.P.!.@X@X!.W.U.!.T.U.U.J.$.#.@.*.$.$.J.J.4.K.J.G.G.J.P.P.G.L.L.g.%.+.$.4.K.T.T.Y.K.1.1.1.2.2.1.2.2.<.2.2.2.1.2.4.4.4.2.2.4.4.1.1.1.2.3.5.H.H.J.l.k.k.k.k.k.z.|./.'.>.O.i.k.k.k.k.k.k.l.;.l.z.;.&.:.I.XXI.l.#.@.&.=.=.=.=.G.P.U.P.XX$XU.4.@.+.*.4.*.+.+.+. .#. . .O. .#.#.#.#.#.#.#.#.#. . .O.#.#.#.#.+.+.+.+.+.+. . .+.+.' ' _ _ _ _ _ _ _ _ _  . . . ._ _  . . . . . .Y Y U U Q Q  .+.+.#.#.+.#.&.&.*.K.G.$.4.5.G.K.J.#.Y _  .Y Y  . .Y  .@.=.=.$.G.$.$.$.-.-.-.-.-.*.*.1.G.G.G.G.G.K.G.4.G.G.4.G.5.H.4.*.@.$.$.$.$.+.#.&.&.&.&.&.&.&.&.&.&.&.&.&.&.K 9 v  .&.#.&.&.#.#.$.:.+.Y #.I.&XJ.#.#.$.#.#.#.-.4.5.4.7.0.5.7.6.6.5.-.#. .X.&.`.`.`.`.`.`.`.`.{.K._ _  .Y  .W Q Q Q W W W W W  .Q Q W W W W W Q W W ~ X.X. .X.X.X.&.f. . .&.L.*.I.OX*.Y *.$.$.*.&.=.G.G.*.*.G.H.R.Y.T.!.P.G.P.U.U.XXOX+X+XrXrXrXrXrXuXiXaXpXaXyXaXsXsXsXmXbXnXiX#.U +.&.%.f.%.%.%.%.&.&. . ._  . .X.X.o.&.&.&.o.o.o.f.i.i.o.o.o.o.o.o.i.o.o.i.o.o.o.o.o.o.o.o.o.X.X.X.X.o.X.| o.o.o.o.o.X.X.X.",
"X.o.o.o.&.&.f.f.g.j.g.L.L.P.P.P.L.P.P.W.~.@X4X4X@X@X4X4X@X~.W.W.~.~.W.W.~.~.W.W.W.W.W.W.P.L.P.~.@X~.!.W.U.!.T.U.=.@.' +.$.*.$.+.J.J.4.K.J.J.G.J.J.G.P.P.L.g.%.=./ @.1.5.K.T.K.1.<.<.<.2.2.<.<.<.2.2.2.1.2.4.4.4.2.2.4.1.4.1.1.2.3.5.H.H.G.:.&.&.k.k.k.z.#X_.oX;.O.i.k.k.k.k.k.k.l.;.k.;.&.:.OXvX5XOXG.&.+.+.@.@.@.=.$.*.G.H.K.H.*.<.G.K.4.*.4.*.+.+.+.#.+. . . .O.O.O.O.#.O.O.O.#. . .#.#.#.#.#.+.+.+.+.+.+. . ._ _ ' _ ' ' +.+.' O. . . ._ _ _  ._ _ _  . . . .Q Y U U U Q  .+.&.&.&.#.#.#.&.&.-./.H.@.$.-.-.K.U.$.Y Y  .Q Y  . .Y Y +.&.&.=.*.$.$.-.-.:.-.-.>.*.1.G.G.G.G.G.G.K.G.4.G.K.G.K.K.4.-.@.$.$.-.$.#.@.#.&.&.&.&.$.*.&.&.&.&.&.&.&.&.U 9 w _ +.+.#. .#.+.#.+.Y Y I.vXfXJ.+.+.#.#.#.:.4.5.K.3.K.7.3.7.6.6.6.:.O. .%.*.{.`.{.{.`.0.`.{.{.K._ _  .U  .Y Q Q W W W W W W W W W W W W W W W W W ~ X.X.X.X.X.X.&.f.%. .&.L.l.U.&Xl.Y *.$.=.:.=.=.*.*.=.*.J.T.T.Y.T.oXXXU.XX$X$X$X+XrXrXrXiXsXsXaXiXuXuXaXaXaXsXzXzXsXaXsXsX3.P _ &. .%.g.Q %.%.%.%.X. .U U Y |  .X.O.O.o.o.X.o.i.f.f.f.i.i.o.o.i.i.i.i.i.i.o.o.o.o.o.o.o.o.o.X.X.X.X.X.X.| o.o.o.o.o.X.X.X."
};
