/* XPM */
static char *b8d69e92526d432890328c88f4b6d6d3lgToDTTkNlElkmPZ[] = {
/* columns rows colors chars-per-pixel */
"512 512 251 2 ",
"   c #050200",
".  c #0C0505",
"X  c #0C0905",
"o  c #0C0608",
"O  c #0D0B0B",
"+  c #120C05",
"@  c #100709",
"#  c #120D0C",
"$  c #180E0C",
"%  c #151106",
"&  c #15110D",
"*  c #1A140D",
"=  c #1D190E",
"-  c #1B1405",
";  c #0F0D10",
":  c #140F11",
">  c #180F11",
",  c #161212",
"<  c #1B1514",
"1  c #1E1915",
"2  c #1E1519",
"3  c #1E1919",
"4  c #171813",
"5  c #0E100F",
"6  c #221B0D",
"7  c #22190A",
"8  c #211715",
"9  c #221C15",
"0  c #291F15",
"q  c #20171A",
"w  c #231C1A",
"e  c #291E1D",
"r  c #29220E",
"t  c #252116",
"y  c #2A2316",
"u  c #2E2915",
"i  c #26221C",
"p  c #2A241D",
"a  c #2D291E",
"s  c #322A16",
"d  c #31261D",
"f  c #312B1E",
"g  c #392E1D",
"h  c #322716",
"j  c #35301D",
"k  c #3A321E",
"l  c #3F391F",
"z  c #31250D",
"x  c #1F1820",
"c  c #241C21",
"v  c #281F20",
"b  c #281D28",
"n  c #262221",
"m  c #2C2521",
"M  c #2E2A22",
"N  c #2C242A",
"B  c #2E2A2A",
"V  c #272820",
"C  c #312623",
"Z  c #332D23",
"A  c #382E25",
"S  c #31272F",
"D  c #342D2A",
"F  c #382F29",
"G  c #382624",
"H  c #353125",
"J  c #3A3326",
"K  c #3E3825",
"L  c #36322A",
"P  c #3B352B",
"I  c #3D392C",
"U  c #373829",
"Y  c #2F2A31",
"T  c #312730",
"R  c #342B31",
"E  c #382F32",
"W  c #363231",
"Q  c #3C3432",
"!  c #3E3A31",
"~  c #3E3D38",
"^  c #2F3026",
"/  c #1F201B",
"(  c #413625",
")  c #423A26",
"_  c #41372D",
"`  c #423B2D",
"'  c #493E2C",
"]  c #493E26",
"[  c #403731",
"{  c #433C34",
"}  c #433D36",
"|  c #453E36",
" . c #433C32",
".. c #493E33",
"X. c #433B38",
"o. c #453D3A",
"O. c #453E39",
"+. c #493F39",
"@. c #402F27",
"#. c #453C1D",
"$. c #46412D",
"%. c #4A422E",
"&. c #4C452A",
"*. c #51462E",
"=. c #544A2D",
"-. c #474036",
";. c #464035",
":. c #464133",
">. c #484236",
",. c #484136",
"<. c #4B4434",
"1. c #4E4935",
"2. c #474038",
"3. c #464239",
"4. c #4A4339",
"5. c #494239",
"6. c #4C433A",
"7. c #4B4439",
"8. c #4D443B",
"9. c #4E463B",
"0. c #4D4639",
"q. c #4E453C",
"w. c #4F473C",
"e. c #4D463C",
"r. c #4C453A",
"t. c #4E493A",
"y. c #514634",
"u. c #524A35",
"i. c #594D35",
"p. c #51463B",
"a. c #50483B",
"s. c #50483D",
"d. c #51493E",
"f. c #544C3C",
"g. c #594E3C",
"h. c #584737",
"j. c #565136",
"k. c #5B5136",
"l. c #56513C",
"z. c #5B523D",
"x. c #5E593D",
"c. c #5C522E",
"v. c #625435",
"b. c #62553D",
"n. c #64593D",
"m. c #6A5C3D",
"M. c #675835",
"N. c #715E3E",
"B. c #6E623E",
"V. c #4E4A41",
"C. c #4B4641",
"Z. c #544D41",
"A. c #584F41",
"S. c #544B46",
"D. c #565143",
"F. c #5C5342",
"G. c #5F5944",
"H. c #565249",
"J. c #5C554A",
"K. c #5E594B",
"L. c #5E5951",
"P. c #615643",
"I. c #635A45",
"U. c #6A5D44",
"Y. c #615649",
"T. c #645C4A",
"R. c #6A5E4A",
"E. c #685745",
"W. c #645D51",
"Q. c #685E54",
"!. c #705F44",
"~. c #666145",
"^. c #6C6145",
"/. c #66614C",
"(. c #6C624B",
"). c #6E694D",
"_. c #726345",
"`. c #746946",
"'. c #72654B",
"]. c #75694D",
"[. c #7A6B4D",
"{. c #796947",
"}. c #7D714D",
"|. c #7F7045",
" X c #666153",
".X c #6C6452",
"XX c #6E6953",
"oX c #6C665A",
"OX c #6E695B",
"+X c #66625A",
"@X c #736652",
"#X c #746A54",
"$X c #7B6C53",
"%X c #746C5A",
"&X c #7A6E5B",
"*X c #776754",
"=X c #7D7154",
"-X c #7B725C",
";X c #78725A",
":X c #746E61",
">X c #7C7462",
",X c #7A7564",
"<X c #6D6960",
"1X c #3F4030",
"2X c #83744C",
"3X c #827454",
"4X c #867954",
"5X c #8A7C55",
"6X c #83755A",
"7X c #857A5C",
"8X c #8A7C5C",
"9X c #887657",
"0X c #837255",
"qX c #827662",
"wX c #837B64",
"eX c #8B7D62",
"rX c #847D6A",
"tX c #897D6A",
"yX c #857E70",
"uX c #8D815C",
"iX c #8D8056",
"pX c #93865D",
"aX c #8D8164",
"sX c #8B826B",
"dX c #88826B",
"fX c #928464",
"gX c #92856A",
"hX c #95896B",
"jX c #9A8C6C",
"kX c #988B65",
"lX c #9D926D",
"zX c #8C8572",
"xX c #8C8774",
"cX c #938B74",
"vX c #978C75",
"bX c #9C9277",
"nX c #A3956C",
"mX c #A39574",
"MX c #AA9D74",
"NX c #AA9D7B",
"BX c #A59877",
"VX c #AEA178",
"CX c #B2A57B",
"ZX c #999482",
"AX c #A69C84",
"SX c #B5A885",
"DX c #B4AA8C",
"FX c #C7BA96",
"GX c #C2B48D",
"HX c #C4BEA7",
"JX c #D3C6A0",
/* pixels */
"R R R R R R R R R R R R R R R R R R R R R R R R R R R R T T S S R R R R R R R R T T T R R R T S S S S S S S S S D D D D D S S S R R R R R R R R R R R R R R R R R R R R R R R R R R R R R R R R R R R R T T T T R R R R R R R R T T T T T T T T T T T T T T R T R R R R R R R R R R R R T T T T R T T T R R R R R R R R R R R R R R R R R R R R R R R R R R R R R R R R R R R R R R R S S T R R R R R R R R R R R R R R R R R R R R R R R R R R R R R R R R R R R R R R R R R R R R R R R R R R R R R R R R R R R R R R R R R R R R R R R R R R R R R R R R R R R R R R R R R R R R R R R R R R R R R R R R R R R R R R R R R R R R R R R R R R R R R R R R R R R R Y Y Y R Y Y Y Y Y Y Y Y Y Y R R R R R R R R R R T R R R R R R R R R R R R R R R R R R R R R R R T R R R R R R R R R R R R R R Y Y Y Y Y Y Y Y Y Y Y R Y Y Y Y Y Y Y Y Y Y Y Y Y Y Y R Y Y Y R R R R R R R R R R R T T T R R R Y Y Y Y Y Y Y Y Y Y Y Y Y Y Y T T T T T T T T R T T T T T T T T T T T T T T T R R R R R R R R R R R R R R R R R R R R R R R R R R R R R R R R R R R R R R R R ",
"R R R R R R R R R R R R R R R R R R R R R R R R R R R R R R R R R R R R R R R R R R R R R R R R R D D D S S S D D D D D D S S R R R R R R R R R R R R R R R R R R R R R R R R R R R R R R R R R R R R R R R T T R R R R R R R R T T T T T T T T T T T R R T T R R R T T T T T R R R R R R R R R R R R R R R R R T T R R R R R R R R R R R R R R R R R R R R R R R R R R R R R R R R R T T T R R R R R R R R R R R R T T T T R R R R R R R R R R R R R R R R R R R R T T T T R R R T T T T R R R R R R R R R R T T T R R R R R R T T T T R T R T T T T T R R T R T T R R R R R R T R R R R R T T R R R R R R R R R R R R R R R R R R R R R R R R T T T T T T T S B B Y Y Y Y Y Y Y Y Y Y Y Y Y Y R R R R R R R R S S S T T T T R R T R R R R T T T T R R R R R R T T T T T T T R R R R R T R T R R Y Y Y Y Y Y Y Y Y Y Y R Y R Y R R Y Y Y Y R R Y Y Y Y Y Y Y Y R R R R T T T T R R R T T T R R R Y Y Y Y Y Y Y Y Y Y Y Y Y Y Y T T T T T T T T R T T T T T T T T T T T T T T T R R R R R R R R R R R R R R R R R R R R R R R R R R R R R R R R R R R R R R R R ",
"R R R R R R R R R R R R R R R R R S R R S S S S S S S S R R R R R R R R R R R R R R R R R R R R R R R R R R R R E E E E E E R R R R R R R R R R S S S S S S S S R R R R R R R R R R R R R R R R R R R R R R R R R R R R R R R R R R R R R R R R R R R R R R R R R R R R T R T R R R R R R R R R R R R R R R R R T T T T T T R R R R R S R R R R R R R R R R R R R R R R R R R R R R R R T T T R R T T T T T R R S S S S S S S S S S S S S S S S S S S S S S S S R R T T T R R R T S T T S S S S R R T T R R T T T T T R T T R T T T R R R R R T R T R R R R R R T T T R R T R T S S S S S S S S R R R R R R R R T T T T T T T T T T T T T T T T T T T T T T T Y B B B Y B B B B Y Y Y Y Y Y Y Y R R R R R R T T S N S S T T T T T T T T T T T T T T T T T T T T S T T T T T T T R R T T T T T R R R R R Y Y R Y Y Y Y Y R R Y Y R R R R R R R R Y Y Y Y Y Y Y Y R R R R R T T T R R T R T T T R R Y Y Y Y Y R Y Y R R R R R Y Y R R T T R R R R R R R R R R R R R R R R R R R R R R R R R R R R R S S S S S S S S S S S S S S S R R R R R R R R R R R R R R R R ",
"R R R R R R R R R R R R R R R R S S R R S S S S S R R R R R E E R R R R R R R R R R R R R R R R E E E E R R R E E E E E E E E R R R R R E E E E S S S S S S S S R R R R R R R R R R R T T T T T R R R R R R R R R R R R R R R R T T T T T T T T T T R R T T R R R T T R T R R T R R R R R R R R R R R R R R R R T T T T T T T T S S S S S S S S T T T T R R R R T T T T T T T T R R R R T T T R R T T T T T R R R R T T R R R R S S S S S S S S S S S S S S S S R R R R R R R R R R R R R R R R R R R R R R R R T T T T T T T T T R R R R R R T R R R R R R R R R R R R R R R R T T T R R R R T T R R R R R R T T T T T R T R R T T T R R R T R R R R R R R R R R R R Y R R R R Y Y Y Y Y Y Y R T T T T T T T T T T T T R R R R R R R R R R R R R R R R R R R R T T T R R R R R R R R R R R R R R R R R R R R R R R R R Y R R R R R R R R R R R Y Y Y Y R Y R R R R R R R R R R R R R R R R R R R R R R R R R R R R R R R R R R R R R R R R R R R R R R R R R R R R R R R R R R R R R R R R R R R R R R R R R R S S S S S S S S R R R R R R R R R R R R R R R R ",
"R R E E E E R R R R S S S S S S S R R R R S S S R E E E E E E E E E E E E E E E E E E E E E E E E E R R R R E E R R R R E E E E R R R R E E E E R R R R R R D R R R R R R R R R R R R S S S S S R R R R R R R R R R R R R R R R S S S S S S S S S S S S R T R R R S S S S S S S S S S S S S S S S S S S S S S S S S S S S S S S S S S S S S S S S S S S S S S S S S S S S S S S S S S S S S S S S S S S S S D D E E E E E R R R E E E E E E E E E E E E R R R E R R R E R R R R R R R R R R R R R R R R R R R R R R R R T T R R R R R R R R R R R R R R R R R R R R R R R R R R R R R R R R R R T T R R R R T T R R R T R R R R R R R R R R T T R R R R R R R R R R R R R R R R R R R R Y Y R R T T T T T T T T R R R R R R R R R R R R R R R R R R R R R R R R R R R R R R R R R R R R R R R R R R R R R R R R R R R R R R R R R R R R E E E E R D S R R R R R R R R R R R R R R R R R R R R R R R R R R R R R R R R R R R R R R R R R R R R R E E R R R R E E E E R R E E E E E E E E E E E E R R E E E E R R R R S S S S S S E E E E E E E E R R E E E E R R ",
"E E E E E E E E E E E E R R R R E R R E E E E E E E E E E E E E E R R R E E E E E E E E E E E E E E E E E E E E E E E E E E E E E E E E E E E E E E E E E R E E R R E E R R R R E E R R R R S S R R R R R R R R R R R R R R R R R R R T R R R R R R T T T R R S R R R R R R R R S S S S S S S S S S S S R S S S R R R R R R R R R R D R R R R R S S S S S S S S S S S S S S S S S S S D S S S S E E E E R R E E E E E E E E E E E E E E E E E E E E E E E E E E E E E E E E E E E E E E E E E E R R R R R R R R R R R R R R R R R R R R R R R R R R R R T T R T T T T R T T T T T T T T T T T T T T R R R R T T R R R R R R R R R R R R R R R R T T T T T T T T Y S S Y Y Y Y Y R R R R Y R R R T T R R R R T T R R R R R R R R R R R R R R R R R R R R R R R R R R R R R R R R R R R R R R R R E E R R R R E E E E E E E E E E R R R R E E E E R R R R R R R W R R R R R R R R R R R R R R R E E E R R R R E E R R R E E E R R R R R R E E E E E E E E E E E E E E E E E E E E E E E E E E E E E E E E E E E E E E E E E E E E E E E E E E E E E E E E E E E E ",
"E E E E E E E E Q Q W W W W E E W E E E Q Q Q Q E E E E E E E E E E E E E E E E E E E E E E F E E E E E E E E E E E E E E E E E E E E E E E E E E E E E E E E F E E E E E E E E E E E E D D D D R R E R R R R R D D S S S S S S R R R R R R R R R R R R E E E E R E F F F F F F F F E E F F F F F D D F E E F F F E F F F F F F E E E E E E E E E E E E E E E E E E E E E E E E E E E E E E E E E E E E E E E E E E E E E E E E E E E E E E E E E E E E E E E E E E E E E E E E D D E R D F D R R R R R R R R R R R R R R R R R R R R R R R R R R R T R T T R T T T R R R R R R R R T T R T R R T T T T T T T T T T T T T T T T T T T T T T T T T T T T T T T T S N B B B Y Y Y Y R Y Y Y Y R R T T T R R R T T R R R R R R R R R R R R E E E E E E E E R R R R R R E E E E E E E E E E E E E E R R R R R R R E W W W W W W W W E E E E E E E E D D E E E W W W E E R R R R E R E E E E E E E E E R R R R R R E R R R E R R R R E E E E E E E E E E E E E E E E E E E E E E E E E E E E E E W W E E E E E E E E Q Q W W W W W W E E E E E E E E E E E E E E E E ",
"E E E W W W W E Q Q Q W Q W Q Q Q Q Q Q Q Q Q Q W W E E E E E E E E E E E E E E E E E E E E F E E E E E E E E E E E E E E E E E E E E E E E E E E E E E E E E E E F E F E F E F E F E F E D D D R R E E R D R D S S S S S S S S E E E E E E E E E E E E E E E E E E E E E E E E E E E E E E E E E E E E E E E E E E E E E E E E E E E E E E E E E E E E E E E E E E E E E E E E W W W W W W W W W W W W W W W W E E E E E E E E E E E E E E E E E E E E E E E E E E E E E E E E D D D D D D D D R R R R R R R R R R R R R R R R R R R R R R R R R R R R R R R R R R R R R R R R R R R R R R R R T T T T T T T T S S T T S S S S T T T S T T T T R R R R R R R R R R R R R R R R Y Y Y Y Y Y R R R R R R R R R R R R R R R R R R E E E E E E E E R E E E E E E E E E E E E E Q W Q W Q E E Q Q Q E F E F W L W L W W W W W W W W W W W W W W W W E F E F W W W W E E E E E E E E Q Q Q Q Q Q Q W E F E F W L W L E F W L W L W F E F E F E F E F E F E F E F E F E E E E E E E E E E E E E W W W W W W W W W E E Q Q Q Q Q Q Q Q E E E E E W W W E E E W W W E E ",
"W Q Q Q Q Q Q Q W W Q Q Q Q Q Q Q Q Q Q Q Q Q Q W W E E F F F F E E E E E E E E E E E E E E E E E E E E E E F F E E E E E E E E E E F F F F E E F F F E F F F F F F F F F F F F F F F F F D F F F F E F E E W E E F E F E F E F E E E E Q W W W E E E W Q W Q Q E E E W Q Q Q Q E E E E E E E E E E E E E E E E E E E E E E E E E E E E E E E E E E E E W W W W E E E E E E E E E E E E E E Q W E E E E E E E E E E E E E E E E W E E E E E E E W W W E E E E E E E E E E E E E E E E F E E E R E E E E R E E E E R R R R R R E R R R D S S S R R R R R R R E E R R R R E E E E R R R R R R R R R R R R R R R R R R R R R R R R R R R R R R R R E E E E E R R R R E E E E E E E E E E E E E E E R R R R R R R R R R R R R R E E E F F D F F E E E F E F E E E E E F E F E E E W Q W Q W Q W Q W W L W L E L E L W W W L E L W W W W W W E L F F W W E L F L E W E W Q Q Q W W E E E E W W W Q W E L E W W L W W W W W L E F F F F L W L W L W L Q Q Q Q Q Q W W W W W W W W W W W W W W Q Q Q Q W W W W Q Q Q Q Q W Q W W W W W W W W W W Q W W W W W W W W W W ",
"W W W Q W W Q Q W W Q Q Q Q Q Q Q Q Q Q Q Q Q Q W W E E E F F F E E W W Q W W W E E E E E E E E E E E E E F E F E F E F E F E F E E F F F F E E F F F F F F F F F F F F F F F F F F F F F L L L F F F E E E W E F F E E E F F F F F E E E E E E E E W W W W W W W Q W W Q Q Q Q E E E E E E E E W W W W W E E E W Q E E W W W W Q Q Q Q Q Q Q Q Q Q Q Q Q Q Q Q E E E E E E E E E E E E E E Q Q E E E E E E E E E W W W W Q Q W W W W W W W W W Q W W W W W W W E E E E E E E E E E E E E E E E E E E E R E E E E E E E E E E E E E E E E E E E E E E E E E E E E E E E E E E E E E E E E E E E R R E E E E R R R R R E R E R R E E E E E E E E E E E E E E R E E E E E E E E E E E E E E E E E R R R R R E R E E E E Q E E E E F F F F E E E W F E E E E E W W F F F F F F E W W W W W W W Q W Q Q Q Q Q Q Q Q Q Q Q W Q Q Q Q W W W W Q Q Q W W W W W L L L W E W W Q Q W W W Q Q Q Q Q Q Q Q W W W W L L W L L L W L L L F F F F L W W W W W W W W W W W W W F F F F L L L L W W W W W Q Q Q Q Q Q Q Q Q Q Q Q Q Q Q W W W W W W W W Q Q W W W W W W W W W W ",
"W Q Q Q Q Q Q Q W W W W Q Q Q Q Q Q Q Q Q Q Q Q L L W W L L F F W W W E E W W W F F F F E E E E E F E F E F F F F F F F F F E F L L F F F F L F L L E E L L L L W W L L L L W W L L W W W W W Q W W W W W W W W L L L W F L L L L L L L W W L L L L W W W W W W W W W W W W W W E E E E E E E E W W W W W E W E W W W E W W W W W W W W W W W W E W E E W W W W W W W W W W W W E E E E E E E W E E W W W W W W W W W W W W Q Q Q Q Q Q Q Q Q Q Q Q Q W W W W L W W W W W W W W W W W W W W Q Q W W Q W Q W Q Q Q W Q W W W Q W Q W Q W Q W Q W W W W W Q W Q W Q W Q W Q W Q W Q W Q W Q W Q Q E Q Q Q Q Q Q W E E E W Q Q Q Q Q Q Q Q E Q Q Q E E E Q E E E E E F E F E E E E E E E E W W E E E E Q Q Q Q Q W Q Q Q Q Q Q E Q W L W W W W W W L L L W W W W W F L F F L L W W W W W Q Q Q Q Q Q Q Q Q Q Q Q Q Q Q Q Q [ [ Q Q Q Q Q Q Q Q Q Q Q Q Q L L L W W L L W L W W W W W W W W W L W W Q Q Q Q L L L L L L L L L L L L L L W W Q W W Q Q Q Q Q Q Q Q Q Q Q Q Q Q Q Q Q Q Q Q Q Q Q Q Q Q Q Q Q Q Q Q Q Q Q Q Q Q Q W W W L L L P L L L L L W L L L L L ",
"Q Q Q Q Q Q Q Q W W W Q Q Q Q Q Q Q Q Q Q Q Q Q L L W W W W L W W W E E E E W W F F F F E E E F F F L L L L L L L L L L L L L W W W W W W W W W Q Q W W W W W W Q Q Q Q Q Q Q Q Q Q Q Q Q Q Q Q Q Q Q Q Q Q Q Q Q Q Q Q Q W W W W Q Q Q Q Q Q Q Q Q Q Q Q W W W Q Q Q W W W W W E E E E E E E E E E E E E E E E E E E E E E E E E E E E E E E E W W E W W W E E W W W W W W W W W W E E E E E W E E W W W W W W W W W W W W Q Q Q Q Q Q Q Q Q Q W W W W W W L L Q Q Q Q Q Q Q Q Q Q Q Q Q ~ ~ ~ Q [ Q Q Q Q { { Q Q Q Q Q Q Q Q Q Q Q Q Q Q Q Q Q Q Q Q Q Q Q Q Q Q Q Q Q Q Q Q Q W W W Q Q Q Q W W W W W W W W E E W W W W W W W W W W E W W W W W W W W W E E E L L L W Q Q Q W W W W W Q W W Q Q Q Q Q Q W W W W W W W E E E L W Q Q Q Q W W W W Q Q Q Q Q Q Q W W W W W Q Q Q Q Q Q Q { { { { { Q Q Q Q Q Q Q Q { { { { { [ [ [ [ { { { { { Q Q Q Q Q Q W W W W L L W W W Q Q Q Q W W L W L Q Q Q Q Q Q W W Q Q Q Q W Q Q Q Q Q Q Q [ [ Q Q Q Q Q Q Q Q Q Q { { { { { { { { [ [ [ [ Q Q Q Q Q Q Q Q Q Q Q Q Q Q Q Q Q Q Q W W W W Q Q Q Q Q Q Q Q Q Q Q Q Q ",
"Q Q Q Q Q Q Q Q I I I Q Q Q Q Q Q Q Q Q Q Q Q W Q W Q Q W W W W W W Q Q Q W W W W W W W W W Q Q W P W P Q Q Q Q Q Q Q I W I Q Q Q Q Q Q Q Q Q Q Q Q Q Q Q Q Q Q X.{ { { { { { { ! ! ! ! [ [ { { { { { { { { Q Q Q Q Q Q Q Q Q Q Q Q Q Q Q Q Q Q Q Q Q Q Q Q Q Q Q Q Q Q Q Q Q Q W W W W W W Q Q Q Q Q W W W W W W W W W Q W Q Q W W W W W W W W Q Q Q Q Q Q Q Q Q Q Q Q Q Q Q Q Q Q Q Q Q Q Q Q Q Q Q Q Q Q Q Q Q Q Q Q Q Q Q Q Q Q Q Q Q Q Q Q Q Q Q Q Q Q Q Q Q Q [ Q Q Q Q [ Q Q [ [ [ [ Q Q { [ Q { { { { { { { { { { { { { Q Q Q Q Q Q Q Q Q Q Q { { { { { { { { { Q Q Q Q Q Q Q Q Q Q Q Q Q Q Q Q Q Q Q W W W W W W W W Q Q Q Q Q Q Q Q Q Q Q Q Q Q Q W W Q Q Q Q Q [ [ [ Q Q [ [ [ [ Q Q Q Q Q Q Q Q Q Q Q Q Q Q Q W W W W Q Q Q Q Q Q Q Q Q Q Q ! ! Q Q ! ! Q Q Q Q { { { { { { X.O.X.O.X.O.{ { { { { { [ [ { { { { { [ [ [ [ { { { { { [ [ Q I I I I I Q Q Q W Q Q Q Q { { { [ Q Q Q Q Q I Q Q Q [ [ [ Q Q Q Q [ [ [ [ ! ! [ [ [ [ ! ! [ [ [ [ ! ! ! ! Q Q ! ! ! ! Q Q [ [ { ! ! ! Q Q Q Q Q Q Q W W W W W W W Q Q Q Q Q Q Q Q Q Q Q Q Q Q Q Q Q Q Q Q ",
"Q Q Q Q I I I Q ! ! ! ! Q [ ! ! Q Q Q Q Q Q Q Q Q Q Q Q Q Q Q Q Q Q [ [ Q Q Q Q [ [ { { Q [ { { [ ! [ { { { { { ! ! ! ! Q Q ! ! { [ Q { { { { { { { X.X.{ { { { O.O.{ { { { O.O.{ { { { [ ! [ [ { { X.X.X.X.{ { { { { X.{ { { { Q Q Q Q Q Q Q Q Q Q Q [ Q Q Q Q { { { { [ [ Q Q { { { { { X.{ { { { { { { { { { { { { [ { { { { { { { { { { { { X.X.X.X.X.X.X.X.X.X.X.X.X.X.X.X.X.X.X.{ { { { { X.X.X.X.X.X.X.X.X.X.X.X.X.X.X.X.O.X.X.X.X.X.X.X.X.X.{ { { { { { X.X.X.X.X.X.X.X.Q Q Q Q Q Q Q Q ! Q ! Q { { { { { { { { { { { { ! ! ! ! ! ! ! ! [ [ [ { { { { { { { { { { [ { { ! ! ! [ ! ! ! ! Q { { { { { { Q Q Q Q [ Q Q Q [ { { { { { { { { { { { { { { Q Q [ [ [ [ { { { { [ [ [ [ { { { { Q Q Q Q Q Q Q Q { { Q [ Q Q Q Q Q Q Q Q Q Q Q Q { { { { { { { { O.X.X.X.{ { X.X.X.{ X.O.O.O.O.O.O.O.O.{ { { { { [ [ { { { { { { { { { { { { { { { { [ [ Q Q Q Q Q Q Q [ { { { { X.X.{ { { { X.{ [ [ [ { { { O.O.{ { { { { { { { { { [ [ [ ! ! ! [ [ [ [ ! ! ! ! Q Q ! Q ! ! Q Q [ [ ! Q ! Q Q Q Q Q Q Q Q Q Q Q Q Q Q Q Q Q Q Q ! ! ! ! ! ! ! [ [ [ [ [ [ [ [ ! ",
"[ [ [ [ Q I I I ! ! ! [ [ [ [ { Q Q { { { [ Q Q Q Q [ [ { { { { { { { { X.X.X.X.X.X.X.X.X.X.X.X.{ { [ { { { { { [ [ [ [ { { { { X.{ { [ { { { { X.X.X.X.X.X.X.X.{ { { { { { { { { [ [ [ [ ! ! ! { { { { { { { { { { { { { { { { [ ! [ [ Q ! Q Q ! [ [ [ { { { X.X.X.X.X.X.X.X.X.O.O.O.O.O.O.O.O.X.X.X.X.X.X.X.X.X.X.X.X.X.X.X.X.O.X.X.O.X.X.O.O.O.O.O.O.O.O.O.O.O.O.O.O.O.O.O.O.O.O.X.X.X.X.X.X.O.O.O.O.o.O.o.o.o.o.o.o.o.o.O.O.O.O.O.o.o.o.O.O.O.O.O.O.O.O.O.O.O.O.O.O.O.O.O.O.X.X.X.X.{ X.X.{ { [ [ [ [ [ [ [ { [ { { { [ [ [ [ [ [ [ [ [ [ [ [ [ [ [ [ [ [ [ [ [ [ [ [ [ [ [ [ [ [ [ [ [ [ [ { { { { { { { { { { { { { { { { { { { { O.O.O.O.{ { O.O.{ { { { { { { { [ [ [ [ [ [  . .[ { [ { { { { { { { { { { { { { { { { { [ { ! ! [ [ { { { { { { { { { { O.O.O.{ { { { { { { { { { O.{ O.{ [ { { [ [ [ [ [ [ [ [ { { { { { { { { { { { { { { {  .[ [ [ [ [ { { { { { { O.{ { { { { O.O.O.O.{ +.+.4.4.4.4.4.4.4.+.+.+.+.+.{ { { { { [ [ [  . .[ [ [ [ [ [ { { { { { { { { [ [ [ [ [ ! I Q Q Q Q Q Q Q Q Q Q Q Q Q [ Q { { { [ [ [ [ [ [ [ [ [ [ [ [ [ [ [ ",
"{ { { { [ [ [ [ [ [ [ [ [ [ [ [ [ [ { { { { Q ! [ [ { { { { { { { { { { { { { { { { { { Q [ [ [ { [ [ [ [ { { { { { { { { { { { { { { [ [ { { X.X.X.X.X.X.X.X.{ { { { [ [ [ { { { { [ [ ! I I I Q Q ! ! { { { { { { { { { { { { { { { { { [ [ [ [ { { { { { { } X.{ X.X.O.O.O.O.O.O.O.O.O.O.O.O.X.X.X.O.O.O.O.O.O.O.X.X.X.X.O.O.X.X.X.X.X.X.X.X.O.O.O.O.O.O.O.O.X.X.X.X.X.X.X.X.O.X.{ { { { { { X.X.X.X.X.X.X.X.o.O.O.O.o.O.o.O.O.O.O.O.o.O.O.O.+.4.O.O.O.O.O.O.O.O.O.O.O.O.O.O.O.O.O.O.O.O.O.O.{ { { { { { { { [ [ { { { [ [ [ [ [ [ [ [ [ [ [ [ [ [ [ [ [ [ [ [ [ [ [ [ [ [ [ [ [ [ [ {  . . .[ { { { { { { [ { { O.O.O.O.{ { { { { { { { { { { { O.O.{ { { { { [ { [ [ [ [ [ {  .{  .{  .{ { { { { { { { { { [ [ [ [ [ { { [ [  .[ [ [ [ { { { { { { { { { { { { { { { [ { { { { { { { { { { { { { { { { { { {  .[ [ { { O.+.{ { { { { { { { 4.+...{ { { [ [ [ [ { O.2.2.{ { 4.4.4.4.4.4.6.6.8.8.8.8.8.8.8.8.4.4.4.4.4.4.4.,.{ -.-.-.{ { { { -.-.,.-.-.-.-.-.{ { { { -.{ { { { { { { {  .[ [ [ [ { [ { [ { [ { [ { { { { { { { { { { { { { { { { { { { { { { ",
"{ { { { { { { { [ [ [ [ [ [ {  . . .{ [ {  .{ [ { { { { { { { { { { { { { { { { { { { { { { { { [ { [ { [ [ [ [ { {  .[ [ [ [ [ { { { { { { { { { { { { { { { {  . .{ { { { { {  . . . . . . .{ { { { { { O.O.O.{ { { O.O.O.O.O.-.-.-.{ ;.;.;.{ { { { { { { ;.;.{ { O.{ { { { { { O.O.O.{ { { { { { { { { O.O.O.O.{ { [ [ { { O.O.O.O.O.O.O.O.O.{ { { { { { { { { { { { { { { { { { O.{ { { { { { { X.{ O.{ O.O.o.O.O.{ X.{ O.O.O.{ { { { { O.2.O.{ O.{ O.{ O.O.{ O.2.6.6.4.2.O.O.O.O.O.{ { { { { { { { { 2.2.2.2.2.2.2.2.2.2.2.{ { { { { { { { { { { { { { { { { { [ [ [ [ ! ! [ [ [ [ [ [ { { { { { { { { { { [ [ { { { { { {  . . .{ { { { { -.-.-.-.-.-.-.-.,.-.{ -.{ -.{ -.{ -.-.-.{ { { { -.-.-.-.-.-.-.-. . . . . .{ { { [  . . .{ { { { { { { { { { { { -.-.-.-.-.-.-.-.-.-.-.-.-.-.-.-.{ { { :.{ :.{ { { { { { { {  . .{ -.{ { { { 2.2.{ { 2.2.2.2.2.-.{ -.-.-.-.-.,.,.-.-.-.,.,.,.,.,.,.,.,.,.,.r.r.r.r.r.r.r.r.r.r.<.-.-.-.-.-.-.-.-.-.-.-.-.-.-.-.-.-.-.-.-.-.-.-.-.-.-.-.-.-.-.-.-.4.4.4.2.2.{ O.{ { [ {  .{ { { { { { { { { { { { { { { -.2.2.{ { ",
"{ { { { { { { { [ [ [ [  .[ { { [  .[ [ [ [  .[ { { { { { { { { { { { { { { { { { { { { { { { { { { { { { { { { { { { { { { { { { { { { { { { { { { { { { { O.{ { -.-.,.,.,.-.-.-.-.-.-.-.-.-.-.{ O.O.O.O.O.{ { { { O.O.O.O.O.O.{ { { { { { { { { { { { { ;.;.;.{ { { { { { { { { O.2.2.{ { { { { { { { { { { { 2.{ { { { { { 2.4.4.4.4.4.4.4.4.4.2.2.2.2.2.4.4.4.4.4.2.2.2.2.2.-.O.O.O.{ { { { O.O.O.O.2.2.2.2.2.2.O.O.O.O.O.{ { { { { { { { { 2.2.2.2.4.4.4.4.2.4.4.6.6.4.4.4.q.6.6.6.4.4.4.4.4.4.4.6.6.6.6.6.6.6.6.6.6.6.6.6.6.6.6.4.4.4.4.4.4.4.4.4.2.2.2.2.4.4.4.2.2.{ { { [  . .[ { { { { 2.2.2.2.2.{ { { 2.4.4.4.4.4.4.,.,.r.r.r.r.r.8.8.,.,.,.,.,.-.,.,.,.,.,.,.-.-.,.,.r.r.r.r.,.,.,.,.,.,.,.,.,.,.,.,.-.-.-.-.-.-.{ { { :.:.-.-.-.-.-.{ { { { { { -.-.,.,.,.,.,.,.,.,.-.-.-.-.-.-.-.-.{ { { { :.:.{ { { { { { :.{ { { { -.{ -.{ 2.2.2.4.4.4.4.4.4.4.,.-.,.,.,.,.<.<.<.<.,.,.<.<.<.<.<.<.<.<.<.<.<.8.8.8.8.<.<.<.<.<.<.,.,.,.,.,.,.<.<.,.,.,.,.,.,.,.,.,.,.,.,.,.,.,.,.,.,.,.-.-.-.-.-.-.2.2.{ { { { { { { { { { { { { { { { { { { -.{ { { -.-.2.2.{ { ",
"{  . . .{  . . .{ { { { { { { { { { { { { { { { { { { { { { { { -.-.{ { { { { { { { { { { { { { { { { { -.-.,.,.-.,.-.-.-.-.{ { { { { [ [ { { { { { { 2.4.4.4.4.4.r.r.8.8.8.r.r.8.8.8.8.8.8.8.8.q.6.4.4.4.2.{ { { { { { O.O.O.{ { { { { { { { { { { { { ;.;.;.2.-.-.-.-.-.,.,.,.,.,.4.4.,.,.,.,.4.,.-.-.-.-.-.-.,.,.,.-.-.-.,.,.4.4.4.,.,.4.4.4.4.4.4.4.4.4.4.4.4.4.4.4.4.4.,.,.,.-.,.,.{ { { { 2.4.4.4.4.4.4.4.4.4.2.2.{ 2.2.2.{ { -.-.-.-.-.-.4.4.4.4.r.r.r.r.r.r.8.q.q.8.4.4.q.q.q.q.r.r.4.4.4.4.r.r.r.r.4.4.4.4.4.4.4.4.4.4.8.8.r.r.r.r.4.4.4.r.r.r.r.r.r.r.4.4.4.4.,.,.-.-.{ { { { { -.,.4.4.4.4.4.4.4.4.4.,.4.4.4.4.4.,.-.r.r.r.r.r.r.r.r.r.r.r.r.r.r.r.r.r.r.r.r.,.,.<.<.,.,.<.<.,.,.,.,.,.,.,.,.,.,.,.,.,.,.,.,.-.-.-.-.-.-.-.-.-.-.-.-.:.:.:.:.-.-.,.,.,.,.,.,.,.,.,.,.,.,.,.,.,.,.,.,.,.,.,.,.,.,.,.,.,.,.,.-.,.,.,.,.,.,.4.4.4.4.4.r.8.8.8.r.r.4.4.4.,.,.<.<.<.<.<.<.8.8.8.8.8.8.8.8.8.8.8.9.9.9.9.8.9.8.8.8.8.8.8.8.<.<.<.<.<.<.,.,.<.<.<.<.<.<.<.<.r.r.r.r.r.r.<.<.r.r.r.r.,.,.,.-.,.,.,.,.-.{ { { { { { { { { { { { { { -.-.-.{ { { { { { -.-.-.{ ",
"-.-.-.-.-.-.-.-.-.-.-.-.-.-.,.,.-.-.-.-.-.-.-.-.{ { { { -.{ { { { { { { { { { { { { { { { { { {  . .{ { -.-.,.,.,.4.4.4.,.,.,.,.-.-.{ { { { O.2.2.2.4.4.4.6.q.8.8.8.8.8.w.w.w.9.w.w.w.w.w.w.w.w.d.V.V.q.q.q.6.4.4.4.4.4.4.4.4.4.2.-.-.-.3.3.;.;.-.-.-.-.;.2.2.2.,.,.,.4.4.4.4.4.4.4.4.4.4.4.4.4.4.4.4.4.,.,.-.-.,.4.4.4.4.4.4.,.,.,.-.-.-.-.,.,.4.4.4.4.4.4.4.4.,.,.,.,.,.-.-.-.-.-.,.,.,.{ { { 4.4.4.4.4.4.4.4.6.4.4.4.4.4.4.4.,.4.4.r.r.r.4.4.8.8.8.8.8.q.q.q.q.q.q.q.q.8.r.4.q.q.q.8.r.4.4.4.4.4.4.4.4.4.4.,.4.4.4.4.4.4.4.4.r.r.r.r.r.r.r.r.r.r.8.8.8.q.q.q.4.4.4.4.4.4.,.,.4.4.4.4.4.4.r.8.4.4.4.r.r.8.8.8.4.4.4.4.4.,.,.-.,.,.,.,.,.,.,.,.r.r.r.r.r.r.r.r.8.8.r.r.r.r.r.r.,.,.,.,.,.,.-.-.,.,.,.,.,.,.,.,.r.,.,.,.-.-.-.-.:.-.-.{ { { { { :.:.:.:.-.,.<.r.r.r.r.r.r.r.r.r.r.r.r.r.r.r.r.r.8.8.8.8.8.8.8.8.8.8.8.8.9.w.w.w.q.q.q.q.w.w.w.w.w.w.w.q.q.8.8.8.r.<.<.8.8.8.8.r.9.9.9.9.9.9.9.9.9.9.9.9.9.9.9.w.9.9.9.9.9.9.9.9.9.9.8.8.8.8.<.<.8.8.8.8.8.8.8.8.8.8.8.8.8.8.8.8.w.w.w.8.8.r.r.r.r.r.r.r.r.4.4.4.-.{ { { { { { { { -.-.-.-.-.,.,.{ { { { -.-.-.{ ",
"4.4.4.4.4.4.4.4.4.4.4.4.4.4.4.4.4.4.4.4.4.4.4.4.4.4.4.4.4.4.4.4.,...............{ { { { { { ..{ { { { { ..,.,.4.4.4.4.4.4.4.4.4.{ { { ..{ ..,.,.4.4.4.4.4.8.q.q.8.8.8.8.q.q.q.d.q.q.q.q.q.q.q.q.s.s.s.q.q.q.q.q.q.q.q.q.q.8.8.8.r.r.r.4.4.4.4.-.4.,.,.,.-.4.4.4.4.4.4.4.4.4.4.4.4.4.4.4.4.4.4.4.4.4.4.4.4.4.4.,.4.4.4.8.8.4.4.4.4.4.,.,.,.,.4.4.4.4.4.4.4.4.4.4.4.4.4.4.4.4.4.4.4.4.4.4.4.4.4.4.4.4.4.4.4.4.8.8.8.8.8.8.8.8.4.4.8.8.q.s.d.q.q.q.8.8.8.q.q.q.q.q.q.q.q.q.q.8.4.4.s.s.q.q.q.q.8.8.4.q.8.8.8.8.4.4.q.q.q.q.q.q.q.q.q.q.q.q.s.s.q.q.4.4.8.8.q.q.q.q.q.q.q.8.8.8.8.8.8.4.4.4.4.4.4.4.4.4.4.4.4.4.8.8.q.q.q.q.q.8.4.4.8.8.8.8.8.8.8.8.8.8.8.8.8.8.8.8.8.8.8.8.8.8.8.8.8.8.8.8.8.8.8.8.,.,.,.,.,.,.,.,.,.,.,.,.,.-.-.{ ,.,.,.{ { { { { ,.,.,.,.,.,.8.8.8.8.8.8.8.8.8.8.8.8.8.8.8.8.8.8.d.d.d.d.d.d.d.d.q.q.q.d.d.d.d.d.q.s.s.s.d.d.d.d.Z.d.d.d.s.q.q.8.8.8.8.8.8.8.8.8.8.9.8.9.8.8.f.f.9.9.8.f.f.f.8.8.d.d.d.9.f.f.f.f.f.f.f.8.8.8.8.8.f.f.f.f.f.f.8.8.q.q.q.q.q.q.8.8.d.d.q.8.8.8.8.4.8.q.q.q.q.q.8.8.,.,...{ { { { { { { ....,.,.,.,.,.,.,.,.,.,.,.,.",
"8.8.8.8.8.8.8.8.q.q.q.q.q.q.q.q.q.q.q.q.q.q.q.q.8.8.8.8.8.8.8.8.4.4.4.4.4.4.4.4.4.4.4.4.4.4.4.4.,.4.4.4.4.4.8.8.4.4.4.4.4.8.4.8.{ { { { { ..,.4.4.4.4.8.8.q.q.q.q.8.8.8.8.q.d.d.q.q.q.q.q.q.q.q.8.8.8.8.q.q.q.q.s.s.s.s.s.s.q.q.q.q.8.8.r.r.r.r.r.r.r.r.r.r.8.8.4.4.4.4.4.4.8.8.8.8.8.8.8.8.8.8.q.q.8.8.8.8.8.8.4.8.q.q.q.q.8.4.q.q.8.8.8.8.q.q.q.q.q.q.q.q.q.q.Z.Z.d.d.d.d.s.s.s.s.s.s.q.q.q.q.q.q.s.s.s.s.Z.Z.q.q.s.s.s.q.q.q.q.s.s.d.Z.d.d.d.q.q.q.q.q.s.q.q.q.q.q.8.8.8.8.8.q.q.8.8.8.8.8.8.4.4.8.8.q.8.8.4.q.q.q.q.q.q.q.q.q.q.q.q.s.q.q.q.q.q.q.q.q.q.q.q.q.q.q.q.q.q.q.q.8.4.4.4.4.4.4.4.4.4.4.8.8.8.8.8.q.q.q.q.s.q.8.8.q.q.q.q.q.w.q.q.8.8.8.8.8.8.8.8.q.q.8.8.8.8.8.8.8.8.8.8.8.8.8.8.8.8.8.8.8.8.8.8.,.,.,.,.,.,.,.,.8.8.8.8.<.4.4.4.8.r.4.8.8.8.q.q.q.q.q.q.q.q.q.q.q.q.q.q.q.q.q.q.q.q.q.q.q.q.w.w.q.q.d.d.d.d.d.d.q.q.q.q.q.q.q.s.d.d.d.d.s.q.q.q.8.8.8.9.8.8.8.9.9.9.9.9.8.8.f.f.9.9.8.9.f.f.f.f.d.d.d.d.f.f.f.f.f.f.f.f.9.9.9.w.d.d.d.d.f.f.f.f.d.d.d.d.d.d.d.d.q.q.8.8.8.8.,.,.8.q.q.q.q.q.q.8.4.4.4.4.4.,.,.4.4.4.4.4.4.4.4.4.4.4.4.4.4.4.4.4.",
"8.8.8.8.8.8.8.8.d.d.d.d.d.d.s.s.d.d.d.d.d.d.d.d.q.q.q.q.q.q.s.q.q.q.q.q.q.q.s.s.8.8.8.8.8.8.8.8.8.8.8.8.8.q.q.q.8.8.8.8.q.q.q.q.,.,.,.,.4.8.8.8.8.8.8.q.q.q.d.d.d.9.8.8.8.8.f.d.f.f.f.f.f.f.9.9.8.8.8.8.8.8.q.q.q.d.d.d.d.d.w.d.w.w.w.w.8.8.8.8.8.8.8.8.8.8.9.w.q.q.q.q.8.8.8.8.q.q.q.q.q.q.q.q.d.d.d.d.d.d.d.d.q.d.d.d.d.d.d.q.d.d.d.d.d.d.d.d.d.d.d.d.d.d.d.d.Z.Z.Z.Z.Z.d.d.d.Z.Z.Z.Z.d.d.d.d.d.d.d.d.d.d.d.d.d.d.d.d.d.d.q.q.d.d.d.d.d.d.d.d.q.q.q.q.d.d.s.s.8.8.8.8.8.8.q.q.8.8.8.8.8.8.8.8.8.8.8.q.q.q.q.q.q.q.q.q.q.q.q.q.8.q.q.q.d.d.d.d.d.d.d.d.d.d.d.d.q.q.q.q.d.d.d.d.d.q.w.8.8.8.q.q.d.d.d.d.d.q.q.q.8.8.8.q.s.s.8.8.8.8.8.8.8.f.f.f.f.f.f.f.f.f.p.p.d.d.f.8.8.8.f.f.9.8.8.8.8.8.8.8.8.8.8.8.8.8.8.8.<.<.8.8.8.8.<.<.8.8.8.8.8.f.f.f.8.8.8.8.8.8.f.d.f.f.f.f.f.f.f.f.f.f.f.f.d.d.f.f.f.9.f.f.f.f.f.f.f.f.f.f.f.f.f.8.8.8.8.8.q.q.q.q.d.d.q.q.q.q.q.q.8.8.9.9.8.8.f.f.f.f.f.f.8.d.d.d.f.f.f.f.9.d.d.d.d.d.d.d.9.9.f.9.8.8.f.f.d.d.d.d.d.d.d.d.d.d.d.d.d.d.d.d.d.d.d.d.f.f.f.8.8.8.8.8.8.q.q.d.d.d.q.q.s.8.8.8.8.8.q.d.8.8.8.8.q.q.q.q.q.q.q.q.q.q.q.q.",
"d.d.d.d.d.d.d.d.d.d.d.d.d.d.d.s.d.d.d.d.d.d.d.d.d.d.d.d.d.d.d.d.d.d.d.d.d.d.d.d.8.8.8.8.8.8.8.8.q.d.d.q.q.q.q.q.q.q.d.d.d.d.d.d.8.8.8.8.q.f.d.d.d.d.d.f.d.f.d.f.f.f.9.8.8.f.d.d.d.d.d.d.d.d.d.d.d.d.d.d.d.f.d.f.8.8.q.8.q.f.w.w.w.w.w.w.w.8.8.8.w.w.w.w.w.w.d.d.d.d.d.d.d.d.q.q.d.d.d.d.d.d.d.d.d.d.d.Z.Z.Z.Z.Z.d.d.d.d.d.d.d.d.Z.Z.Z.d.d.Z.Z.Z.d.d.d.d.d.d.d.d.d.d.d.d.d.d.q.q.Z.Z.d.d.d.d.d.d.d.f.d.d.d.d.d.d.d.d.Z.d.Z.d.d.q.d.d.q.q.q.d.d.d.d.d.d.d.d.d.d.d.q.8.8.8.q.q.d.d.d.d.d.d.d.Z.Z.Z.Z.Z.Z.Z.Z.Z.Z.Z.Z.Z.Z.Z.Z.Z.Z.Z.Z.Z.Z.Z.Z.Z.Z.Z.Z.Z.Z.Z.Z.Z.Z.Z.Z.Z.Z.Z.Z.Z.Z.Z.Z.Z.Z.Z.Z.Z.Z.Z.Z.Z.Z.Z.d.d.d.d.d.d.d.Z.Z.Z.Z.Z.f.f.d.d.d.d.d.g.d.d.d.d.d.d.d.d.f.d.d.d.d.d.d.d.g.g.d.f.d.d.d.d.f.f.f.f.f.f.f.f.f.f.f.d.d.d.f.f.f.f.f.f.d.d.d.d.d.f.f.f.f.f.d.d.d.d.d.d.d.d.d.d.d.d.d.d.d.d.d.d.d.d.d.d.d.d.d.d.d.d.d.d.d.d.d.p.q.q.q.d.d.d.d.d.8.8.q.q.q.q.q.8.8.8.9.9.8.8.f.f.d.f.f.f.d.d.d.d.d.d.d.d.f.d.d.d.f.f.d.d.8.9.9.9.8.8.8.f.d.d.d.d.d.d.d.d.d.d.d.d.d.f.d.d.d.d.d.d.d.d.d.d.d.d.d.d.d.d.d.d.Z.d.d.d.d.d.d.d.d.d.Z.Z.d.d.d.d.d.d.d.d.d.d.d.d.d.d.d.d.",
"d.d.d.d.d.d.d.d.d.d.d.d.d.d.d.d.d.d.d.d.d.d.d.d.d.d.d.d.p.p.p.p.8.8.8.8.8.8.8.8.8.8.8.8.8.8.p.p.d.d.d.d.d.d.d.d.d.d.d.d.d.d.d.d.d.d.d.d.d.f.d.f.d.d.d.d.d.g.d.g.f.f.f.f.f.f.f.p.g.g.f.d.d.d.f.f.f.f.p.f.d.f.d.f.d.f.p.p.p.<.p.8.d.d.w.q.q.q.q.q.q.q.q.d.d.d.d.d.p.p.d.d.d.d.d.p.s.d.d.d.d.d.d.d.d.d.d.d.d.d.d.d.d.d.d.d.d.d.d.d.Z.Z.Z.Z.d.d.d.d.d.d.d.d.d.d.d.d.d.d.d.d.d.d.d.d.d.d.d.d.d.d.d.d.d.d.d.g.d.d.d.d.d.d.d.d.d.d.d.d.d.d.d.d.d.d.d.d.Z.Z.Z.Z.Z.Z.Z.Z.Z.Z.Z.Z.Z.Z.Z.d.Z.Z.d.d.d.d.d.d.Z.Z.d.d.d.d.d.d.d.d.d.d.Z.A.D.F.Z.Z.Z.Z.Z.Z.Z.Z.d.Z.A.A.Z.Z.A.A.A.A.D.F.F.A.A.Z.Z.Z.Z.A.A.A.A.Z.d.d.d.d.d.d.d.d.Z.Z.Z.d.d.d.d.d.Z.Z.d.d.d.p.p.p.d.d.d.d.d.d.s.d.g.d.d.d.d.d.d.Z.d.d.d.d.d.d.d.d.d.d.d.d.d.d.d.d.d.d.d.d.d.d.Z.Z.p.d.d.d.d.d.d.d.d.d.d.d.d.d.d.d.d.d.d.d.d.d.d.d.Z.Z.Z.Z.Z.Z.Z.Z.d.p.p.d.d.Z.d.p.p.s.d.d.d.d.s.p.d.d.d.d.d.d.d.d.d.d.d.d.d.d.d.d.g.g.f.f.f.f.f.f.f.f.d.d.d.d.g.g.g.g.d.d.f.f.f.f.f.f.f.f.f.f.f.f.f.d.d.d.d.d.d.f.f.d.g.g.g.d.f.f.d.d.p.p.8.p.s.d.d.d.d.d.d.d.d.d.d.d.d.d.d.d.d.d.s.s.s.d.d.d.d.d.d.d.d.d.d.d.d.d.d.d.d.d.d.d.d.d.",
"Z.Z.Z.Z.Z.Z.Z.Z.Z.Z.Z.Z.Z.Z.Z.Z.Z.Z.Z.Z.d.d.Z.Z.Z.Z.Z.Z.Z.d.d.d.d.d.d.d.d.d.d.d.d.d.d.d.d.d.d.Z.Z.d.d.d.d.d.d.d.Z.Z.Z.d.d.d.d.d.f.f.d.d.d.d.g.g.d.d.d.d.d.g.g.g.g.g.g.g.g.g.g.g.g.f.f.d.g.g.g.d.f.f.f.f.f.f.d.d.g.g.g.g.g.d.d.f.d.d.d.d.q.q.d.d.d.d.d.d.d.d.d.f.p.p.d.d.d.d.d.d.d.d.d.d.d.d.d.d.d.d.d.d.d.d.d.d.d.d.d.d.d.d.d.Z.Z.Z.A.A.A.Z.d.d.Z.d.d.d.d.d.d.d.Z.Z.Z.Z.Z.Z.A.A.A.A.A.A.A.A.A.A.g.g.g.g.g.g.g.g.F.F.F.F.F.F.F.F.A.A.A.A.A.A.A.A.Z.Z.Z.Z.Z.Z.Z.Z.d.d.d.d.d.d.d.d.Z.d.d.d.d.d.d.d.A.A.A.A.Z.Z.Z.A.D.D.F.F.F.J.J.J.F.F.F.F.F.J.J.J.D.F.F.F.D.D.D.F.D.D.F.J.J.J.F.D.A.D.D.A.A.A.A.A.Z.Z.Z.d.d.d.d.d.Z.Z.Z.Z.Z.Z.d.Z.A.A.Z.d.d.d.d.d.d.Z.Z.Z.Z.Z.Z.d.d.d.d.d.d.d.d.Z.d.d.d.d.d.d.d.d.d.d.d.d.d.d.d.d.d.d.d.d.d.d.d.Z.d.d.d.d.d.d.d.d.d.d.d.d.d.Z.Z.Z.Z.Z.Z.Z.Z.Z.Z.Z.Z.Z.Z.Z.Z.Z.A.A.Z.d.d.Z.Z.A.A.Z.d.Z.Z.Z.Z.Z.Z.d.A.A.A.A.A.A.A.A.A.A.A.A.A.A.A.A.z.g.g.g.g.g.g.g.d.g.g.g.g.g.g.A.g.g.d.g.g.g.g.d.g.g.d.g.d.d.d.d.g.d.g.g.g.g.g.g.f.d.d.g.d.d.f.f.d.f.p.p.p.s.d.d.d.d.d.d.d.d.d.d.p.p.p.p.s.s.s.s.s.s.d.s.f.d.d.d.d.d.d.d.d.d.d.Z.d.d.d.d.d.d.d.d.",
"g.g.g.g.g.g.g.g.g.g.g.g.g.g.g.g.g.g.A.A.g.A.A.A.F.F.A.A.A.A.Z.Z.A.A.A.A.g.g.A.A.F.F.F.A.A.F.F.F.g.g.g.g.g.g.g.g.g.g.g.g.g.g.g.g.f.f.g.g.g.g.g.g.g.g.g.g.g.g.g.g.g.g.g.g.f.g.g.g.g.g.g.g.g.g.g.g.g.g.g.f.f.g.g.g.g.g.g.g.g.g.g.g.d.d.d.d.d.d.d.d.d.d.d.d.d.d.d.d.d.f.f.d.g.g.g.g.g.g.g.g.g.g.g.g.g.g.g.g.g.g.g.g.g.g.g.g.g.g.g.g.g.Z.F.F.F.F.g.d.Z.A.g.g.g.g.g.d.A.A.F.F.F.F.F.F.A.A.F.F.F.F.F.F.F.z.z.g.g.g.g.z.z.z.z.z.z.z.z.z.A.A.A.A.A.g.g.g.g.g.g.g.g.g.g.g.g.g.g.g.g.g.g.g.g.g.g.g.g.g.g.A.F.F.F.F.F.F.F.F.F.F.G.Y.Y.Y.Y.G.F.F.A.A.A.A.A.A.G.G.J.G.F.F.F.G.F.F.G.G.Y.Y.Y.J.F.F.F.F.F.F.F.A.F.A.g.g.g.g.g.g.g.g.g.A.A.F.F.F.F.F.A.A.g.g.A.Z.A.F.F.F.F.F.A.A.g.g.g.g.g.g.g.g.g.g.g.g.g.g.g.g.f.f.d.d.d.d.d.d.f.f.f.f.d.d.g.g.d.d.f.f.f.f.d.d.d.d.d.g.g.g.g.g.g.g.g.g.g.g.g.g.g.g.g.g.Z.g.g.g.A.g.g.g.F.F.D.F.F.F.F.F.A.A.F.F.F.F.F.F.F.F.F.F.F.F.F.F.F.G.F.F.F.F.F.F.A.A.F.F.g.A.F.F.F.A.F.F.g.g.g.g.g.g.g.g.g.g.g.g.g.g.g.g.g.g.g.g.g.g.g.g.g.g.g.d.d.d.d.d.f.f.f.f.f.d.g.g.g.g.g.g.g.g.g.g.f.f.f.f.f.f.f.f.d.d.d.d.f.d.g.d.g.g.g.g.g.g.g.g.A.A.A.A.A.g.g.A.",
"A.A.A.A.A.A.A.A.F.F.F.F.F.F.F.F.F.F.F.F.F.F.A.A.A.A.A.A.Z.A.Z.Z.F.F.F.F.F.F.F.F.F.F.F.A.F.F.F.F.g.g.g.g.g.g.g.g.A.A.g.g.g.g.g.g.g.g.g.g.g.F.F.F.z.z.z.z.z.z.z.z.F.z.g.g.g.g.g.F.F.F.F.F.F.F.F.F.F.z.g.g.g.g.g.g.z.F.F.F.F.F.z.g.g.Z.g.d.d.d.d.f.Z.g.g.d.d.d.d.f.g.g.g.g.g.g.A.F.F.F.F.F.A.A.g.g.g.Z.g.Z.g.g.g.g.g.g.g.g.g.g.g.g.g.Z.F.G.G.F.g.d.A.A.g.g.g.g.g.g.F.A.F.F.F.F.F.F.g.A.F.F.F.F.A.g.F.F.F.F.z.z.F.F.F.F.F.F.F.F.F.F.g.g.g.g.g.g.g.d.F.F.F.F.F.F.F.F.F.F.F.F.A.A.A.A.Z.Z.g.A.A.F.F.F.G.F.F.F.F.F.G.G.F.G.Y.Y.Y.Y.Y.G.Y.Y.G.F.F.F.A.A.F.F.F.F.A.A.F.F.F.F.F.G.Y.Y.Y.Y.G.F.F.F.F.F.F.F.A.A.g.g.g.g.g.A.F.F.F.F.F.F.F.F.F.F.F.F.A.A.F.F.A.F.F.F.F.F.F.A.g.g.A.A.A.g.g.g.g.g.g.g.g.g.g.g.d.f.d.g.g.d.d.d.f.f.f.f.d.d.d.g.g.g.d.d.d.g.g.g.d.d.g.g.g.g.Z.g.g.g.g.g.g.d.d.d.g.g.g.g.g.g.g.g.g.g.g.g.g.F.F.D.F.F.F.F.F.F.D.F.F.F.F.F.F.F.F.F.F.F.F.F.F.F.F.F.F.F.F.F.F.F.F.F.F.F.F.F.F.F.F.F.Z.A.A.A.A.A.Z.Z.g.g.g.g.g.g.g.g.g.g.g.g.g.g.g.g.A.g.g.d.d.d.g.g.f.f.f.f.d.g.g.g.g.g.g.g.g.A.A.A.g.g.g.g.g.g.g.g.A.A.A.A.g.A.F.A.g.g.g.g.g.g.g.g.F.F.F.F.F.F.F.F.",
"F.F.F.F.F.F.F.F.F.F.F.F.F.F.z.F.F.F.F.F.F.F.F.F.g.g.g.g.g.g.z.z.g.g.z.g.z.z.z.z.g.g.g.g.g.z.z.z.g.g.g.g.g.g.g.g.g.g.g.g.g.g.g.g.z.z.z.z.z.F.F.F.F.F.F.F.F.F.F.F.Y.G.F.F.F.F.G.G.F.Y.Y.G.F.F.F.F.F.F.F.z.z.z.z.z.F.F.G.Y.Y.F.F.F.F.F.D.g.g.g.g.D.g.g.g.g.f.f.f.f.g.g.g.g.g.g.g.g.g.g.z.z.g.g.g.g.g.g.g.g.g.g.g.g.g.g.g.g.g.g.g.g.g.g.F.F.F.F.g.g.g.g.g.g.g.g.g.g.F.F.F.F.F.F.F.F.g.g.F.F.F.F.z.g.F.F.F.F.F.F.F.F.F.F.F.F.F.F.F.F.F.F.F.F.F.F.F.F.F.F.F.F.F.F.F.F.F.F.F.F.F.F.F.F.g.g.g.g.g.F.F.F.F.F.F.F.F.F.F.G.Y.Y.Y.Y.Y.G.F.F.F.F.g.g.g.g.g.g.g.g.A.A.z.g.F.F.F.F.F.F.G.G.Y.Y.F.F.F.F.F.F.F.F.z.z.g.g.g.g.z.F.F.F.F.F.F.F.F.F.F.F.A.A.A.F.F.F.A.F.F.F.F.A.A.A.Z.Z.F.F.F.A.g.g.g.g.g.g.g.g.g.g.f.d.d.d.d.d.d.d.d.d.d.d.d.g.g.g.A.g.g.d.d.g.g.g.g.g.g.g.g.g.g.g.g.g.g.g.g.g.g.g.g.g.g.g.g.g.g.g.g.g.g.g.g.g.F.F.F.F.F.A.A.F.F.F.F.F.F.F.F.z.g.g.F.F.F.F.F.z.g.g.F.F.F.g.g.g.F.F.z.F.F.F.F.g.F.F.F.F.F.F.z.g.g.g.g.g.g.g.g.f.g.g.g.g.g.g.g.g.g.g.F.z.g.g.g.g.g.g.g.g.g.g.g.g.g.g.g.g.g.A.A.F.F.F.z.z.z.F.F.F.g.g.z.z.F.F.F.F.F.F.g.g.g.g.g.g.g.g.g.g.g.g.g.g.g.g.",
"F.F.F.F.F.F.F.F.F.F.F.F.F.F.F.F.G.F.G.G.F.F.F.F.z.F.F.F.F.F.F.F.g.g.g.g.g.g.g.g.g.g.F.F.F.F.F.F.F.F.F.F.F.F.F.F.F.F.F.F.F.F.F.F.F.F.F.F.F.G.G.G.Y.Y.Y.Y.Y.Y.Y.Y.Y.G.G.G.G.G.G.G.Y.Y.T.Y.F.F.F.F.G.G.G.G.F.G.G.F.F.F.G.G.F.F.F.F.F.F.F.F.F.F.F.F.F.F.F.F.Z.Z.D.g.g.g.g.g.g.g.g.g.g.g.g.g.g.g.g.g.F.F.F.F.F.F.F.F.g.g.g.g.g.g.F.F.g.g.z.F.F.F.F.z.g.g.g.z.g.F.F.F.F.F.G.G.G.G.G.G.F.F.F.G.G.F.F.F.z.F.F.F.G.G.F.G.G.G.G.G.Y.G.G.G.G.G.F.F.F.F.F.F.F.F.F.F.F.F.F.F.F.F.F.F.F.F.F.F.g.g.g.g.g.g.g.F.F.F.F.F.F.F.F.G.Y.G.F.F.g.g.f.f.y.y.y.f.f.f.f.g.A.F.F.F.F.F.F.G.F.F.F.F.F.Y.Y.Y.F.F.F.F.F.F.F.F.F.F.F.F.F.F.F.F.G.F.F.F.F.F.F.F.F.F.F.A.F.F.F.F.F.F.F.F.F.F.F.F.F.F.F.F.A.g.g.g.g.g.g.g.g.Z.Z.g.g.g.g.g.g.g.g.g.g.g.g.g.g.g.g.g.g.g.g.d.d.d.d.g.g.g.g.g.g.g.g.g.g.g.g.g.g.A.A.A.A.A.g.A.Z.Z.Z.A.A.A.F.Z.g.g.A.F.F.F.F.F.F.F.F.F.F.F.F.F.F.F.F.F.F.F.F.F.F.F.F.F.F.F.F.g.g.g.g.F.F.F.F.F.F.g.F.F.G.G.F.F.F.g.g.g.g.g.g.g.g.g.g.g.F.F.F.F.F.F.F.F.F.F.F.z.g.g.g.g.A.A.A.F.A.A.g.g.A.Z.A.A.A.F.F.F.g.g.g.g.g.g.g.g.z.z.z.z.g.F.F.F.F.F.F.F.F.F.F.F.F.F.F.F.F.F.F.F.",
"G.G.G.G.G.G.G.G.F.F.F.F.F.F.F.F.G.G.G.G.F.F.F.F.F.F.F.F.F.F.F.F.F.F.F.F.F.F.F.F.F.F.F.F.F.F.F.F.F.G.F.F.F.F.F.F.F.F.F.F.G.G.G.G.T.Y.Y.Y.P.P.P.P.Y.Y.Y.Y.Y.Y.Y.Y.Y.Y.Y.Y.Y.Y.Y.Y.T.T.(.T.Y.Y.Y.T.Y.Y.T.T.T.T.U.Y.Y.P.P.P.F.F.F.F.Y.G.G.G.G.G.G.G.G.G.G.G.F.F.G.G.F.F.F.F.F.F.F.F.F.F.F.F.F.F.F.F.F.F.F.F.F.F.F.F.F.F.F.F.F.F.F.F.g.g.g.g.F.F.G.G.F.F.F.F.F.F.F.F.G.G.G.G.G.G.G.G.G.G.G.G.G.G.G.G.z.z.F.Y.Y.T.Y.Y.F.F.F.F.P.F.F.G.G.G.F.F.F.F.F.G.F.F.F.F.F.F.F.F.G.G.F.F.F.F.F.F.F.F.g.g.g.z.F.F.F.F.F.F.F.F.F.G.F.z.g.f.u.f.f.f.F.F.F.F.F.F.G.G.F.F.F.F.F.F.F.F.G.F.F.F.F.F.G.G.Y.Y.G.F.F.F.F.F.F.F.F.F.F.F.F.F.F.F.F.F.F.F.F.F.F.F.F.F.F.F.F.F.F.F.A.A.A.A.F.D.F.F.Z.Z.g.g.g.g.g.g.Z.Z.Z.Z.g.g.g.g.g.g.g.g.g.g.g.g.Z.Z.g.g.g.g.F.F.F.F.Z.g.g.g.F.A.A.A.Z.g.g.g.g.g.g.g.Z.F.F.F.A.A.A.Z.Z.Z.F.A.A.F.D.F.A.g.A.F.F.F.F.F.F.F.F.F.F.F.F.F.F.G.G.G.G.G.F.F.F.F.F.F.F.F.F.F.F.F.F.F.F.F.F.F.F.F.F.F.F.F.F.F.F.z.g.g.z.F.F.F.F.F.F.F.F.F.F.G.G.F.F.F.F.F.F.F.F.F.g.g.A.A.F.F.F.F.F.F.A.F.F.Z.g.A.A.A.g.g.g.g.g.g.g.g.z.z.z.F.F.F.F.F.F.G.G.G.F.F.F.F.Y.Y.Y.Y.Y.Y.Y.Y.",
"G.F.G.F.G.F.G.F.G.F.G.F.G.F.G.F.F.F.F.F.F.F.F.F.F.F.F.F.F.z.z.g.F.F.F.F.F.F.F.F.F.F.F.F.F.F.F.F.F.F.F.F.F.F.F.F.G.G.G.Y.Y.Y.Y.Y.T.U.T.U.P.P.P.P.P.P.P.P.P.P.P.P.^.^.(.(.(.(.R.^.R.(.(.(.R.T.R.(.Y.T.(.(.(.^.^.~.^.^.R.T.U.U.U.R.Y.Y.Y.Y.G.G.G.G.Y.Y.Y.Y.G.Y.Y.Y.Y.Y.T.Y.Y.Y.G.G.G.G.G.Y.Y.Y.Y.Y.G.G.G.G.G.G.G.G.F.F.F.F.F.G.G.G.F.z.g.z.F.F.Y.Y.Y.G.G.F.G.F.F.F.F.F.F.F.F.F.F.F.G.G.G.F.G.F.G.G.z.z.Y.Y.R.T.U.U.I.Y.I.U.U.U.I.U.Y.Y.F.F.F.F.G.Y.Y.Y.G.G.Y.Y.Y.Y.Y.Y.Y.Y.Y.Y.Y.Y.G.G.F.F.F.F.F.F.F.z.z.F.F.F.F.F.z.g.f.f.g.F.G.Y.G.G.F.F.F.F.F.F.z.F.F.z.g.g.g.g.F.F.z.g.g.z.F.F.R.T.Y.F.F.z.z.z.z.z.z.z.g.F.F.F.F.F.F.F.F.F.F.F.F.F.F.F.F.F.F.F.F.F.A.g.g.Z.F.F.F.z.g.g.g.g.g.Z.g.g.Z.Z.Z.Z.g.g.A.A.A.A.A.A.A.A.A.A.Z.A.A.g.g.g.G.F.G.G.F.F.F.F.F.z.z.g.g.g.d.g.d.f.d.f.g.g.A.F.A.D.A.D.Z.Z.F.F.g.F.D.F.A.g.g.g.F.G.G.Y.Y.G.G.F.F.F.F.F.G.G.G.G.F.F.F.F.G.G.G.G.G.G.G.G.F.F.F.G.F.G.G.G.F.F.F.F.F.F.F.F.F.F.F.z.F.F.F.F.G.G.G.Y.F.F.F.F.F.F.F.F.G.G.G.G.G.F.F.g.g.g.z.F.F.F.F.F.g.g.g.g.g.g.g.g.g.z.g.l.l.l.z.z.z.z.F.F.F.F.F.F.F.F.F.F.F.F.F.F.F.F.F.F.F.F.F.F.",
"F.z.F.G.F.F.F.x.G.G.F.G.F.F.F.F.x.z.F.F.F.F.F.F.F.F.F.F.F.z.F.F.z.z.z.z.z.z.z.z.F.F.F.F.F.F.G.Y.F.F.F.F.F.F.F.F.F.F.G.G.G.F.Y.Y.P.I.I.I.U.U.U.U.U.U.U.^.U.U.U.U.(.(.(.(.(.^.U.U.'.(.U.U.'.@X'.U..X(.#X(.(.].U.~.^.~.^.^.(.(.U.U.(.(.R.U.R.U.R.U.(.(.R.I.b.x.I.T.Y.F.F.F.G.Y.G.F.G.G.G.G.G.Y.Y.Y.Y.Y.Y.Y.Y.Y.Y.T.Y.Y.Y.Y.Y.Y.Y.Y.F.F.G.G.F.F.G.G.G.G.F.F.F.F.F.F.F.F.P.P.P.P.F.F.F.F.P.P.Y.F.F.P.P.I.U.U.I.I.U.R.I.I.U.I.U.I.I.I.I.I.Y.P.Y.P.Y.P.Y.P.I.I.T.Y.Y.P.F.F.F.F.P.P.P.P.F.F.P.F.z.g.z.F.z.z.P.P.F.F.P.P.P.z.F.T.R.T.P.F.T.Y.Y.F.F.A.A.A.g.g.g.g.A.A.F.F.F.l.g.g.z.z.g.u.z.z.G.F.z.g.z.F.z.z.z.z.G.Y.Y.F.F.F.F.F.z.z.F.F.F.z.l.z.F.z.g.g.F.F.F.l.g.g.g.g.z.g.g.g.z.z.g.g.g.z.F.F.D.l.F.F.A.A.A.A.A.A.A.A.P.A.d.d.A.A.A.g.f.g.z.F.F.z.g.f.g.g.z.z.F.z.z.z.f.f.g.D.g.l.F.F.F.D.F.D.F.D.F.F.F.F.F.F.F.F.Y.Y.F.F.P.Y.Y.Y.P.F.Y.P.P.Y.Y.Y.Y.Y.Y.Y.Y.Y.Y.Y.Y.Y.Y.g.z.T.T.F.F.T.T.Y.G.Y.Y.F.F.F.Y.F.F.F.F.P.P.Y.F.z.F.F.P.P.P.P.F.F.P.P.F.F.P.P.F.F.F.z.z.z.z.z.u.l.x.x.z.l.g.z.z.F.P.P.G.Y.T.T.Y.P.Y.Y.Y.Y.Y.Y.U.Y.T.Y.Y.Y.P.P.G.G.G.G.G.G.F.z.F.F.F.F.F.F.F.F.",
"T.T.T.T.Y.Y.P.P.G.P.P.Y.T.T.T.U.I.I.I.I.I.I.I.I.I.T.I.I.Y.Y.Y.Y.G.G.Y.Y.Y.Y.Y.Y.G.F.F.F.F.F.Y.Y.Y.Y.Y.Y.Y.Y.P.P.F.F.P.P.P.Y.Y.U.I.I.I.I.U.U.U.U.U.U.U.~.U.^.^.^.'.'.'.(.(.^.(.^.U.(.@X$X-X=X'.I.#X&X'.(.(.`.$X^.^.^.^.^.^.(.'.'.(.(.(.^.R.^.^.^.U.^.(.^.U.b.b.b.^././.T.T.Y.G.G.Y.Y.Y.Y.Y.Y.Y.Y.T.Y.Y.Y.Y.Y.T.T.T.Y.Y.Y.Y.Y.Y.Y.Y.T.T.T.T.T.T.T.T.T.T.T.T.T.T.T.I.I.I.T.R.R.T.I.R.R.(.(.(.(.R.R.'.'.'.'.(.(.(.(.(.(.(.(.(.(.(.(.R.R.R.R.T.R.R.R.Y.I.I.R.R.T.I.I.Y.Y.Y.Y.Y.Y.Y.Y.Y.Y.F.z.z.F.I.R.x.P.P.P.P.P.P.P.F.z.F.T.T.I.Y.Y.Y.Y.Y.F.F.F.F.F.P.F.F.F.F.F.F.F.F.z.z.z.z.z.z.g.z.F.F.F.F.z.F.F.F.z.z.F.G.Y.G.F.G.F.F.F.z.F.F.G.F.z.z.l.z.F.G.G.z.F.F.l.g.l.D.z.g.g.f.g.z.F.F.z.z.g.g.f.f.f.g.g.A.A.A.A.A.A.A.A.g.A.A.A.A.A.A.g.g.z.F.z.F.F.F.x.F.F.G.G.G.G.G.F.G.G.K.K.K.K.G.K.G.G.G.G.G.G.G.G.Y.Y.Y.Y.Y.Y.Y.Y.Y.Y.Y.I.T.T.T.Y.Y.Y.Y.Y.Y.Y.Y.Y.I.I.Y.Y.Y.Y.Y.P.U.Y.F.Y.Y.G.G.Y.Y.G.F.Y.Y.Y.Y.Y.I.I.Y.Y.Y.E.I.I.P.P.P.P.P.P.P.P.F.P.Y.Y.Y.P.I.I.P.P.P.P.P.P.P.P.P.x.x.k.z.x.P.U.P.Y.U.Y.P.F.P.Y.F.x.n.n.F.P.F.F.P.P.P.P.P.P.P.Y.G.G.G.Y.Y.Y.Y.G.Y.Y.Y.Y.Y.Y.Y.Y.",
"U.T.U.U.Y.Y.Y.Y.x.F.P.Y.Y.T.Y.Y.R.U.U.U.U.R.R.^.R.R.R.R.R.R.R.R.T.T.T.T.T.T.T.T.I.I.I.I.I.I.I.T.R.^.R.R.U.U.U.I.U.U.U.U.I.I.U.R.R.R.R.R.(.(.(.(.(.(.'.'.'.].].].@X].@X].'.'.@X].@X@X$X$X&X3X$X'.^.'.U.$X].^.=X'.].].].].'.^.(.'.(.(.(.(.R.R.R.R.I.U.(.(.R.I.P.P.T.T.(.(.^.T.T.(.T.^.^.(.^.~.T.T.R.R.R.T.T.R.R.R.R.R.R.R.R.R.R.T.U.U.~.~.U.U.T.^.U.T.U.^.^.^.~.T.R.(.(.(.(.(.(.(.*X*X*X*X*X@X@X@X*X'.'.'.'.(.(.U.(.(.(.(.(.(.(.(.R.R.^.(.(.(.(.(.U.U.R.^.^.^.R.R.R.R.R.R.U.U.I.I.P.Y.I.Y.P.x.x.P.P.P.P.P.P.F.P.Y.P.P.Y.T.T.Y.Y.T.Y.Y.Y.Y.P.Y.Y.Y.Y.Y.Y.P.F.F.F.F.F.F.G.F.F.F.F.F.F.F.G.F.G.G.G.G.G.G.G.Y.Y.Y.Y.Y.Y.Y.F.F.F.Y.Y.Y.z.G.Y.Y.G.Y.G.z.z.A.Z.Z.A.A.A.F.g.g.g.g.F.F.G.G.G.F.d.f.d.Z.Z.Z.g.g.g.A.A.A.F.F.A.F.P.F.F.A.F.F.F.z.F.F.F.F.G.F.Y.Y.Y.Y.Y.Y.Y.Y.T.T.Y.Y.Y.Y.Y.Y.Y.Y.Y.Y.Y.Y.Y.Y.Y.I.I.I.T.T.T.T.T.T.T.T.T.T.T.T.R.R.R.R.R.R.R.R.R.R.T.I.I.I.I.I.I.U.I.P.P.R.R.I.I.P.P.P.Y.P.Y.I.T.I.I.I.E.I.I.U.U.U.I.I.I.I.E.I.I.U.R.U.I.I.I.I.R.U.R.U.I.I.I.I.I.P.b.b.P.I.R.^.R.R.^.R.I.I.P.P.I.I.I.I.I.I.I.I.I.T.U.U.T.R.R.T.Y.Y.Y.Y.T.T.T.Y.Y.Y.Y.Y.Y.Y.Y.Y.",
"I.T.I.P.P.P.P.P.x.F.Y.T.U.T.I.I.^.U.U.U.U.U.U.^.R.R.R.R.(.^.^.^.R.R.R.R.R.R.R.R.R.R.R.R.(.(.(.(.'.'.'.(.(.(.(.(.'.).).(.R.U.R.(.(.'.'.'.'.'.'.'.$X#X$X$X$X$X$X$X$X*X*X@X@X*X$X$X$X$X@X@X@X$X$X*X*XU.U.*X].'.$X'.].].*X[.].'.^.^.(.(.R.R.R.R.R.R.R.R.R.R.R.U.R.(.P.P.T.U.R.U.(.).(.^.(.).).(.(.R.R.R.R.R.R.R.R.U.R.U.R.U.R.R.R.U.I.U.U.U.I.U.U.U.I.U.U.~.^.^.R.U.(.(.(.'.'.'.'.'.*X*X*X*X@X'.'.'.'.(.(.(.'.'.(.^.U.U.U.U.U.U.U.U.U.^.^.(.(.(.(.(.R.^.(.(.(.^.R.R.(.(.^.^.R.U.R.R.Y.I.I.I.P.x.z.z.Y.Y.Y.Y.Y.Y.I.T.T.T.R.R.T.T.T.R.T.T.I.I.I.I.I.T.Y.P.P.P.P.Y.Y.Y.Y.Y.Y.Y.G.G.Y.Y.Y.G.G.Y.Y.T.Y.Y.T.T.T.T.T.T.T.Y.T.Y.Y.G.I.T.T.Y.z.Y.T.Y.G.Y.Y.F.G.G.F.F.D.F.F.F.G.G.F.F.G.G.G.G.Y.F.Z.Z.D.F.F.D.A.z.z.F.F.P.P.P.P.P.P.F.g.F.F.Y.F.G.P.G.Y.G.P.G.Y.Y.Y.Y.T.T.T.T.T.Y.Y.G.Y.Y.Y.G.Y.Y.Y.Y.Y.Y.Y.Y.T.I.T.I.T.T.T.T.R.R.T.I.T.T.R.R.(.(.(.(.(.^.(.^.R.R.R.R.R.R.R.R.I.U.U.P.I.R.R.I.R.R.R.I.I.P.I.I.R.R.R.R.R.U.R.U.'.(.'.(.'.(.'.'.'.'.'.'.(.U.U.U.(.(.(.(.(.U.U.U.U.U.U.^.(.).(.^.(.(.'.).(.^.U.U.R.(.R.(.R.R.R.R.R.(.R.(.R.R.R.R.R.T.T.T.T.T.T.Y.T.T.T.T.T.T.T.T.",
"U.I.I.I.I.I.I.I.^.^.(.(.).(.(.R.^.^.^.~.U.^.^.^.^.^.(.(.^.^.(.(.(.(.(.(.(.(.(.(.'.'.'.'.@X'.@X'.].'.].'.'.'.'.(.'.'.'.(.'.^.'.'.R.(.(.'.'.@X@X@X@X*X*X$X$X@X*X*X*X*X*X@X@X*X*X$X'.*X*X*X*X$X*X'.n.^.mXgX'.$X'.'.*X@X'.].].].`.^.'.(.R.(.R.R.R.R.R.R.R.R.R.R.@X@X(.U.I.I.U.U.R.^.R.^.(.(.).(.(.(.R.U.R.U.R.U.R.U.U.U.U.U.U.U.R.U.U.U.U.U.U.U.U.U.U.U.U.^.(.^.^.U.(._.'.'.'.'.'.'.].].].].'.'.'.'.'.(.(.'.].].'.'.(.^.(.^.(.^.(.(.^.^.(.^.(.^.(.^.(.^.(.^.^.U.U.U.U.U.U.U.U.U.R.U.(.^.I.n.P.I.U.R.R.R.T.T.R.R.R.R.T.R.Q.R.T.T.T.R.R.R.R.R.I.I.I.T.Y.Y.P.P.I.I.I.I.T.Y.G.G.Y.T.Y.Y.Y.Y.Y.T.T.T.T.T.T.T.R.T.T.I.I.I.T.I.E.T.R.R.T.Y.T.R.I.F.F.R.@X@XR.T.Y.F.Y.Y.Y.F.Y.Y.Y.Y.Y.Y.Y.Y.Y.F.A.F.Y.Y.Y.F.P.P.P.P.Y.Y.Y.Y.Y.Y.F.F.P.P.F.F.Y.Y.Y.T.T.T.Y.Y.R.R.R.R.R.R.R.R.T.Y.I.Y.T.T.R.T.T.Y.T.Y.T.Y.T.I.R.U.U.U.R.U.R.U.R.R.R.U.R.R.(.(.^.^.^.^.R.U.R.U.U.U.U.^.^.(.(.(.(.U.U.(.R.U.I.I.'.'.].(.R.U.(.'.'.'.'.'.'.'.'.'.*X].[.[.[.[.$X$X$X$X$X$X$X].].].].].].].].].].].$X$X$X$X$X$X$X'.*X*X$X*X*X'.'.(.R.(.R.^.R.R.R.R.U.U.U.U.U.U.U.R.R.R.R.T.R.R.R.R.(.(.(.(.R.(.R.(.",
"^.U.U.U.U.(.(.(.'.].*X*X].].'.'.(.^.(.^.(.(.(.(.(.(.(.(.(.(.(.(.'.'.'.'.'.'.'.'.'.'.].].@X].].].'.'.'.'.'.'.'.'.U.^.'.'.'.'.].*X'.@X@X@X@X*X*X*X].].].@X].].].].].].].@X@X@X].].*X$X$X'.].$X0X3X].[.NX=Xk.wX-X#X-X&X$X].].].`.`.'.@X@X@X@X'.'.'.'.'.'.(.(.R.R.R.].(.U.U.(.'.'.(.(.(.'.'.].].'.'.].].].@X@X].].].'.'.'.'.'.'.'.'.'.(.(.(.^.^.^.(.(.(.(.'.'.'.(.(.'.'.'.'.'.'.'.'.'.'.'.'.'.'.'.'.'.'.(.'.'.'.(.^.^.^.^.^.^.^.^.^.(.(.(.(.^.^.^.^.(.^.^.^.^.U.U.U.^.^.^.^.(.^.(.(.(.].@X*X*X'.^.U.U.U.I.I.R.R.R.R.T.R.R.T.T.T.T.I.R.U.U.U.U.U.U.U.R.U.U.U.I.U.I.I.R.Y.G.G.Y.T.T.Y.T.T.T.T.T.T.T.R.T.I.R.I.I.P.P.P.I.I.I.I.I.I.P.P.R.R.R.(..X.X(.R.R.T.F.F.F.F.F.F.F.F.Y.Y.Y.Y.Y.T.F.A.A.F.Y.Y.Y.F.I.I.I.I.I.I.I.I.P.P.I.R.(.(.I.F.Y.Y.Y.Y.T.T.R.T.Q.R.R.R.R.T.E.Y.P.I.I.U.R.U.R.R.T.U.T.U.T.U.U.U.U.U.U.U.U.U.R.U.(.(.(.^.(.(.(.(.(.(.(.^.^.^.^.^.U.U.U.U.^.^.(.(.'.U.U.].*X].].$X(.'.].'.'.'.'.'.'.'.].].].].].].$X$X$X$X$X$X$X$X$X$X=X3X3X3X3X3X=X3X3X3X6X9X8X8X8X7X3X=X=X=X=X=X3X3X=X=X=X[.[.].^.R.U.U.U.U.U.U.U.U.U.U.'.'.'.'.R.R.U.R.(.(.(.(.(.(.(.(.(.(.(.(.",
"^.^.^.^._.'.].].].].].].[.[.[.].`.].[.[.[.[.].`.'.'.'.'.'.'.'.'.'.'.'.'.'.'.'.'.].'.].].$X[.[.].'.].].].].].].].'.'.'.'.'.].[.$X$X$X$X$X$X$X$X$X].].].[.].].].].].].*X$X$X$X].].$X$X].'.'.$XeXgX`.uXGX4X7 z R.AX&X>X6X-X$X`.`.].'.@X@X@X@X'.'.'.'.'.'.'.'.'.R.U.'.'.'.'.'.'.'.'.].].].].].*X].].].$X$X$X$X$X$X[.].].].].].].].].'.'.'.'.'.'.'.'.'.'.'.'.'.'.'.'.'.'.'.'.'.'._._._.'._._.'.'._._.^.^.^.^.^.U.U.U.^.^.^.^.^.^.^.^.(.(.^.^.^.^.^.^.^.^.^.^.^.^.^.^.(.(.'.'.'.'.'.'.(.'.*X=X-X$X'.U.(.U.I.I.U.U.U.U.U.R.R.I.U.R.I.P.I.I.I.I.I.U.U.U.U.U.U.U.U.U.U.U.R.I.Y.P.Y.I.I.I.I.R.R.R.I.I.I.U.I.U.U.U.E.E.I.E.E.E.E.P.n.n.n.I.I.b.I.'.*X(.I.P.R.I.F.z.P.P.P.F.z.P.I.I.I.P.Y.Y.z.z.A.A.F.F.F.P.I.I.I.I.I.I.I.I.I.I.R.(.'.'.'.(.R.R.R.E.E.E.R.R.R.R.R.R.R.R.E.P.z.I.R.U.U.I.U.U.U.U.U.U.U.U.U.U.U.U.U.U.U.U.U.^.(.^.(.^.(.(.(.^.(.(.(.(.(.(.'.'.^.^.^.^.^.^.^.^.U._.U.U.'.$X$X$XU.'.$X].'.'.'.'.'.'.].].[.[.[.].$X$X[.[.[.[.[.[.$X=X3X3X3X3X3X4X4X4X3X4X9X9X8XeX8X8X9X7X4X3X3X3X9X4X4X4X4X4X4X3X$X$X[.[.[.[.[.[.[.[.[.[.[.[.[.[.'._.^._.'.'.].]._.^.^.^.U.U.U.U.",
"^.m.m.^.^._.].].[.[.[.[.[.[.}.}.].[.=X=X=X}.[.].`.`.].'.'.'.'.'.'.'.'.'.'.'.'.'.].[.[.$X$X$X$X[.[.[.$X$X$X$X$X$X$X$X$X[.].].[.[.0X$X$X$X$X[.].].[.[.[.].'._._._.[.[.0X0X0X$X[.].!.].$X$X0X9XeXuX5X}.BXNXU.s s ] Y.@XqXeX6X=X[.=X'.'.].].].'.'.'.'.'._._.'.'.'.'.'.].].].^.E.n.n.'.'.'.'.'.'.'.'.'.'.'.].].'.'.'._._._._.!.!.!.!.'.'.'.'._.^._.'.'.'.'._.^.^.'.'.'.'.'.'.'._.U.U.U.U.U.U.!.U.U.U.^.^.(.(.^.U.^.^.^.^.^.^.^.^.^.^.(.^.^.^.^.^.(.(.^.^.^.(.'.'.'.].^.^.^.^.^.^.^.U.^.U.n.U.'.=X7XeX].'.^.^.^.^.^.U.^.(.U.U.U.R.U.b.n.n.n.n.I.U.U.U.I.I.I.I.E.U.U.U.U.U.U.P.b.b.P.I.P.U.U.U.I.n.I.U.U.U.^.^.U.U.U.U.U.U.m.b.v.v.n.E.n.i.*.x.U.~.(.*X'.^.U.I.^.^.^.U.P.U.U.U.U.n.b.x.P.b.z.z.g.z.P.I.I.I.I.I.I.I.I.I.P.I.I.P.n.U.'.$X-X$X@XR.U.U.R.'.U.U.R.'.'.(.U.E.b.U.(.'.U.I.U.(.U.U.U.U.U.U.U.U.U.^.^.^.^.^.^.^.U.U.U.^.^.^.U.U.^.^.^.^.^.(.(.(.'.'.'.'.(.(.^.^._.].U.b.v._.'.U.'.$X3X$X[.].[._.].[.[.[.$X0X$X[.[.[.[.[.].{._._.}.3X3X3X[.[.[.[.3X[.[.[.[.[.3X3X9XuXfXfXuX5X4X4X4X4X2X4X5X5X5X5XuX8X8X8X8X8X8X9X4X4X3X3X[.[.[.{.[.`._._._.`.].`._._._._._.B.^.B.",
"8X4X4X4X4X2X}.}.2X}.{.{.{.[.[.[.=X3X=X}.[.}.[.^._.^.U.U.^._.^.^.U.U.U.U.!._._.'.].].].'.'.'._._.[.[.[.[.].[.[.[.0X[.].'._.'.'.'.!.{.{.{.{.{._.N.M.M.M.M.v.M.N.{._.{.2X4X4X2X3X4X{.{.[.[.[.3X4X8X5X4XpXmXNXn.g ( s y.#XqX6X7X6X].3X$X'.^.].[.^.m.m.^.'.'.'._.'.'.'.].$X$X$X$X$X3Xm.3X$X_.$X[.U.$X$X[.].].].].].'.[.].'.'.U.U.U.E.n.U.^._.'.^.U.E.n.m.E.E.m.E.U.U.U.n.n.n.m.U.U.E.E.U.U.U.^.^.^.U.].].'.U.U.^.'.^.^.^.^.(.(.(.^.^.~.^.^.~.m.n.n.n.n.~.].[.].].].].].].[.[.`.^.n.k.m.n.m.^.b.=.m.6X7X_.v.k.k.c.k.v.~.m.b.k.b.U.^.^.^.^.^.U.n.n.n.U.U.U.^.U.n.n.U.^.n.m.^.`.^.~.m.m.m.^.~.x.k.~.~.b.M.M.M.m._._._._.m.m._._.[._.v.=.^.`.3X}.B.`.`.c._._.$X^.'.n.n.=.v.^.].^.k.*.i.n.U.n.n.U.^.^.^.'.(.(.'.'.'.(.U.n.k.k.b.n.n.b.k.i.m.].].n.i.v.v.i.i.i.v.v.v.v.i.i.U.n.n.n.n.n.n.b.n.U.'.'.'.U.E.n.I.n.U.U.^.(.^.U.U.U.^.U.U.U.U.^.n.n.n.U.U.^.^.^.^.^.^.(.(.'.'.'.U.!._.].$X$X]._.m.m.!.[.0X[._._._._.[.2X0X[._.m._._._.N.{.2X[._.3X=X[.[.3X4X9X4X}.[._._.[.[.[.[.[.{.}.4X5X5X2X2X|.|.2X2X2X2X2X2X2X5X5X5X5X2X5X5X4X2X2X2X5XuXiX2X2X[.{.B.`.`.{.}.}.2X2X2X4X4X5X5X",
"MXMXMXMXVXMXMXVXMXMXMXnXnXkXkXfX8X8X3X].`.`.].].`._.^._.].[.[.[._._._.!._._.'.'.9X9X9X9X9X9X9X9X_._.'.].].[.$X$X3X$X$X[.[.[.].].3X{.m.M.M.N.{.{.5X5X5X4X2X|.{.B.[.{.{.[.[.{.{.[.2X[.{.`.{.2X5XuXkX{.fXNXBX[.i.s &.] &.u.I.#X=X^.].$X[._.'.].[.3X[.[.[.$X3X9X7X9XgXgXvXmXmXmXvXgXgXhXgXeXeX7X3X3X3X3X3X3X3X9X6X3X$X$X$X$X]._.E.n.v.k.=.=.i.b.E.^.b.^.$X8XeX7X=X$X$X$X$X$X$X$X$X$X$X$X$X3X6X7XeXeX'.'.].].].(.(.'.^.^.^.^.^.^.^.^.^.'.].=X3X7XaXgXgXgX7X`.n.n.n.n.k.n.^.[.=X=X].'.'.[.$X]._.^.n.=.}.}.}.}.3XuXuX3X]._.`.=X3X}.].`.].$X=X-X=X=X=X6X$X'.^.'.#X=X$X`.].`.~.M.x.M.m.^.`.`.^.`.aXSXFXFXSXGXFXSXjX[.`.{.[.}.5XMXFXJXJXFXNXmXlXkX4X}.`.c.c.v.^.^.^._.3XuX]._.B._.3XhXBXAX3X8XaXaX=X^.b.b.n.b.b.I.^.].$X=X^.U.b.k.k.k.k.v.=.=.v.n.m.'.gXSXbXjXeX9X4X9XeXgX'.].$X6XeXgXvXjXaXeX7X=X$X].$X$X^.^.^.U.U.U.U.U.^.(.'.'.].].#X$XeX7X7X6X=X$X].].(.(.'.'.].$X=X3X7X7X9X6X$X[.'.'.U.m.m._.[.[.[.3X8X9X2X{.{.[.9X8X8XfXfXpX8X8X9X2X`.[.3X[._._.[.3XfX8X9X4X3X}.[.}.[.{.{.|.2X2X2X2XGXCXCXMXnXnXnXMXpXpXkXkXkXkXnXnXMXVXVXVXMXnXkXuXkX2X2XpXnXkXfXkXnXnXnXnXnXnXnXnX",
"VXMXMXMXMXnXMXMXMXVXCXCXSXSXSXSXSXSXSXNXBXlXjXjX7X3X$X].'._.U.n._._._.[.[.=X3X3X_._._._.'.'.[.[.3X3X0X$X$X].'.'.U.U._.'.].[.].'._.[.5X8X5X4XkXCXMXMXCXSXSXVXnXpX4X2X}.2X5X5XiXiXpXuXuXpXkXkXkXfXiXB.5XjXjX[.'.k.#.k ( $.y.x.^.(.i._.3X7X7X=X^.^.[.8XhXgX7X6XaXbXbXbXmXAXSXSXAXBXjXeXeXgXeXeXgXeXeXeXeXeXeXeXeXeXeXeX8XeXeXgXjXmXhXgXaXeX6X-X$X$X6X$X'.U.b.n.U.(.].#X$X=X$X$X$X$X*X].].*X$X6XeXaXaX6X$X].^.n.U.'.'.'.'.'.'.`.].].].[.[.].'.^.U.U.^.6XjXbXvXvXeX$X3X'.n.v.U.$XeXgXgX7X6XeXgXgXjXlXNXSXDXGXFXJXFXDXCXjX9X4X4X[.}.4X3X=X$X[.].[.=X9X9X8X8X7X3X3X7X8XfXkXhXfXgXfXhXlX}.=X8XuX7X`.c.#.M.M.[.NXJXFXCXkXmXfX[.M.M.`.fXBXJXGXCXlXfXlXMXjX3XpXmXSXSXDXGXJXSXSXMXmXlX8Xm.=._.m.m.[.8XhXgXeXNXBXjXaXeX9X3X=XvXbXBXAXAXBXvXhXmXjXmXSXDXSXmXgXgXhXhXgX8X7X9X9XgXaXwX6X-X$X].'.eXeXaXaXeX7X6X6X=X=X=X$X$X=X3X6X].].].].[.$X].].b.n.U.].$X3X7XeX=X$X$X].].'.'.'.$X3X3X$X[.].[.$X$X$X4XfXjXjXjXlXmXBXmXjXfXfXjXmXjXjXjXfXfXjXNXSXlXmXBXBXmXhX8X3X9XgXjXmXNXNXNXCXMXMXmXVXSXGXJXJXVXVXVXVXMXnXMXVXnXMXMXnXkXpXpXpXkXnXVXSXSXGXSXSXSXnXkXnXVXVXVXVXVXVXVXVXVXVXVXVX",
"CXCXCXVXMXnXnXMXMXMXVXVXMXMXMXBXCXBXlXjXuX}.^.m.].].'.'.].[.[.].3X3X3X3X$X$X[.[.3X3X3X3X3X3X9X9X7X7X8XeXeXeXeX8X3X3X7X8XeXeXeX8XgX8XfXMXCXMXlXkXnXnXnXnXMXnXnXkXkXfXfXfXfXfXfXfXuXfXlXMXCXCXMXmXgXfXkXmXDXjX=X=X&.] &.u.&.<.z.U.I.'.].[.7XaXhXbXbXjXhXbXNXNXlXgXwX3X$X$X7XeXeXeXhXeX7XeX3X$X$X$X].].$X$X6XwXeXeXeX-X'.n.i.i.i.k.].#X-X-X-X#X(.^.(.^.U.I.n.n.I.U.i.k.k.k.k.k.k.k.E.I.I.n.I.^.(.'.eXsXgXhXaX6X'.U.'.'.'.].$X=X=X=X9X8XeXeX8X3X$X].].=X$X'.].7XaXeXgXlXmXgX$X].9XjXgXgXmXDXDXAXSXFXSXMXkXfX5X3X9XfX_.M.v.m._.`.[.[.[.].'.'.].=X8XgXeXaXaX3X_.n.m._.m.`.}.3X3X=X}.}.^.^.`.`.^.^.}.8X`._.m.M.=.#.c.]._.}.aXfX4X`.m.M._.uXMXCXDXFXGXNXJXSXmXmXfXuX3X8XNXjXuX4X4XuXjXBXAXNXBXhX8X7XeXhXeXaXhXvXgX6X^.v.n.n.^.$XgXBXSXDXDXDXNXeX$X[.[._.$X[.^.n.k.b.U.'.I.I.b.b.b.n.b.b.U.'.=XwXeX7X-X$X'.^.U.U.U._.'.'.[.].].].].].'.^.$X$X].'.^.U.E.n.'.'.].].].].'.'.U.!.'.].[.$X3X7XeXgXgXgXfXuX5X8X[.8XkXnXnXjXnXmXjXmXNXBXjXeX9X4XgXhXlXNXSXAXmXjX9X9X3X6XeXjXSXDXFXFXFXFXGXMXkXiXuXpXkXkXpX5X5X5X5X5XiXiX5X5X5XiX2X5XpXnXVXSXFXFXVXCXCXnXnXMXCXVXCXCXVXVXVXVXVXVX",
"3X=X=X}.[.`.[.3XaXfXfXuX8X4X4X4X].^.n.m.].[.3X3X].].$X3X7XeXeXaXaXeXaXaXaXaXeXeXgXgXaXeXeXeXeXeXeXeXeXeXgXgXgXgXvXvXhXhXgXgXgXeX8X[._.[.3X[._._.2X[.[.{.[.5XkXMXnXmXmXmXlXmXmXmXSXSXSXNXNXNXSXSXSXSXSXSXJXJXBX}.[.k.] ) $.<.d.f.).].^.n.U.#X7XgX#X(.U.U.(.).U.k.U.I.I.P.I.I.I.U.*X-X*X'.$XU.b.*XsXsXwX-X'.^.I.n.i.k.k.b.b.x.k.k.i.y.u.u.i.l.z.k.i.x.U.(.).^.U.I.I.U.U.U.I.I.U.^.I.P.P.n.P.n.P.P.I.'.-X6XeXeX-XU.I.U.(.'.*X*X*X*X7XeXgXgXgXgXgXaX^.$XeXeXeXgXaX9X$X'.].aXAXDXSXbXAXAXmX6X_._.$X$X[._._.`._.m.B.`.3X3X3X=X3X8X7X=X9XgXmXAXAXjX8X$X$X]._.^.'.'.^.U.^._.].].].`.].].6XaXlXNXBXlXmXNXbXeX$X=X6X7XaXhXeX=XU.U.].sXbXBXkXnXnXfXuXfXjXmX8X[.M.`._.[._.[.n.[.fXjXjXgXeXeX9X[.'.$XeXjXgX9X7X$XU.b.n.'.7XgXgXgXhXgX8X].b.*.k.^.].'.^.].].(.^.'.#X$X].'.~.U.*X$X$X;X-XwXeXeX^.^.^.(.(.'.*X*X3X$X'.'.].].].].].'.'.].$X$X$X].$X*X@X].@X*X$X$X'.'.].'.'.'.'.'.'.'.].$X$X3X3X3X3X3X[.]._.[.3X9X5XuXfXkXkXkXjXjXfXfXfXfXfXjXBXAXBXbXjXgX6X$X=X7XhXbXNXAXNXbXgXeX[.[.9XaXgXgXgXkXuXpXfXpXiX5XiXiXiXuXfXfXkXkXjXlXNXnXfX8X4X4X3X2X8XlXVXMXlXmXnXkXkXfXuXiX4X4X3X}.",
"=X}.}.}.[.].[.=X[.[.=X=X3X7X8XuXgXaX7X7XaXgXgXaXaXaXaXaXeXeXeX8X8XeXeXeXeXaXgXgXeXeXeX8X7X7X6X6X=X=X3X$X$X$X$X$X3X$X$X].].'.'.'._.'.[.'.m.n.[.gXjXjXgXfX9X4X5X8XgXhXjXhXgXgXhXjX8X9X3X[.[.[.7XaX8X3X4X_.5XSXFXkXuXn.$.( ` 8.q.,.g.^.@XU.g.$.( ) u.z.x.u.) ) u.U.).$XwXtXsXeXeXeX(.-X'.U.*XU.k.*Xk.k.k.k.l.k.k.k.k.x.b.b.b.k.l.k.^.T.I.P.x.x.x.x.P.x.l.u.u.u.g.l.u.u.u.y.y.u.u.l.l.z.x.x.x.z.l.l.u.k.k.i.k.'.'.n.b.n.I.U.(.(.U.U.'.'.^.U.E.E.U.U.$X$X$X^.E.n.b.k.i.v.b.v.k.b.E._.k.n.U.U.U.U.n.v.k._.4XaXhXjXjXeX6X8X8X3X7XgXhXaXaX9X'.m.b.b.m.U.n.n.n.U.^.'.].].^.(.'.'.'.'.].].'.~.m.m.n.n.b.b.I.(.*X$X'.b.i.*.*.i.i.b.E.I.b.i.v.v.M._._.M._.gX$X[.$X8XeXeX9X8XgXeX3X'._.].0XeX$X9X7X$XU.n.b.n.b.v.b.b.n.n.n.n.n.b.k.k.b.n.E.U.U.i.i.R.-XwXsXcXsXwX$X'.'.$X6XeX-X$X@X(.^.I.b.x.^.I.b.k.x.I.U.^.].'.U.U.^._.^.U.'.'.'.'.'.].].'.'.'.'.'.'.'.'.'.$X].R.E.P.I.E.U.@X@X].@X$X$X].'.U.'.[.].[.3X8XfXfX5X5X4X3X3X3X3X5X8XfXjXgX8X3X$XU.b.k.k.i.i.b.(.'.U.b.k.k.b.n.U.U.n.b.n._.$XaXvXSXSXSXSXNXmXlXjXNXNXBXmXmXlXjXjX8X4X=X3X3X4X4X3XaXuXaXhXfX8X}.=X3X=X=X}.[.].].`.",
"k.k.i.i.i.=.=.i.i.i.i.i.i.k.k.k.m.].=X=X3X8X9X[.=X3X3X3X3X=X=X$X$X].'.^.U.n.b.b.b.b.b.b.n.b.k.k.b.b.P.P.I.U.U.R.b.z.k.k.b.b.b.b.P.b.i.i.b.n.b.b.n.^.$X7XeXgXeXeX3X=X[.^.n.b.k.k.=.=.i.b.U.'.#X$X[.U._.c.M.fXJXJXlX3XU.y.) { q.q.<.F.T.F.f.$.` <.F.g.<.<.1.g.F.P.u.b.(.'.@X@X*X#XwXsX-X'.).U.P.U.U.U.~.U.I.P.I.U.I.P.x.l.j.j.k.l.y.u.g.l.l.g.g.u.1.u.g.l.l.l.l.l.u.u.u.u.u.u.u.u.y.u.u.u.u.u.u.y.y.z.P.z.z.P.b.u.k.z.z.z.b.P.P.b.b.b.b.b.b.b.P.E.i.i.i.b.b.n.E.U.m.E.U.U.U.m.n.n.$XU.n.U.^.n.n._.U.^.U.b.n._.].'.$X7XeXeX3X$XU.k.k.b.n.U.U.U.n.n.E.U.^.U.b.i.i.k.i.k.n.I.I.b.b.b.b.k.i.i.i.b.k.l.R.T.g.&.` &.i.P.<.f.z.F.z.z.P.I.n.M.m.'.[._.U.3XeX3X[.E.U.U.$X3X'.[.3XqX7X$X'.E.E.P.b.z.E.R.R.P.b.b.n.E.E.E.n.n.b.n.E.U.^.U.E.n.U.P.P.I.i.y.P.&X(.(.R.(.(.(.R.I.i.i.i.l.k.k.k.k.k.k.k.k.b.n.b.x.n.E.U.U.E.E.U.U.U.U.U.U.E.m.E.E.I.E.U.U.R.R.R.U.n.n.b.b.P.U.'.'.R.R.R.U.(.^.U.U.^.].=X=X]._.^.B.[.}.}.3X4X8X8X4X3X[._.m.n.v.k.b.^.b.i.k.n.x.l.k.*.i.i.l.k.n.^.).g.g.z.z.i.y.&.&.=.k.U.[.7XaXaXeX].].#X$X=X=X=X$X7X6X=X=X=X].].#XeX[.^.`.`.n.x.m.x.k.k.k.b.n.n.n.",
"u.y.&.y.y.<.<.y.y.<.<.y.u.u.u.i.i.m.^.n.b.^.^.I.I.U.U.I.n.b.k.k.b.k.k.k.k.b.n.I.I.U.U.^.(.^.U.U.U.U.I.b.k.i.i.i.k.k.i.k.k.k.k.i.i.k.b.i.i.k.i.i.i.i.i.i.i.b.n.b.E.n.i.=.i.i.k.i.b.k.i.i.k.k.k.i.E.i.i.v.[.v._.lXFXNX7Xz.` ` 8.8.<.l.g.f.g.g.1.u.<.1.u.u.1.f.z.F.U.U.P.k.k.k.I.^.I.b.P.k.i.U.*X^.P.P.P.x.x.k.x.x.z.x.P.P.F.k.u.u.g.g.u.u.u.u.u.u.l.l.l.g.u.u.u.g.l.u.u.g.l.l.u.1.g.u.g.u.u.u.u.u.<.y.i.y.*.y.z.I.i.y.y.y.i.i.k.b.z.b.I.U.U.U.U.I.U.I.I.(.U.b.b.b.k.b.n.I.U.U.U.^.b.U.U.b.k.b.b.k.b.i.k.I.U.b.b.I.P.b.z.k.i.i.z.I.U.U.U.U.U.U.U.U.(.U.n.U.].$X'.U.^.R.U.P.z.k.z.b.b.R.(.^.U.R.R.R.F.Y.T.I.R..XT.z.Y.z.g.g.F.Y.F.z.b.(.n.i.E.^.b.i.7X*XR.i.b.i.P.z.E.I.U.I.P.z.P.P.P.R.'.R.E.I.E.P.U.n.b.b.I.U.U.U.'.(.I.P.I.U.U.(.Y.F.g.u.g.F.F.z.u.<.<.<.f.g.y.$.b.k.z.k.x.b.x.x.P.x.k.k.z.b.b.x.k.I.U.U.k.i.k.b.k.b.b.b.b.b.I.U.I.I.U.U.I.b.i.i.b.I.U.U.(.U.U.I.R.(.(.(.R.U.(.).I.'.].`.^.~.^.^.m.m.m.^.~.U.m.m.U.m.U.^.U.E.U.(.x.l.l.l.g.u.x.).Y.T.^.U.z.l.x.Y.Y.F.g.f.y.<.y.i.h.i.&.] ] &.&.) &.&.&.*.i.i.i.i.k.k.k.k.i.i.i.x.i.y.y.i.u.i.i.i.k.k.k.i.u.i.i.i.",
"u.u.u.u.u.u.u.u.u.u.u.1.1.1.1.1.u.u.u.u.u.u.u.u.u.u.u.g.g.g.g.g.l.z.x.x.b.G.P.P.I.P.P.P.P.G.P.P.P.x.z.k.g.u.u.y.u.i.i.i.z.i.i.i.z.k.i.i.i.l.z.z.k.k.i.i.i.i.i.i.u.u.i.l.k.k.l.l.i.i.u.u.i.i.i.i.u.u.i.k.n.b.i.&.x.DXDXvX.XJ J <.<.g.F.l.u.<.f.1.<.<.<.<.<.1.g.z.z.z.x.x.z.l.z.l.Y.z.F.^.^.l.u.l.x.x.x.g.g.u.g.u.z.x.x.x.x.l.g.u.u.g.g.g.g.g.g.g.F.z.z.u.) ' z.Y.z.u.<.<.<.<.<.u.u.u.u.u.u.u.u.u.u.u.i.l.z.z.z.l.u.u.u.u.u.l.z.x.P.P.P.P.P.P.P.P.k.x.b.P.P.x.k.i.k.i.i.i.z.P.P.x.x.b.P.P.b.z.k.l.i.k.z.b.b.b.x.x.P.P.P.Y.I.T.I.P.P.I.U.U.^.U.U.U.^.(.(.(.).(.^.U.I.P.z.z.k.b.U.^.(.(.(.).'.@X@X@X#X(.Y.z.z.z.z.z.z.z.z.z.z.z.F.z.z.z.x.z.F.G.T.(.z.g.<.$.$.1.z.F.T.T.Y.G.F.z.z.z.z.f.u.u.f.f.u.<.y.*.y.u.i.k.l.i.z.l.i.u.u.u.i.u.l.1.<.<.<.<.f.z.F.F.g.<.:.<.<.$.u.u.l.g.l.z.z.l.F.x.x.l.z.x.F.P.I.I.I.I.P.b.b.P.I.I.I.I.I.P.P.P.P.I.n.k.i.u.i.l.n.b.k.k.k.k.x.b.b.P.Y.T.I.P.P.P.U.Y.P.x.k.k.i.i.b.k.k.k.k.k.x.b.x.x.z.i.u.y.y.&.u.u.1.u.u.l.l.l.G.G.F.z.l.g.g.f.<.<.y.<.y.u.z.F.P.F.P.F.z.l.g.u.i.g.u.y.u.u.i.g.z.l.u.u.u.g.g.u.u.u.u.u.u.u.u.u.u.u.u.u.u.u.u.u.",
"1.1.1.1.1.1.1.1.u.u.1.1.1.1.1.1.u.u.u.f.f.f.f.f.f.f.f.f.g.g.g.g.u.g.g.g.l.z.z.z.l.l.g.g.g.g.g.g.i.i.u.u.u.u.y.y.u.u.i.i.i.i.i.i.u.u.u.u.u.u.i.k.i.i.i.i.u.u.u.u.u.f.g.i.i.i.i.i.u.u.u.u.u.i.i.i.u.u.u.u.u.u.u.u.k g cXHXvXF.( ` <.Y.F.$.<.F.f.' <.<.<.<.<.<.f.g.u.u.u.u.y.y.u.u.l.u.g.z.z.u.<.<.y.u.u.u.u.g.u.&.u.u.u.u.u.u.y.y.u.u.u.u.u.u.u.u.u.<.u.<.) ` u.g.g.g.z.z.g.<.<.g.u.u.u.<.<.<.<.u.y.u.u.g.g.g.g.u.u.u.u.u.u.u.g.g.u.u.u.u.u.u.u.u.u.u.u.l.i.u.u.y.&.<.<.<.y.u.u.g.g.g.u.u.y.u.u.u.u.u.g.g.l.l.g.g.z.g.g.z.z.x.z.z.z.z.l.l.l.l.l.l.l.l.x.P.U.U.U.U.(.^.R.I.I.U.^.(.@X@X).(.R.I.P.Y.(.R.T.T.R.I.Y.z.<.&.<.&.<.&.<.<.<.<.1.1.1.f.f.l.f.1.<.<.<.<.1.1.f.f.u.1.<.<.<.<.1.<.%.<.1.1.<.<.%.&.&.<.<.y.y.<.u.y.<.<.<.y.u.u.u.1.<.1.u.1.f.g.9.D.D.f.8.9.9.<.1.g.l.g.u.u.l.g.u.u.u.u.u.g.l.z.l.l.z.z.F.P.Y.Y.F.F.F.F.G.G.F.G.P.P.P.x.P.n.P.P.x.x.x.k.z.k.x.x.F.x.z.l.l.g.g.g.z.l.g.g.u.u.u.u.u.u.g.g.g.l.z.z.l.l.g.g.f.u.u.1.f.f.1.1.1.1.1.<.1.u.f.f.u.u.f.f.f.g.g.f.u.g.z.z.g.g.z.z.F.F.F.F.F.z.z.z.z.z.g.g.z.z.z.z.g.g.g.g.f.f.u.u.u.u.u.f.f.f.f.f.f.f.f.f.",
"1.1.1.1.1.1.1.1.u.u.1.1.1.1.1.1.u.u.u.u.u.u.f.f.f.f.f.f.f.g.g.g.u.u.u.u.g.g.g.g.g.u.g.u.u.u.u.u.u.u.u.u.u.u.u.u.u.u.u.i.g.i.i.i.i.i.i.u.u.u.u.u.u.u.u.u.u.u.u.u.u.f.i.i.i.g.u.u.u.y.y.y.u.u.g.u.u.u.u.<.$.$.y.u.F.) $.x.xXZXz.r F.' F.g.<.<.) l.1.1.1.<.<.<.1.u.<.<.<.<.%.<.u.u.u.u.u.u.u.1.<.<.u.1.$.) $.u.g.u.u.u.y.<.<.<.u.u.1.<.<.<.<.<.<.<.<.<.1.1.$.$.u.<.g.g.g.z.g.f.u.g.f.u.u.u.<.<.<.<.y.u.u.u.u.u.u.u.u.u.u.u.u.u.u.u.u.u.y.y.y.y.u.u.u.u.y.y.y.<.&.&.$.$.&.&.$.&.u.g.y.u.g.g.g.u.u.y.<.y.u.u.u.u.y.y.u.u.u.u.u.g.g.g.g.u.u.u.u.u.u.u.g.g.g.g.g.g.g.i.g.g.g.u.u.u.g.g.l.g.g.u.u.u.1.1.<.u.f.g.f.u.<.$.' ' ' ' ' ' ' $.<.<.1.1.1.1.1.1.<.1.1.1.1.1.1.1.f.u.1.<.<.<.<.<.$.$.$.<.1.1.1.<.1.1.1.1.<.<.<.1.u.1.1.1.1.1.u.u.1.1.1.f.f.u.1.f.<.D.F.D.d.d.f.f.g.F.F.l.u.u.y.1.1.1.u.u.u.u.u.u.u.u.u.u.g.l.l.g.u.u.u.g.u.g.g.g.z.l.l.l.G.G.G.z.z.l.z.l.l.l.l.z.l.g.u.1.<.<.<.<.1.1.1.1.u.u.f.f.f.g.g.z.F.z.l.g.f.g.g.f.f.u.f.u.1.1.1.1.u.u.1.1.<.1.u.u.u.u.f.f.g.g.g.f.u.u.f.g.1.u.f.g.g.l.z.F.g.g.g.l.z.g.1.<.<.u.g.z.l.g.g.l.f.f.f.u.u.u.u.u.u.u.u.u.u.u.u.u.",
"1.1.1.1.1.1.1.1.u.u.1.1.1.1.1.1.u.u.u.u.u.u.u.u.u.u.u.u.f.f.f.f.u.u.u.g.g.g.g.i.l.l.g.g.g.g.g.g.i.i.i.i.i.i.u.u.u.u.u.u.f.g.i.i.i.i.i.i.i.u.u.u.u.u.u.u.u.u.u.u.g.g.i.i.i.i.u.u.u.u.y.y.u.u.u.u.&.y.u.u.&.$.&.y.u.u.) ( u.eXZXF.7 T.<.<.g.` f.1.1.1.1.<.1.<.<.<.u.u.u.1.1.u.u.g.u.l.l.u.u.g.u.1.g.u.&.` $.u.z.z.u.u.u.<.<.u.u.u.u.u.u.u.1.1.1.1.u.<.1.f.<.1.f.<.g.$.` $.u.g.g.g.f.u.u.u.u.u.u.u.f.u.g.u.g.u.u.u.u.u.u.g.g.g.g.g.g.g.u.u.u.u.g.l.g.g.u.u.y.<.&.&.<.<.<.<.<.<.u.g.u.u.u.g.g.u.u.u.y.y.u.u.y.y.y.y.u.u.u.u.u.u.g.g.u.u.f.g.g.g.g.g.g.g.u.y.<.<.<.<.<.<.<.1.u.u.u.1.<.1.u.y.u.u.f.f.<.<.<.<.$.$.<.<.<.<.<.<.<.<.<.<.1.9.f.f.f.f.f.f.1.1.1.1.f.f.l.l.F.F.l.l.f.u.1.1.<.<.<.1.f.f.f.1.u.u.u.u.1.<.1.u.g.g.u.u.u.u.u.u.1.1.u.f.u.1.1.1.f.F.F.f.<.8.9.f.g.z.F.l.u.y.u.u.g.g.g.u.u.1.<.%.y.u.u.1.<.%.%.&.1.<.1.1.1.1.y.y.u.u.u.u.f.u.u.1.f.u.f.u.f.u.u.u.u.1.1.<.<.1.<.1.1.1.u.u.f.g.g.g.z.F.F.F.z.g.g.g.g.g.f.f.f.u.1.<.1.1.1.f.f.f.f.f.1.f.g.g.f.f.f.f.f.f.f.u.1.<.<.<.u.1.<.<.<.<.<.<.<.<.1.u.u.<.$.` $.<.f.g.g.f.f.f.f.f.f.u.u.u.u.u.1.1.1.1.1.u.1.1.",
"1.1.1.1.1.1.1.1.f.1.1.1.1.1.1.1.1.1.u.u.1.1.u.u.u.u.u.u.u.f.f.u.u.f.f.f.g.g.g.g.g.g.g.g.f.f.g.g.i.g.i.g.i.g.g.g.f.f.f.f.f.f.g.i.y.y.u.u.u.g.i.i.f.u.u.u.u.u.u.u.f.f.i.i.i.f.u.u.f.u.y.y.y.y.y.y.<.y.u.u.u.<.<.<.) <.<.F.<.) -XDX<.u <.F.$.f.g.` <.<.<.<.<.<.<.<.1.u.u.u.u.1.1.u.<.g.g.1.1.f.u.%.$.u.z.z.g.g.u.<.<.<.<.<.u.u.<.<.u.u.u.u.1.1.u.u.<.$.<.<.<.<.1.<.<.` ` ` $.<.y.f.u.u.u.f.u.f.f.g.g.g.g.g.g.g.f.f.f.f.g.g.g.g.g.g.u.u.u.u.u.u.u.u.g.u.u.u.y.y.<.<.u.<.<.<.<.<.<.<.g.u.<.$.$.<.u.f.u.u.u.u.u.u.u.<.u.u.u.u.u.u.g.g.u.f.g.g.g.z.g.g.y.<.<.<.<.<.y.u.1.1.f.f.f.f.f.f.f.u.f.1.1.1.1.1.f.f.9.<.<.<.<.9.<.<.<.<.<.<.<.9.f.f.9.9.<.9.9.9.9.9.9.f.f.f.g.l.g.g.f.f.1.1.<.<.1.1.1.f.f.f.f.1.<.<.1.<.<.<.<.u.u.u.u.1.1.<.<.<.1.1.u.1.1.<.1.1.f.f.f.9.<.<.<.<.$.<.u.u.1.f.g.g.f.f.f.f.1.<.$.` ' <.u.1.$.$.<.g.1.u.1.u.u.u.u.u.1.u.f.u.1.<.<.1.<.<.<.1.1.1.<.<.<.<.<.u.f.f.u.u.1.u.f.f.f.f.f.f.f.f.f.<.<.<.<.<.f.9.9.<.<.<.<.<.f.f.f.f.f.1.1.<.1.9.f.f.f.1.1.1.1.1.1.1.<.<.<.<.<.<.<.<.$.$.' ' <.<.<.1.u.1.<.<.g.f.u.u.1.1.<.<.f.f.f.u.1.1.1.1.1.1.1.1.1.1.1.1.",
"1.1.1.1.1.1.1.1.1.1.1.1.<.1.1.1.<.<.1.1.<.<.1.<.1.1.1.1.u.u.1.1.<.<.<.<.y.y.y.y.u.u.u.u.u.u.u.u.y.y.y.y.u.u.f.f.f.f.f.f.f.g.g.g.g.i.g.u.u.u.u.u.i.g.u.u.u.u.y.y.u.u.u.u.u.u.y.y.u.y.y.y.y.y.y.<.u.<.<.<.<.<.<.<.g.g.$.) F.&.s -XAXu ` G.$.u.<.<.<.<.<.<.<.<.<.<.1.u.f.f.u.1.<.<.<.u.u.<.1.u.1.$.' u.g.g.u.<.<.<.<.<.<.u.u.y.<.<.<.<.<.<.<.<.<.<.1.$.<.<.<.<.<.$.` ' <.u.$.` <.f.y.u.u.f.f.f.g.g.f.f.u.f.u.u.u.u.g.f.u.u.u.<.<.<.1.1.1.<.<.<.<.y.&.&.&.<.<.y.y.u.y.<.$.<.<.<.<.$.u.u.f.g.f.u.<.<.<.<.<.<.<.<.<.y.<.y.y.<.<.<.<.1.<.y.f.f.f.u.<.<.<.<.<.<.<.<.y.u.1.1.<.<.<.<.<.:.$.$.$.$.$.$.$.` ' ' { :.:.:.,.<.<.<.<.<.<.<.8.<.l.f.f.9.f.f.f.9.<.<.9.f.f.<.<.<.$.$.<.<.<.<.$.$.<.<.1.1.1.1.<.<.<.<.<.<.<.<.u.u.1.1.1.u.u.u.u.u.1.f.f.1.<.<.1.1.9.f.g.D.F.l.9.<.<.u.u.1.1.f.f.u.u.u.u.u.1.<.<.<.$.<.f.u.<.<.u.g.1.1.1.1.1.u.u.u.<.1.f.u.<.<.1.u.1.<.1.1.<.<.<.<.<.<.9.u.f.1.<.<.<.<.<.<.<.<.<.<.<.<.{ ' { :.,.<.{ <.<.<.,.<.,.<.1.1.1.1.1.1.1.1.<.1.f.f.1.1.1.1.1.<.<.<.<.<.<.<.<.<.<.<.<.<.<.<.<.<.<.<.1.u.f.u.f.1.<.<.1.f.1.<.u.u.u.<.<.<.<.<.u.u.u.u.u.u.u.u.",
"1.1.1.1.1.1.1.1.1.1.<.<.<.<.1.<.<.<.<.<.<.<.<.<.<.<.<.<.1.1.1.<.<.<.<.<.<.<.<.<.<.y.y.y.u.u.f.f.<.<.<.<.<.<.y.y.f.f.f.g.g.g.g.g.F.F.z.g.f.u.u.u.g.g.f.u.u.u.u.u.<.y.u.u.u.u.y.<.u.<.<.<.<.u.<.<.u.<.<.$.<.<.<.<.` J F.<.` F.<.s XXAX) k G.) g.<.<.<.<.<.<.<.<.<.<.1.u.1.<.<.1.u.1.1.1.<.1.1.1.1.u.u.u.<.$.<.<.u.<.u.u.u.u.u.u.<.<.<.<.<.<.<.<.<.<.<.<.<.<.<.<.$.' $.<.y.<.' $.u.y.y.y.y.f.f.g.f.u.u.u.u.u.u.u.u.f.u.u.<.<.<.<.<.y.y.y.y.y.y.<.<.$.%.$.&.<.<.<.<.<.<.<.y.u.u.u.<.<.u.z.G.F.g.<.` <.<.<.<.<.<.<.<.$.<.<.<.<.$.$.<.<.<.<.<.<.<.<.<.f.f.<.<.<.<.<.<.f.9.9.<.<.<.<.<.:.:.<.<.<.<.<.<.<.-.-.<.r.t.r.-.r.r.r.<.r.r.8.9.g.f.f.f.f.f.f.9.<.<.<.<.<.<.:.' $.$.<.<.<.<.<.<.<.<.<.<.<.<.<.1.1.<.<.<.1.u.f.f.u.u.u.f.f.f.f.f.1.l.l.f.<.<.1.1.1.f.F.F.F.g.f.1.f.g.f.u.u.f.1.<.<.1.u.f.f.f.u.1.f.f.f.u.<.<.<.<.<.<.<.<.<.<.<.<.<.<.,.<.,.<.<.1.8.<.8.<.8.<.<.<.8.<.8.<.8.<.<.<.,.<.<.<.<.<.<.<.,.,.-.<.,.,.,.,.{ { { <.,.,.,.,.:.<.<.<.<.1.1.f.1.1.t.1.f.f.f.f.u.<.<.<.<.<.<.<.<.<.<.<.<.<.<.<.<.<.<.<.<.<.<.<.<.<.<.<.1.f.f.f.<.<.<.<.<.<.<.<.<.<.<.<.<.<.<.<.",
"<.<.<.<.<.<.<.<.1.1.<.<.<.<.<.<.<.<.<.<.<.<.<.<.<.<.<.<.<.<.<.<.<.<.<.<.<.<.<.<.<.<.<.<.<.y.y.u.f.f.f.f.<.<.<.<.f.f.f.g.g.g.g.g.f.u.u.<.u.u.g.g.f.f.u.u.u.u.u.u.y.u.u.u.u.u.u.u.y.<.<.<.u.u.f.u.<.<.u.u.y.<.<.<.<.f.' u.<.' F.<.s F.rXz.` l.$.<.u.<.<.<.<.<.<.<.<.<.<.$.$.<.<.u.u.<.<.<.<.<.1.u.u.u.u.<.<.u.u.<.u.y.u.<.<.<.<.<.<.<.<.<.<.<.<.<.<.' <.<.$.$.<.) <.` K ` <.<.<.<.u.f.u.y.y.u.u.f.f.u.u.u.u.u.f.f.u.u.<.<.<.u.u.u.u.y.u.y.y.y.y.<.1.<.<.<.<.<.&.$.` $.y.u.u.<.u.u.u.u.<.<.$.$.$.$.<.$.<.<.<.<.<.<.$.<.u.<.<.<.<.<.p.<.<.<.<.f.f.d.p.y.y.p.p.f.f.f.9.<.<.:.:.<.1.9.9.9.9.1.<.<.<.<.Z.w.-.-.r.r.r.-.r.r.r.r.r.r.r.9.<.<.<.<.9.<.<.' 9.<.<.:.:.<.<.9.<.1.1.f.f.1.1.1.<.<.1.<.<.1.f.f.u.<.<.$.<.u.u.u.f.f.f.u.u.1.<.<.1.l.F.f.1.1.1.1.<.1.f.f.<.<.<.1.<.<.<.<.u.g.u.<.<.<.<.1.1.u.1.1.f.<.<.<.1.u.<.$.1.1.<.<.<.<.<.<.f.<.<.<.,.<.<.,.,.,.<.<.<.<.,.,.8.8.<.,.,.8.8.8.<.8.8.8.<.<.,.,.4.r.8.8.8.4.,.,.8.4.4.4.,.,.,.,.<.<.<.<.<.<.<.1.1.1.1.1.1.1.1.9.u.<.<.<.<.<.<.$.u.u.f.u.<.<.$.$.<.<.$.<.<.<.<.<.<.<.u.1.<.$.$.<.<.<.<.<.<.<.<.<.<.<.<.<.<.<.<.<.",
":.:.:.:.:.:.:.:.<.<.<.<.<.<.<.<.<.<.<.<.<.<.<.<.<.<.<.<.<.<.<.<.<.<.<.<.<.<.<.<.<.<.<.<.<.9.f.f.f.y.p.p.f.p.<.<.f.f.f.g.g.g.g.f.f.f.f.f.y.y.f.g.u.<.y.u.f.u.<.<.y.y.y.y.f.u.u.u.<.u.u.u.y.<.<.<.1.1.1.1.<.<.<.<.<.<.<.<.<.<.<.u.u.$.<.F.F.<.$.u.<.<.<.<.<.<.<.<.<.<.<.<.<.1.1.1.<.<.<.<.<.<.<.<.<.<.<.<.<.<.<.<.$.<.u.<.` ) $.<.<.<.<.<.<.<.<.<.<.<.:.<.<.:.<.f.K y u ' f.:.` :.9.f.f.f.f.f.f.f.u.u.1.1.1.1.u.u.1.1.1.u.u.u.u.u.u.u.u.u.f.f.f.f.<.<.<.<.<.<.<.<.<.<.$.$.$.$.$.$.<.<.<.<.<.<.$.$.$.<.<.<.<.<.<.<.<.<.<.<.<.<.<.<.<.<.<.<.<.<.<.<.9.1.1.1.<.<.<.<.<.1.1.1.t.t.1.1.1.1.1.1.1.1.<.<.Z.t.-.I I I -.<.r.r.3.3.3.3.3.3.<.<.<.<.<.8.8.8.9.8.<.,.,.<.<.1.<.<.<.<.<.<.<.<.9.9.9.<.<.<.<.<.u.<.$.$.<.1.1.1.1.1.1.1.f.f.f.f.f.f.f.9.<.<.$.$.) ) ' $.$.$.%.<.<.<.<.<.<.<.<.<.<.<.1.1.1.1.1.1.<.<.<.1.1.1.<.<.<.<.1.1.1.1.1.1.r.r.r.8.8.8.8.8.r.r.r.r.r.r.r.r.8.8.9.8.8.8.<.<.<.<.<.,.:.:.{ { <.,.,.,.r.r.r.r.,.r.r.r.,.,.-.{ <.<.<.<.<.9.9.9.9.<.<.<.<.<.<.<.:.<.<.<.<.<.<.f.<.9.f.f.f.<.` I ` ' <.<.:.:.<.1.<.<.<.<.<.<.<.<.<.<.<.<.<.:.:.:.<.<.<.<.:.:.:.:.",
":.:.:.:.:.:.:.:.<.<.:.<.<.<.<.<.:.:.:.:.<.<.<.<.<.<.<.<.<.<.<.<.<.<.<.<.<.<.<.<.<.<.<.<.<.<.f.f.f.f.y.p.f.f.p.<.y.p.f.f.g.d.d.f.f.g.z.g.g.f.f.f.f.f.f.f.f.u.y.<.y.y.y.y.f.u.u.u.<.u.u.u.y.<.<.<.1.1.1.<.<.<.<.<.<.<.<.<.<.<.<.<.1.<.<.g.g.<.<.1.<.<.<.<.<.<.<.<.<.<.<.<.<.<.<.<.<.<.<.<.<.<.<.<.<.<.<.<.<.<.<.<.<.u.f.f.1.1.<.1.<.<.<.<.<.<.<.<.<.:.$.:.:.:.<.9.7 ' Y.g.<.<.9.<.<.9.f.9.1.1.<.9.f.f.f.u.u.f.f.f.<.<.<.<.u.u.u.u.u.u.u.u.u.u.u.1.1.u.u.1.1.<.<.<.<.<.$.$.$.$.$.$.' ' $.$.$.$.$.<.$.<.<.<.<.<.<.<.<.<.<.<.<.<.<.<.<.<.<.<.<.<.<.<.<.1.1.9.9.<.<.<.1.1.1.1.t.t.1.1.1.1.1.1.1.1.<.<.3.r.r.r.r.r.r.r.r.r.r.r.r.r.r.r.<.<.8.8.8.8.8.<.9.9.8.<.<.8.9.9.<.<.<.<.<.<.<.<.<.<.<.<.<.<.<.<.u.1.<.<.1.1.f.f.1.1.1.1.1.1.1.1.<.<.<.<.9.9.1.1.$.$.<.<.<.<.<.<.<.<.<.<.<.<.<.<.<.<.1.1.<.1.1.1.<.<.<.1.1.<.<.<.<.<.1.1.1.1.1.<.<.r.r.r.8.8.8.8.r.r.r.r.r.r.r.r.<.<.<.<.<.<.,.,.<.<.<.<.,.:.:.:.-.-.-.,.-.-.:. .`  .{ ,.r.r.8.8.<.<.<.<.<.<.<.<.<.<.<.<.<.<.<.<.<.<.<.<.<.<.9.1.<.<.9.9.9.<.:.' <.<.<.:.:.:.:.:.<.<.<.<.<.<.<.<.<.:.<.<.<.:.:.:.<.<.<.<.:.:.:.:.",
":.:.:.:.:.:.:.:.:.:.:.:.:.:.:.:.:.:.<.<.<.<.<.<.<.<.<.<.<.<.<.<.<.<.<.<.<.<.<.<.8.<.,.,.<.8.9.f.d.f.8.8.8.8.f.f.8.8.f.d.d.d.d.f.f.f.f.<.<.<.<.<.f.f.f.f.f.f.f.<.1.1.1.1.1.1.u.u.1.1.1.1.1.<.<.<.1.1.<.<.<.<.<.<.<.<.<.<.<.<.<.<.<.<.<.<.<.<.<.u.<.<.<.<.<.<.<.<.<.<.<.<.<.<.<.<.<.<.<.<.<.<.<.<.<.<.<.<.<.<.<.<.<.<.<.<.f.f.1.<.<.<.<.<.<.<.<.<.<.:.:.:.:.:.<.<.g.T. Xg.' ` ' ' <.1.9.1.1.<.<.9.1.<.<.<.<.<.<.1.<.<.<.<.<.<.<.<.1.1.<.<.<.<.<.<.$.<.<.<.%.%.$.$.<.<.<.$.$.$.$.<.' $.$.$.<.<.<.<.$.<.<.<.<.<.<.<.<.<.<.<.<.<.<.<.<.<.<.<.<.<.<.<.<.<.9.9.9.9.<.<.1.1.1.1.1.1.1.1.9.9.9.9.1.1.1.1.-.r.t.w.Z.w.w.r.r.r.r.r.r.r.r.r.<.8.8.8.8.8.<.<.8.8.8.8.9.9.9.9.<.<.<.<.<.<.<.<.<.<.<.<.<.<.<.<.1.<.<.<.1.1.1.1.<.<.<.<.1.1.1.1.<.<.<.<.<.<.<.<.<.<.<.<.1.1.1.1.%.$.<.<.<.<.1.1.<.<.1.1.1.1.1.1.<.<.1.1.1.1.<.<.<.<.<.<.<.<.1.<.r.r.r.r.8.8.8.8.<.<.<.<.<.<.<.<.,.<.<.<.<.,.:.:.<.<.,.<.,.,.,.,.:.-.,.,.-.{ ` I { { :.,.,.,.,.,.<.<.<.<.<.<.<.<.<.<.<.<.:.' <.<.<.<.<.<.<.f.<.' ` ` ` :.1.f.f.f.9.<.:.:.<.<.:.$.<.<.<.<.:.:.:.<.:.:.:.:.:.:.:.:.<.<.<.<.:.<.:.:.",
":.:.$.$.$.$.:.:.:.:.:.:.$.$.$.$.:.:.:.<.<.<.<.<.' :.<.<.<.<.<.<.,.,.,.,.<.<.<.<.8.8.,.,.,.8.f.d.8.8.8.8.8.8.8.f.<.8.8.f.d.d.f.p.f.<.' ` K ` :.<.,.<.f.f.f.f.f.9.9.1.1.1.1.1.u.u.1.1.1.1.u.1.<.<.<.<.<.<.<.<.<.<.<.<.<.<.<.<.<.<.<.1.1.<.<.u.f.1.<.<.<.<.<.<.<.<.<.<.<.<.<.<.<.<.<.<.<.<.<.<.<.<.<.<.<.<.<.<.<.<.<.<.$.<.1.<.<.$.9.1.1.<.<.<.<.<.<.<.<.<.<.<.<.<.Y.g.:.` ' f.f.9.<.9.f.f.9.<.9.f.<.<.<.<.<.<.<.<.<.<.<.<.<.<.<.<.1.1.<.<.<.<.<.<.$.$.$.$.$.$.$.` <.<.<.$.$.$.$.<.<.<.<.<.<.<.$.$.<.<.<.<.<.<.<.1.<.<.<.<.<.<.<.<.<.<.<.<.<.<.<.<.<.<.9.9.9.9.<.<.1.1.1.1.1.1.1.1.9.9.9.9.t.t.1.1.9.w.r.r.r.r.r.r.r.r.r.r.r.r.r.r.8.8.8.8.8.<.<.<.,.<.<.8.9.9.<.<.<.<.<.<.<.<.<.<.9.9.9.<.<.<.<.<.<.<.<.<.<.<.<.<.<.<.<.<.<.<.<.<.<.<.<.<.<.<.:.:.<.<.<.<.<.<.<.<.<.<.<.<.<.1.1.1.<.<.<.1.1.1.1.1.<.<.1.1.1.1.<.<.<.<.<.<.<.<.<.<.r.r.r.r.8.8.8.8.<.<.<.<.<.<.<.<.,.,.<.<.,.,.:.:.:.:.:.:.,.,.,.,.,.,.,.,.-.-. . .8.r.<.,.-.-.{ ` <.:.:.:.:.<.<.<.<.<.<.<.:.:.<.<.:.<.<.:.<.9.<.` J H H K ' <.<.<.<.<.:.<.<.<.<.<.<.<.<.<.:.:.:.:.:.:.:.:.:.:.:.$.:.:.:.:.:.<.:.:.",
":.$.$.$.:.:.$.:.' ' ' ' ' ' ' ' ' ' ' ' ' ' ' ' ' :.:.:.<.<.<.:.,.,.,.,.,.,.,.<.<.<.,.,.<.8.9.9.8.8.f.8.8.<.8.8.<.8.8.f.d.9.f.8.d.8.{ ` ` { 8.f.{ ,.f.8.8.f.d.9.9.9.9.<.9.f.f.f.9.f.f.f.f.9.<.<.<.<.<.<.<.<.<.<.<.<.<.<.<.<.<.<.<.<.u.<.<.u.u.<.<.<.<.<.<.<.<.<.:.:.:.:.:.<.<.<.<.<.<.<.<.<.<.<.<.<.<.<.<.<.<.<.<.<.<.<.<.<.<.<.f.9.9.1.1.1.<.<.<.<.1.<.<.1.<.<.I <.<.I :.F.F.<.<.9.9.9.1.<.1.9.9.9.9.9.9.9.9.9.9.8.1.<.9.9.9.1.1.1.1.1.1.<.1.<.1.1.1.1.<.<.<.<.<.<.<.:.<.<.<.<.<.<.:.$.' ` ` ` <.<.<.<.<.<.<.<.<.<.<.<.<.<.<.<.1.<.<.<.<.<.<.<.<.<.<.1.1.1.1.1.1.1.1.1.1.1.1.1.u.u.1.1.1.1.1.1.f.w.8.<.,.<.<.8.<.<.<.<.<.<.<.<.8.<.<.8.<.<.<.<.,.<.<.9.8.8.8.<.<.<.<.<.<.<.<.<.9.9.<.1.<.<.<.<.:.:.:.<.:.:.:.:.<.:.:.:.:.:.:.:.:.,.,.<.<.<.<.<.<.<.<.<.<.%.%.%.1.1.<.<.<.<.t.1.<.<.<.<.<.1.1.1.<.<.1.1.1.1.<.<.<.<.<.<.<.<.<.<.r.r.r.r.t.t.r.r.<.<.<.<.<.<.<.<.:.:.:.:.:.:.:.:.$.:.:.:.:.:.:.:.<.<.-.:.:.-.<.<.<.<.<.<.<.<.<.<.<.:.$.:.:.<.<.<.<.<.<.<.<.<.<.<.$.<.1.:.:.<.:.` t.t.<.1.t.t.<.:.` :.<.<.<.<.<.<.:.:.:.:.:.:.:.:.:.:.:.:.:.:.$.$.$.:.:.:.:.:.:.:.",
"$.$.$.$.:.:.:.:.' ' ' ' ' ' ' ' ' ' ' ' ' ' ' $.' :.:.:.<.<.<.:.,.,.,.,.,.,.,.,.<.<.,.,.<.8.8.9.8.f.d.d.8.<.<.8.<.8.8.f.f.f.f.8.f.8.8.8.8.f.8.8.` ,.8.8.<.f.d.8.9.9.9.<.f.f.f.f.f.f.f.f.f.9.9.<.<.<.<.<.<.<.<.<.<.<.<.<.<.<.<.<.' <.<.<.<.<.<.<.<.<.<.<.<.<.<.$.$.$.:.:.:.<.<.<.:.<.<.<.<.<.<.:.<.<.<.<.<.<.<.<.<.9.9.<.<.:.<.9.9.9.9.9.t.1.1.1.<.1.9.1.1.t.1.<.9.<.<.9.9.<.' ` <.<.<.<.<.<.<.<.9.9.<.<.1.1.9.9.9.8.<.1.9.9.9.9.1.1.1.1.1.1.1.1.1.1.1.1.1.1.<.<.<.<.<.:.<.<.:.<.<.<.:.:.:.:.:.:.<.<.<.<.<.<.<.<.<.<.<.<.<.<.<.1.1.1.<.<.<.<.<.<.<.<.<.1.1.1.1.1.1.1.1.1.1.1.1.1.1.1.1.1.1.1.1.1.<.r.8.9.9.8.8.<.<.<.<.<.<.<.<.<.<.8.<.<.8.<.<.<.<.8.9.9.9.9.9.9.<.<.<.<.<.<.<.<.<.<.<.<.<.<.<.9.:.:.<.<.:.:.:.<.:.:.:.:.:.:.:.:.<.<.8.8.<.<.<.<.1.1.<.<.<.<.<.<.1.1.1.1.<.<.1.1.<.<.<.<.<.<.1.1.<.<.1.1.1.1.<.<.<.<.<.<.<.<.1.1.r.r.r.r.t.t.r.r.<.<.<.<.<.<.<.<.:.<.<.<.<.:.:.:.:.:.:.:.:.:.:.:.<.-.:.:.:.-.<.t.<.<.<.<.<.<.t.t.<.<.<.:.:.:.:.:.<.<.<.<.1.9.<.<.:.<.<.1.<.<.:.:.F.D.D.D.D.l.9.<.` :.1.1.<.:.:.:.:.:.:.:.:.:.$.:.:.:.:.:.:.:.:.$.$.$.:.:.:.:.:.$.",
":.:.:.:.:.:.:.:.{ :.{ { { { { { :.:.,.,.,.,.,.,.{ { { <.<.<.<.<.-.-.-.,.,.,.,.,.<.<.r.r.r.8.8.8.8.d.Z.Z.d.8.8.8.8.8.q.d.d.d.w.q.8.8.8.8.d.f.8.,.` <.d.8.<.f.d.8.9.9.<.<.9.f.9.f.f.f.f.f.f.f.9.9.<.<.<.<.<.<.<.<.<.<.<.<.<.<.<.<.$.$.<.<.<.<.<.<.1.<.<.<.<.<.$.$.:.:.:.:.:.:.:.:.:.<.<.<.<.<.<.:.<.<.<.<.<.<.<.<.<.<.<.<.<.<.<.9.t.t.t.t.t.t.t.t.<.9.9.t.t.t.t.<.D.:.` 9.d.:.:.d.<.<.8.<.<.<.<.8.<.<.<.<.<.<.<.<.<.<.<.<.1.1.1.1.1.1.1.1.1.1.1.1.<.<.<.<.<.<.<.<.<.<.:.:.:.:.:.<.<.<.<.<.<.<.<.<.<.<.<.<.<.<.<.:.<.<.<.<.<.<.<.<.1.1.1.<.1.<.1.1.<.1.1.1.1.1.1.1.1.1.<.<.<.<.<.<.<.<.<.<.<.<.<.<.<.<.<.9.9.9.8.<.<.<.<.<.<.<.<.<.<.<.8.8.8.8.8.<.8.9.9.9.9.9.9.8.8.8.8.8.8.8.8.8.<.<.<.<.<.<.<.r.:.:.<.<.:.:.:.<.:.:.:.:.:.:.:.:.<.8.8.<.<.<.<.<.<.1.1.1.<.<.<.1.<.<.<.<.<.<.<.<.<.<.<.<.<.<.<.<.1.1.1.1.1.1.1.1.<.<.1.<.1.1.1.1.<.<.1.1.1.1.<.<.<.<.<.<.<.<.<.<.:.:.<.<.<.:.:.:.<.<.<.:.:.:.:.:.:.:.:.:.:.:.<.1.1.1.<.:.:.:.:.:.<.<.,.,.,.:.:.:.,.,.,.<.<.r.<.<.t.:.:.t.9.<.<.t.<.<.-.-.<.<.<.<.<.<.<.<.:.:.:.:.:.:.:.:.:.:.:.:.:.:.:.:.:.:.:.:.:.:.:.:.:.:.:.:.",
"{ { { { :.:.:.{ :.:.:.:.:.:.:.:.{ { { { { <.<.<.{ { <.<.<.<.<.<.-.-.-.-.,.,.,.,.,.<.r.r.8.8.8.8.d.Z.D.D.Z.q.8.8.8.8.q.d.d.d.w.w.Z.d.<.<.8.8.8.<.' 8.g.f.<.f.f.<.f.f.<.<.9.f.f.f.f.f.f.f.f.f.f.9.<.<.<.<.<.<.<.<.<.<.<.<.<.<.<.<.<.$.<.<.1.<.<.f.1.<.<.<.<.$.$.$.<.:.:.:.:.:.:.:.:.:.<.<.<.<.:.:.<.<.<.<.<.<.<.<.:.<.<.9.9.9.9.9.t.r.r.r.r.r.t.t.-.t.9.r.t.t.r.:. .f.D.<.` :.<.:.<.<.8.<.8.<.8.9.<.<.<.<.<.<.<.<.<.<.<.<.<.<.<.<.1.1.1.1.1.1.1.1.$.$.<.<.<.<.<.<.<.<.:.$.:.$.:.<.<.<.<.<.<.$.:.$.<.<.<.<.<.<.<.$.9.1.<.<.<.<.<.<.1.1.1.<.<.1.1.1.<.<.1.1.1.1.1.1.1.1.<.<.<.<.<.<.<.<.<.<.<.<.<.<.<.<.<.<.,.<.8.<.8.<.8.<.8.<.8.8.<.<.r.8.8.8.8.8.9.9.9.8.8.8.8.8.8.8.8.8.8.8.8.8.<.<.<.,.,.:.:.:.:.:.:.:.$.$.:.:.:.:.:.:.:.:.<.<.` ` { :.<.<.<.<.<.<.<.<.<.<.<.<.$.:.-.<.<.<.<.<.<.<.<.<.<.<.<.<.1.1.<.1.<.1.<.1.<.1.<.1.<.1.<.1.<.<.<.1.1.1.<.<.<.<.<.<.<.<.<.<.:.:.:.:.:.:.:.$.1.1.1.<.<.<.<.<.:.:.:.<.<.<.<.<.<.<.:.:.:.:.:.:.:.:.,.,.,.,.,.,.{ :.<.<.<.-.<.8.w.I U <.t.r.<.t.r.t.t.<.<.<.t.9.t.<. .` :.:.:.:.:.:.:.:.:.:.:.:.:.:.:.:.:.:.:.:.:.:.:.:.:.:.:. .",
":.:.:.$.' ' :.:.` ' :.:.' ` ` `  . .{ { :.:.:.:.:.:.:.:.:.:.:.:.-.-.,.-.-.-.,.r.,.r.8.9.w.8.8.r.d.d.Z.D.D.A.Z.q.d.d.8.8.8.8.q.d.d.d.d.d.f.8.<.<.f.f.f.f.f.8.8.8.8.8.8.8.8.f.f.f.8.8.8.8.8.8.<.<.<.<.<.<.<.<.<.<.<.<.<.<.<.<.:.<.<.<.:.:.:.<.<.1.<.<.<.<.<.<.:.:.<.:.:.:.:.:.<.,.,.,.<.<.,.,.,.,.<.<.<.<.:.:.:.:.` ' :.<.<.<.<.<.<.<.<.<.9.9.9.9.9.<.<.<.<.<.<.<.1.<.<.:.:.$.:.<.<.<.<.<.<.<.<.<.1.<.<.<.<.<.<.<.<.<.<.<.<.<.<.<.<.1.1.1.1.1.<.<.1.<.<.<.<.<.<.<.<.<.<.<.<.%.$.$.<.<.<.<.<.%.$.$.<.$.<.1.<.) K ) K $.1.<.<.1.1.<.<.<.<.1.1.1.<.<.<.<.<.<.<.1.1.1.1.1.1.<.<.<.1.1.<.<.<.<.<.<.8.8.<.r.8.8.8.<.r.,.r.<.r.<.r.<.r.8.,.-.-.-.,.r.r.r.r.r.r.,.,.-.-.-.,.<.8.<.,.:.,.<.:.,.,.<.<.<.,.,.<.,.:.:.:.:.:.{ :.:.:.:.,.,.` I J I ` :.,.:.{ ` { <.9.f.9.<.<.<.:.,.,.:.,.8.<.<.:.$.$.$.<.<.<.$.<.<.<.<.<.<.<.<.<.<.<.<.<.<.<.<.<.<.<.<.<.<.<.<.' <.<.9.9.<.<.' ' :.:.:.:.:.<.<.<.<.<.<.<.<.:.:.<.<.<.<.<.<.<.<.<.<.<.<.<.:.:.:.' ' :.:.:.:.:.:.:.' ` ' <.<.' ` J I { ,.8.9.<.{ :.:.:.:.<.d.9.<.<.,.<.:.:.:.{ { ' :.,.,.:.{ { :.' :.<.<.:.:.:.<.:.:.:.:.' ' { ' ",
":.<.<.:.:.' :.:.:.:.:.:.' ' ' '  . .{ { :.:.:.:.:.:.:.,.,.,.,.,.-.,.,.,.-.,.r.r.<.r.8.w.w.8.8.r.d.Z.D.D.Z.Z.d.d.d.q.8.8.8.8.q.q.8.8.8.9.8.<.<.,.8.p.8.8.8.8.8.8.8.8.8.8.8.8.8.8.<.<.<.,.,.,.,.,.<.<.<.<.<.<.<.<.<.<.<.<.<.<.:.:.<.<.:.:.:.<.<.<.<.<.<.<.<.<.:.:.<.:.:.:.:.:.<.<.,.,.,.<.,.,.,.,.<.<.<.<.<.<.<.<.:.<.<.<.<.<.<.<.<.<.<.9.9.1.1.<.<.<.<.<.<.<.<.<.:.:.:.$.$.$.:.:.:.:.:.:.:.:.<.:.<.<.<.<.<.<.<.<.<.<.<.<.<.<.<.<.<.<.<.<.<.<.<.<.<.<.<.$.$.$.$.$.<.<.1.1.<.<.%.%.%.%.%.%.<.<.%.%.$.$.<.%.) J K ) J $.1.1.<.1.1.u.<.<.<.<.1.1.<.1.<.<.<.1.1.1.1.1.u.1.1.1.1.1.9.9.<.<.<.<.<.r.8.8.,.r.r.r.r.r.,.,.r.r.r.r.r.r.r.r.r.,.-.-.,.r.r.,.r.r.,.,.,.,.<.r.,.<.8.<.<.,.,.<.,.,.<.<.<.,.,.:.,.,.:.:.<.<.<.,.{ :.<.<.,.:.{ { <.<.8.8.8.<.,.,.<.,.:.:.,.<.<.8.{ -.-. .:.,.<.' <.<.$.$.$.$.$.$.<.<.<.<.<.<.<.<.<.<.<.<.<.<.<.<.<.<.<.<.<.<.<.<.<.<.<.<.<.<.<.<.' :.:.<.:.:.<.<.<.<.<.:.:.<.<.<.<.<.<.<.<.<.<.<.<.<.<.<.<.<.:.:.:.:.:.<.:.<.<.<.<.:.' :.<.<.:.` I :.8.8.,.:.:.{ { <.9.9.d.d.9.<.{ { { { :.:.:.:.,.,.,.:.:.{ { ` ' :.<.<.:.:.$.<.:.:.:.' ' ' ' ` ",
":.<.<.<.:.:.' ' <.<.<.<.' ' ' :.' { { { :.:.:.:.:.:.:.:.:.:.:.:.-.-.,.-.-.-.,.r.r.8.8.w.w.w.9.8.d.Z.D.Z.d.8.8.d.8.8.8.8.8.8.8.8.,.,.,.,.,.<.<.<.8.8.8.<.<.<.<.,.,.,.<.8.8.<.<.,.,.,.<.,.<.<.<.<.<.<.<.<.<.<.<.<.:.:.<.:.:.:.:.:.<.<.:.:.<.<.<.<.<.<.<.<.<.<.<.<.<.:.:.{ { :.:.<.<.,.<.,.,.,.,.<.<.<.<.<.<.<.<.<.:.:.<.<.<.<.<.<.<.<.<.<.<.<.<.<.:.:.<.<.<.<.<.<.:.:.:.$.$.$.$.:.<.:.:.:.:.<.<.<.<.<.<.<.<.<.<.<.<.<.<.<.<.<.<.<.<.<.$.$.$.$.$.$.<.<.<.<.<.<.<.<.<.<.<.1.1.<.<.%.$.$.$.%.<.<.<.<.$.<.1.<.$.) %.f.u.l.F.l.<.$.<.1.1.1.1.1.1.1.1.1.1.1.1.1.1.1.1.1.1.1.1.1.1.1.<.1.<.<.<.<.<.<.r.r.<.<.,.,.r.r.r.r.r.r.r.r.r.r.r.,.r.r.,.,.,.r.,.,.,.,.,.,.<.r.r.r.,.<.8.8.<.,.<.<.,.,.<.,.,.,.:.:.,.,.:.:.<.<.<.<.{ :.<.,.{ ` { :.d.9.<.,.<.:.,.,.8.<.{ { <.<.<.,.-.<.<.,.<.8.<.:.<.<.<.$.' ` $.<.<.<.<.<.<.<.<.<.<.<.<.<.<.<.<.<.<.<.<.<.<.<.<.<.<.<.<.<.<.<.<.<.$.:.<.<.<.<.<.<.<.<.:.' :.<.<.<.<.<.<.<.<.<.<.<.<.<.<.<.<.<.<.:.:.:.:.:.:.<.<.:.<.<.:.<.<.<.:.` ,.f.D.f.<.{ :.<.<.9.f.8.{ ` ` I { { { { :.:.:.:.:.{ { { :.{ ` I $.:.<.<.:.:.$.$.:.' ' ' ' ` ' ` ",
"<.<.<.<.<.:.' ' <.<.<.<.:.' :.:.'  .{ { :.:.:.:.:.:.:.:.:.:.:.:.{ -.-.-.{ -.,.,.r.8.8.w.w.9.8.8.8.w.d.8.,.,.4.8.,.,.,.4.4.4.,.,.,.,.,.,.,.,.<.<.,.,.,.,.<.<.<...:.<.,.<.<.<.,.<.<.<.<.<.<.<.{ { <.<.<.<.:.:.:.:.<.:.:.:.:.:.:.:.<.<.:.<.<.<.<.<.<.<.<.<.<.:.<.<.<.:.:.{ { :.:.:.<.,.<.,.,.,.,.<.:.:.:.:.:.:.<.<.:.:.:.:.:.<.<.<.<.<.<.<.<.<.:.:.' :.<.<.<.<.<.<.$.:.:.$.$.$.:.<.<.<.<.:.<.1.1.f.<.<.<.<.<.<.<.<.$.$.<.<.<.<.<.<.<.$.) K K K K ) <.<.<.<.<.<.<.<.$.$.<.<.<.<.%.$.%.%.%.%.<.<.<.<.$.<.1.1.<.1.z.T.G.T.G.l.1.$.$.<.<.<.<.<.<.<.<.<.1.1.1.1.1.<.<.<.<.<.<.1.1.<.<.<.<.<.<.,.<.<.<.<.,.<.<.,.,.r.r.r.r.r.,.,.,.,.,.,.8.r.,.<.,.r.,.,.,.,.,.-.-.,.<.,.,.,.<.<.<.,.,.:.,.,.,.,.,.:.:.:.,.:.:.:.,.,.,.,.:.:.:.{ ` ` ` ` ,.:.{ ` ` ' :.:.:.,.<.<.<.,.` I { ,.,.,.<.9.<.<.<.9.1.<.$.$.<.<.<.<.<.<.<.<.<.<.<.<.<.<.<.<.<.<.<.<.<.<.<.<.<.<.:.:.' ' ' ' :.:.:.<.<.<.<.<.<.<.<.<.<.:.<.<.<.<.<.<.<.<.<.<.<.<.<.<.<.<.<.:.:.:.' ' ' ' ' ' ' ' <.:.:.:.<.<.:.' <.f.D.d.:.{ :.<.8.9.,.I J J I I ,.,.:.:.:.' ' { ' ` { <.8.8.:.` ' $.:.:.:.:.:.:.:.:.' $.' ' ` ` ",
"<.<.<.<.<.:.' ` <.<.<.<.:.$.:.:.' ' { { :.:.:.:.<.,.,.,.:.:.:.:.-.-.-.-.-.-.<.r.r.r.8.8.8.r.r.r.,.,.,.,.,.,.,.,.,.,.,.,.4.4.4.,.<.,.,.,.<.,.,.,.,.,.<.<.<...<.{ ' { <.<.,.<.{ { <.<.<.<.<.<.<.<.:.:.:.:.:.:.:.:.<.<.<.:.:.<.<.<.<.<.<.<.<.<.<.<.<.<.<.<.:.:.<.<.<.:.:.{ :.:.:.:.,.,.,.,.,.<.,.,.:.:.:.:.<.<.<.<.<.<.<.<.<.<.<.<.<.<.<.<.<.:.:.:.' :.:.<.<.<.<.:.:.<.<.<.<.<.<.<.<.<.<.<.<.<.f.f.<.<.<.<.<.<.<.<.<.<.<.<.<.<.<.<.<.:.' ` ` ` ' :.:.:.:.:.:.:.:.$.$.$.<.<.<.<.<.<.<.<.<.<.<.<.<.:.$.$.$.$.<.f.l.F.g.f.1.<.<.<.<.<.<.<.<.<.<.<.<.<.<.<.<.<.<.<.<.<.<.<.<.<.<.<.<.<.<.<.,.<.,.,.,.,.r.r.,.,.,.,.r.r.,.,.,.,.,.,.,.,.8.r.,.,.<.<.,.-.,.,.-.-.:.:.{ { :.:.:.,.,.:.{ { { { { { :.:.:.,.,.:.{ { { :.{ { ,.{ ` ` ` ` ` ` :.{ { { :.:.:.,.` <.8.,.` I J f J I I I ` :.{ ` :.<.9.<.<.$.$.<.<.<.<.<.<.<.<.<.$.$.<.<.<.<.<.<.:.:.:.:.:.:.:.:.` ' $.:.:.' ` ` :.:.<.<.<.<.<.<.<.<.<.<.<.<.<.<.:.:.:.:.<.<.<.<.:.:.:.$.$.$.$.' ' $.` ' ' ' ` ` ' ' ' :.:.:.:.$.` :.,.{ ` ` ' { ,.:.` I ` ,.8.8.:.:.{ { ` ` ` ` { { ,.9.f.f.<.{ ` ` ` :.:.<.<.<.:.$.:.:.' ' ' ' ",
":.<.<.<.:.:.' ' <.<.<.<.$.' $.:.' ' :.:.:.:.:.:.8.<.<.<.<.,.,.,.,.,.r.<.,.<.r.9.r.,.,.,.,.,.,.,.,.,...{ ,.4.,.{ ,.,.,.4.4.8.8.8.8.<.,.,.,.,.,.,.,.,.,.,.,.<.<...{ { ..<.<.<.{ { ....<.<.<.<...<.:.:.:.:.:.:.:.:.<.<.<.<.<.<.<.<.<.<.<.<.<.<.<.:.<.<.<.:.:.:.<.<.,.:.:.{ ' { :.:.,.:.:.:.:.:.:.<.:.:.<.<.<.<.<.<.<.<.<.<.<.<.<.<.<.<.<.<.<.<.<.<.:.:.:.<.<.<.:.:.<.<.<.<.<.<.<.<.$.$.$.:.<.<.<.8.<.<.<.<.<.<.<.<.<.<.<.<.<.<.<.<.<.<.<.<.<.<.9.f.<.<.<.<.<.<.<.:.<.<.<.<.<.<.<.<.<.<.<.<.<.<.:.:.<.<.$.` $.<.<.$.1.<.$.$.<.<.<.<.$.$.<.<.<.<.$.<.<.<.<.<.<.<.<.<.<.<.<.<.<.<.<.<.<.,.<.:.:.:.-.-.,.,.,.,.,.,.,.-.-.-.-.-.-.,.,.,.8.r.,.,.,.,.-.-.,.-.-.{  . . . .:.:.{ :.,.:.{ ` ` ` ` ` ` { :.:.:.{ ` ` ` ` ` ` :.` ` ` { :.:.` :.:.:.:.:.:.{ { ` :.:.I H H H Z Z H H H J I ` I ` ' <.<.<.$.' $.' ' ' ' ' ' ' ' $.$.$.$.$.<.<.<.:.:.:.$.$.$.$.:.` $.:.<.<.:.' ` ' :.<.<.<.<.:.<.<.<.<.<.<.<.:.$.:.:.:.$.:.:.:.:.' ' ' ' ' ' ' ' :.:.:.:.' ' ' ' ` ` ` ' ' ' ' ' ` ` ` I ` { { ` { { { ' <.d.d.8.` ` ` ` ` ` ` ` ` ` :.<.8.<.{ ` ` ` ` ' <.<.<.:.:.:.:.:.:.$.$.$.",
":.,.-.:.:.{ :.:.:.:.-.:.:.{ ' ' { { :.:.:.-.-.-.r.r.r.r.,.,.,.,.-.,.4.4.,.,.r.8.,.-.-.{ { { -.-.....,...{ { { { ,.........4.4.8.,.,.,.,.,.,.,.,.,.,.,.,.,.,.{ { { { { { { ....{ { { { { { { ....:.:.:.:.:.:.:.:.:.:.:.:.:.<.<.<.:.:.-.,.:.:.-.:.,.,.<.:.:.:.,.,.,.,.-.{ { { { { -.-.:.:.:.-.-.:.<.<.,.,.<.<.<.<.:.:.:.:.:.:.{ { :.:.:.:.:.,.,.<.-.,.:.:.:.:.:.:.:.<.<.<.<.<.<.<.:.:.:.:.<.<.<.<.<.<.<.<.<.<.<.<.:.<.<.<.<.<.<.<.<.<.<.<.<.1.9.9.<.<.<.<.<.<.<.<.<.<.$.$.$.<.<.1.<.<.<.<.<.<.<.<.<.<.<.<.<.<.<.` 1.<.<.1.<.$.$.<.$.$.$.$.<.:.<.<.$.$.$.<.<.<.<.<.<.<.<.<.<.<.<.<.,.,.,.-.-.-.-.-.-.-.,.4.-.{ {  .{ { { { -.,.,.,.4.,.-.{ -.-.-.-.{ -.{ { { { { { { { { -.,.,.{ ` ` ` ` ` `  .{ :.{ ` ` `  . . .` {  .` ` ` ` ` I  . . . .`  .`  . .{ I Z Z J I P J I J J I ` ` ` ` ` ` { :.:.$.' ' ' { ' { { { { { { { { { { { { { { { { :.{ { { ' :.:.,.-.:.{  .{ :.<.,.<.:.:.:.,.-.,.,.,.:.:.{ :.:.:.:.:.:.:.,.{ { { :.:.' { { :.:.:.:.{  . . .` { { { { ` ` `  . . .`  .-.-.{ { :.:. .{ ,.,.-.` ` ` ` ` `  . .I I I ` ` ` ` I :.{  .{ :.<.:.' ,.,.,.-.<.,.<.:.",
":.:.:.:.{ { :.:.` { :.:.{ ` ` ` { { :.:.:.-.-.-.,.,.,.-.-.-.{ { { { { { { { ,.4.-.-.{ { { { { { [ ..4.,. ._ `  .{ {  .[  .{ ..4.,.,.,.,.,.,.,.,.,.{ { { { { [ [ { { { { { { { { { { { { { { { { :.:.:.:.:.:.:.:.{ { { :.:.:.:.:.:.:.-.-.:.:.:.:.<.<.:.:.:.:.,.,.,.,.-.{ { { { { -.{ { { { :.:.-.:.:.:.:.,.,.,.<.,.,.<.<.<.,.:.{ ` ` ` ` ` { :.,.<.,.,.:.:.:.:.,.:.<.<.<.<.:.:.:.<.<.<.<.<.<.:.:.<.<.<.<.<.<.<.<.<.<.<.<.<.<.<.<.<.<.<.<.<.<.:.$.<.<.<.<.<.<.<.:.<.<.$.$.$.$.<.<.<.<.<.<.<.<.<.<.) $.1.<.<.1.<.<.<.<.1.1.1.$.$.1.$.$.$.$.$.:.:.:.$.$.<.<.<.<.<.<.<.<.<.:.:.:.,.,.,.,.-.-.-.{ :.:.{ { -.-.{  .[ I  . .{ { -.,.,.4.4.-.{ { { -.-.-.{ { { { { { -.-.-.{ -.,.r.,.{ ` ` ` I I I ` `  .` ` ` `  .{ {  . .{ { ` P H H J ` ` ` I ` `  .{ `  .I Z J  .{ I ` ` ` I I ` :.` ` ` ` ` { :.,.:.{ { { { { { { { { { { { { { ' ' { { { ' ' ' { { ' ' { { { {  . .` { <.<.:.:.{ { :.:.:.{ { { :.:.:.:.:.<.,.,.,.,.{ { { :.:.:.{ { { {  .`  .` ` ` :.:.:.{ ` ` ` ` `  .{ ` ` { {  .`  . .I I  .,.8.-.{ {  . . . . .I I I I I ` { -.<.:.{ { :.:.' ` <.<.,.,.,.,.,.,.",
"<.,.:.{ ` ` ` ` ` { { :.{ { ` ` { { { { { { :.:.{ { :.-.-.,.,.<. . .{ { { { ,.,.{ { { { { { { { ..{ { { { { { .. . . . . . . . .,.,.,...{ { { { ,.{ {  .{ { { { { { { { { { ,.,.{ { { { { { { { ,.:.:.:.:.:.{ ` :.:.:.:.{ { { { { { { { :.{ { { :.{ :.:.,.,.<.<.{  . . . . . . .:.-.-.:. .`  .{ ` { { { { { { { ,.:.{ :.<.<.:.{ ,.,.:.:.' ` ` ` :.{ ' ' ` ` ` ` { { { { { { { :.{ { { ....{ <.<.<.<.:.{ <.<.<.<.,.<.<.<.<.<.<.<.<.:.:.' :.:.{ { :.{ { { :.:.:.:.J J J J H J I ' <.<.<.<.' ' ` ' :.$.:.:.:.:.:.:.' ' :.:.<.:.:.' ' ' ` ` ' ' ' $.<.<.<.<.<.<.<.<.<.<.:.<.<.,.` I -.-.-.-.{ { { { 4.4.,.-.{ {  . . . . . . . . . . .{ -.-.-.{  .[  . . .[ [ ` I I { { :.{ :. . .` ` ` ` ` ` ` [ ` ` `  . .` `  . .{ -.-.-.{  .` ` I I I ` ` ` `  .I I { r.r.{ ` ` I <.:.I ` 9.<.I I `  .{ -.,.,.:.{ { ,.,.,.<.,.,.{ { { ....<.....` ` ` ` ` { { { :.:.{ { ` ` ` ` { { { { { :.:.:.:.:.:.:.:.:.:.:.:.:.:.<.,.:.{ { ` { { { { { { { ` ` { { { { ` ` :.{ ` { { :.{ ' { ` ` `  . .[ I I ` ` I ` -.,.{ -.-.-.{ ` I I I I P H J I `  .` ` :.9.8.` J ` 8.:.:.:.,.,.,.,.,.",
"<.,.:.{ ' ` { { { { { :.{ { ` `  . .{ { { { { :. . . .{ { { { {  .{  . .{ { { { { { { { { { { { { { {  . .{ { { { { { { { { { { { { { { { { { { { { { { { [ [ ` I I ` { ,.,.{ {  .{ { { { { { {  .` { { ` ` ' { { ' ' ' { { { { :.:.:.:.:.,.,.,.{ { { :.:.:.:.:.{  . . . . . . .-.,.,.-.{  .{ -. .` { { ' { :.{ { { { ' ` ` ` ` :.:.{ { ` ` ` ` ` ` ` ` ` ` ` ` ` ` ' ' ' ' ' { ` ` ' ' ' { { { { { { { ' ' ' ' { { ' ' { { { { :.:.' { :.:.:.{ <.:.:.{ ' ` ` ` f H J J K I ' <.` ` ' $.:.' ` ` :.:.' ` ` ) ` ` ' :.:.<.<.:.:.:.<.:.:.' ` ' :.:.9.<.<.<.:.:.:.:.<.:.:.:.<.,.{ I { { { { { { { { { { { { { {  . . . . . . . . . . . .{ { {  .[ `  .[ [ [ [ ` I I  . .{ :.{ { {  . . . .` ` ` ` ` `  .` ` I I I ` I I I I I ` { -.` ` ` ` ` ` ` `  . .{ ,.,.-.-.,.{ ,.<.{ <.f.8.I ` { { :.{ { :.{ { { ` { <.,.,.{ { { { { { { { { { { { ` ` ` ` ` { {  .` ` ` ` ` ` { { { { :.:.:.{ { :.:.{ { { { ` ` ` ' { :.:.:.:.{ ' ` ` ` ' { ` ` { { { ` ` ` ` ` { ` I I ` {  .` I I ` ` I I I ` ` I ` { -.-.,.,.{ ` I J J P ` I P P I `  .{ ,.` J ` :.:.{ ` :.:.:.,.,.,.,.,.",
",.-.-.{ { { { { :.:.{ {  . .{ {  . . . .{ { { { {  . . .[ [ [  .{ { { { { { { { { { { { { { { { { { { {  .{ { { { { { { { { { { { {  . . . .[ [  . .{ { { [ _ _ J L P [ ....{ [  . . . .{ { { { `  .{  .` `  .{  . .` `  .`  . .`  . .{ :.-.-.-.{ { { { { { { {  . .[ [ [ [  . .{ -.-.{ {  .{ {  . . .{ { { { { { -.,.-.` ` ` { {  . . . . . . . . . . . . . . .` ` ` ` ` ` ` ' ` ` ` ' ' ' ' ' ' ' ` ` ' ' ' ' ' ' ` ` ` ` ' ' ` { { { { :.:.:.<.:.:.{ { ` ` ` J J I ` ` ` ' <.:.' ` ` ' ' ' ` ` ` ` ` ` :.<.<.' :.:.:.<.<.:.:.<.<.:.' ' :.:.:.<.<.:.<.<.<.<.<.,.:.{ :.,.,.{ ` ` ` [ [  . .{ { { { { { { { { { [ [ [ [ [ [  . .[ [ [ [ [ [ [ [ [ [ [ { { [ [ ` [  . .{ { { { {  . .[ [ [ [ [ [ ` [ [ ` I I ` [ [ [ [ ` ` [ [  .[ [ [ [ ` ` I I [ [  .-.4.{ { ,.:.{ { ,.9.d.,.I { { {  . .{ { { <.` I ` { ,.,.{ ,.<.{ { { { { { :.:.{ {  . .` `  . . . . . .` `  . . .{ { :.:.:.{ { { {  . . . .` ` `  .{ { -.,.-.{ { `  . . .{ { {  . . . . . . . .` I I I  .{ [ [ I I I I I I I ` [ ` [ { 4.4.4.4.-.[ I I I I I I P L L P `  .-. .`  .:.-.-.,.-.-.-.-.,.,.,.,.",
"-.-.-.{ :.:.{ { :.:.{  . . .{ {  .[ [  . . . .{ { { { { { { { { { { { { { [ [ [ { { { { { { { { { { { [ { {  .[ { { { { { { { {  . . .[ [ [ [ [  . . .{  . .[ ` _ I P P ` { {  . . . . . . . . . . . . . . . . . . .` ` ` `  . .` `  . . .{ { { :.:.{ { {  . . . .[  .[ [ [  .{ { {  .[ [ [ [  . . . . .{ { { { { -.-.{  .` { -. . . . . . . . .{ { { { :.{ { { ' ' ' { { { { { { { { { { { { { { { { { { { { { { { { ' ' { { { ` ` { :.:.:.:.,.:.:.{ { { { { { J K ` ) ` ` ' :.f.<.` I ` ' ' ` I ` ` ' ' :.:.:.' ` ' :.:.:.' ' ' ' :.:.:.:.:.:.I ' <.<.<.<.<.<.:.{ { { :.:.{ ` ` ` ` [ [ [  .[ { { { { { { { { [ [ [ [ [ [ [  .[ [ [ ! ! ! [ [ ! [ [ [ { {  .[ ` [ [  . .[ [ [  . .[ [ [ [ ` [ I I [ [ [ [ [ [ ` ` [  .{ [ ` I [ [ [ [ [ ` ` ` I ` -.w.w.r.{ { ,.:.:.9.d.<. .I ` ` `  . .{ { { { ` I ` { ,.,...,...{ ` [  .{ { :.:.{ {  . . . . . . . . . . . . . . . .{ { :.:.:.{ { {  . . .` {  .` ` I ` ` `  . . . . . . . .{ {  . . . . . .{ I P I { -. .I [ [ ` ` I I I I I I ` [ { -.{  .[ [  . .[ ` [ [ P I P J D D I [ `  .{ -.{  .-.,.-.-.-.-.-.,.,.,.",
"{ { -.-.-.-.{ { -.:.{  . . . .{ [  . . . . . . .{ { { { -.-.-.-.{ { { { { {  . .{ { { { { { { { { { { {  . .[ [  . .[ [ [ [ {  . . .[  . . . . . . .[ [ [  .{ { ,.{ [ [  .{  .[ [ [ [ [  . . . . .` I `  .{  .`  . . . . . . . .{ { :.:.:.:.{ { :.:.{ { {  . . . . . . .[  .{ {  . .[ [ [ [ [ [  . . . . . .{ {  .` I `  .{  . . . . .{ { { { { { { { { { { { { { { { { { { { { { { { { { { { { { { { { { { { { { { { { ' { { { ` { { { { { :.,.:.:.:.{ { { { { K K I ` ' <.<.9.9.<.` ` ` ' ` ` ` ` ' ' ` K J g ` ` ` ` ` ` ` ` K I ` :.<.:.:.' ` :.<.:.` K I ` { '  . .{ { {  .` ` [ [ ` ` ` I { { { { { { { [ { { { { [ [  . .[ [ [ ! ! ! [ [ ! [ [ [ { { {  .[ [ ` ` I I I I [ [ [ [ [ ` ` ` P I [ [ [ I I I L J L I ` [ [ [ ` ` [ [ [ [ [ [ [ [ 4.Z.Z.Z.w.w.Z.f.Z.D.d.:.` ` I I ` [ { { [ [ { { { ` ` { ,.,.,.<.{ [ [ [ { {  . . . . . . .{  . . . . . . . . . . . . .{ { { :.{ { {  . . .`  .` I I P P P P I I  .{ { {  . .{  . . . . .` ` P P J I `  .` I [ [ [ [ ` ` I ` { ` I [ { { P Z D L I ` ` I I I P I I L D D L [ I P P I :.,.{ I -.-.:.-.-.-.-.,.",
":.:.-.-.-.-.{ { -.:.{ {  . . .` [ [ ` `  . . . .[ [ [  .{ { -.-.{ { { { { { { { { { { { { [ [ [  .{ { { {  .[ [ [ [ [ [ [ [ [ [ [ [ [ [ [ [  . . . .[ [ [ { ..,.,.4.4.4.4... .` [ [ [ [ ` [ [ [ I I I I  . . . . . . . . . . . .{ { { {  . . . .{ :.{ {  . . .` [  .[  .[  .{ { {  . . . .{ {  . . .`  . . . . .` ` I  .-.-.:. . . .{ { { { { {  . . . .` ` ` ` ` ` ' ' ' ' { { { ' ` ` ' ` ` ` { { ' ' { { { { { { ' ' ` ' ' ' ` { { ` ` ` { :.:.:.:.{ ' ` ` ` <.<.<.<.<.1.f.f.` ` ` ' :.' ` J ` ` ' ' ` I J g ` ` ` ` ` ` ` ) J K ` ' :.:.' ` ` ' ` I J J ` <.' '  .{  . .{ {  . .[ [ [ ` ` I { { { { {  .{  .[ [ [ [ [ [ [ [ { [ [ ! ! [ [ [ ! [ [ [ { { [  .[ [ ` I I I I I I [ ` ` ` ` ` ` I I ` I I P L L [ I L J I [ { { ` ` [ [ [ [  . .[ `  .-.r.q.Z.D.Z.D.D.f.,.I I I I I [ [ [ [ ! I  .{ { { { { ..,.,.<.{ { { { { {  . . . . .{ { {  . . . . . .` ` ` ` `  . . . .{ { {  . . . . . . .` ` ` I I I I I I ` { { {  .`  . .` `  . .` ` H I :.{ I P I { [ [  .[ [ ` [ [ -.` I I [ I Z p L I ` [ [ I I L I I ` I L L I  .H I ` `  .{ -.{ -.-.:.:.-.-.-.-.",
":.-.:.-.-.:.{ { :.:.-.{ {  .` ` ` ` [ [ [ [  . .[ [ [ [  . . .{ { { { { { [  . . . .[ [ [ [ [ [  .{ { { { {  .[ [ [ [ [ [ [ [ [ _ ` ` ` [ [ [  .` [ [ [ [  . .{  ...4.4.,.{  .{ [  .[ [ [ ` ` ` I  .{  .I I I  .` ` ` ` ` ` ` ` ` ` ` ` ` ` ` `  .` `  . . . .` [ [ [  . . .{ { {  .[ [  .{ { [  . .` `  . . . . . .{ -.,.,.-.{  . . . . . . . . .` ` ` ` ` I I ` ` ` ` ` ` ` ` ` ` ` ` ` ` _ _ ' ' ' ' ' ' ' ' ' ' ` ` ` ` ` ` ` ` ` I J J I ` ` ` ` ` ` ` ` ` 8.8.<.<.<.<.,.,.I ` ` { { ` ` I I ` ` { { { ` ` ` I ` ` ` ` ` ` I I ` ` ` ` ` ` ` ` I I I { <.9.' ' ' `  . . . . . . . .[ [ [  . .[ [ [  . . . .[ [ [ [ [ [ [ [ [ [ [ [ ! [ [ [ [ [ [ [ [ [ [ [ [ [ ` I I ` [ [ I I I I I I ` ` I I I I P I I  .-. .I I [ [ [ ` [ [  . . . .[ [ [ I I I [ [ { r.,.<.,.` I J I I [ [ ` ` [ [ {  .{ { { { { { { { { { { { { { { { { {  . . . . . . . .` ` ` I I I ` ` ` `  . . . .` ` ` ` [ [ ` `  . . . .{ {  . .` ` ` ` ` ` ` ` ` `  . . . .` ` ` { ,.{ I I ` -.I `  .[ ` I [  .[ I I I I L J L [  .{ { [ ` I I I ` [ ` I I ` [ P -.w.-.I I -.8.:.-.:.:.-.-.-.-.",
":.:.-.-.-.{ {  .{ :.-.-.{  .` ` ` ` ` [ [ [ [ [ { { {  . . . . .[ [ [ [ [ [ [ [  . .[ [ [ [ [ [ { { { { { {  .[ _ _ _ _ Q I Q Q _ _ _ _ _ ` ` ` _ `  . .[ [ ` _ _  .{  ._ I  .,. . .[ [ [ ` ` `  .r.w.,.I H P  .` ` ` ` ` ` ` ` ` ` [  .{ { { { ` ` ` ` [ ` ` ` [ [ [ [  . .{ {  .` I I [  .[ ` [  .` `  . . . .I  .-.,.{  .`  . . .` ` ` ` ` `  . . . .` ` ` ` ` ` ` ` ` ` ` ` ` ` ` ` ` ` _ _ ' { ' { { { { { { ' ` ` ` ` ` ` ` ` ` J H H J ` I I I ` ` ` ` ' J I I ` ` ` I I ,.:.{ ` I I ` { ` ` ` ` ` ` ` ` ` ` ` ` ` ` ` ` ` ` ` ` ` ` ` ` { ` ` :.8.9.<.:.' { {  . .` `  . . . . .{ { { { [ ! [ [ [  . .{ [ [ [ [ [ [ [ [ [ [ [ ! ! ! ! ! [ [ [  .[ [ [ [ [ [ [ ` [ [ { { L I P I I I ` ` [ I I L I [ 4.w.L L I  .{ { [ L  . . . . .[ [ [ { [ [ [ [ I P I P I P Z H I  .[  .` I I ! { 4.q...{ [ { ..,.{ ` { { { { ..,...<.{ { { {  . .` ` ` ` ` I I I I I ` ` ` `  . . . .I I ` ` ` ` ` ` I I ` ` ` ` I I -.{ ` I I I ` ` ` `  .{  . .` I w.-.I P `  .` P I I ` ` I I `  .I I I I I I { w.[ [ [ ` I I I [ I I I I I I ` [ 8.r.{ I I {  .I { :.:.:.-.-.-.-.",
"....{ { { { { { { { { { { { { {  .[ [ [ [ ` I I  . .[ [ ` ` ` [ ` ` ` [ [  . . ._ ` ` [ [ ` ` _ [ { { { { [ [ [ I I I I [ [ I I L P I I [ I I I { [ [ [ [ [ [ I { { [ [ ` [  . .P  .{ [ I [  .[ I ` I I [ {  .I  . .[ I I I [ { ` [  . .{ [ [ I [ [ [ ` [ [ [ [  .[ [ [ { { { { [ I I I I I  .{ { {  . . . . .[ ` `  . .{ { ` ` ` ` ` { { { [ ` { { { [ [ ` ` ` ` ` ` ` ` ` ' { { { ` ` ` ` ' ` ` ` ` ' ` ` ` ' ` ` ` ` ` ` ` ` ` ` ` I I ` ` ` I I I ` ` I I I I I I I I I ` ` ` ` I J J J J I H J I I ` ` I I ` ` ` ` I I I ` I I I _ ` ` ` I ` ` ` ` ` ` ` ` { { { {  .[ [ [ [ [ [ [ [ [ [ [ [ [ [ ! ! ! ! ! [ [ [ I I I I I I I I I I I ` ` I I ` [ [ [ I I I ! ! P L L P [ I P L P Q Q I L I I I P P L L L L L I L L L L I [ ` I I I I [ [ I I I I ` [ [ [ _ ` ` [ [ _ I L I I I [ [ [ [ [ [ [ [ ` [ ` [ ` [ [ [  .[  .{  . . . . . . . . . .[ `  . . .I I [ [ [ [ [ [ I I [ ` I I I I I ` ` ` I I I I I ` I I  . .` `  .{  . .I I I I I P H P I I I I P H P P I I I ` ` ` ` ` ` ` `  . . .` ` ` [ [  .{ { ` ` ` ` I I I I I ` ` ` [ [ ` ` { { { ,.,...{ { ",
"......{ { { { { { { { { { { { {  .[ [ [ [ ` ` ` [ [ [ ` ` ` [ [  . . .[  . . . .` ` [ [ [ [ ` `  .{ { { [ [ [ [ [ I I I [ [ I I I I I [ [ [ [ [ [ [ [ [ { { { { [ [ [ [ [ [  . .{ -. .I L I ` ` I [  .[  .{ [ I I I ` [ [ ` I I  .[ [ ! [ [ { { [ [ [ [ [ [  .[  .[ [  .{ { { { ` I I I P I I [ { {  . .[ [  .[ ` `  . .` ` ` `  .` ` ` ` [ [ [ { [  .{ ` ` ` ` ` ` ` ` ` ` ' ' { ' ` ` ` ` ` _ ` ` ` ' ` ` ` ' ` ` ` ` ` ` ` ` ` ` ` ` I ` ` ` I I I I I I I I I I I I I I I I J K K I I ` :.,.` ` ` ` ` I I I K I ` I I K I I ` I I ` ` ' ` ` ` ` ` ` ` ` ` `  . . . .[ [ [ [ [ [ [ [ [ [ [ [ [ [ [ ! ! ! ! ! [ ! ! I I I I I I I I I I I _ I I I ` ` [ [ I I I Q ! I L L P I I I P I I ! I I Q I I P P L L L L I I L L L P I I I I I I I I I I I I I ` [ [ [ [ [ [ [ [ [ _ I I _ I I [ [ [ [ [ [ [ [ [ [ [ [ [ [ [  .[ [ {  .[ ` ` `  . . . . .` ` `  . .I I I [ [ [ [ [ I I ` ` I I I I ` ` I I I I I I ` `  . . . .` ` I I P P H H P P P P P P I I U P H Z I I I I I I I I I I I ` ` ` ` ` ` ` ` ` ` ` ` [ I I I I _ ` ` ` ` ` ` ` [ [ [ [ [ [ { { ....{ { ",
"......{ { { { {  . . . . . . . .{  . .` ` ` [ [ [ [ ` [ ` [ [ [ { {  .[ [ [ [ [ [ [ [ [ [ [ [ [ [ {  .{ { [ [ [ [ [ Q Q [ [ I P I I I I _ ` [ [ [ [ [ [ _ _ ` ` ` [ [ [  . .[ [ -.{ I L H L L H P `  . .[ [ [ I P I I ` [ [ ` I I ! [ [ [ [ I L [ [ [ [ [ [ { [  .[ [  . .{ {  .[ ` I I I I I `  . . .[ [  . . .` ` ` ` ` ` ` ` { [ ` ` ` ` [ [ ` ` ` ` ` ` ` ` ` ` ` ` ` ` ` ` { ` ` I I I I K ` ` ` ` ` ` ` ` ` ` ` ` ` ` ` ` ` ` ` ` ` ` ` ` I I I I I I I I I I I I I I I I J J I I K I ` ` :.{ ` ` I I I I J K I I K J J K ` ` _ ` ` ` ` ` ` ` ` ` ` ` ` ' [ [ [ [ [ [ [ ` [ ` ` ` ` ` ` _ [ [ [ ! ! ! ! ! ! ! ! I I I I I I I I I I I I I I I ` ` [ [ I I P I [ [ I I I ! [ I I I I [ Q Q Q Q Q Q Q Q Q Q Q Q L L I I I I I I I I I I I I I I I I I ` [ ` [ [ [ [ [ [ [ Q [ [ I I Q [ [ [ [ [ [ [ [ [ [ [ [ [ [ [ [ [ { [ [ ` ` ` ` ` ` `  .` ` `  . .I I I I ` ` ` I I I I I I I ` ` [ [ I ` ` ` ` ` ` `  . . .` ` I P H H H Z H H P P P I I I P P P H H I I I I I I I I I I I I I I I I I I I I _ _ ` ` I I I _ ` ` ` ` ` ` ` { { { { { [ { { { ....{ { ",
"{ { { { {  . . . .[  . . . . . .{ { [ ` I ` [ [ [ [ ` ` [ [ [  . .[ [ [ ` _ _ _ [ [ [ [ [ [ [ [  . . .[ [ [ [ [ [ [ [ Q [ [ I P I I I I I I _ _ ` [ [ [ [ ` ` [ I ` [ [  . .[ [  .` I L J H Z f L I [ ` I ` [ [ [ I I I I [ [ [ I I I P L L D D [ [ [ [ [ [ [ [  .[ [  . .{  .[ [ [ ` ` ` ` [ [  . .[ [ [ [  . .` ` ` ` ` ` ` ` [ [ ` ` ` ` ` ` ` ` ` ` ` ` ` ` ` ` ` ` ` ` ` ` ` I I I I I K J I ` ` ` ` ` ` ` ` ` ` ` ` ` ` ` I I I I I I I I I I K I K K I I I I I K I J J J J K I J J H H H ` I I I I I I I I I I I K K I I ` ` _ ` ` ` ` ` ` ` ` ` ` ` ` ` ` ` ` ` [ ` ` ` _ _ _ _ _ _ _ _ [ [ ! ! ! ! [ [ Q Q ! ! ! I I I [ [ I I I I I I I I ` ` [ [ I I I ! [ [ [ [ [ { { [ ! I I I I Q [ [ [ Q ! ! ! Q [ Q L I Q Q Q I I I I I ` ` I I I I I I I I I I [ [ [ [ [ [ [ I { [ I I I I [ [ [ [ [ [ [ [ [ [ [ [ [ [ [ [ [ [ ` ` ` ` ` ` ` ` ` ` ` ` ` ` ` ` I I I I I I I I I I I ` [ [ [  .` ` [ [  . .` ` I `  .` I J H H H H P P I I I P P P P P I I I  .P P I I I I I I I I I I I I I I ` ` I I _ _ ` ` ` ` ` ` ` ` ` I [ [ ` ` ` { { { ..{ ,.,.,.,.,.,.",
" . . .[  . . . . . . . .[ [  . .{ {  .` ` ` [ [ [ ! I ` [ [  . .[ [ [ ` _ _ I I ` [ [ [ [ [ [ ` [ [ [ [ [ [ ` _  ._ _ _ _ _ I P I I I I I I ` [ I _ [ [ [ [  ...` [ [  . . .[ [  .I L L L L L J [ { { I P I [ { {  .` I I I I I ! L D C C D I [ [ [ ! ! [ [ [ [ [ ` [ [  . . .` ` ` ` [ [ [  . .[ [ [ [ [ [ ` `  .` ` ` ` ` ` ` ` ` [ [ [ ` ` ` ` ` ` ` ` ` ` ` ` ` ` ` ` ` ` ` I I I I _ _ I I I ` ` ` ` ` ` ` ` ` ` ` ` ` _ _ I I I I I I I I I I I J J I I I I I K K J J J J J J I I I I I I J J K I I I I I I I I I I ` ` { I _ _ _ I I _ ` ` ` _ _ _ _ ` ` ` ` ` ` ` ` ` ` I I _ I I I I I [ [ ! ! ! ! [ [ ! ! Q ! ! ! ! ! ` ` I I I I I I I I ! [ ` ` I I [ ! ! I I [ { { O.{ { Q I I I I [ [ I I I I I I Q I L I I [ Q I L L I I I I I L I I I I I I I I {  .[ [ [ [ [ I { [ [ I I I I [ [ [ [ [ [ [ [ [ [ [ [ [ [ [ [ ` I I I I I I I I ` ` ` ` ` ` ` ` ` I I I I I I I I I [ [ [ [  .[  .[ [ [  . .[ I I  .-. .P D D L P I  .-.-.{ ` I P P P I I [ { -.I I I I I ` I I I ` [ ` ` ` [ [ ` ` ` ` ` ` ` ` [ [ ` ` ` ` ` ` [ [ ` ` ` ` [ { ,.,.,.,.{ { { { ",
" . .[ [  . .` `  . . . . . . . .{ {  .[ [ [ [ [ [ [ ! ` ` [  . . . .[ [ [ _ _ _ ` ` ` [ [ _ ` ` ` ` [ [ [ [ ` ` [ _ _ _ _ _ I I _ _ _ _ ` [ [ [ ` [ [ ` P P I I  .{ { {  . .[ [ ,.[ I I I [ { r.q.q.-.I L I [ [ ` [ { { [ I L H C Z D P ! { { { [ ! ! ! Q [ [ [ ` ` `  . .[ ` I I I I [ [ [ [ [ [ [ [ [ ` [ `  . .` ` I I I I ` I ` ` ` [ ` ` ` ` ` ` ` [ ` ` ` ` ` ` ` ` ` ` ` I I K I ` ` _ I I ` ` ` ` ` ` ` ` ` ` ` ` _ _ _ I I I I I I I I I I I J J I I I K K K J J J J J J K I I I I I I I I I I I I I K I I I I ` { :.:.I _ _ I I I I ` ` ` _ _ ` _ I I ` ` ` ` _ _ [ [ _ _ _ ` _ _ _ _ ! ! ! ! ! [ [ [ ! ! ! ! ! [ [ ` I I I I I I I I I I [ [ ` ` I I ! I I P I [ { 2.2.O.{ [ I I L P I I I P L L L L I L L I I [ [ Q I I I I I I I I I I I I I I ` ` +.{ [ [ [ [ [ [ [ [ [ I I I I [ [ [ [ [ [ [ [ { [ [ [ [ [ [ [ _ I I I I I I I I I ` ` I I I `  .[ ` I I I I I I I I [ [ [ [ [ `  .[ I ` [  . .[ [ -.4.{ I H L I `  .{ ,.,.{ I J I I P I I `  .{ { { {  .[ ` I I [ [ [ [ [ [ [ [ { { { [ [ [ [ ` ` ` ` ` [ [ { { [ ` ` ` ` ` ` [ <.{ { { { { { { ",
"{ { { { { { { { { { { { { { { { { {  . . . .` `  . .` ` ` ` ` ` [ [ [ ` ` ` ` ` _ ` ` ` ` ` ` I I ` ` ` ` ` [ ` ` ` ` ` ` ` ` I I _ ` ` ` ` ` ` ` [ [ ` J A J J -.-.:.{  . . . .{  . .-.,.r.w.Z.w.8.{ I L I ` I I [ { { I J D D C J ` { 4.{ [ I I I I I I ` ` [ ` ` `  . . .I I I I `  . . .` ` ` ` ` ` ` `  . .` ` I I I I I ` ` ` I I ` ` ' { ` ` ` ` ` ` ` ` ` ` ` ` ` ` ` ` I K K I _ _ I K I I ` ` _ I _ ` ` ` ` ` ` ` _ _ I I I I I I I I I I K J J K I I I K K J J J J J I I I I J J J J I I I I I I I I I I ` ` { ` I J _ ` ` I I I I ` ` ` ` ` ` ` ` ` ` ` ` ` ` ` [ [ ` ` ` ` _ _ _ _ I I I I I ` [ [ I I I I ` ` ` [ I I I I ` ` I I I I ` ` ` ` I I I I I I [ { -.,.{ { { [ I L I I I I I L L D D D L L L I I I [ [ [ [ [ ` I I I I I I I ` [  .{ { { [ [ I Q [ [ [ [ [ [ [ [ I I I [ [ [ [ [ [ [ [ [ [ [ [ [ I I I I I I I I I I I I I ` I I I `  .[ ` ` I I I ` ` ` `  . . . .` I ` I P I [ { { { { { { { { { { { { { { { ` ` I J I I I I I ` ` { -.2.{ { [ [ [ ! [ [ [ [ [ [ [ [ { ' ' ' ` ` ` ` ` ` ` ` ` ` ' ' ` ` ' ' ' ` ` ` ' ` ' ` ` ' ' { ",
"..{ { { { { { { { { { { { { { {  .{ { {  . .` `  . .` ` ` ` ` ` ` ` ` ` _ _ _ I ` ` ` ` _ _ I I I I ` ` ` [ [ [ ` ` I ` ` ` ` ` I I I ` ` ` ` ` I ` [ { ` ` { ,.r.,.-.:. . . . .P I ,.Z.Z.d.d.Z.,.{ ` P I ` ` I I [ [ I H Z D P 8.,. .I I I I I I I I I I I ` [ I I `  . . .I I `  .{ :.:. .` ` [ ` ` ` ` `  . .` ` I I K I I ` ` ` I J I ` { ,.{ { ` ` ` ` ` ` ` ` ` ` ` ` ` ` I I K I I I J J K I I ` _ I _ _ ` ` ` ` ` ` _ _ I I I I I I I I I I I J J I I I J J K K K K K I J I I I K K I I I I J J J I ` ` ` ` { :.{ I f y ` ` ` _ I I _ ` ' ' ` ` ` ` ` ` ` ` ` ` ` [ [ [ ` ` ` ` ` ` ` ` ` ` I I I ` [ [ I I I I ` ` [ [ I I I I I I ` ` I I ` ` ` ` I I I ` [ { -.4.4.4.[  .{ [ I I I I Q I I I L L F D D L L I I I [ { [ [ I I I I I I I I [ [ { { { 4.[ I P L P I I [ Q [ [ [ [ [ I I I [ [ [ [ [ [ [ [ [ [ [ _ _ I I ` ` ` ` ` ` ` ` I I ` I I I `  . .[ ` I I ` ` ` ` [ [  . . .` I I L L P [ 2.4.2.{ [ ! { 4.Z.Z.w.,.:.` ` I I I I I I I I ` ` { -. .{ [ [ [ [ [ [ [ [ [ [ [ [ [ [ { ' ' ` ` ` ` ` { ` ' ` ` ` ` ` ' ' { { { { ' ` ` ` ` ' ' { <.,.",
"{ { { { { { { { { { {  .{ { ` `  . .` ` `  .{ {  .` ` `  . .` ` ` ` ` _ I P I I _ _ _ _ ` I I I I ` ` ` [ { { { I ` { ` ` ` ` I I I ` ` _ I I I ` ` ` ` { { <.<.` ` ` ` I I I P P I ` { -.-.{ ` L P P P I I I I ` P D J I  .{ { P P I I I I ` ` ` ` ` ` ` ` ` ` I I `  . . .` I I I I I I I I I I I I `  . .{ { { ` ` f.J y :.K ` ` ` ` ` ` I J ` ` ` ` ` ` ` ` I I I I _ I I I { ` _ I I I I K ` _ _ I ` _ ` ` ` I _ ` ` I I ` ` I K J I I I I I I I I J J I I I I I I I I I I ` J J I I J J K I I I I ` ` ` ` ' { { ` J Z J ` g.` Z J ` ` ` ` ` ` ` ` ` ` I I ` _ I _ ` [ [ [ I I I I I ` ` ` ` ` ` ` I I I I [ [ [ [ [ [ [ [ I I I ` ` ` ` `  . .` I I I ` ` ` [ [ ` I I I ` L L L L L L L L L I Q ! I L I I ! [ [ Q I I [ { I I I I I I I I [ [  . .[ I P J L L L P P I I I [ I I P P I I I [ [ [ I I I [ { { { [ _ _ _ [ [ ` ` ` I I I I I P I I I `  .I D I I I ` `  .` `  . .` ` ` ` I I L J I { r.{ ` I I I I I L I { 4.I I ` ` ` ' ` ` ` ` ` ` ' ` ` `  .{ { [ ` I ` [ ` `  .{ -.{ [ I ` ' { ` ` ` ` ` ` ` ' ` ` ` ` ' ' ' ` ` ` ` ` ` ' ' ' ` ` ` ` ` ",
" . .[  .[ [ [ [  . . .{ { { { { { {  .` ` `  . .{  . . . . .` ` ` ` I I I P P P I I I I I I ` ` ` ` [ [  .{ { { L ` [ ` ` [ [ ` J I _ _ I I I I ` ` ` ` ` ` ` ` J J J J P P P P I I I I I I I P I I I I I I I I I I I ` { -.{  .I I I I I I I I I I I I I I I I J I I `  .` ` I I I I I I I I I I ` ` `  . .{ { ` I ` I <.<.u :.` ` ` ` I J I { ` ` ` ` ` ` ` ` _ _ ` ` ` ` _ _ I J J J J J J K _ _ ` ` ` ` ` ` _ I I ` ` ` I ` I I I K I I I I J J J J J J J J I I K J J J J J I J J I I K K I I I I I ` ` ` ` ` I J J H J ' f.<.` I ` ` ` _ ` ` ` ` ` ` ` ` ` I I P I I _ _ I ` ` ` ` _ ` ` ` ` ` ` ` ` [ [ [ ` ` I I I I I I P P P I I I I ` I I P P I I `  .I I I I L J L I I I I I I I I I I I [ [ ! I ! [ I [ [ Q P L I [ ,.{ [ I I I I ` [ ` I I I I P L P P I I I I I I [ [ I I I I I I [ [ [ I I I [ [ [ [ [ [ [ [ Q I ` I I I I I I I I I I I I ` I J ` ` I I I I I I ` `  .` I I I I { I I ` [ I H D L L I ` [  .I H ` ` ` ' ' ' ` ` ' ` ` ` ` ` ` I `  .{ {  .` I I  . . . .[ [ [ ` I ` { <.{ { ' ' ` ` ` ` ` ` { { { { ' ` ` ' ` ` { { { { { { ' ' ",
"` ` ` ` ` ` ` ` ` ` ` ' ' { { ' :.{ ` ` ` ` ` ` { { ` ` ` ` I I ` I I I _ I I J I J J J J I ` ' ` ` ` ` ` ` ` ` K ` ` ` I ` ` ` I ` ` ` ` ` ` ` ` ` ` ` I K J J J J J K I I I I ` I J J J J K P I I I I ` ` ` ` ` I I [ { -.{  .` ` I I I I I I I I I I I I I I H J I I ` ` I I I I I I I ` ` ` ` ` ` ` ` ` { { ` ` :.K f.l.g J <.:.' ' ' ' ` I ` I I I K ` ` ` { { { { ' { { { ' ` ` ` ` ` ' ` J I _ ` ` ` I I K J I _ ` I I ` I I I I I I J J J J K J J J J J I I I I I I I I J J I I I I I ` I I I ` ` ` ` I ` I J J J J ` <.` I ` { { I I ' ` ` ` ` ` ` ` `  .` ` ` ` ` ` ` ` ` ` _ I I I I I I I I I I ` ` ` ` ` ` ` ` I I ` ` ` ` I I I I ` ` I I I ` ` ` I I P J H H J P I I I I I I I I I P P I I I I I I I ` I I P I ` { { [ ` I I ` ` I I L L J L I I [ [ [ [ [ _ [ _ I I P P P P I I I I I I P P I I [ [ { { { [ [ I I I I I I I I I I I I J J I P J ` I I J J J J J J ` ` ` K J J I  .` I I I J H H f  .` I { H a [ ` ) ` ` ` ` ` ` K K K K I ` ` ` I ` { ,.,.-.{  . . . . .` ` `  .` ` :.<.<.:.:.:.` ` ' ' ' ' ' ' ` ` ` ` ` ` ` ` ` ` ` ` ` ` ` ` ",
"' ' ` ` ' ' ` ` ` ` ` ' { { { { ' { { { { ' { { ` ` ` ` ` ` I I ` ` I ` ` ` I J J J J J I I ` ` ' ' ` ` ` ` ` ` ` ' { ` I _ I K I ` ` ` ` ` ` ) ` ` ` ` ` I K J ` ` ` ` ` I I I ` I I I I ` ` ` [ [ [ [ [ [ [ [ { ` I I I [  .{  . .` ` ` I I I I I I I I I I I J J I I I ` I I J J J J I ` ' {  .` ` I ` ` { :.` 9.<.<.) 1.T.j H :.<.$.' <.' J ` ` ` ` ` ` ` ` I I I I ` ` ` ` ` ` ` _ ` _ I I I I _ ` ` ` ` I J J J I ` I I ` K I I I J J J J J K I I I J J J I I I I I I I I I I I ` I I ` ` ` ` ` ` ` ` I I ` I I ` ` I J I J K ` { ' I I ` ` ` ` ` ` ` ` ` I I J J K I I J ' ' ` ` _ I I I I I I I I I I I ` ` ` ` ` ` ` ` ` ` ` ` ` ` I ` ` ` I J J J J J I I I L J P I I I I I I I I I I I P L L I I I I I I [ [ ` I ` [ I I [ { { [ ` I [ ` I I I I ` [ [ [ { [ [ [ [ [ Q Q I I I I I I I I [ [ [ I I I I [ { { { [ [ I I I I I I I I I I I P J J J J J I J J J J I I I I ` ` ` I I I ` I ` { ` I J P I  .J -.` y J Z.J ' ) ` ` ` I ` ` ' ) ` ` ` ' :.:.J I  .{ { { { ` I I ` ` ` I I I :.:.' ' ' :.<.<.<.<.<.:.' ` ` ' ' ' ' ' ` ` ` ` ` ` ' ` ' ` ` ` ",
"' ' ' ` ' ' ' ' ` ` ' ' { { <.<.:.{ { { ` ` ` ` I I I I ` ` ` I ` ` I ` ' ' ` I I I ` ` ` ` ` ` :.<.:.:.' ' ' ' ` :.:.' ` ` ` ` I ) ` ) ) ) ) ` ) ` ' $.<.$.' ` :.:.:. .` ` I I I I I ` ` ` ` `  . .[ [ [ [ ` `  .` I I I I [ [  . . . .[ [ [ [ ` ` ` ` ` ` ` ` I I I ` ` ` ` ` K J J J J I ` ` ` ` I I ` ` ' :.I <.<.1.K $..XF.y J ' ' ` ` ` ' ' ) ` ` ` ` ` ` ` ` ` ` ' ' { { { ` ` ` ` ` I I ` ` ` ` ` ` ` ` K J J ` ` _ I ` I I ` ` I I I ` I I ` ` I I I I I I I I I I I I I ` ` ` I ` ` ` ` ` ` ` ` ` ` I I J I { :.` I I I I ` ` ' ` ` ' { { { ' ` ` ` ` _ I K K I I I I ` ` ` ` ` ` ` ` [ [ ` ` ` I I I P P I I I I I I J J J I I ` ` ` ` ` ` I I I I ` ` I I I I I I ` ` ` ` ` ` ` ` `  .` I I [ { [ [ I ` [ [ [ I I I L I `  .{  .` I [ [ [ [ [ [ [ [ { { [ [ [ [ Q Q [ [ [ [ [ [ [ [ [ [ [ [ [ [ [ [ I _ [ [ [ [ [ _ I I I I I I I ` I I I I P J J P I J J J J I I ` I I I ` ` ` ` I I ` { I J J I ' { :.Z u { F.8.J ` ` ` ` ` ` ` ` ' ` I K K K K K ` ` ` ` I K I I I ` ` ` ` ` ` ` ' ' $.<.<.<.<.<.<.<.<.<.<.' ' ' <.<.:.<.<.:.:.:.:.:.:.' ' ' ' ' ",
"' ' ' ` ' ' ' ' ' ' ' { { <.,.<.,.,.:.{ ` ` I I I I I ` ` ` ` ` ' ` ` ` { { ' ` ` { { ,.<...{ ' :.:.:.:.:.$.:.:.:.<.<.<.<.,.<.<.<.<.<.<.$.$.$.<.$.<.<.<.<.<.<.<.,.,.,.,.,.<.:.:.{ { :.,.,.,.:.{ { { {  .[ [ [ ` I ` [ { { [ ` I  . . . . .{ { {  . . . . . . . .` ` ` ` ` ` ` ` :.{ ` ` ` ` ` ` ` ` ` ` ` ` ' ' ' ' 1.$.<.$.) %XF.I s I <.` ` :.` ` ` ` K K K K ` ` ` ` ' ' { { ` ` ` ` ` ` ` I ` I I I I I _ ` ` I ` ` ' ` ` ` ` ' { ' ` ` :.,.` { { { ` ` ` ` ` ` ` ` ` ` ` ` ` ` ` ` ` ` ` I ` ` ` ` ` ` ` ` ` I I ` { ` ` ` ' ` ` ` { { { { ` ` ` ` ` ` _ I ` ` I _ ` ` ` ` K K J J K I I I I I I I I I I I ` ` `  . . .{ { ` ` ` ` ` ` ` ` I J J J I I ` ` I I I I I ` ` ` ` ` ` ` ` ` ` ` { [ ` I ` [ [ [ ` ` ` ` I I L L I I P L L P I I L P I I I I I I [ [ [ [ I I I I I P P P P I I I _ [ [ I P P P I I I I I I [ [ ` [ [ ` ` ` `  .` ` ` ` ` I I I ` ` ` I I I ` ` ` I I J J I I I J J K K J J ` <.<.K J u :. X:.t :.I I I ` ` ` ` ) ` I I ` ` ' ' ' ' ' ` ` ` $.<.9.f.9.<.:.<.<.9.f.) ' <.<.f.9.<.<.<.<.<.<.<.<.<.<.:.:.:.:.:.' ' ' ' ' ` ` ' ' ` ` ",
"{ { { { { { { { { { { <.,.,.,.,.<.<.<.,.<.:.' ` { { { { :.:.:.:.{ { { { <.,.<.,.,.<.<.8.<.<.<.,.<.<.<.<.<.<.,.<.<.f.f.9.f.f.g.f.g.f.f.f.u.u.u.f.1.1.<.1.f.f.1.<.<.<.<.8.8.8.<.<.<.<.8.8.8.8.,.:.-.-.-.{ {  .[ [ I [ { { {  .[ [ `  . . . . . . . . . . . . . . .` ` ` ` { { { { 8.<.<.,.,.,.:.{ { { :.{  . .` ` <.<.f.<.f.<.j G.wXF.J J <.<.<.:.<.:.' ) ` ` I ` J I K I I ` ` ` ` ` ` ` ` ` I I ` ` ' ` ' ` ` ` ,.{ { ,.,.{ { { ' { { ' ` { <.9.' { { { ` ' ' { { { { { ' ' ' ` { ` ` I ` <.{ I I ` ` ` ` ` ` ` :.{ ` { ` ` ` ` ` ` ` ` ` { { { ` ` ` ` ` ` ` ` K J J J I I I I _ _ I I I I ` ` ` `  . . .{ { { 8.8.8.8.8.8.8.8.8.8.8.8.<.8.8.8.I J J H H H H J I I I `  .{  . .` ` ` ` ` ` ` ` [ [ ` I I I I ` I I I I ` I I P I I P L L P I ` I I I I I I I I  .{  .[ [ [ [ [ [ _ I I I I I [ [ [ [ I I I I [ [ [ [ [ [ { { { -.-.{ { { { { { { ` ` ` I I I { ` ` ` ` { :.:.:.:.{ ` ` I I I I ` K K $.f.l.1.` ) r l.>X) u <.$.' ' <.<.<.<.<.<.8.8.f.g.F.G.G.G.<.<.<.<.<.f.l.F.F.f.1.1.f.f.1.<.9.<.<.9.f.f.<.<.<.9.f.f.f.1.<.<.:.:.:.:.' ' ' ' ' ' ' ' ' ' ` ` ",
"<.<.<.<.<.<.<.<.<.<.<.<.<.<.<.<.,.<.8.9.8.9.8.8.<.<.,.,.,.<.,.,.<.8.8.8.<.8.8.f.8.8.8.8.8.f.f.f.1.f.f.f.d.g.g.g.g.F.F.g.g.D.F.l.g.g.g.f.u.1.u.f.g.f.u.u.u.u.<.<.<.<.<.<.<.<.<.<.<.<.<.<.<.<.<.<.,.,.,.-.{ { {  .[  .[ ` ` `  .{ ` ` ` ` ` ` ` `  .` { ` { ` { ` ` ` ` ` ' :.<.:.<.<.<.<.<.<.<.:.<.<.<.:.:.' ) ) ' <.<.l.<.1.F.j .XXXF.J g $.g.g.f.f.f.<.<.<.<.<.f.f.f.f.f.g.g.g.F.F.Z.g.g.f.9.<.<.<.f.f.d.f.p.<.<.<.<.<.<.<...<.' ` ' ` ` ` <.f.I K I J K J K K ` I I I I K I K { ` I K { <.,.I I I ` ` ) ` ) ` ` ` ' <.<.` ` ' K I ` ` K ` ` ` ` ' :.<.,.,.<.<.<.<.<.<.<.<.<.<.<.<.<.<.<.<.<.<.<.8.8.9.d.f.g.Z.d.d.d.d.8.9.8.8.<.<.<.f.g.F.G.K.G.F.g.9.<.' ` ` I I I ` :.-.:. .,.,.,.,.,.,.,.,.' { { ` I I ` ` I I I I ` ` {  ._ ` [ { { -.,.-.,.,.,.,.,.,.,.4.........{ { { { 4...+...+.,.4.,.4.4.+.{ { { O.+.{ { { ,.4.4.4.4.4.,.,.....{ { { { ` I I K J ` <.` ` ` $.<.<.<.<.g.l.g.u.<.$.<.<.f.u.f.F. XT.$.r 7 >XrX<.` z.l.<.f.g.g.z.z.g.g.g.f.f.f.g.g.g.f.f.f.f.f.1.<.<.u.f.1.<.<.u.f.<.` j Y.F.f.<.<.<.<.<.f.f.g.g.u.1.<.<.<.<.<.<.<.<.<.<.<.<.<.<.<.<.<.<.",
"<.<.<.<.<.<.y.<.y.<.y.<.<.<.<.<.<.<.<.<.8.8.p.f.8.8.p.8.8.<...{ ,.,...{ ..<.p.d.p.p.d.d.d.g.g.d.g.g.g.g.d.d.f.f.g.g.f.f.f.f.d.f.y.1.*.&.&.%.&.&.] $.&.&.*.y.y.u.u.f.g.z.z.g.g.f.f.u.<.<.<.<.<.<.d.d.d.8.4.,...{ ,.,.,.,...<...<.<.<.,.$.{ ' ..<.` ' { $...:...' ` ` ` ` ' $.$.<.' ' $.<.<.<.' ` $.$.$.$.' ' ` ` $.$.<.<.<.%.$.` J >X-X$.K J g ` g.g.u.<.' ` :.<.u.1.<.<.u.g.z.F.z.z.F.F.F.F.F.F.P.F.P.P.R.T.T.P.z.l.l.g.g.y.y.&.<.u.g.y.u.x.U.P..X~.Y.P.Y.F.g.<.' ` ` ) ' <.<.f.` <.' J K $.' k ` ` ` ' $.$.<.<.J J J ) <.u.1.<.u.<.<.u.g.z.z.g.g.z.F.F.F.z.g.f.g.g.u.u.<.<.1.1.1.u.f.g.g.g.u.u.g.g.g.g.g.u.<.<.<.$.` ) ) ` $.<.g.g.g.f.y.<.$.$.f.f.g.F.G.Y.Y.G.g.z.z.u.<.<.u.u.<.<.u.u.u.u.<.<.<.<.u.1.<.<.<.$.<.1.f.f.f.1.<.<.f.f.f.9.f.9.<.<.<.<.f.f.f.f.p.p.,.,...{  .` ` ` I _ [ { ....{  .4.4..... ._ _ I [ `  . .{ { ....' ' ' $.' $.$.$.' ' $.<.<.<.<.<.u.l.x.x.g.u.u.u.P.U.^.P.g.$.$.y.<.f.D.Y.<.t t $.zX.Xu.<.g.z.z.x.i.y.y.y.i.u.u.i.u.u.u.y.*.&.y.u.z.<.' $.u.$.` <.<.u.F.<.s k Y.;X<.&.<.<.y.u.u.u.g.g.i.g.g.u.y.<.&.$.<.<.y.<.y.u.&.<.<.<.y.u.y.u.",
"u.u.u.u.y.y.y.y.y.y.y.y.y.y.y.y.<.<.<.<.<.<.<.<.<.<.<.<.<.<.<...' ' ' ' ' ' { <.<.p.f.f.f.f.f.f.y.y.<.<.<.y.y.y.' ' <.y.u.g.z.F.P.n.n.n.n.b.x.k.^.^.(.(.).'.'.@X@X@X(.(.R.R.R.(.R.R.R.U.Y.x.i.g.<.<.<.<.<.<.<.<.f.<.<.' ' <.<.f.<.u.f.g.f.y.<.$.<.<.<.<.' ` ) K ) ` ` $.$.` ` ) <.$.` ` ` ` ] ` $.$.$.$.` ) ) ) ` $.<.u.z.x.F.F.z.&.#X>X$.j $.g K <.F.G.D.<.:.$.<.<.u.g.g.g.g.u.u.u.u.g.l.z.x.F.i.k.k.k.i.u.i.i.k.k.i.i.u.k.P.U.U.U.x.*.&.u.b.b.u.U.(.U.P.U.(.).T.Y.z.g.1.<.$.$.l.F.F.u.<.g.u.` F.z.g.u.y.<.<.y.<.$.) ) $.u.u.g.g.g.g.z.F.P.P.P.F.F.F.F.z.z.l.g.y.y.1.<.<.1.1.y.$.$.<.1.y.y.<.<.l.u.<.$.` ) ) ) ` $.<.u.g.g.g.u.<.<.<.<.<.<.<.<.u.<.$.$.<.u.g.z.z.z.F.F.P.F.g.$.<.1.1.1.u.y.u.u.z.l.g.g.g.z.x.F.z.x.F.F.z.z.l.g.f.f.u.u.<.<.<.<.g.f.u.f.g.g.f.<.d.p.p.8.8.<.<.<.d.d.p.<.<.,.,.<.` <.p.<.` _ ` ,.` ` { ..,.<.8.y.<.<.<.y.y.y.y.y.y.y.u.u.f.i.g.i.&.*.u.k.n.U.^.(.k.k.i.*.&.*.y.u.F.A...J s g y.&X@Xi.) ) &.&.&.&.=.i.k.k.k.i.y.&.&.&.i.k.k.x.n.P.z.u.g.g.<.y.i.g.g.z.J s P.-XY.&.y.y.y.u.u.i.i.u.&.*.y.i.y.y.&.&.i.g.u.y.<.&.] ] &.&.&.&.$.] ] ] ",
"u.u.u.f.u.f.g.f.z.z.z.F.z.F.F.F.F.F.F.G.F.F.z.g.z.z.g.g.u.u.<.<.<.<.1.u.f.f.f.f.f.f.f.g.g.g.f.f.u.u.u.1.u.u.g.g.x.F.P.Y.T.~.(.^.XX).).).].).^.U.U.U.I.P.n.x.x.k.l.l.l.u.g.l.l.z.g.l.x.P.P.P.P.P.T.T.Y.F.F.F.z.z.<.<.u.u.f.u.u.1.$.$.) ) ) $.%.1.1.u.u.u.l.l.l.l.f.g.l.z.l.g.u.1.u.<.$.' ' $.$.$.` ` $.<.1.f.g.l.F.F.F.F.F.F.F.z.g.K f.%X X$.J k s k ` <.9.9.,.' <.u.g.F.F.z.g.u.z.z.g.g.g.g.z.z.z.x.x.x.g.u.l.l.u.u.u.g.l.l.l.l.T.U.x.u.<.u.u.u.&.Y.^.l.&.u.l.l.Y.Y.P.P.Y.Y.Y.P.z.G.Y.F.z.l.u.u.z.z.l.l.l.z.G.T.l.u.$.$.&.u.l.l.u.u.u.u.l.l.l.l.F.z.z.g.u.u.u.u.g.g.g.g.g.g.l.l.z.z.z.z.z.z.z.z.z.l.u.u.u.u.l.z.u.u.l.z.z.u.<.%.K K K K ) ) ` ) ) ) ` ` ` ` ) K u.g.g.l.F.T.T.G.l.l.g.g.g.l.z.F.z.z.l.g.g.l.z.z.x.F.F.z.z.z.z.z.F.F.F.F.F.F.F.F.G.F.F.F.G.T.T.T.F.F.F.z.l.g.g.f.f.f.u.1.<.1.u.f.' <.<.<.$.' $.<.<.<.<.1.f.g.g.g.u.u.u.g.g.g.g.g.f.f.f.u.u.u.u.y.l.l.l.z.x.P.P.P.z.x.l.y.y.l.F.G.<.{ g t A g.@XrXg.i.P.@X-X$X(.I.k.j.=.&.&.y.j.k.(.(.).].@X@X@X).#X(.#X#X^.)..Xx.` r J @X-Xz.$.u.y.y.u.u.l.l.u.u.U.U.^.).).).(.^.XX@X@X@X#X#X#X$X#X#X.X.X).).(.(.",
"u.u.f.f.f.g.g.g.u.u.f.g.g.g.g.z.Y.P.U.U.U.U.Y.Y.P.P.F.x.x.x.z.z.l.l.l.z.z.z.z.z.u.u.u.u.l.j.j.l.z.k.x.x.F.n.P.I.^.^.^.^.^.^.U.U.^.U.P.I.U.U.F.l.u.u.u.y.y.&.&.&.&.&.&.y.u.y.y.*.i.y.=.&.&.&.*.y.&.1.y.u.l.k.z.x.~.^.).XX).^.T.G.(.T.x.j.y.y.u.j.k.x.x.I.~.(.).XXT.T.Y.Y.Y.Y.Y.Y.G.G.G.G.G.F.z.z.T.T.T.T.T.Y.Y.Y.F.F.F.G.Y.T.T.T.T.XXl.F.rX.XJ K g g g J ' f.F.F.g.f.f.f.f.f.f.g.u.u.1.<.<.<.<.<.u.u.u.u.u.u.z.x.T.~.(.^.T.P.F.l.<.y.u.y.y.u.l.u.F.U.T.x.z.x.P.z.u.j.l.l.l.l.u.u.k.z.x.P.G.z.x.P.z.z.g.u.y.1.u.y.G.z.l.l.z.F.x.z.Y.P.P.P.F.F.F.F.x.z.z.g.g.g.g.g.g.g.g.u.u.u.u.u.u.u.u.u.u.u.u.u.u.u.g.l.z.l.g.u.u.u.1.1.%.$.` ) <.<.<.<.<.<.<.1.$.<.<.u.u.<.` K $.u.l.1.$.$.1.g.l.g.u.u.u.l.z.z.l.l.l.z.l.g.u.u.g.g.g.g.g.l.l.z.G.G.G.F.l.g.g.g.<.u.f.<.` ) <.u.g.g.l.l.l.l.l.g.u.l.z.z.F.z.z.z.T.G.z.z.Y.T.G.l.T.T.T.T.T.T.U.T.Y.Y.T.T.T.T.T.T.(.(.(.(.T.T.T.T.(.U.Y.x.l.u.u.y.&.P.%X-X-X).g.` u f s K F.%X%X#X%X.XR.^.^.(.).#X=X#X;X$X#X).^.U.T.P.l.u.u.u.u.u.g.u.g.z.F.u.) s s u.rXcXT.u.Y.T.@X@X@X@X$X$X@X).T.R.^.T.U.U.P.P.z.l.g.u.u.u.y.y.f.g.g.g.l.l.g.g.",
"g.g.g.g.g.g.f.f.f.f.f.g.g.g.g.z.l.j.j.j.j.l.l.k.x.x.x.x.P.U.~.~.x.x.k.l.j.j.j.j.l.l.l.l.k.k.z.x.U.U.~.^.~.U.I.P.P.I.U.~.~.U.P.n.g.u.u.y.g.g.u.y.g.u.g.u.g.l.l.l.k.k.k.k.k.k.i.i.j.i.=.=.=.=.u.i.u.u.j.k.k.x.x.x.x.l.u.*.&.&.*.=.&.*.j.I.(.).].].).).(.^.~.~.~.U.F.F.F.F.F.G.Y.Y.G.G.G.G.G.G.F.F.F.z.l.g.f.f.f.1.g.g.l.z.F.F.G.Y.T.G.l.l.T.%X Xf.s J I P I ,.f.F.u.<.<.<.<.<.<.1.<.<.<.u.f.f.g.g.F.z.F.F.Y.T.(.(.F.z.g.g.g.l.F.F.G.F.F.l.z.T.XX$XT.P.F.F.F.z.g.g.U.~.~.^.^.~.~.I.I.P.I.~.U.P.U.(.XXXX.X.X.X X(./.#XXX.XXXXXXX.X(.T.T.T.T.Y.Y.Y.Y.F.F.F.F.F.F.F.F.F.F.F.z.z.l.g.g.g.g.g.g.l.z.F.F.F.F.F.F.l.u.$.` $.$.$.$.<.<.u.u.<.<.<.<.<.<.<.<.g.f.u.1.1.u.u.u.$.g.Y.G.z.g.l.z.F.F.F.F.F.F.F.F.g.l.z.F.F.G.G.F.g.g.g.g.z.F.F.G.Y.F.z.f.<.' ) K ` $.<.<.<.u.z.G.z.x.G.T.U.U.U.U.~.~.^.^.~.T.G.z.x.u.y.u.l.x.l.1.l.l.u.u.u.u.u.u.Y.Y.Y.Y.Y.Y.T.T.Y.Y.Y.T.T.T./.T.u.u.f.y.<.$.<.u.<.u.F.T.(.z.J 7 s K <.F.%X%X.X Xg.g.x.P.P.z.u.i.y.u.l.x.x.l.g.u.u.&.$.` $.&.<.y.<.z.u.g.Y.' y J Y.zXrXF.F. XT.Y.P.P.x.x.G.F.x.x.U.Y.P.x.l.l.l.g.g.g.f.u.u.u.u.u.f.g.g.z.g.g.u.1.",
"f.f.g.g.g.g.z.z.F.F.G.G.Y.Y.Y.Y.z.k.k.j.l.k.l.k.x.x.x.x.x.n.G.n.x.x.x.x.x.I.U.~.~.~.~.~.~.^.(.(.^.^.(.^.^.I.x.k.x.n.P.n.P.x.k.k.z.g.g.l.x.P.P.P.G.F.F.F.F.x.z.z.l.l.k.j.j.k.l.k.l.k.x.I.U.U.U.U.).(.(.~.I.x.k.j.j.j.j.j.l.k.P.I.].].].).(.~.n.x.I.n.x.x.k.j.j.j.l.F.G.Y.Y.Y.G.F.F.l.g.f.f.f.g.g.l.z.z.F.F.G.G.G.g.g.u.<.$.) ) K K j ` $.J 9. XY.:.K f a J <.<.` <.$.<.<.<.<.$.$.<.<.u.f.g.g.g.g.<.<.<.<.f.g.g.g.F.F.G.Y.Y.Y.T.T.T.T.T.Y.Y.T.(.(.XX(.(..XT.F.z.Y.u.u.l.x.P.I.U.~.T.P.G.x.z.l.z.x.l.z.F.G.Y.Y.T.Y.<.<.$.' $.$.$.$.<.<.<.<.<.<.<.y.y.u.f.g.g.g.g.g.g.g.g.l.z.z.z.z.Y.G.G.F.F.F.F.F.F.F.F.F.F.z.z.z.F.F.G.Y.G.G.F.F.F.G.Y.G.G.G.G.G.F.F.F.G.Y.Y.G.F.z.z.F.F.Y.T.T.F.z.z.F.F.F.z.l.g.g.g.f.u.f.g.l.z.f.f.g.g.z.F.G.G.T.Y.Y.F.z.g.f.u.<.$.$.f.Y..X.X/.~.~.~.U.T.P.G.x.G.k.k.j.u.u.u.u.l.l.z.k.l.k.z.x.G.x.G.x.G.x.G.G.g.g.g.g.g.g.l.z.u.u.u.u.1.<.<.<.F.Y.Y.Y.F.F.Y.(..XF.g.z.Y.z.$.J K f.T.#X#XY.z.T.F.z.g.u.l.P.).$X#X.XU.z.u.<.&.&.g.g.g.g.g.g.u.u.u.F.g.z.F.K k Y.rX.Xg.F.T.F.F.T.P.P.x.x.x.F.P.F.g.u.u.g.l.z.x.Y.T.T.T.T.T.(..X.X#X#X%X#X.X(.Y.G.",
"<.<.<.<.<.f.f.f.1.1.9.9.9.9.9.1.l.j.l.j.k.j.l.l.l.l.l.j.j.u.1.*.l.k.G.P.~.(.(.).(.^.~.~.~.~.^.^.T.I.T.I.G.k.l.u.u.u.l.j.u.u.y.1.z.F.F.G.Y.Y.Y.Y.T.T.Y.G.F.F.z.z.l.l.l.l.l.x.G.P.T.U.U.T.G.z.l.u.1.*.*.*.*.u.u.j.k.x.T.(.).(.^.U.x.k.j.*.*.&.y.u.*.*.*.=.u.u.j.j.z.F.G.G.G.F.l.g.F.z.g.f.f.f.g.g.g.f.f.<.<.' ` ` K K K K J J J J I ' ` K H f J -.J.<.Z p J r.,.K ` ` ' <.<.:.' ' ` ` ` ` ` ` ` ) <.<.<.<.<.1.<.<.<.<.f.g.g.u.<.' ` $.<.1.<.$.` ) ` ) $.<.<.<.<.f.u.u.u.u.u.u.u.u.1.u.<.%.%.%.%.' l.g.g.f.<.<.<.' ' ) ` ) ` ` ` ` ` ` ' ` ` ` ' ' ` ` ` ` ' ' ' $.' ) ` ) ' ' :.$.<.<.' ) ` J J J ` ) ` ` <.<.g.l.K.Y.Y.T.Y.Y.G.F.F.G.Y.Y.Y.Y.G.F.T.T. X.X.X(.Y.z.F.g.<.) I ` ` J ` ` ` ) ` ` ` ` <.$.' ` ` ` ` ` $.$.<.<.<.<.9.f.g.z.F.G.Y.Y.Y.Y.XX.X(. X.X XY.z.u.y.1.%.$.) ) ) ) ) ) ) ) ) $.$.$.%.<.&.%.$.%.1.1.y.u.u.u.u.u.u.f.f.f.f.f.f.g.g.z.z.g.g.f.f.1.u.u.u.u.<.<.$.<.<.<.` <.l.f.K u s <.F.T./.Y.g.<.z.F.G.T.T.Y.x.l.j.u.g.G./..XXX.X.X.XXXXX.X(.T.G.F.F.F.G.F.9.' D.%X(.g.Y. XD.F.T.F.x.F.F.G.T.T.T.T.T.~.^.(..XXX#X#X#XXX XY.G.F.F.l.<.<.<.$.' ` I K ",
",.<.{ ' ` I I K ` K I K I K I J J K K ) $.$.$.) ) ) $.$.%.$.$.$.1.u.g.l.z.l.l.l.z.z.l.g.u.u.u.u.u.u.u.u.u.u.u.u.u.u.g.l.l.z.l.z.u.f.g.g.f.1.<.<.f.f.f.g.g.g.g.g.F.F.G.G.G.G.F.z.g.f.f.u.f.f.f.g.g.u.u.1.u.l.z.G.T.T.G.z.g.1.<.%.1.1.1.y.u.u.y.y.u.y.y.1.1.y.u.u.f.u.1.<.$.$.` ` $.$.$.<.$.' ) J K K K J J J Z g J J J J J J J J Z H H Z J H a a I -. .Z y a J I J J J K I K ` I ` I I I ` ` ' ' ` ` :.' ) ` ` ` ' ` ` ) K K K K K K K K K K I ` I ) K J K ` J s J k J j J J K K I ) ` ` ' <.<.` ` ` ` I I I K ` ` ` ` ' ' ' ` ` ` ` ' ` ` _ ` ` ' ` ` ` ` ` ' <.<.' ' ` ` ` ' ' ` ` ` ) ` ` ` ` J J J J J J J J ` ` :.<.g.F.Y.T.(.(..X.X.X(.T.Y.F.l.u.<.$.` ) K J ` ` I J K K K J J J J K K K K J J K I I K K K K K K I I ` ` ` K K ` $.<.<.<.$.$.u.z.g.<.` ) ` J J J K K ) ` $.) ) ` $.$.$.$.` $.` ` ` $.$.) K K K K K K K K K ` ` ) ' ' ' ' ' ` ` ) ' $.<.<.<.<.<.<.<.<.<.<.' <.<.f.f.K 6 g g.K.G.f.<.g.l.g.l.f.u.<.%.$.%.%.%.u.<.' ) K ` $.<.<.<.<.<.<.$.<.u.g.K <.f.J ` G.g.u.F.f.<.D.g.<.<.u.u.l.z.Y.T.Y.Y.T.T.Y.G.F.g.u.<.<.<.' ` K J J J ` I K J K K ` ` ",
"` ` ` ` ` ` ` `  .`  .`  .`  .` I I I I I I I I ` ` ` I I I U U ` ` ` I ` ` ` ` ` ` ` ` ` ` I I J I I ` ` { :.<.' ' ' ` ` ` ` ` ` ) ` ) ` ) ` $.J K ` ' <.1.f.f.9.8.r.r.r.,.,.:.:.{  .`  . . .:.:.:.:.:.<.:.:.:.I I I ` ` ` ` ) $.$.' ' ' ) ) ) $.$.$.<.<.<.<.$.) ) ) $.<.<.$.$.' ) ` K K K ` ) K K I I I I P P P J J J P J J J H H H Z Z Z M M p H  .I Z t a H P J P K I I I I I J P J I I ` ` ` ' { ' { :.{ ' { ' { ' ` ` ` ` ` ` ` ` ` ` ` ` ` ` I K P J I I I I P P L P L J I I I I I I I I I ` ` ` ` ` ` `  .{ ' ` ` ` ` ` { { { ` ` ` ' ` ` ` ` ` ` ` ` ' {  . .` ` ` ` ` ` ` ` ` ` ` ` ` I I I I J J J J Z Z Z Z Z Z g g j j j j j j g g g j j J J K K K K I I I I I I I I I I I I I I I I I I I I I I I ` ` ` ` ` I I K J J J J J J J J H J J J K K I I J J J J J J I I I I I I I I I I I I I I I I I I ` ` ` ` ` ` ` ` ` ` ` ` ` ` ` ` K K J J J J J J K K I K I K ` ` I ' ` s y g 9.T.9.1.<.<.<.<.:.$.<.<.<.<.<.<.<.1.<.<.<.<.<.$.:.$.' ) ` ) ` ) ` ' I <.<.I I f.f.{ ` ` ` ` { :.:.:.f.u.1.<.<.$.$.) K K K K K ) ) ) ) ` ` { :.,.<.<.<.,.,.,.:.:.:.:.",
"P P P P P P J J P P P P P P P P P P P P P U U U I I I I I I P P I I I I I I I I ` ` I I I I I I P P I I I ` `  .I I I I I P P P I K I K I K I K <.<.,.:.{ ` ` ` I ! ! ! Q Q I I [ [ ! I Q ! [ [ I I I P P L H H I P P P P P P P J I I I I I I I { { { :.:.:.:.:.' ' ' ' { ` ` K I I I K K K K K J J J J P P L J J J J J J J J J H H Z Z Z Z Z Z Z H H H H H Z a J H J J J P J J P P P P I I I `  .`  .` ` ` I I I ` ` ` ` `  .`  .`  .`  .`  .`  .` I I I I I I I Q Q I P P L L L L I I P P P P I I I I I I I I ` ` ` ` ` ` { { ` ` ` ` ` ` ` ` ` _ _ I I ` ` ` ` ` ` ` ` ` ` ` ` ` ` ` I I I I K J J J J J J J H H H H H H H H H H H H H H H H J J J J J J J J J J J J J J J J J J J J J J J J J J J J J J J J I I I I I I I J I J J J J J J K J J J J J J P P J L L L L P P P L L P P P P P P I I I I P P I I I I I I I I I I I I I I I I I I I I J J P J J J J J J J Z Z H H H H Z Z I ,.r.:.J K I I ` ' { ' ` ` ` ` ` ` I I ` ` ` ` ` I I I ` ` ` ` ` ' :.:.:.` I I <.f.,.J I I I I I I ` ` ` ` ` K I K I K I K I K I ) ` ) P I I I I I ` ` I I I J J J J J ",
"Z Z Z Z Z Z Z Z H H H H H H H H H H H H H L L L H H H L L L L L L L L L L L L L I I I I I I I I L L L P L P P P L L L L L L L L H J P J L J P J I I I U P H H H L L L L L L P P ! ! Q Q Q Q ! ! [ [ [ [ ! I I I I I P L L L L L H J L L P I I I ` ` [  . .{  . . .` ` ` ` I J J J J J K P J J H H H H J H H D D H H H H H H H H H H D Z D Z Z Z L Z M Z P I H M D D D D D D D D J J J J L L P I H P P H L H H H P P P P P P I I I I I I I I I I I I P P P P P P I Q Q L L L L F F F F F F F F L J J J J J J H H P P I I I ` `  .I I I I I I I I I I P P J I I I P P P P I I I I I I I I I I P P J P J J J P P P J J J J J J J J J J J J J J J J J J J J J J H H J P P P P P P P J J J J J J J J H H H H H H H H H H J J J J J J P P L J J J P J J J P P P P P L L L L L L L L L L L L L L L D D D D D D D D D D L D D D D D D D H H H H H H H H H Z Z Z Z Z Z Z H H H Z M a a a H Z Z P 2.r.I p H H P P U U P U I I I I I I U U I I I I I I I I I I I `  . .:.:.-.P H  .w.-.P H H H P P P P P P H H H J H J J J H J H H H J J J H H H H H H H H H H H Z Z Z Z Z ",
"Z Z Z Z Z Z Z Z Z Z Z Z Z Z Z Z M M M M M M M Z M M M M M Z Z Z Z D D D D D D L L L L L L L P P L L L L L L D D L L L L L L L L H H H H H H H H M Z Z Z Z H H H L L L L L Q Q Q L L Q Q Q Q P P L L L L L L L L L L L L L L L L L L L P I I I ! I I I ! [ [ [ [ I I I I I I P L L J L H J H D D Z Z D D D Z D D D D D D D D D Z D Z Z Z Z Z Z Z Z Z H H Z H H H Z Z Z Z Z Z D D Z Z Z Z D D D H Z Z Z H H H H H L L L L H H H H H H H H H H H H H H H Z Z Z H H F F F D D D D D D D D D D D D D D Z Z Z Z Z Z Z Z Z H J J P P I J J J J J J J J J J J Z Z D Z H Z Z Z H H H J J P P P P P P J J J J J J J J J J H H H H H H H H H H H H J J J J D H H H J J J J J J J J J J J J J J J J J H H J H H H H H H H H Z Z H H H H Z D D D D D D Z D Z D D D J L L L L D D D L F F F F D D D D D D D Z Z Z Z Z Z m Z Z Z Z Z Z C C Z M M M M M M M M M M M M M M M M M a a Z Z M a M M H H P P I P Z a P P P P P H H H P P I I I I I ! P P I I I I I I I I ! I ! I P P I P I 3.-.H Z P H H P P P P L L H H H H H H H H Z Z Z Z Z Z Z Z H H H Z Z Z Z Z H H H H Z Z H H ",
"Z Z Z Z Z Z M M M M M M M M M M M M M M M M M M M M M M M M M M Z Z Z Z Z Z D D Z D D D L L L L L L L L D D B B M M M M M M M M M M M Z Z Z Z H Z H H H L H L L L L L L L L L L M Z Z Z Z Z Z M M M M Z Z Z Z Z Z Z D D D L L L L L L P P P P P P P I ! ! ! ! ! I P P P ! I P P P H H Z Z Z L L Z Z Z Z Z Z Z Z Z Z Z Z Z Z Z Z Z M M M M M M M M Z L Z M M M H Z Z Z Z Z Z Z Z M M M Z Z Z Z Z Z Z H L L L L L L H Z Z Z M Z Z Z Z Z Z Z Z Z Z Z Z Z Z Z Z Z Z D Z Z M M M m m M M M M M M M M Z Z Z Z Z Z M M Z Z Z Z H H H H H H H H D H D D D D D D D D Z Z Z Z Z Z Z Z Z Z H H H H H H H H L H H H Z Z Z Z Z Z Z Z Z Z Z Z M Z Z Z Z Z H H Z Z Z Z H H L L H H H H H H H H H H H H H H H H H H H H H H H H Z Z Z Z Z Z Z Z M M M M Z Z M M Z Z Z Z Z Z D D D D D D D D D D D D D D D D M M D D D Z D Z Z Z M M D D Z Z Z Z Z M M M M M M M M M M M M M M M p M M M M M M M M L P L Z Z L P M M H H L L L L H H L H L P P P H H L L L L P L I I I I P L L H L I ;.;.L M Z P H L L L H H H H Z Z Z M M a a a Z Z H Z H H H H Z Z Z Z Z Z Z Z Z Z Z Z Z Z Z Z ",
"M M M M M M M M M M M M M M M M M M M M M M M M M M ^ ^ M M M M Z Z Z Z Z Z Z Z Z Z Z Z D Z D D Z Z D M M M M M M M M M M M M M M M M Z M M Z Z L L L L L L L L H H Z Z Z M M M M M M M M M M M Z Z Z Z Z Z M M Z Z D H L L L P P P P P P P P P P I ! I ! I ! I ! ! Q P Q P P P L L D Z M Z D H Z Z Z Z Z Z Z Z Z M M M Z Z Z Z B B M M M M M M Z M M M Z Z M a Z Z Z Z Z M Z M M M Z Z Z Z Z M Z Z Z Z Z M M M M M M M M Z Z Z M M M M M M M M M M Z M Z Z Z M M M M M M M M M m m m m m m m m Z Z Z Z M Z Z Z Z Z Z Z Z Z Z Z J J J J H H H J D D H H H D D Z Z Z Z Z Z Z Z Z Z Z H H H H Z Z Z Z Z Z a a a a a a a a a a a M M M M M Z Z Z Z D Z D Z Z Z Z Z H H H H H H H H H H H H H H H H H H H H H H H H Z Z Z Z Z Z a M M M M M Z Z M M Z Z Z Z M M M M Z Z Z Z D Z D Z D Z D Z D Z M M D Z Z Z D Z Z Z M M M M M M M M M M M M M M M M M M M M M M M M M M M M M M M M L L L L Z Z Z L M M Z Z L L L L H H Z Z D Z Z Z Z Z H H H L L L L L L L L L L L U I I L H H H H H H H H H H H Z M M M M M M M M M M M M M M M M M a a M M M M M a a a a M M M M ",
"M M M M M M M M M M M M M M M M M a M M M M M M M M M M M M M M Z M M M M Z Z Z M M Z Z Z Z Z Z M M M M M M M M M M M M M Z Z Z Z Z Z Z Z Z Z Z M M M M Z H L L H H H H H H H H H Z Z Z Z Z Z H a a M a M a a p Z H H H L L L L P P P P P P P P P P P P P P P L L L L D L L F Z D D D Z M M D Z Z Z Z Z Z Z Z M Z Z M M Z Z Z Z B B B B B M M M Z M M M Z H M M Z Z Z Z M M M M M Z Z Z Z Z M M M M M M M m p p M M M M M M M M M M M M M M M M M M M M M M M M M M M M M M M M p m M a a a a M M M M Z Z Z Z Z Z Z Z Z Z Z Z Z J J J D D D D D D D D D L D D D Z Z Z Z Z Z Z Z Z Z Z Z Z Z Z Z Z Z Z M M M M M M M M M M M M M Z Z M M M Z Z Z D Z D Z M M M M Z Z Z Z Z Z Z Z Z Z Z Z Z Z Z Z Z Z Z Z Z Z Z Z M M M M Z Z M M M M D D D D M M Z Z M M M M M m Z C Z M M Z Z Z M Z Z Z Z Z Z M M M M M M M M M M M M M M M M M M M B M M M M M N N N N M M M M M M M M M M M M Q L Z D L M M M L L L L D Z M M L L D Z D Z D Z H H H H H H H H M Z M Z Z L L L P L H Z Z L H M Z Z Z Z Z Z Z Z Z Z M M B Z D Z M M M M M M M M M M M M M M M M M M M M M M M M ",
"M M M M M M M M M M M M M M M M M M M M M M M M M a M a M a M M M a M a M M Z M M M Z Z Z Z Z Z Z Z M Z M M M M M M M M M M Z Z M M M M M M M M M M M M Z Z H H H H H H H H H H H Z M a a M Z Z Z Z Z Z H H L H Z Z Z Z Z Z Z Z Z Z Z Z H H H H H H H H H Z Z Z M M M M M M M M Z D D D D M M M Z Z Z Z M M M M Z Z M M M Z Z Z B B B B B B B B M M L L Z M Z H Z Z Z Z M M M M M M M Z M M M M M M M M M M M M M M M M M M M M M M M M M M M M M M M M M M M M p a M a M a M a m p a a a a a a M M M M Z Z Z Z M M M Z Z Z Z Z D D D D Z Z Z Z C C C D D D Z Z Z Z Z Z Z Z Z Z Z Z Z Z Z Z Z Z Z Z Z M Z Z Z Z M M M M M M M M Z D D M D Z D Z M M M M M M M M M M M M M M M M M M M M M M M M M M M M M M M M a M M M Z Z Z Z M M M Z D M M M M M M M M M M Z M M M M M M M M M M M M Z Z Z M M Z C Z Z Z Z Z M M Z Z Z Z Z Z B B B B B B B B M M B B M D D D M M M M M M L L L M M M M M M L M M M M M M M M M M M M D Z D D Z Z Z Z M M M Z Z Z M M Z H L L H M M H Z M M L Z Z Z Z Z Z Z Z Z D M M M M M M B B D D D D B M M M M M M M M M M M M M M M M M ",
"M M m m m m m m M M M M M M M m M M M M M M M M M M M M M M M a M M M M M M M M M M M M M M M M Z M M M M M m m M M m m m m m m m m m p m m p m M M M M M Z Z Z Z Z Z Z Z Z Z Z Z Z Z Z Z Z Z Z D D D D L D D D D D D D D D D D Z Z Z Z M M M M M M M M M M M M M M M M M M M M M M M M M M M M M M M M M M M M M M M M M m m m M M M M M M M M m m m m m m m p M M m m m M M M m m m m M M M M M M M M M M M M M M M M M M M M m m m m m m m m m m m m m m m m M M M M m a m a p a m a m p m p a a a M M M Z Z Z Z Z Z Z M M M Z Z Z Z Z Z Z Z Z Z Z Z Z Z M M M Z Z Z Z M M M M M M M M M M M M M M M m M m V m V m V m V m V p p p p p p p p p p p p p p p p m m m m m p p p m m m m M M m m a a a a a a a a M M M M M M M Z Z Z Z Z Z Z Z Z M M M M M M M M M M M M M M M M M M M M M M M M M M Z Z Z Z M Z Z Z Z Z Z Z M M M Z Z Z Z Z Z Z Z Z Z Z Z Z Z M Z Z Z Z Z Z Z Z Z Z Z Z Z Z Z Z M M Z Z Z Z Z Z Z Z Z Z Z Z Z Z Z Z Z Z Z Z Z Z M Z Z Z Z Z Z Z Z Z Z Z Z Z Z Z Z Z Z Z Z M Z Z Z Z M M M Z Z Z M M M M M M Z Z M M M M M M M M M M M M M a M M ",
"M M M M M M M M M M M M M M M M m m m m m m m m M M M M M M M M M M M M M M M M M M M M M M M M m m m m p p p p m m p p p p p p m m m m m m m m M M M M M M Z Z M M M M M M M M M M M M M M M M C C C C C C C C m m M M M C M M M M m m m m p p m m m m m m m m p p p p p p p p m m m m m m m m M M m m m m M M M M m m m m m m M M M M M M M M m m m m m m m m p p p p p m m m m m m m m M M M M M M M M M M M M M M M M M M M m m m M M m m m M M M M M M M M M M M M m m m m m m m m m m m m a a M a M M M M M M M M M a a a M M M M M M M M M M M M M M M a M M M M M M m m m m m m m m m m p p p p p p p p i i i i i i i i i i i i i i i i p p p p p p p p m m m m m m m m m m m m M m m m a a a a a a a a M M M M M M M M M M M M M M M M M M M M M M M M M M M M M M M M M M M M M M M M M M M M M M M M M M M M M M M M M M M M M M M M M M M M M M M M Z Z Z Z M M M Z Z Z Z Z Z Z M M Z M Z Z Z Z Z Z M M M M M M M M M M M M M M M M M Z Z Z Z Z Z Z M M M M M M M M Z Z Z Z Z M M M Z Z M M M M Z Z M M M M M M M M M M M M M M M M M M M M a a M a ",
"M M M M M M M M M M M M M M M M p p p p p p m p m m m m m m m m m m m m m m m m m m m m m m m m p p p p p p p i m p m m p m m m m m m m m m m m M M M M M M M M M M M M M M M M M M M m m m m m p p p p p p p p p p p p p p p p p p p p p p p p p p p p p p p p p p m p p p p p M M m m m m m M m m m m m m m m m m p p p p p p m m m m m m m m m m p p m m p p p p p p p m p p p p p m m m m m m m m m m m m m p p m m m m m m m M M M M M M m M M M M M M M M M M M M m m m m p m m m m m m m p a a a M M M M M M M M M M M M M M M M M M M M M M Z Z Z M M M M M M M M M M M M M M M M M M M p p p p p p p i p p p p p p p p i i i i i i i i p p p p p p p p m m m m m m m m m M m m M m m M M M M M M M M M M M M M M M M M M M M M M M M M M M M M M M M M M M M M M M M M M M M M M M M M a a a a a a a a a a a a a a a a M M M M M M M M M M M M M M M M M M M M M M M M M M M M M M M M M M M M M M M M M M M M M M M M M M M M M M M M M M M Z Z Z Z Z M M M M M M M M Z Z Z Z M M M M Z Z Z M Z Z Z Z M M M M M M M M M M M M M M M M M M M M M M a a ",
"M M m m m m m m p p p p p p p p p p p p p p p p p p p p p p p p p p p p p p p p p p p m p p p p m m m p p p p p p m m m m m M M m m m m m m m m M m m m m m m M M M M M M M M M m m m m p m m m p p p p p p p p p p p p p p p p p p p p p p p p p p p p p p p p m m m m m m m m M M m m m m m m p p i i p p p p p p p p p p p p p p p p p p p p p p p p p p p p p p p m m m p p p p p p p p p p p p p p p p p p p p p p m m m M M M M M M M M M m m m m m m m m m M M M M m m m m m m m m m m m p p p p a a a M M M M M M M M M M M M M M M M M M M M M M M M M M M M M M M m m M M M m m m m m p p p p p i i i p p p p p p p p p p p p p p p p p p p p p p p p p p p m m m m m M M m m M m m m M M M M M M M M a M M M M M M M M M M M M M M M a a a a a a a a M M M M M M M M a a a a a a a a a a a a a a a a a a a a a a a a M M M M M M M M M M M M M M M M a a M M a a a a M M M M M M M M M M M M M M M M M M M M M M M M M M M M M M M M M M M M M M M M M M M M M M M M M M M M M M M M M M M M M M M M M M M M M M M M M M M M M M M M M M M M M M M M ",
"m m m m m m m m m m m m m m m m m m m m m m m m p p p p p p p p p p p p p p p p m m m m m m m m m m m m m m m m m m m m m m m m m m m m m m m m m m m m m m m m m m m m m m m m m m m m m m m m m m m m m m m m m m m m m m m m i i i p p m m m m m m m m m m m i i i i i i i i i i i i i i i i i i i i i i i i i i i i i i i i n n n n n p p p m m p p p n i i i p m m m m m n m m m m m n p p m m m m m m p p m m m m m m m M m m m M M m m m m m m m m m m m m m m m m m m m m m m m m m m m p p m m p p p p p p p p p p p p p p p p p p p p p p p p p p i i i i n n i i i i i i i i i i i i V p p p V i i i i i i i p i i i p p p p p p p p p p p p p p p p m m m m m m m m M M M M m m m m M M M M M M M M m m m m m M M M M M M M M M M M m m m m m m m m p p p p p p p p m m M M m m m m m m m m m m m m m m m m m m m m m m m m m m m m m m m m m m m m m m m m m m m m p p p p p p p p m m m m m m m m m m m m m m m m M M m m m m m m m m m m m m m m m m M M M M M M m m m m m m m m m m m m m N N N m m m M M M m m m m m m m m m m m m m m m M M M ",
"m m m m m m m m m m m m m m m m m m m m m m m m p i p m m m m m m m m m m m m m m m m m m m m m n n n n p p p p i i i i i p p p n n n p p p i p m m m m m m m m m m m m m m m m m m m m p n p n p p p p p p p p p p p p p p p p i w i i i i i i i i i i i i i i w w w w w w w w w w w w w w w w i i i i i i i i i i i i i i i i i i p p i i i i p p i i i i i i w i i i i i i i p p m m m m m m m m m m m m p p m m m m m m m m m m m m m m m m m m m m m m m m m m m m m m m m m m m m m m m m p p p p p p p p p p p p p p p p p p p p p p p p p p p p p p i i i i i i i i i w i i i i i i i i p p p i i i i i i i i i p i i i p p p p p p p p p p p p p p p p p p p p p p m m m m m m m m m m p p p p p p p p p p p p p p p p p p p p p p p p m m m m m m m m p p p p p p p p p p p p p p p p m m m m m m m m m m m m m m m m m m m m m m p m m m m m m m m p p p p p p p p p p p p p p p p p p p p p p p p p p p p p p p p p p p p p p p p p p p p p p p p p p p p p p p p p p p p p p p p p m m m m m m m m m m m m m m m m p p p p p p p p p p p p p m m m ",
"n n p p p p p p i i i i i i i i i i i i i i i i i i i i i i p p i i i i i i i i i i i i i i i i i i i i i i i i i i i i i i i i i i i i i i i i i i i p n m m m m m m m m m m m p p i i i i i i e e w w w w e e w w w w e e e e w w w w i i i i w w w w w w w w i i i i i i i i i i i i i i i i i i i i i w i i i i i i i i i i i i i i i i i i i i i i i i i i i w w w w i i i i i p m m m m m m m m m m m m p m m m m m m m m i i n n n n i i p p p p n n n p m m m p p n i i i i p p i p i i p p p p i i p i p p p p p p p p p p p p p p p p p p p p p p i i i i n n n i i i i i i i i i i i i i i i i i i i p V V V p p p p p p p p p p p p p p p i i i i i i i i i i i i i i i i i i i i i i i i i i i i i i i i i i i i i i i i i i i i i p p p p p p p p p p p p p p p p p p p p p p p p p p p p p p p p p p p p p p p p i i p p p p p p p p p p p p p p i i i i i i i i i i i i i i i i i i i i i i i i i i i i i i i i i i i i i i i i i i i i i i i i i i i i i i i i i i i i i i i i i i i i i i i i i i i i i i i i i i i i i i i i i i i i i i i p ",
"i i i i i i i i w w w w w w w w w w w w w w w w w w w w w w w w w w w w w w w w i i i i i i i i i i i i i i i i n i i i i i i i i i i i i i i i i i i i p m m m i i i i i i i i i i i i i i i i w w w w w w w w w w w w w w w w i i i i i i i i i i i i i i i i w w w w w w w w w w w w w w w i i i i i i w i i i i i i i i i i i i i i i i i i i i i i i i i i i i i i i i i i i i i m m m m m m m m m m m m m i i p i i i i i i i i i i i i i i i i i i i i i p p p i i i i i i i i i i i i i p p p i i i i i w w i i i i i i i i i i i i i i i i p p p i i i i i i i i i w w w w w i i i i i i i i i i i i i i i i i i i i i w w w w w w w w i i i i i i i i i i i i i i i i w w w w w w w w w 9 9 9 9 9 9 9 9 9 9 w w w w w w w w w w w w w w w w w i w i w i i i i i i i i p p p p p p p p i i i i i i i i i i i i i i i i i i i i i i i i i i i i i i i i i i i i i i i i i i i i i i i i i i i i i i i i i w w i i w w w w w w i w w w w i i i i i i i i i i i i i i i i i i i i i i i i i i i i i i i i w w w w w w w w i i i i i i i i 9 w w w w w i i ",
"n n i i i i w w i i i i i i i i w w w w w w w w w w w w w w w w w w w w w w w w w w w w w w w w 9 9 9 w w w w w w w w w w w w w w w w w w w w w w w i i i i i i i i i i i i i i n n i i i i i i w w w w w w w w w w w w w w w w w w w w w w w w w w w w w w w w w w w w w w w w w w w w w w w w i i i i w w w w w w w i i i i i i i i i i i i i i i i i i i i i i i w w w w w w i i n n n n i i n n n n i i i i w w w i i i i i i i i i i i i n n n m m n n n n i i i i i i i i w w w w w w w w w w w w w w w w w w w w w w w w w w w w w w w w w w 9 9 w w w w w w w w w w w w w w w w w w w w w w w w w w w w w w w w w w w w w w w w w w w w w w w w w w w w w w w w w w w w w w w w w w w w w w w w w w w w w w w w w w w w w w w w w w i i w w w i w w w w i i w w w i i i w w w w w w i i i i i i i w w w w w w w w w w w w w w w w w w w w w w w w w w w w w w w w w w w w w w w w w w w w w w w w w w w w w w w w w w w w w w w w w w w w w w w w w i i i i i i i i i i i i i i i i i i w w w w w w w w w w w w w w w w i i i i i i i i w w w w w w w w ",
"i i w w w w w w w w w w w w w w 9 9 3 3 9 9 9 9 9 9 9 9 9 9 w w 9 9 3 3 9 9 9 9 9 9 3 3 9 9 9 9 1 9 9 9 9 w w w w w 3 9 w w w w w w w w w w w w w w w w w w w w w w w w w w w w i i i w w w w w w w w w w w w w w w w w w w w w w w w w w w w w w w w w w w w w w w w w w w w w w w w w w w w w i i w i w w w w w w w w w w w w w w w w w w w w w w w w w w w w w w w w w w w w w w w w w w w w w w w w w w w w i i i i i i i i i i i i i i i i w w i i w w w w w w w w w w w w w w w w w w w w w w w w w w w w w w w w w w w w w w w w w w w w w w w 9 w w w w w w w w w w w w w w w w w w w w w w w w w w w w w w w w w w w w w w w w w w w w w w w w w w w w w w w w w w w w w w w w w w w w w w w w w w w w w w w w w w w w w w w w w w w w w w w w w w w w w w w w w w w w w w w w w w w w w w w w w w w w w w w w w w w w w w w w w w w w w w w w w w w w w w w w w w w w w w w w w w w w w w w w w w w w 1 1 1 1 1 1 1 1 w w w w w w w w w w w w w w w w w w w w w w w w w w w w w w w w w w w w w w w w w w w w w w w w w w w w w w w w i i i i i i i i ",
"w w w 9 9 1 1 1 1 1 1 1 1 1 1 1 1 1 1 1 1 1 1 1 1 1 1 1 1 1 1 1 1 1 1 1 1 1 1 1 1 1 1 1 1 1 1 1 3 3 1 3 1 9 9 9 1 1 1 1 9 9 9 w 1 1 9 9 9 9 w w w w w w w w w w w w w w w w w w w w w w w w w w w w w w w w w w w w w w w w w w w w w w w w w w w w w w w w w w w w w w w w w w w w w w w w w w w w w w w w w w w w w w w w w w w w w w w w w w w w w w w w w w w w w w w w 9 9 9 9 w w w w 9 9 w w w 9 9 9 9 1 3 3 3 9 9 9 9 1 1 1 1 9 9 9 9 9 9 9 9 9 9 9 9 9 3 3 3 3 9 9 9 9 w w w w w w w w w w w w w w w w w w w w w w w w w w w w w w w w w w 9 9 w w w w 9 9 9 9 9 3 3 3 w w w w w w w w w w w w w w w w w w w w w w w w w w w w w w w w w w w w w w w w w w w w w w w w w w w w w w w w w w 9 9 w w w w w w w w 9 9 w w w w 9 9 w w w w w w w w w w 9 9 w w w w w w w w w w w w w w w w w w w w w w w w 9 9 9 9 w w w w w w w w w w w w w w w w w w w w 9 w w w 9 w w w 9 9 w w w w w w w w w w w w w w 9 9 9 9 1 1 1 1 1 1 1 1 1 1 1 1 9 9 9 w w w w w 9 9 9 9 9 9 9 9 1 1 1 1 1 1 1 1 w w w w w w w w w w w w w w w w w w w w w w w w 9 9 9 9 1 1 1 9 ",
"3 1 1 1 1 1 1 1 < < < < < < < < < < < < < < < 1 < < < < < < < < < < < < < < < < < < < < < < < < 1 1 1 1 1 1 1 1 1 1 1 < 1 1 1 1 1 1 1 1 1 1 1 1 1 1 1 1 1 1 1 9 9 9 9 9 9 9 9 9 1 3 3 3 9 9 w w w w w w w w w w w w w w w w w w w w w w 9 9 9 9 w 9 w w 9 9 9 9 9 9 9 9 w w w w w w w w w w w w 9 9 9 9 9 9 9 9 3 3 9 9 9 9 w w w w w w w w w w 9 9 9 9 9 9 w w 9 9 9 1 1 1 1 1 9 9 w w w w 9 9 w 9 9 9 9 3 1 1 1 1 1 1 1 < < < < < < < < < < < 3 3 1 1 1 1 3 3 1 1 1 1 1 1 1 1 9 9 9 9 9 9 9 9 w w 9 9 9 w w w 9 9 9 9 9 9 9 9 w w w w 9 9 9 9 9 9 1 1 1 9 9 9 9 9 9 9 9 3 3 3 w w w w w w w w w w w w w w w w w w w w w w w w 9 9 9 9 9 9 9 9 w w w w w 9 9 9 w w w 9 9 w w 1 1 1 1 3 1 1 1 1 1 1 1 1 1 1 1 1 1 1 1 1 1 1 1 1 1 1 1 1 1 1 1 1 1 1 1 1 1 1 1 1 1 1 1 1 9 9 9 9 9 9 9 9 9 9 9 9 9 9 9 9 1 1 1 1 1 1 1 1 1 1 9 9 9 w w w w w w w w w w w w w w w 9 9 9 9 9 9 9 9 9 9 w w w w w w 9 9 9 9 9 9 9 9 w w w 9 9 9 9 1 1 1 1 1 1 1 1 1 1 1 1 1 1 1 1 1 1 1 1 1 1 1 1 1 1 1 1 1 1 1 1 1 1 3 3 3 1 1 1 1 1 1 1 1 1 1 1 1 1 1 1 1 1 1 1 1 1 1 1 1 1 1 1 1 ",
"1 1 1 < < < < < < < < < < < < < < < < < < < < < < < < < < < < < < < < < < < < < < < < < < < < < < < < < 1 1 1 1 < < < < < < < < < < < < < 1 1 1 < < < 1 1 1 1 1 1 1 1 1 1 1 1 1 < 1 1 1 1 1 1 1 9 9 9 9 9 9 8 8 9 9 9 9 9 9 8 8 1 1 1 1 1 1 1 < 1 1 1 1 1 1 1 1 1 1 1 1 1 1 1 1 1 1 1 1 1 1 1 1 1 1 1 1 1 1 1 1 1 1 1 1 3 1 1 1 1 1 1 1 1 1 1 1 1 1 1 1 1 1 1 1 3 1 1 1 1 1 1 1 1 9 9 w w 9 9 3 9 9 1 1 3 1 1 1 9 9 1 1 3 1 1 1 1 1 1 1 1 1 1 1 1 1 1 1 1 1 1 1 1 1 1 1 1 1 1 1 1 1 1 1 1 1 1 1 9 9 9 9 9 9 9 w 1 1 1 1 1 1 1 1 9 w w w 9 9 9 9 1 1 1 1 1 1 1 1 9 9 9 9 9 9 9 9 9 9 9 9 9 9 9 9 9 9 9 9 9 9 9 9 9 9 9 9 9 9 9 9 9 9 9 9 9 9 9 9 9 9 9 9 9 9 9 8 9 3 1 1 1 1 1 1 1 1 1 1 1 1 1 1 1 1 1 1 1 1 1 1 1 1 1 1 1 1 1 1 1 1 1 1 1 1 1 1 1 1 1 1 1 1 1 1 9 9 9 9 9 9 9 9 9 9 9 9 9 9 9 9 1 1 1 1 1 1 1 1 1 1 1 1 1 1 1 1 9 9 9 9 9 9 9 9 9 9 9 9 9 9 9 9 1 1 1 1 1 1 1 1 1 1 9 9 9 9 9 9 1 1 1 3 3 1 1 1 1 1 1 1 1 1 1 1 1 1 1 1 1 1 1 1 < < 1 1 1 1 1 1 1 1 1 1 1 1 1 1 1 1 1 1 1 1 1 1 1 1 1 1 1 1 1 1 1 1 1 1 1 1 1 1 1 1 1 1 1 1 1 1 9 9 9 9 3 3 9 9 ",
"< < < < < < < < < < < < < < < < < < < < < < < < < < < < < < < < < < < < < < < < < < < < < < < < < < < < < < < < < < < < < < < < < < < < < < 1 < < < < < < < < < < < < < < 1 < < < < < < 1 1 1 1 < < < < < < < < < < < < < < < < < < < < < < < < < < < < < < < < < < < < < < < < < 1 1 1 < < < < < < < < < < < < 1 1 1 1 1 1 1 1 1 1 1 1 1 1 1 1 1 1 1 1 1 1 1 1 1 1 1 1 1 1 1 < 1 1 1 1 1 1 1 1 1 1 1 < < < < < 1 1 1 1 1 1 < < < < < < 1 1 1 1 < < < < < < < < < < < < < < < < < < < < < 1 < < 1 1 1 1 1 1 1 1 1 1 1 1 1 1 1 1 1 1 1 1 1 1 1 1 1 1 1 1 1 1 1 1 1 1 1 1 1 1 1 1 3 3 3 1 3 9 9 3 9 9 1 9 9 9 9 9 8 8 8 8 < < < < < < 8 9 < 9 9 9 9 9 9 9 9 9 9 9 1 1 1 1 1 1 1 1 1 1 1 1 1 1 1 1 1 1 1 1 1 1 1 1 1 1 1 1 1 1 1 1 1 1 1 1 < 1 1 1 1 1 1 1 1 1 1 1 8 8 8 8 < < < < 8 < 8 8 8 8 8 8 1 1 1 1 < < < < 1 1 1 1 1 1 1 1 1 1 1 1 1 1 3 3 1 1 1 1 1 1 3 3 1 1 1 1 1 1 1 1 1 1 3 3 3 1 3 1 1 1 1 1 1 3 1 1 1 1 1 1 1 1 1 1 1 1 1 1 1 1 1 1 < < < < < < < 1 1 1 1 1 1 1 1 1 < < < < < 1 < < 1 1 < < < < < < 1 1 < < < < < < 1 1 1 1 1 1 1 1 1 1 1 1 1 1 1 1 ",
"< , , , < < < < , , , , , , , , , , , < , , , , < , , , , , , < < < < < < < < < < < < < < < < < < < < < < < < < < < < < , , , < < < < < < < < < < < < < < < < < < < < < < < < < < < < < < < < < < < < < < < < < < < < < < < < < < < < < < < < , < < < < < < < < < < < < < < < < < < < < < < < < < < < < < < < 2 < < < 3 3 3 3 3 3 3 3 3 3 3 3 3 2 2 2 2 < < 2 2 3 3 < < < < < < < < < 2 2 2 < < < < < < < < < < , , , , , < < < , , , , < < < < < < < < < < < < < < < < < < < < < < < < < < < < < < < < < < < < 1 1 1 1 1 1 1 1 < < < < < < < < < < < < < < < < < < < < < < < < < < < < < < < < < < < < < < < < < < < < < < < < < < < < 8 8 9 9 9 9 1 1 9 9 9 < 2 2 < < < < < < < < < < < < < < < < < < < < < < < < < < < < < < 1 1 1 1 < < 1 1 1 1 1 1 1 1 1 1 < < < < < < < < < < < < < < < < 1 1 1 < < < < < 1 1 1 1 1 1 1 1 1 1 1 1 1 1 1 1 1 1 1 1 1 1 1 1 1 1 1 1 1 1 1 1 1 1 1 1 1 1 3 1 1 1 1 1 1 3 3 1 1 1 1 1 1 1 1 1 < < < < 1 < < < < < < < < < < < < < < < < < < < < < < < < < < < < < < < < < < < < < < < < < < < < < < < < < < < < < < < < < < < ",
", , , , , , , , , , , , , , , , , , , , , , , , , , , , , , , , < < < < < < < < < < < < < < < < , , , < < < < < < < < , , , , , < < < < < < < < < < < < < < < < < < < < < < < < < < < < < < < < < < < < < < < < < < < < < < < < < < < < < < < < < < < < < < < < < < < < < < < < < < < < < < < < < < < 2 < 3 3 3 < < < 3 3 3 3 3 3 3 3 3 3 3 3 3 < < < 2 < < < 2 3 3 < < < < < < < < < 3 3 2 < < < < < < < < < < , < < < < < < < < < < < < < < < < < < < < < < < < < < < < < < < < < < < < < < < < < < < < < < < < < < < < < < < < < < < < < < < < < < < < < < < , < < < < , , , < < < < < < < < < < < < < < < < 8 q q q < < < < < < < < < 8 9 9 9 9 9 9 9 9 9 9 2 2 < < < < < < < < < < < < < < < < < < < < < < < < < < < < < < 1 1 1 1 1 < 1 1 1 1 1 1 1 1 1 1 < < < < < < < < < < < < < < < < 1 1 1 < < < < < 1 1 1 1 1 1 1 1 1 1 1 1 1 1 1 1 1 1 1 1 1 1 1 1 1 1 1 1 1 1 1 1 1 1 1 1 3 3 1 1 9 3 9 9 9 9 9 9 < < < < < < < < < < < < < < < < < < < < < < < < < < < < < < < < < < < < < < < < < < < < < < < < < < < < < < < < , < , < , < , < < < < < < < < < ",
"< < < < , , , , , , , , < , < < , , , , < , , , , , , , , , , , , , , , , , , , , , , , , , , < < < < < < < < < < < < , < , < < < < < < < < < < < < < < < < < < < < < < 2 < < < < < < < < < < < , , , , , , , < , , , , < < < < < < < < , , < < < < < < < < < < < < < < < < 2 q q q q q q q q q 8 q q q 2 q q q < < q q q q q q < < < < < < < < < < < < < < < < < < < < < < < < < < < < < < < < < < < < < < < < < < < < 3 3 3 3 3 3 < < < < < < < < < < < < < < < < < < < < < < < < < < < < q q < < < < < < < < < < < < < < < < < < < < < < < < < < < < < < < < 2 q 8 8 8 q q 8 < < 2 < q q 8 8 < < < < < < < < < < < < < < < < 2 3 3 3 3 < < < 9 3 3 3 < < < < 2 2 2 2 2 2 2 2 2 2 2 2 2 2 2 2 2 < 2 < 2 < 2 q 2 < 2 < 2 < 2 < q q q q q q q q q q q q q q q q 8 8 8 < 2 8 8 8 < < < < < < < < < < < < < < < < < < < 8 < < < < 9 9 9 8 q q q q < < < < < q q q 3 3 3 3 3 3 3 9 9 9 3 3 3 3 3 3 9 9 9 q 9 9 9 q < 8 8 8 2 < < < < < 2 < 2 < 2 < 2 < 2 < 2 2 2 2 2 < 2 < 2 2 2 2 < < < < < < < 2 2 2 2 2 2 2 2 2 < < < < 2 2 2 2 2 < 2 < 2 2 2 2 2 < 2 < 2 < 2 < ",
", , , , , , , , , , , , , , , , , , , , , , , , < < < < < < < < , , , , , , , , , , , , , < < < , , , , < , , < , , , , , , < < < < < < < < < < < < < < < < < < < , < < < < < < < < < < , < < < , , , , , , , , , , , , , , , , , , , , , , , , < < < < < < < < < < < < < < < < < < < < < < < < < < < < < 2 2 < q q q 9 q q q q < < < < < < < < < < < < < < < < < < < < < < 3 3 3 3 < < < 2 < < < < 2 2 < < < < < < < 2 < < < < 3 3 3 3 < < 2 2 < < < < < < < < < < < < < < < < < < < < < < < < < < < < < < < < < < < < < < < < < < < 2 q q 8 8 < < < < < < < 2 < < < < < < < < < < < < < < < < < < < < < < < < < < < < < < < < < < 3 3 3 3 3 3 3 3 3 3 2 2 < < 2 2 2 2 2 2 2 2 2 2 2 2 2 2 2 2 < < < 2 2 2 2 2 2 2 2 2 2 2 2 2 < < < < < < < < < < < < < < < < < < < < < < < < < < < < < < < < < < < < < < < < < < < 9 9 9 9 9 9 9 9 8 q q q q < < < q q q q 9 3 3 3 3 3 3 9 9 9 9 9 9 9 3 9 3 9 q q 9 9 q q q < 8 8 q 2 < < < < < 2 < < < < 2 2 2 2 2 2 2 2 2 2 2 2 2 2 2 2 2 2 2 2 2 2 2 2 2 < < < < < < < 2 q q q 2 2 2 2 2 2 2 2 2 2 2 2 2 < < < < 2 2 2 2 ",
", , , , < < < < , , < < < < < < , , , , , , , , , , , , , , , , , , , , , , , , , , < < < < < < , , < < < < < < , , < < < < < , , , , , , , , , , , , , , , , , < , < < < < < < < < < , < < < < , < < < < < < < , , , , , , , , < < < < < < < < 2 2 < < < < < < < < < < < < 2 2 < < < < < < < < < < 2 2 2 2 2 2 9 9 9 9 9 9 q q 2 2 2 2 2 2 2 2 2 2 2 2 2 2 2 2 2 2 2 2 2 2 2 2 < < < < < < < < < < < < < < < < 2 2 2 2 2 2 2 < 2 2 2 < < < < < < < < < < < < < < < < 2 2 2 2 < 2 < 2 2 2 2 2 2 < < < 2 2 2 2 < 2 2 2 2 2 2 2 2 < < < < 2 2 2 2 2 2 < 2 < < < < < < < < < < < < < < < < < < < < < < < < < < < < < < < < < < < < < < 2 3 3 3 3 3 2 2 2 2 2 2 2 2 2 2 2 2 2 2 2 2 2 2 2 2 2 2 2 2 2 2 2 2 2 2 2 2 2 2 2 2 2 2 2 < , , , , , , , , , , , , , , , , < < < < < < < < < < < < < < < < < < < < < < < < < < 2 q 9 9 9 q q q q q q 2 2 q 2 q q q q 9 q q 3 3 3 3 3 3 3 3 q q q q 3 3 3 3 q q q 2 2 2 2 2 2 2 q 2 2 2 2 2 2 2 2 2 2 2 2 2 2 2 2 2 2 2 2 2 2 2 2 2 2 2 2 2 2 2 2 2 2 2 2 2 2 2 2 2 2 2 2 2 q q q 2 2 2 2 2 2 2 2 2 2 2 2 2 2 2 2 2 2 2 2 2 ",
"< < < < < < < < < , < < < < < < < < < < < < < < : : : : : : : : , , < < < < , , , , < < < < < < < , < , < < < < < < < < < < < < , , , , , , , , , , , , , , , , < < < < 2 2 < < < < < < < < < < < < < < < < < < < < < < < < < < < < < < < < < < < < 2 2 < < < < < < < < 2 < 2 2 < < < < < < < < 2 2 2 2 2 2 2 2 9 9 9 q q q 2 2 2 q 2 2 2 2 2 2 2 2 2 2 2 2 2 2 2 2 2 2 2 2 2 < < < < < < < < < < < < < < < < < 2 2 2 2 2 2 < < < 2 2 2 < < < < 2 2 2 2 2 2 2 2 2 2 2 2 q q q q < < < < < < < < < 2 < < 2 2 2 < < < 2 2 2 2 2 < < < < < < < < < < < < < < < < < < , < , < , < , < , < < < < < < < < < < < < < < < < < < < < < < < < 2 2 2 2 2 2 < < < < < < < < < < 2 2 < < < < 2 2 2 2 2 2 2 2 < < < < 2 2 2 2 2 2 2 2 2 2 2 2 < < < < < < < , < < < < < < < , < < < < < < < < < < < < < < < < < < < < < < < < < < < q q q q q 2 2 2 2 2 2 2 2 q 2 2 2 q q 9 q 2 2 2 3 3 3 3 3 3 3 3 3 2 2 2 2 2 2 2 2 < < 2 2 2 2 < < 2 2 < < 2 2 2 2 2 2 2 2 2 2 2 2 2 2 2 2 2 2 2 2 2 2 2 2 2 2 2 2 2 2 2 2 2 2 2 2 2 2 2 2 2 2 2 2 2 2 2 2 2 2 2 2 2 2 2 2 2 2 2 2 2 2 2 2 ",
"2 2 2 2 2 < < < < < < < < < < < < < < < < < < < < < < < < < < < < < < < < < < < < < < < < < < < < < < < < < < < < < < < < < 2 2 < < < < < < < < < < < < < < < < 2 2 2 2 q 2 2 2 2 2 2 2 2 2 < 2 2 2 2 2 2 2 2 2 < < < 2 < < < < < < < < < 2 2 2 2 2 2 2 2 2 2 2 q q 2 2 2 2 2 2 2 2 2 2 q q 2 2 2 q q q q q q q q q q q 2 2 2 2 q q q q 2 2 2 2 2 2 2 2 2 2 2 2 q q q q 9 q q 2 q q 2 2 q q 2 2 2 2 2 q q 9 9 9 2 q q q 2 2 2 2 2 2 2 2 2 q q q 2 2 < < < < 2 2 2 2 2 2 2 2 2 2 2 2 2 2 2 2 2 < 2 2 2 2 2 2 2 2 < < < < < < < < < < < < < < < < < < < < < < < < > > > > > > > > < < < < < , < < < < < < < < < < < < < < < < < < < < < < < < < < , , < > < < < < < < < < < < < < 2 2 2 2 2 2 < < < 2 2 2 2 2 2 2 2 2 2 2 2 2 2 2 < < 2 < 2 < 2 < < < 2 < 2 < < < 2 < 2 < 2 < 2 < 2 < 2 < 2 < 2 < < < < < 2 < < < < < 2 q q q q q 2 2 2 2 2 2 2 2 2 2 2 2 2 2 2 q 2 2 2 2 2 q q q 2 2 2 2 2 < < 2 < 2 2 2 2 < < < 2 < < < < < < < 2 2 2 2 2 2 2 2 2 2 2 2 2 2 2 2 2 2 2 2 2 2 2 2 2 2 2 2 2 2 2 2 < < < < 2 2 2 2 2 2 2 2 2 2 2 2 2 2 2 2 2 2 2 2 2 2 2 2 2 2 2 2 ",
"q q 9 q q 2 2 2 2 2 q q 2 2 q q < 2 < < 2 < < 2 < < < < < < < < < < < < < < < < < < < < < < < 2 2 2 2 2 2 2 2 2 2 2 2 2 q q q q q q q q q q q q q q q q q q q q q q q q q q q q q q q 9 9 9 q q 9 9 9 9 q q q q q q q q q q q q q q q q q q q q 2 q 2 2 2 q 2 2 q q q 2 q q 2 q q q q q q q q q q q q 9 9 9 9 q q q q q q q 2 2 9 q q q q 2 2 q q q 2 q q 2 2 2 q 2 q 2 2 < < < q q q 2 q q q q 2 2 2 2 q q 9 9 q q 9 q 9 q q 2 < < < 2 2 2 2 q 2 2 < < 2 < 2 2 2 < 2 < 2 2 < < 2 2 q q 2 2 2 q q q q q 2 2 2 2 < < < 2 2 < < < 2 2 2 2 2 2 2 2 2 2 2 2 2 2 2 2 2 2 2 2 2 2 2 2 2 2 2 2 2 2 2 2 q q q q q q q q 2 2 2 2 2 2 2 2 2 2 2 2 2 < < < < < < < < < < < 2 2 2 2 2 2 2 2 2 2 2 2 2 2 2 2 2 2 2 2 2 2 2 2 2 2 2 2 2 2 2 2 2 < 2 2 2 2 2 2 < < 2 < 2 2 < < 2 2 2 2 2 2 2 2 2 2 2 2 2 2 2 2 2 2 2 2 2 2 2 2 < 2 q q q q q q 2 2 2 2 2 2 2 2 2 2 q q 2 2 q q q q q q q q q q q q q 2 2 2 2 2 2 2 2 2 2 2 2 2 2 2 2 2 2 2 2 < 2 2 2 2 2 2 2 2 2 2 2 2 q q 2 2 2 2 2 2 2 2 2 2 2 2 2 2 q q 2 2 2 2 2 2 2 2 2 2 q q q q q 2 2 2 2 2 2 2 2 2 2 2 2 2 2 2 2 2 2 2 ",
"q 9 q q q q q q q q q q q q q q q q q q q q q q 2 2 2 2 2 2 2 2 < < < < < < < < 2 2 2 q q q q q q q 9 9 q q q 9 q q 9 q q q w w w w q w q q q q w w q w q q q q q q w w v v w w w w w q q q q q q q q q q q q q q q q q q q q q q q q q 9 9 9 9 q 2 2 2 q q q q q q 2 2 2 2 2 2 2 2 2 2 2 2 2 2 2 q q q q 9 9 q q q 9 q q q q q q q q q q q 9 q q q q q q q q q q q 2 2 2 < < < 2 2 2 2 < < 2 2 < < < 2 2 2 2 2 q q 9 q q q q q 2 2 2 2 2 2 q q q q q q q q q q q q q q 2 2 2 2 9 9 q q q q 9 9 q q q q q q q q 2 2 q q 2 q 2 2 q q q q q q q q q q q q q q q q q q q q q q q q c c q q c c c c q q q q 9 q 9 q q 9 q q q q q q q q q q q q q q q 9 9 9 q q 2 2 q q q q q q q q 2 2 2 2 2 2 q q 2 2 2 2 2 q q q 2 2 2 2 2 2 2 2 2 2 2 2 2 2 2 2 2 2 2 2 2 2 2 2 2 2 2 2 2 2 2 2 2 2 2 2 2 2 2 2 q q q q 2 2 2 2 q q 9 q q q w q q q q q 9 q 9 9 q q q q q q q q q q q q w w w w w w w w w q q q q q q q q q 9 9 9 q q q q q q q 2 2 2 2 2 2 2 2 q q q q q q q q q q q q q q q q q q q q q q q q q q q q q q q q q q q q q q q 2 q q q q q q q q q q q q q q q q ",
"q q q q q q q q q q q q q q q q q q q q q q q q w w w w w w w w w w w w w w w w q q q q q q q q q q q q q q q q q q q w w w v v v v v v v v v v v v v v v v v v q w w w v w v w v w w w w w q q q q q q q q q q q q q q q q q q q q q q 9 9 9 9 2 2 2 2 q q q q 2 2 2 2 2 < < < < < < < < < < < 2 q 2 2 2 q q q q w q q w w w w q q q q q q 9 9 w w w w w w w w v v v v w w q q q q q q q q q q < < 2 2 2 q q 9 2 q q q q q q q w w w w v v v v w w w w v v v v w w q q q q q q q q q q q q q q q q 9 q 9 9 9 9 q q q q q q q q q q q q q q q q q q q q q q q q 2 2 2 2 2 q 2 q q q q q q q q q q q q q q q q q q q q q q q q q q q w w v v v v v v v v c w w q q q q q q q q q q q q q q q q q q q q q q q q q q q q q q q q q q q q q q q q q q q q q q q q q q q q q q q q q 2 2 2 2 2 2 q q q q q q q q q q q q w w v v w w w w w w w q q q q q q w q q q w w w v v v v v v n n v v v v v v w w w c w w w w q q w q q q q q q q q q q q q q q q q q q q q q q q q q q q q q 2 2 2 2 q q q 2 2 2 2 2 2 2 2 2 2 2 2 2 q q q q q q q q q q q q q q q q q q q q ",
"w w w w w w w w w w w w w w w w w w w w w w w w w w w w w w w w w w w w w w w w w w w w w w w w w w v v e w w w w w w w w w w e n n v v v v v v e e n n m m v v w w e e e w w w w w w w w w w w w w w w w w w w w w w w w w q q 9 9 q q q q q q w w 9 q 9 9 9 9 < < q q q 9 9 9 w w w w w w w w w w w w w w n n v v v v v v n n n v w w w w w w w w w w w w w w n n n n n n n n v v v v w w w w w w w w w w w w w w w w w w w w v v e e w w w w 9 9 w w w w w w w 9 9 9 9 9 9 9 9 q w w w 9 9 9 q q 9 9 9 9 9 9 9 9 w w w w w w w w w w w w w w w w w w w w w w v v v v c c c c q q c c c c q q q q 9 9 9 9 9 w w 9 w 9 9 w w w e e v v m m m m n v v v v e e e v v v c w q q q 2 2 q q q q q q w w w q q q w w q q q q q q q q c c c q q q q q c c q q q q q q q q 2 2 2 q q q c c c c c c c c w w w w v v v v w w w v v v v v w w w w w w w w w w w w w w v v w w w e e v e e e e e e v v v v w w w w w w w w 9 9 9 9 9 9 q 9 w w w q q q q q q q q 9 q q q q q q q q q q w q 9 9 9 9 9 9 q q q q q q q q q w q q q q 9 9 q q q q q q q q q q w q w q q q w w ",
"e e v v v v e e e e e e e e e e w w e e e e w w v v v v v v v v v v v v v v n n v e v v v v v v w v m m n v v v v v e e e e v v n p v e v e m m v p n m m m m m e e e e e e e e p p n m m m m m w w e e e e w e w w e e w w w w w w w w w w 9 w w w w w w w w w 9 9 9 9 9 w w w w w w v w w w w w v v v v n n n m m m m m m m m n n n v v v v n v v v v n n n n m m m m m m m m m m m m m n m n v v n n n v v v e v e e v v v v n n v n v v v v e e e e e e e e v v w w w w w w v v v n n v v w w v w v v v v n w w v e v v e e w w e v v n n n n n n n n n n n v v b v v v v v c w v w v w c w w w w w w w e v v w v v v e e v e v n m m m m m m m m m m n n n v v v w w w w w v w v v v n v e n v v v v v n n v w v w v w v v c c v w c w c q c q q q q q q q q q q q q 9 q q c w c w c w c w w w w w w w v w q 9 w w w w c w w w v v v v v v w w w w w v v v w w w w e e e e e e e e v v v v v w v v v w w w w 9 9 9 q q q q w w w q q q q 9 w w w w q w q 9 q 9 q 9 q 9 q 9 w 9 q 9 w w q q q q q q 9 9 q w q 9 q w w w w w w w w w w w w w v w v w v w v w ",
"w w w w w w e e e e e e e e e e w e w e e w w w e e e e e e e e w w e e e e e p e e e e e e e e e n n n e e e e e e e w w e e e p p n p m m m m p p m m m m m m m p m p m p m p C C C C C C C C m m m m m m m m m m m m m m m m p p p p w w e e w w w w w w w w w w w w w w w w e e w e p p p p e e p p p n p p m m m m m m m m m m m m m m m m m m m m m m m m C C C C C C C C C C C C C m m m m m m m m m m m m m m m m m m m m m m m m m m m m m m m m m m m n n n n n p p p p n n n n p p p p p p n p n n n n n n n n n n n n n n n m m m n m m m m n n m n n n n n v v v v v v v w v w v w v p p n m m n n n n n n n n m n p m m m m m m m m m m m m m m m n n v e n i w w w w v p n e w w w w w w e e v p w w w w w w w w w w w w w 9 q q v w w w q q q 9 q q q w w w w w v w v w w w w w e w w w w w w w w w w p n n m n n m m m m m n n m m m m m m m m p n m m n m m m m m m m m m m m m m m m m m m m e e p p w w w w w w v w v w w w w w w w w w w w w w w w w w w w w w w w w w w w w w w w w w w w w w w w w w w w w w w w w w w w w w w w w w w w ",
"w w w w w w e e e e e e e e e e e e e e e e e e e e e e e e e e w w e e e e p p e e e e e e e e m m m m m p m m m p e e e e e e p p p p m m m m m p m m m m C m C C C C C C C C C C C C C C C C m m C C C m C m C C C C C C C m n n n n n p n p p p p p n p n p e e w w w i w e e w e e p p p p e e e p p p p p n p n n n n m m m m m m m m C C m m m m m C m m C m m m m m m C C C C C m m m m m m m m m m m m m m m m C C C C C C C C C C Z Z C C C C C C m m m m m m m m m m n n n n n m n p n p n p n p n p n n n n n p n p n p n p m m m n n m m m m n m m n n n n v p v p n p v w w p n n p p n m m m n p n n m m m m n n m m m m m m m m C C C C C m m m n n n n p p p p w w e e w w w 9 w w w w w w i w w w w w w w w w w w w w w w w w n p v e v w w w w w v p v w w w w w v w w w w w n n n n n n n p n n m m m C Z Z m m m C C m m m Z Z Z Z C C m m m m m m m m m m m C C C C C C C m m m m m m m m p p p p n p v e p p p w p e e p p p w w e e w w n p p p e w w w w w w w w w w w w w w w w w w w w w w w w e e e w w w w e e e e p p p p p p p p ",
"m p m p m p m p m m m m m m m m m p m p m m m m m p m p m p m p m p m p m m m m C C C m m m m m C C Z C C C C Z C C m m m p m p p p p p m p C C C C C C Z C Z C C C Z Z C Z Z C C f C f C f d p p p m p m m m m m m m m m m m p m p m m m p m p m p m p m p m p m p n p n p p p n p p p m p n p n p n p n p m p m M m C Z Z Z Z m m m M C C m M m m m m C C C M C C m m m m C C C C C C C C C C C C C C m C C m C C C C C Z Z Z C C C C Z Z D Z D Z C C C C m m D Z Z Z Z Z Z Z m C m C Z M m M m m m m m m m m m p m p m p m p m p m p m p m p m p m p m p m m n n m m m p n p n n p p p p m m m m m m m m m p m p m M m m m m m p m C C C C C C C C C m m m m m p m p m p p p m p m p p p p i p p p p p p n p m p m p n p n p p p p p p p m m n n n p p p p p p p n n n n n p p p p p p p p p m m m n n n p p p p n m m m m m m m Z C C C m m m m m p m m m p m p m p m p p p m p m m m m m m m p m p m p m p p p p p p p p p w w w w w p e p p p p p p p p p w i w 0 w w w w w i w i w w w w w i w 0 w w w w w 0 w i w p p p p p p p p p p p n p n p n p n p ",
"m p m p m p m p C d C C C C C C m p m p m p m p C d m p m p m p C C C C C C C C C C C C C C C C C C Z C C C C C C C m p p p m p C d C f C C C C C Z D Z D Z D Z Z Z Z Z D Z D Z Z Z Z Z Z Z Z C Z Z Z Z Z Z Z Z Z Z Z C Z C C C M a M p m p m m m p M M M a M C Z C C C M M C M C C M C C C C C Z C C C C C C C Z C Z C Z Z D D C C Z C Z C C M Z C C C C C C C Z C Z C Z C Z C Z Z Z Z Z C Z C Z Z Z Z Z C Z C Z C Z C Z Z Z Z C C Z Z Z Z D D Z Z Z Z C C C C Z C Z C C C C C C C Z C Z C C C C m C M M p m p C C C C C C C C C C C a M a M M C C C C M M M M m m C m m m m m m m m m m m m m Z C Z Z Z Z C C C C Z D D Z Z C m C C C Z C C C Z C Z C C C C C m m m m M m m m M M C m m m p p m m m m p m m M m m p m m m m p p p p p p n m m m m n n p p p p m m m m m m m m m m m m m m m m m p m p m p m m m m m p m m m M m a C C C C m p C C C C C C C C C C C C C C C p C C C C Z C Z C Z C Z C Z C Z C M M M a m p m m p p p p m m m m m m p p p p p p p p p p p p p p p p p p p p p p p p p p p p m m p p p p p p p p p p p p m m m m p p p p p p p p ",
"C f C d C f C f C f C f C f C f C d C f C f C f Z Z Z Z Z Z Z Z Z Z Z Z Z Z C d Z Z Z f C C Z C C Z Z Z Z C C C G Z C f C f C C D Z D Z A A A A D A A A J A A A A A A A A A A A Z A A A A A A A J J F J F A F F F A F A A A A D C C C C C f C f C f C f C C C C Z Z D C C f C C Z C C C Z Z Z Z Z Z Z Z C C Z Z C f C C C C C C D Z D Z D Z C C D Z D Z D Z Z Z D D D D A A A A F A F A A A A A A A F A D D A A Z Z Z Z Z D Z D Z Z Z Z A A Z A Z D Z D Z Z D Z Z C C C C C C C C C C C C Z C C C C C C C f C a Z Z Z Z D Z D Z Z Z C Z Z f C C C C C C C C C C C C C C C M M M M C Z Z Z Z Z Z D D D D D Z D Z D D D J L D D Z C Z Z Z Z Z Z Z Z Z Z Z Z Z C C C C C C C C C C C C C C M M p p M M m m p C a C C f C C C p m m m m m m m m C C C C M m m m m m M M M M M C C Z M M M M M m M m M a M C C C Z C D D Z Z Z C Z C C C Z Z Z C C C D D D D D D L H L J F A F A A A F A F A F J F J L L L J L J L H D D D Z D Z D D Z Z Z Z D D D D C C C C C M M M C C C C C C C C C C C C C C C C D D D Z C C Z C C C C C C C C C Z Z C C C C Z C C M C C C C m m ",
"A A A A A A A A A A A A A A A A P P P P P P P P P P P P P P J J P L J J A D A Z A A A A A D A A A A P I P L A A P J J J J J L P A A J J J J J J A J J J J J J J A A A A A A A A A A A J J J J J A A A A A A A A A A A A A Z Z Z Z Z Z Z Z Z Z Z f a Z f Z Z Z Z Z Z C C f f C f C C C C Z Z Z Z Z Z C C C Z Z Z Z Z C C C Z Z Z H J L J J D D Z H H H H J J D D A A A A A A A A A A A A J J J J A A A A A A A D A D A D A D A A Z Z Z D A A A A A A A J A J A J P L J J J H J H H H J H H H H H J J J H H H H Z Z Z Z Z Z Z Z Z Z Z Z Z Z f C C C C C C C C C C C M C M M a m a C Z D Z D H D D L J D D Z Z Z Z Z Z H J J J D Z Z Z Z A A A Z Z A A D D Z Z Z Z Z Z D Z D Z D Z Z Z Z Z Z C C C D Z D C C C Z Z D Z D D D Z D D D D D D D D L L D D D Z Z C C C C C Z C C C Z D Z C Z C Z C Z C Z Z D Z D D D D D D D Z D Z Z Z D H H J J H H D D D D H H H J J P P P L L A A A J J J J P L L L L J J J J H H H Z Z Z Z Z Z Z C C C C C Z Z D D Z Z Z Z Z C Z C C Z C Z Z D D D D D D D H D D D Z Z C C C C C C H H H D D D D D D H D D D D D D J J J J J J J J ",
"J J J J J J J J J J J J J J J J L L J J J J J J L J J J L I I J J J J J K J J J J J J J J J K I I I I I P I I I J P P P I I L L P P L J J L L P L L J J J J J J Z Z Z J J J J Z J J J J J J H Z J J J J J J J J J J J J K K K K H H H H H H H H H H H H H H H Z D D D Z Z Z Z Z D D D D A A A A D D D H J L L L Z D D D H D J J L L L L L I I I L L L L L L L L L J J J J J J J P P P P I I I I L P L J J J J J J J J J J J L P J J J J K J K K K K J J J J J J H H H H H H J H J H H H H H J J J J H Z g f f g J J J J J J J J H H J J J J D D D Z Z D L L D C L Z M M Z H L Z Z H H H H L J H J J P J P J P J H J P J J J P J J J J H J J J J K K K J K J K J J J L J L J L J H H H H H H H H D D D H D Z D Z C Z Z Z Z Z Z C C C Z Z D D H J H H H H H J J J J J L L L L L L L L L L L L L L I I I I L J D Z C Z Z Z Z H H H H J J J J P J J P J J J J H H H L L L L P P I I I J D D A D D J J L P I P L L J L L J L J J J H J J H D Z C f f f f f C Z Z C f Z Z D Z Z D D D H D D D D D D D J J P I I I P P J J P P P J J J J J J J J J J J J J J J J J J J ",
"K K K J J J J J J J J J J J J J I I I P P P I I J J J J J I L J K K J J J J H H J K K I ` ` I I I I I I I I I _ P P I I ` ` ` ` I P P P L P I I ` ` ` ` ` ` ` ` ` ` I I J K I ` J K K I I I J J J J J J J J J J K K K K K K K K ` I I I I I I I J J H J H H H H J J A J A A J L Z Z Z Z Z D D D D D D D H H H H L L L I I I I I L L L L I I I I L L L L L L L L I I P L J J I I P P P P I I I I P P P P P P P P J J J J L L P J J J J J J K K K K K J J J J J J ` ` ` I I I P P P P J H H H H J H J J J J I I I J J J J J J H H f Z Z H J P P I ` I L L D L P I L L P L a M H H H P P H H U I J I I I I I I I I P I I J J J P J J J J J K I I I K K K K K K K K K I I I I I I I I I I I I I I I J J J P P P P P I P J H Z Z Z Z H H H H H H H H J J J J J J J J J L L L L L L P L J J J J J J J H J J J H H H H J J H H H J J J H J J J P P P P P P P P P P P P L L L L L P P P I J D D D Z Z D J L L L L L J J L J L J J H H H J J J J D Z Z Z L J J J L J H Z Z Z D H J J L P H H J J L J L P P J I I I I I I I J P J P J J J L J L J L J P J L J L J L J L J ",
"I I I I I I I I P P I P I I P P I K J J J I I I I J J J K I I K K K I I K J J J J K I ` ` ` I I ` ` ` ` ` ` ` ` _ ` ` ` ` ` ` [ I I I I I I ` ` ` ` ` ` ` ` ` ` K ` ' ' ) ` ` ` ` ` ` ` ` ` I K I I I I K K K K I I I I I I I I J J I P I I  .` I U J H J J J H A J J P J J L L J J J J J J J J H H H H H H H H I I I I I I I I I I P I I I I I I I I I I I P P _ _ I I I I I I J J J J K K K K I I I I I I K K K K I I I I I I K K K K I I I I I I I I I I I I I P I P I I I I I P I P P P L L P I I I P I I I J L I I I L J J J J J J J J P P H P I I P J J L C I D L 4.P p  .I ! I P I I  . . .` [ ` [ ` ` ` I ` ` I I I I P I I I I I I I I I I I ` I I I I I I I I I I I I I I I I I ` I I J J K K I I I I ` I J Z f Z H H H H J J J J I K J J J J J J J J P P P I I I I I P J J J J J J P L J J J J J J J H H H Z H H J J J J K I I I I I J J J J J J J J I I I I P I I I J D Z J P P I I I I P P P P P I I I P P P P J J H H H H H H J J P J J J P J P J H H J J J J P J J J P J I I I I I I I P I I I I L P L P P P P P P I P I P I I I P I P I P I P I ",
"I I I I I I I I I I I I I I I I I K I K I K I _ _ I I K ` ` ` ` I I I I _ _ _ _ I I ` ` ` ` ` I ` ` ` ` ` ` ` ' { ' { ' { ` ` ` I I I I I ` ` ' ` ` ` ` ` ) ) ) I ` ` ' ' ' ` ` ` ' ' ' ` ` ` ` I I I I _ _ _ _ I I I I I I I I J J J P I I I I I I J P I I P J J J I I I K I K I I I I I K I I P J P J P J P J I K P J I K I I I I I I I I I I ` ` _ ` I I I I ` ` _ K I K I I I K I K I K I K I I I I I I I K _ ` I I I I I I I I I I I I I I _ _ _ _ I I I I A H J L L P I I I I P P P P P I I I I I P P L L I I _ ` _ I I P ` I I J J J J J f H I I I I P L ! P [ q.6.I I r. .{ { [  .{ -.{ { { { {  .[ [ [ I [ ` I I ` ` I ` ` ` ` I I I I I I ` ` ` ` ` ` I I I I I I I I I I I I ` ` I I I K I I ` ` ` ` I K J H J J I ` ` ` ` ` ` I I I I K I K I J J J K K I I I I I K I J P J P J P K I K I J J J J J Z g H J J K I K I ` ` ` ` ` I I I K I K I K I K I I I I I I I I P H H J I I I ` { ` ` I I I I ` ` I I I I I I I J J J K K K I I J J J J I I I I ` ` I I I K K J K K I K I I I I P P L L L L L I I I I I I I I I I I I I _ _ _ I _ _ I I I I I I ",
"I I I I I I I I I I I I _ I I I ` ) ` ` ` ` ` ` ` ` K ) ` ` ` ` _ `  . . . . . . . . . . . . . .' ` ` ) ' ` ' ' :.$.:.' ' ` ` ` ` I I K ` ` ' ' ' ' ' ' ' ' ' ' <.$.` ) ) ' $.$.' ' ' ' ' ) ) ` ` ` [ [ [ [ [ ` _ _ _ I I I I I  . .[ [ ` I I I I I L P P I I I _ ` ` ` ` ` ` I _ ) _ ) I K I K ` ` I I I I I K I I I K I I I I I I I I I I I I ` ` ` ` ` ` ` ` ` ) ` ) I K ` ) ` ) ` ) ` ) ` ) ` ) ` ) ` ` ` ` ` ` ` ` ` ) ` ` _ _ _ _ _ _ _ _  ._ _ _ _ I I P [ [ [ I I P P L P I I I P I I I P P P _ _ [ [ [ [  .[  .[ [ [ _ I K K J J K K K { ` I J ` :.r.w.S.{ J.H.f P D...{ ,.,.{ ,.,.<.{ { { { { {  .[ [ `  .[ _ [ {  ._ [  .{ { ` ` _ ` ` ` ` ` [ [ [ ` ` ) ` ` ` ) ` ) ` ) ` ) ` ) ` ` ' ' ' ' :.$.<.$.` ` ` ` ) ` $.$.f.u.<.<.' ` I K I K K K K J K K K K I K I K K K I K I K K K I K K J J J J k J J K ) ' $.<.$.' ` ` ) ) ` ` K K K ` ` ` ) ` K K I ) ) I I I I I K ` K K K I K K K ,.<.{ ` ` ` ` ) ` ` ` ` ` ` ` ` ' ' :.$.<.$.<.<.` ) ) ) ' $.:.$.<.$.:.$.' ` ` ` ` ) I K I K K K I I P L L L P P P P I I I I I I I _ I I ` ` ` ` _ _ _ _ _ _ _ _ ",
"I I I I I I I I _ _ _ _ _ _ _ _ ` ` ) K K K K K ` ` ) ) ` ) ) ` ..........{ .. ...{ {  . . .{ ..' ' ` ` ' ' $.$.) ` ' ' ' ' ' ' ` ` ` ) ` ) ' ' ' ' ' ' ' ' ' ' <.$.' $.$.' ` K ' ' ' ' ' ' ' ' ' {  . .{ { { { ` ` ` ` _ _ _ I I I _ ` ` ` ` ` _ I I I _ ` _ _ ` ) I K I ) ` ` ' ' ' ` ` ) ` ` ) ) ` ` ` ` ) ) I I I I I I I I ` ` ` ` ` ` ` ` ` ` _ ` ` ` I I ) ) ) ) ) ) ` ` ` ` ` ` ) ` ) ) ` ` ` ` ` ` ` ` ` ` ` ` ` ` ` ` `  . .` ` ` ` `  .` ` _ _ I I I I I I I P P P P I I I I I I _ _ _ I P P P _ _  . .{  . . . . . .<.$.$.' ) ` ` ` <.' ` { ,.9.9.8.r.A.` y I Z.d.{ { ,.<.,.,.<.<.{ ,.,.,.,.{ { { { { { { ` { ,.{ ` I I [ [ ` ` ` ` { [ [ [ ` ` ` ` ` ` ` ` ` ` ) ` ` ) ) ) ) ) ) ) ' ' ' $.$.$.$.$.' $.' ' $.$.$.$.$.$.' ' ) ` ` ) ` ` ) ` ) K K K ` ` ` I K K K K K K K K K K K K J K K K ) ) ` ) ' $.<.<.<.$.` ` ) ) ) K J J J J K K K K K K K K ) ) ` K K K K K ` K I ` $.' $.$.<.$.' ` ` ) ` ) ` ` ` ` ) ) ` ` <.<.<.<.<.<.<.<.<.<.$.$.$.$.' ` ) ) ) ) ` ` ` ` ` ) ` ) K K J J ` ` I I I I _ _ I I I I I ` _ _ ` ` ` ` ` ` ` ` ` ` ` ` ` ` ` ` ",
"` _ ` ` ` ` ` ` ` ` ` ` ` ` ` ` K K K K ) ) ) ` ' ` ` ` ` $.$.' <.......<.......................$.$.$.$.$.$.$.<.) ) ` ' ' $.$.$.` ` ` ` ` ` ' $.` ` ' ' ' ' ' ' ) ` <.<.' ) ` ) ' ' ` ' ` ' ' ' ' { { { { { { { { { { ` ` ` ` ` J J ( ` ' ' ' ..' ' ` ` ` ` ` ` ` ) K K ) ) ' $.<.<.<.$.$.$.$.$.$.$.$.$.$.$.$.$.) ) ) ) ) ` ` ` ` ` ' ` ' ` ) ) ` ` ` ` ` ` ` ` ) ) ) ) ) ) ) ) ` ` ` ` ` ` ` ` ` ` ` ] ` ` ` ` ` ` ] ] ] ] ` ` ' ' ' ' ` ` ` ` ` ` ` ` ` ` ` ` J J P I _ _ _ _ _ ` _ _ _ _ _ _ ` _ _ _ _ _ _  .4.<...........,.f.1.1.<.<.$.$.$.) $.<.9.9.<.` K J { 6 6 Y.Y._ ..<.<.y.<.<.<.<.<.<.,.,.,.,.,.,.,.<.<.,.{ ,.,.:.` J I ` { ` ` ` ' { { { { ' ' ` ` ` ` ` ` ` ` ` ` ` ` ` ` ` ` ` ` ` ` ` ` ` ` ` ' $.$.' ` ` ` ` ` J J K ) ) ` ` ' ` ` ` ` ` ) ` ) ` ` ` ` ` ` ` ` ` ` ` ` ` ` ` ` ` ` ` $.$.$.<.<.$.$.$.$.` ) K J J J J J J J J J J J J J J K ) ) ` ` ` ) ` ) ) ) ) K ) ' <.<.<.1.' ) ` ) ) ) ) ) ` ` ` ` ` ` ' ` $.$.$.$.$.$.$.$.<.%.' ` ) ) ) K K K K ( ) ( ) ) ) ) ) ) ) ) K K ` ` ` ` ` _ I I I I I I _ ` ` ` ` ` ` ` ` ` ` ` ` ` ` ` ` ` ` ` ",
"` ` ` ` ` ` ` ` ` ` ` ` ` ` ` ` ` ) ) ` ` $.<.<.<.<.$.$.$.<.<.<.] ' ' ' <.<.<.<.<.y.y.y.y.y.<.<.<.<.<.<.<.<.<.<.' ' $.$.$.' ` ` $.' ` ` ` ` $.$.$.$.<.<.<.<.<.<.<.<.$.) k K u.Y.$.$.$.' ' ' $.$.' ' ' ' $.$.$.$.$.$.' ' ' ` ` ` <.<.y.y.y.y.<.<.<.&.' ] ] ` ` ) $.$.' ` $.<.u.g.<.<.<.$.$.$.$.$.<.<.<.<.<.<.<.<.<.<.$.$.$.$.$.$.' ' ' ' ' ' ` ` ' ' ' ' ' ' ' ' ) ) ) ) ) ) ` ` ` ' ' ` ` ` $.` ] ] ] ` ` ` ` ` ] ] ] ] ] ] ] ] ' ' ' ` ` ` ` ` ) ` ` ` ` ` ' ' <.<.......' ' ' ..' ` ` ` ` ) _ ) _ ( _ ` ..y.f.f.p.y.y.<.y.p.y.$.$.$.%.<.<.<.<.<.<.<.<.' I K K K + g .XY.' <.&.y.y.y.&.&.*.y.<.<.<.<.1.<.<.<.<.f.f.<.<.<.<.<.) ' <.<.<.<.' $.<.<.<.$.$.' ' ` ) ` ` ` ` ' ' ' ' <.<.<.<.<.<.<.<.$.$.$.$.$.$.$.$.<.$.$.' ' $.$.$.$.$.$.$.$.$.$.$.$.$.$.$.' ` ` ` ' ' ' ' ` ` ` ` ' $.' ' ' ' $.$.' $.$.$.$.$.$.$.$.' ` ) ) K J K J J K K ) ) ) ) K K ) ` ` $.$.$.' ' ' ` ` ` ` ` ` ) ) ` ` ) ) ` ) ) ) ) ) ) ` $.` $.$.' $.$.$.$.$.$.$.$.$.$.$.$.%.$.` ) ) ) ) ) ) ) ) ) ) ) ) ) ) ) ) ) ) ) ) ) K ) ) ) ) K K K K K K ) ) ` ` ` ` ` ` ` ` ) ` ) ` ` ` ` ) ) ` ` ",
") ) ) ) ) ) ` ) K ) ) ) ` ) ) ) K ` ` $.$.$.' ` ' ` ) ` ` ` ) K ] ] ] ] ] $.&.y.&.&.' ' ' ] ] $.<.$.$.$.$.$.$.` ` ` ` ) K K K K ) ) ` $.$.$.$.` $.K $.<.) ` <.$.f.$.j s <..XT.$.' ' ' $.$.$.$.$.$.%.%.%.%.u.u.1.u.u.u.u.g.l.l.l.i.u.y.u.z.I.P.b.u.y.$.] ( ) ] $.` $.1.u.u.u.%.$.<.%.$.%.%.$.$.$.$.%.$.<.<.<.1.1.1.1.<.<.%.$.<.<.<.<.<.<.<.<.<.u.u.u.<.<.$.$.$.$.) ` ` ' $.$.$.$.$.$.$.$.$.$.$.$.&.' ] ] ] ' <.<.] ' $.$.' ` ( J g k ( ] $.&.<.y.&.&.] ] ] ( k k ` ( J ( ] &.' ) ( ( ( ( ( ( ( ] ` ] <.y.<.&.] ] &.' ] ' ' &.<.<.<.<.<.%.$.) $.%.l.1.<.) K J K J - k (.b.&.&.) =.) ) &.=.i.=.&.&.u.y.y.y.y.y.y.y.u.y.&.&.&.<.y.u.<.$.` ) ) $.$.&.` $.%.&.&.$.` ` $.` ` ` ` $.$.<.` $.<.<.<.<.&.$.<.<.<.$.$.$.$.$.' ` ` ` ` ` ` ` ` ' $.$.$.$.<.<.$.$.$.$.$.' ' $.` ` ` ` ' $.$.$.` ` ) ) ` ` ] ) ) ) ) ) ` ` ` ) ` ` ) ) ) ` ` ` ` ` ` ` ` ` ` ` $.$.$.$.$.` ' ' ` $.$.&.$.$.` ` ` ` ` ` ` ` ` ` $.$.$.$.$.&.&.y.%.&.<.y.y.y.<.$.$.$.&.&.&.&.$.$.$.$.) ) ) ) ) ) &.$.$.` ] ] $.$.) ) ] ) ) ) ) ) ) ) ) ( K ( ( ( k ( ( ) ) ) ( ( l l l l K K K ( ) ( ( K K K ( ( ",
"1.1.<.%.%.%.%.%.<.<.<.%.$.$.%.%.$.<.<.<.<.<.$.$.$.$.$.$.<.<.<.%.) ] $.&.&.&.&.&.*.*.&.] ] ] ] ( K J J J J K K K ) ) K J J J J J ` $.$.$.%.%.$.$.<.) ) ` $.1.g.u.s y ) T. Xu.) <.<.<.<.<.<.<.<.<.u.u.u.&.%.1.y.1.&.&.1.y.u.u.u.u.k.i.y.i.l.b.b.k.l.k.U.^.(.^.U.U.P.G.z.g.u.<.%.$.1.%.%.1.1.%.$.$.$.$.$.$.$.$.$.$.) ` $.$.$.%.$.$.$.$.$.` ` ` ` $.' ` ` ` ` ` ' ' f.u.1.<.<.$.` ` ` ` ` ` ` ` ` ` ` ] ] ' ' ' ` ` <.' ] J ( ` <.u.R.R.R.(.^.R.U.U.).(.^.R.U.U.I.P.u.y.y.y.&.&.$.] g.g.g.u.u.u.u.u.z.g.<.` ) ( ] ] ] ] ] ] ] ` ] ` $.$.%.$.$.$.<.<.1.$.` K K ) f - g I.6Xb.#.&.&.] *.k.U.^.`.].(.U.n.k.k.k.l.l.k.u.=.u.u.u.y.&.&.) $.$.$.&.$.$.) ( $.) ( k k k ( ) ` ` ` ` ` ` $.$.$.$.$.<.<.<.y.y.$.$.$.$.$.' ' ' ` ` ` ` ` $.$.$.' ' ` ` ` ` ` ` $.$.' $.$.$.$.$.$.' $.` ' $.$.$.$.$.$.<.<.<.<.<.f.u.g.f.g.g.g.g.f.f.u.u.g.g.g.g.g.g.g.g.g.g.g.g.1.y.y.1.<.<.<.<.u.u.u.u.u.y.<.&.$.$.$.$.$.$.$.$.` ) ) ( J J J J ) ) ) $.%.1.y.y.` $.$.$.$.) ( ( $.$.$.) ) ) ) ) $.$.$.$.$.$.$.$.&.&.&.$.$.$.$.$.$.&.&.] ) ) ) ) ) ) &.&.&.&.&.&.*.*.*.*.*.%.%.&.u.u.*.*.%.%.&.&.",
"k.l.l.l.u.u.u.u.u.u.u.y.1.1.y.u.l.l.g.g.g.f.u.1.<.<.<.<.1.u.u.u.P.U.(.).).(.^.^.^.(.@X;XwXsXgXcXzXsXwX%X.X(.(.(.F.F.F.F.F.F.F.F.f.g.l.z.z.z.l.g.g.T.T.G.F.<.j y K <.T.XXY.1.<.f.g.g.g.g.g.g.g.g.l.j.i.u.u.k.x.P.P.P.P.I.I.U.~.~.^.^.U.U.^.^.^.^.].].'.(.(.^.^.^.@X.X~.Y.G.F.F.G.x.z.z.F.z.l.g.l.f.f.g.l.F.F.G.G.l.l.F.G.G.G.G.G.Y.Y.Y.F.F.F.Y.Y.z.z.z.z.z.F.F.F.f.g.f.u.1.<.<.<.u.u.1.<.<.<.<.<.<.<.y.u.u.<.<.<.) ` $.u.z.Y.(..Xl.k.k.k.j.j.u.u.u.i.u.k.P.U.^.^.$X&X-X&X*X@X$X-Xk.z.z.b.P.b.x.z.z.U.@X-X;X).F.u.u.i.l.P.U.(..X@X%X-X,XwX>XXXG.f.J ) K K I 6 7 <.wXwX'.k.] ] i.n.eXjXbXhXaXhXaX=X].).(.(.(.(.(.^.n.x.j.k.k.n.~.(.^.^.(.(.(.^.P.x.x.x.x.x.x.x.x.x.Y.Y.F.l.u.u.<.<.f.f.u.u.u.u.g.i.g.g.z.z.F.F.G.G.Y.Y.Y.Y.Y.Y.Y.Y.F.F.F.F.z.z.l.g.f.f.u.u.u.f.f.g.f.f.u.u.u.u.u.u.<.<.<.y.u.f.u.y.u.u.1.1.<.<.y.u.g.g.g.g.g.g.g.l.z.z.z.z.z.z.z.z.Y.Y.Y.Y.Y.Y.Y.Y.T.~.^.^.^.U.Y.P.U.U.U.U.U.U.U.U.T.U.Y.Y.Y.Y.P.Y.z.g.u.u.u.g.g.g.x.x.x.G.x.x.x.k.u.u.u.y.u.u.u.u.&.&.) ) ) ) $.$.%.&.&.=.y.y.u.u.u.i.i.i.i.i.i.i.u.k.k.k.n.n.n.n.I.n.n.x.x.k.k.j.x.k.j.j.j.j.j.j.",
"-X-X-X-X-X-X-X-X%X%X%X%X#X%X;X-XwXwX,X>X>X>X-X-X%X%X%X%X%X%X%X%X@X$X;X-X-X;X$X$X;X;X#X@X(.U.Y.P.Y.T.T.(..X%X>XrXrXrXrXdXdXrXrXrX>X>XwXwXwXwXwXwX%X>X/.$.J j k `  X-X%XF.f.Y./.G.G.G.F.F.F.z.l.g.G.G.P.I.~.).@X#X;X;X;X;X;X#X#X#X=X=X$X$X#X#X#X$X6XeXgXcXgX7X*X^.P.T.T.U.T.~.~.~.T.Y.T.T.T.F.z.F.F.F.G.G.Y.T././.T./././././././.Y.Y.Y.T.T.T.R.(..XXXXX.XXX.X.X XG.Y.Y.Y.T.T.T.T.Y.Y.Y.G.G.F.F.F.F.F.F.z.z.F.F.G.Y.T..X@X.X(.Y.z.(.(.).).XXXX@X@X.X).).).).).(.^.I.R.(.R.T.R..X#X-X-X>X-X>X-X-X-X-X%X(.T.^.#XwXsXwXwXwXwXwXwXwX>X>X>XrXrX>XXXl.<.j J ` J 6 7 <.dXsX-XU.7XcXgXbXbXDXDXDXcXaXhXaX-XsXsXdXwX-X#X#X#XI.^.).#X=X$X@X).;X$X$X@X@X@X@X@X).@X@X$X$X$X@X@X(.)..X.X.X#X#X$XT.T.Y.G.F.F.Y.Y. X X X.X.X.X.X.X#X#X#X#X@X.X.X.X%X%X%X%X%X%X%X%X(.(.T.T.T.Y.Y.Y.T.T.Y.Y.Y.T.T.T. X X X X.X.X(.T.T.T.Y.Y.Y.Y.Y.Y.Y.Y.Y.Y.Y.Y.Y.Y.T.T.T.T.T.T.T.T.G.G.Y.Y.Y.Y.Y.Y.Y.U.U.U.T.Y.P.P.T.T.T.T.T.T.T.T.(.)..X.X#X#X$X%X#X).T.Y.F.x.z.z.P.P.Y.U.U.T.~.~.).).).).@X@X@X@X;X;X;X;X;X;X-X-X$X&X;X;X-X-XwXwXwXwXdXdXsXsXsXsXsXcXcXbXbXbXcXcXeXeXwXwX-X-X-X-X-X-X=X=X#X#X;X;X",
"G.G.F.F.F.G.G.G.G.Y.G.G.G.G.T.T.F.z.l.g.g.g.f.g.g.g.g.f.f.f.f.g.f.g.l.z.l.l.g.l.u.u.u.u.u.u.u.f.g.l.l.f.1.<.1.f.f.f.g.g.g.g.g.g.l.l.l.l.z.z.l.l.Y.F.K 6 u ' G.%XOXY.g.g.F.G.G.K.F.D.D.g.g.g.g.g.<.%.1.1.u.y.1.1.u.u.u.u.1.1.1.1.&.=.*.&.&.$.$.&.&.$.) ( ] $.=.u.1.u.g.g.l.g.f.u.g.g.g.l.g.1.<.1.9.f.9.1.<.<.1.<.f.9.9.<.<.<.<.1.g.z.G.Y.G.G.G.G.Y.Y.Y.Y.G.F.F.z.G.G.G.G.F.F.F.F.Y.Y.Y.Y.Y.Y.Y.Y.T.Y.Y.G.G.G.G.Y.z.z.F.F.G.G.Y.Y.F.F.z.z.z.z.z.z.F.z.l.g.g.u.y.1.g.g.g.u.y.u.f.g.F.z.g.f.u.u.<.<.<.<.u.f.g.f.u.u.f.u.u.u.u.1.<.<.1.<.$.$.$.$.' ) J s J y - F.zXXXG.Y.u.T.qXxXbXeX>X-X(.x.l.x.P.P.^.@X;X;X$X$X;X>X;X;X;X;X#X).U.P.T.I.F.x.x.F.Y.Y.U.Y.F.F.F.U.(.XXT.T.T.(..X.XXX#X%X%X%X#X@XXX.X.XR.T.T.Y.F.F.g.g.<.<.<.<.<.<.<.<.<.<.<.y.y.u.f.f.F.F.z.g.g.g.g.g.g.g.g.A.F.F.F.F.g.g.A.A.F.F.g.f.F.F.F.g.g.g.z.F.g.g.g.g.g.z.z.z.F.F.F.F.F.F.F.F.F.F.G.G.G.Y.Y.Y.F.F.F.F.F.F.F.F.z.F.F.F.F.F.F.F.z.F.F.Y.Y.T.T.T.T.T.Y.Y.Y.Y.F.F.F.P.P.Y.T.U.T.U.P.P.P.P.P.Y.Y.Y.P.Y.Y.U.Y.Y.Y.Y.(.(.^.T.T.T.T.T.U.U.U.^.^.^.^.^.U.T.T.U.U.U.P.P.U.T.T.T.P.P.G.G.G.G.x.x.x.x.x.x.",
"g g g g g g g g J J H g g f g j K K K K J J J J J K K K K K K ` ` ` ` ` ` ` ) ' <.$.$.$.' ' ) ` ` ' $.$.$.' ' $.$.$.$.$.$.$.$.$.$.$.$.$.$.$.$.$.` J s H 9.Y.Y.T.d.:.' f.g.<.<.<.<.<.<.<.<.<.<.9.f.u.f.l.g.f.<.<.<.<.<.<.<.1.1.1.<.<.y.<.<.&.&.<.) ` &.u.u.u.<.&.<.<.<.<.<.<.<.<.$.$.<.<.<.` ) ' ' ' ` ` ) ` ) ` ` ` I K K I I ` J K ` ` ` K J J ` ` ' ' ` ` ` ` ` ) ) ) ) ) ` ) <.<.<.1.f.f.g.g.g.F.F.F.z.f.1.<.g.g.1.<.' ) ` ) ) ` ` ) K K K K J J J K ` ' ' ` J J A g g g g A J J A g g A A J K K K K J J J J g g J K ` :.<.<.K J j j k J K K f J y 0 d.%XQ.,.{ K h s g g ` ` K g s g g k K $.K $.1.u.u.u.z.Y.(.Y.g.$.' $.u.g.<.<.<.<.<.<.<.<.$.$.' $.<.<.u.f.g.f.u.<.<.' ' ` ' ' ' <.<.$.' ' <.<.<.<.$.' ' ' <.<.<.u.f.g.g.g.<.<.<.<.<.<.<.<.' ' ' ' ' ' ' ' ......<.<.<.<.<.d.d.d.g.A.F.A.g.F.z.z.g.g.g.z.z.F.F.F.F.F.F.G.G.F.F.F.F.F.F.F.F.F.F.F.F.F.F.F.F.F.F.F.F.G.Y.Y.Y.Y.Y.Y.T.T.T.T.T.Y.Y.Y.Y.Y.Y.Y.Y.F.F.G.Y.T.T.Y.Y.R.R.R.T.T.T.T.T.T.T.U.Y.Y.Y.Y.Y.P.P.Y.Y.Y.Y.P.Y.z.z.l.l.g.g.g.g.g.g.g.g.f.u.u.u.<.<.` ) ) ) ` ` J J J J J J J J K K J k k g g g ",
",.,.,.,.,.,.,.,.,.,.,.,.{ { { { $.$.:.:.:.:.$.$.' ' <.:.' ' ' $.{ { { {  .{ -.r.-.-.-.-.-.-.-.:.<.:.<.<.<.<.<.<.9.9.<.1.<.<.9.1.u.u.u.u.u.u.u.f.9.K J ,.g.Z.q.{ ` { { ` ` { { I ` ` ` ` { { { { { { ,.8.q.,.{ { { { ,.,.,.,.,.,.<.<.<.<.<.<.<.<.f.f.<.' ' :.<.<.<.<.<.<.<.<.<.<.<.<.<.<.$.) ) <.$.:.:.:.:.:.,.,.{ { ` ` ` ` ` ` ` ' ' ' ` ` ` ` K K K ( ( ) ` ` I ` ` ` ` ` ' ' I K I ` ` ` ' ' ' :.<.<.<.:.` I J K ` ' :.' ` ` ` ` ` ` `  .{ {  .` I I I P H Z Z A J J D J J I J J J I I I ` ` I I I I I I I I I I P P I I I I I ` ` ` K H f a a I y J .XZ.a ` D a J [ I f p I J Z Z K I K ` ' ' ' ` K f a u d u u s g g g g f A A A J P J A Z f Z J P P P A Z g g J J J J J J K K K _ ` ` _ _ J K K ( ` ` ` ` ` ` ' ' ' ' ' ' <.<.<.....' ' ' <.......<.<.<.<.......,.,.<.<.8.,.,.,.<.8.p.8.<...<.<.<.<.<.<.<...' ..{ ..<.<.<.' ' ' ' ' ' ' ' ' ' ' ' ' ` ` ` ' ' $.$.<.<.<.<.f.f.f.g.g.g.g.g.z.z.z.F.z.g.g.g.g.g.g.g.z.z.g.g.l.g.g.g.f.f.u.u.u.u.u.u.1.1.u.u.<.<.1.1.<.<.<.<.f.f.g.g.g.g.g.g.z.g.g.g.g.g.g.g.G.F.g.g.d.g.Z.F.g.g.g.g.g.D.D.D.l.g.f.f.<.<.<.<.",
"[ ` _ I I I I I I I ` [ ` ` `  .` ` ' ` ` ` ` ` ` { { { ` I I I I I ` I I `  .{  . . . . .[  .[ ` ` I I ` ` ` I ` I I I K I I K K K K J K J K K ` Z [ Z.d. .I H I I `  .{ { {  . . .[ ` ` ` ` I _ I ` { { I P I I I I P P P L P L J L I I I I I I ` { <.8.<.,.:.` ' ' $.' ` ` K ' ' <.<.' ` ` :.:.:.:.{ ` ` ` ` `  .` ` ` ` I I ` ' ' ) ` ` ' <.' ' ' ' ' ' ' :.{ { { { ' ` ' ` ' ` ` I I I I I I I I I I ` ` ` :.:.{ { ` ` I I { { [ [ [ [  .[ [ [ I I I I I P L I I I L J L I P P I I P J D D L L L J L L L P J H D D L I I I J J J J Z f f f ` t I Z.I Z I C L L { Z C ` D L A J J J J J J J I J J J P I I P I I L L J J J J L L A D J L J J I I L J A L P I J J J J J J J J J J J J J J J J J J J J J J J J I I I I K J J J J J J J J J J J K K J J J J J J Z A D D D J J J I J J J J J J H Z Z J J J J J J L J L J I K I K I I I I I I I I J J J J J J J J J J J J J J J J Z j J J J J J J J J I ` ` ` ` ` ` I I K I K I K I K J K J J J J J J J J K ) ) ` ` ` ` ` ` ) ` ` ) ` ` ` K K K I ` ` I ` ` ` { <.I ` { :.,.:.{ ' ,.:.,.:.,.<.,.,.{ { { ` ` ` ` ` ",
"D Z D H D Z D Z J H J H J H J H P P P P P P P P J H J H H H H H Z Z Z H H H H L L L P P P P P P P P I L H H H H J H J H J H J H H H D L P P H Z D ! r.r.[ P I { I I I P P P P P L P L L L L L L L L L L L L L L D H D H D Z D Z D Z D H D H H H L P I P I I I I { I I J J I { :.,.:.{ ` ` I I J I I I I I I I I I I I I P P P P I I I I I I I I J J H H H H J J H H H H H H H H H H H H H H H H Z Z Z H H L L L L L L L P P P P I I I I I I I I P L H H H H H H L L L L L L L L D Z D Z Z Z Z Z Z Z Z Z Z Z Z M Z Z Z Z Z Z Z Z Z Z Z Z Z Z Z Z y P  .P Z Z H H D Z Z H Z H H H H H H H H H H H L L L L L L L L J J J L L L L L H J L L P L P P L L L L L L L L P P P P P P P P J J J J J J J J H H H H H H H H L L L L J J H H H H H H H H H H L L L L L P P P D H H J L L L L D H H H D D Z Z D D D D Z Z D Z Z Z Z Z Z Z Z Z D D D D D D D D Z Z Z Z Z Z Z Z C C C C C C Z Z H D L J L L L L L L P P I I I I I I ! I [ [ [ [ I I I I ` ` `  . . . . . .` ` I I I I I I P P J J J J J J J H H H Z D Z Z Z C Z C f C Z C Z Z Z Z Z Z Z Z Z Z Z Z Z Z Z Z Z Z Z ",
"a a a a a a a a Z Z Z Z Z Z Z Z Z Z Z Z Z Z Z Z Z Z Z Z Z Z Z Z Z Z Z Z Z Z Z Z H H H L L L L L H H H H Z Z Z Z Z Z Z Z Z Z Z Z Z Z Z H L L Z Z Z L P P L Z Z L Z Z Z Z M Z Z Z Z Z M Z M M M M Z Z Z Z Z Z Z Z Z Z Z Z Z Z Z Z L L L L L P P P L L P P P P P I I I I I I  . .-. . .I I I P P P P P P P P U P P P P P P H H H L Z Z H Z Z Z Z Z Z Z M M M M Z Z Z Z Z Z Z Z M M Z Z Z Z Z Z Z Z H H H L L L L L Z Z Z Z Z H H H Z Z Z Z Z Z Z Z H H Z Z Z Z Z Z Z Z Z Z Z Z Z Z Z Z Z Z Z Z Z Z Z Z Z Z Z Z Z M Z Z Z Z Z Z Z Z Z Z Z Z Z Z Z Z Z P I H Z H H Z D H H H H H H H H H H H Z Z Z C H H Z Z Z Z Z Z M M M Z Z Z Z Z M Z Z Z Z Z Z Z H H H H H H H H P P P P P P P P L L L L L L L L L L L L L L L L Z Z Z Z Z Z Z Z Z Z Z Z Z Z Z Z Z Z Z Z Z Z Z H Z Z Z H H L L L M Z Z Z Z Z Z M Z Z Z Z M B Z Z M M M M M M M M M M M M M M M M M M M M M M M M M M M M M M M M Z Z Z D D D D L L L L L L L L L L L L P P P Q P L H P P P P P P P P P P P P P P P P P P L H H H H H H H H H H H Z Z Z Z Z Z Z Z M M Z Z Z Z Z Z a a a a a a a a M M Z Z Z Z M Z ",
"a a a a a a a a a a a a a a a a M M M M M M M M Z Z M Z Z M M M M M M M M Z M Z Z Z Z Z Z Z Z Z Z Z Z Z M M M M M M M M M M M M M Z Z Z Z Z Z Z L L Z M Z Z Z M M M M M M M M M M M M M M M M M M M M M M M M M M M Z Z Z Z H H L L L L P P P P L P P P P P P P P P I I ! ! I I L L H H H H H H H Z Z H Z H Z Z M Z Z Z Z M M M Z Z Z M M M M M Z Z Z Z Z Z Z Z Z Z Z Z Z Z Z Z Z Z H H Z H Z Z Z Z Z Z Z Z Z Z Z Z Z Z M M M M M M M M M M M M M M Z Z M M M M Z Z M M M M M M Z Z M M M M M M M M Z Z Z Z Z Z Z Z Z Z Z Z Z Z Z Z Z Z M Z Z Z L L H M M L L M Z Z Z Z Z Z Z Z D D Z Z Z f C f Z Z Z M M M M M M M M M M M M M M M Z Z Z Z Z Z Z Z Z Z Z Z Z Z H H H H H H H H H H H H H H H H H H H H H H H H Z Z Z Z M M M M M M M M M M M M M M M M M C M M Z Z Z Z Z Z Z Z a M M M Z Z Z Z M M M M M M M M M M M M M M M M M M M M M M M M M M M M M M M M M M M M M M M M M M M Z Z Z Z Z Z Z Z Z Z Z Z Z Z Z Z Z Z H L L Z Z Z Z Z H H L H L L L L H H Z H H H H Z Z Z Z H H Z Z Z Z Z Z Z Z Z Z Z Z Z Z Z Z Z Z Z Z Z Z M Z Z Z Z Z M Z M M M M M M M M ",
"M M M M M M M M M M M M M M M M Z M Z Z Z Z Z Z Z a a a M M a M M M M M M M Z Z Z Z Z Z Z Z Z Z Z Z Z Z M M M M M M M M M M M M M Z Z Z M M Z H P Z M M Z Z Z Z Z Z Z M M Z Z Z Z Z Z Z Z Z Z M M M M M M M M M Z Z Z Z Z Z H H H H H H Z Z Z Z Z Z H H H H H H Z H L P P H Z Z M M M M M M Z Z a a a a a a a a a a a a a a a a Z Z Z Z Z Z M M Z Z Z Z Z Z Z Z Z Z Z Z Z Z Z Z H H H H H H H H Z Z Z Z Z Z Z M Z Z M M M M M M M M M M M M M M a M M M M M a p M M M M M M M M a a a a p p p p M M M M M Z Z Z M M M M M M M Z M M M M M M M M Z Z M p M Z Z M C C C C C C C C C C C C C C C C M M M M M M M M M M M M M M Z Z M M Z Z Z Z Z Z a a a a a a a a a a a a a a a a M M a a M M M M M M M M M M M M Z Z Z M M M M M M M M M M M M M M M M M M M M M M M M M M Z Z Z M M Z Z Z Z Z Z Z Z Z Z Z Z Z Z M M M M M M M M M M M M M M M M Z Z Z Z Z Z Z Z M M M M M M M M M M M M Z Z Z Z Z Z Z Z Z Z Z Z M M Z Z Z Z Z Z M M Z Z Z Z Z Z Z Z Z Z Z Z Z M Z Z Z Z Z Z Z Z Z Z Z Z Z Z Z Z Z Z Z Z Z Z Z M Z Z M Z Z Z Z Z Z Z Z Z Z Z Z Z M M M M M M M M ",
"a a a a a a a a M M M M M M M M M M M M M M M M a a a a a a a a M M M M M M M M M M M M M M M M Z Z Z Z M M M M M Z Z Z Z Z Z Z M M Z M M M Z L M M M Z Z Z Z Z Z M M M M M Z Z M M M M M M M M M M M Z Z Z Z Z Z Z Z Z Z Z Z Z M M M M M M M M a M M M M M M M M Z Z Z Z a a p a a a a a a a a M M M M M M M M Z Z Z Z Z Z M M a m M M M M M M M M M M M M M M M M M M M M M M M M M M M M a a Z Z Z Z Z Z Z Z M M M M M M M M M M M M M M M M p a M M M M a p m m m m m m p p p p p p p p p p M M M M M M M M M M M M M M M M M M M M M M M Z M M Z M M Z Z Z a M a M a a a a a a a M M M M Z M M M M M m m m p p p m m m m a p p p p p p p p p p p p p p p p p p p p a p a p a a p a p p p p m m m m m m m m M M M M M M M M M M M M M M M M Z Z Z M M M M M M M M M M M M M Z Z Z Z Z Z M M Z Z Z M Z Z Z Z Z Z Z Z Z Z Z Z Z Z Z Z Z Z Z Z Z Z Z Z Z Z Z Z Z Z Z Z Z Z Z Z Z Z Z Z Z Z Z Z Z Z Z Z Z Z Z Z Z Z Z Z Z Z Z Z Z Z Z Z M Z Z M Z Z Z Z Z Z Z Z M M M Z Z Z Z Z Z Z Z Z Z M M M Z Z Z Z Z M M M M M M M M Z Z Z M M M M M M M M Z Z Z Z Z Z Z Z ",
"M M M M M M M M M M M M M M M M a a M M M M M a a a a a a a a a m m m m m m m m m m m m m m m m M M M M M a M M M M M M M M M M M M M M M M Z D M M Z Z Z Z Z D Z Z Z M M M Z Z M M M M M M M M M M M M M M M M M M M M M M M M M M M M M M a a M M M M M M M M a a a a a a a a Z M M M a a a a a a a a a a a a a a a a a a a M m m m m m m m M p p p p p m p p p p p p p p p p p p p p p p p p p p m m m M M M m m m M m m m m p p p p a a p p p p a M M M M a M M M M m m m m m m m m m m m p M M M M M M M M M M M M M M M M M M M M M M M M p M Z Z Z Z Z Z M M a M a a Z Z Z Z M a a a a a p p p p p p p p p p p p p p p p p p p p p p p i p p p p p p p p p p p p p p a a a a a a a a a a M M M M M M M M m m m m M M M M M M M M M M M M M M M M M M M M M M M M M M M M M M M M M M m m M M M M M M M M M M M M M M M M M M M M M M M M M M M M M M M M Z Z Z Z Z Z Z Z Z Z Z Z Z Z Z Z Z Z Z Z Z Z Z Z Z M Z Z Z Z Z Z Z Z Z Z Z Z M M M M Z Z Z Z Z Z M M M M Z Z Z Z Z Z Z M M M M M M M M M M M M M M M M M M M M M Z Z Z Z Z Z Z Z Z M Z Z Z Z Z Z ",
"M M M M M M M M M M M M M M M M M M M M M M M M m m M M M M M M p m m m m m m m m m m m M M M M a M M M p p a M a a a a a a a a M M M M Z Z Z Z Z D D D Z Z Z Z Z Z Z M M M M Z M M M M M M M M m m M M M M M M m m m m m m m m M M M M M M M M M M M M M M M Z a a a a M M M M M M M M M M M M p p p p p p p p p p p p p p p p m m m m m M M M m m m m m m m m p p p p p p p p p p p p p p p p i i i i i p p p p m m m m m m m a a a a a a a a p p p p a a M M M M M M M M M M m m m m m m m m M M M m m m m m m M M M M M M M M M M M M M M M M M Z Z M M a M a a a a a a a a M M M a p p p p p p p p i i i i p p p p p p p p p p p p p p p p p p p p p p p p p p p p m m m p M m M M m m m m M M M M M M M M p p m m m m m m M M M M M M M M M M M M M M M m M M M M M M M M m m M M M m m m a a M M M M M M M M M M M M M M M M M M M M M M M M M M M M M M a a a a M M M M Z Z Z Z Z Z Z Z Z Z M M M M M a M M Z Z M M M M Z Z Z Z M M M M M M M M Z Z Z Z M M M M M M M M Z Z M M M M M M M M M M M M M M M M M M M M Z Z Z Z Z Z Z Z Z Z M M M M M M M M ",
"m m m m m m m m p p p p p p p p p p p p p p p p p p p p p p p p m m m M M M M M M M M M M M Z Z m M M M a p a M a a a a a a a a M m m m Z Z Z M D M M m m M M M M M M m m m m m m m m m m m p p m m m M M M M M p m m m M M M M M M M M M m m m m m m m m m m m M M M M M M a p p p a a M M M M M M M M M M M M M M M M M M M M i i p p p p p p p p p p p p p p p p p p p p p p i i p p p p i i m m m m p p p p m m m m m M M M m a a a a a a a p p p p p p M M m m m m m m m p m m m m p p p m M M M m m m m m M M M M M M M M M M M M M M M M M M p a p p p i i i i i i p p p p p p p p a p p p p p p p i i i i i i i i i p p p p p p i i i i p p p p m m m m p p p p p p p p m m m m m m m m M M M M M M M M m m m m m M M M M M M M M M M M M M M M M M M m m m m m m m m m m m m M M M M M M M M M M M M M M M M M M M M M M M M M M M M M M M M M M M M M a a a a a a a a M M M M a a a a a a a a a a a a a a a a a a a a M M M M M M M M a M M M M M M M M M M M M M M M Z Z M M M M M M M M M M M M M M M M Z Z Z Z Z Z M M M M M M M M M M M M M M M M ",
"M M M M M m m m m m m m m m m m p m m m m m m m m m m m m m m m m m m N m N m m m m m m M M M M m m m m m m m m m m M m m p m m m m m m m m m m m m m m m M M M m m M M M M M M m m m m m m m M m m m m m m m m m m m m M M m m M M M M M m m m M M M M M m m m m m M M M M M M m m M M M M M M M M M M m m m m M M M M M M M M M M M M m m m p m m m m m m m M M m m m m m m m m m m m m m m m M M m m m m m m m m m m m m m m m m m m m m m m m m m m m p p p m m m m m m m m m m m m m m m m m m m m m m m m m m m m m p p p p m m m m m M M M M m m p p p p m p p p p p p p m m p p p p p p p p i i i i i i m m m m m m m m m m m m m m m m m m m m m M m m m m m m n p n n m m m m m m m m i i i i i i i i n n n n i i i i i p n m m m p p n m m m m m m m M M M M M M m m m m m m m m m m a a a a M M M M a a a a a a a a p p p a p p p p p p p p p p p p p p p a a a a a a a a a a a a a a a a a a a a a a a a a a a a a M M M M M M M M M M M M M M M M Z M M M M M M m M M M M Z Z Z Z M M M M M M M M M M M M M M M M M M M M M M M M M M M M M M M M ",
"m m m m m m m m m m m m m m m p p p p m m m m m m m m m m m p p i i i i i i i i i i i i i p p i p p p p p p p p p p p p p i p p m n i i i i i i w w i i i i i i p p p p p n n n m m m m m m m m n n m m m m m M M M M M M M M M m m m m m m m m m m m m m m m m m p p m m m m m p p p p m m m m m m m m m p p p m m m m m m m m i i m m m m m m m m m m m m m m p p p p p p p p p p p p p p p p m m m m m m m m i i i i n n p p p p p p p p p p M M m m m m m m m m m m m m m m m m m m m m m m m m m m m m m m M M M m m m m m p p p p p p p p m m p p p p p p p p p p p p p p p i i i i i i i p p i i i i i i i i i i i i i i p p p p p n n n i i i i i n i i m m n p p p i i i i i i i i i i i i i i i i i i i i i i i i i i i i n n p p i i n n m m m m m m m m m m m m m n m m m m m m m m p p i i p p p p p p p p m p p p p p p p p p p p p p p p p p p p p p p p p p p p p p p p p p p p a a p p a p p p a a a a a a a a m m m m m m m m M M M M M M m m M M m m M M m m m m m m M M M M M M M M M M M M M M M M M M M M M M M m m m m m M M M M M M M M ",
"m N m m m m m m m m m m m m m m n n n n n m m m m n n n n i i i p p p p p n n p i p n n p p i i p p p p p p p p p p p p p i p p p i i i i i i i w w w w i i i i w w i i i i i i i i i p n p p p i i i i p p p m p p n n p p p p i i i i i i i i i i n n n n n i i i i p p p n n p p p p m m m m m m m m p p p p m m m m m m m m m m m m m m m m m m m m m m m m p p p p p p p p p p p p p p p p i i i i i i p p i i m m m m m m p p p p p p p p m p p p p p p p m m m m m m m m m m m m n n p i n p i p p p p p m p p p i i i i i i i i i p p p i i i i i i i i i i i i i i i i i i w w w w w w i i i i i i i i w w w w w w w w i i i i i i i i w w w w i i i w n i n n i i i i i i i i i i n n i i i i i i i i i i i i i i i i i i i i i i i i i i n p m m p i i i n n n i i i n n p p p p n n p p i p m p m p p i i i n p n p m p m p m p m p p p p p m p m p p p p p p p p p p p p p p p p p p p p p p p p p M M M M M M M M m m m m m m m m m m m m m m m m m m p m m M m m m m m m m m m m m m m m m m m m M M M M M M M M m m m m m m m m M M M m m m m m ",
"m m m m m m m n n n n m m m m m n n n n n n n n i i i i i i i i m m m m m m m m m m m m m p p i p p p p p p p p i p p p i i i i i i i i w w i i i i i i i i i i w w i i i i i i w w i i i i i i n i i i w w w w w w w w w w w w i w w w w w w w w w w w w i i i i i i i i i i i i p p p p p p p i i i i i i i i i i i i i i i i m m m m m m i i m m m m m m m i m p p p p p p p i i i i i i i i i i i i i i i p p p p p m m m m p p p p p p p p i i i i i i i i i i i i i i i i i i i i i i i i i i i i i i i i w w w w w w w w i i i i i i i i w w w w w w w w i w w i i i i i w w 3 3 1 9 w w w w w w w w w w w w w w w w w w w w w w w w w w i w w w i i i w i i i i i w w w i i i i i i i i i i i i i i i i i i i i i i i i i i i i i i w w i i i p i i i i i i n n n i i i i i i i i i i i p p p p m m m m p p p p n m n n m m m m m m m m m m m m m m m m m p p m p p p p p p p p p p p p p p p p p p p p M M M M M M M M m m m m m m m m p p m m m m p p p p p p m m m m m m m m m m m m m m m m m m m m m m M M M M M M m m m m m m m m m m m m m p p p ",
"n n n n n n n n n n n n n n n n n n n n n n n n n n n n n n n i i i i i i i i i i i i w w w w w i i i i i i i i w w i w w w w w w w w w w w w w w w w w w w w w w w w w w w w w w w w w w w w w i i w w w 9 1 1 w w w w w w w w w w w w w w w w w w w w w w w w i i i i i i i i i i i i i i i i i i i i i w w w i i i i i i i i w i i i w w w w i i w w w w w w w w w w w w w w w w w w w w w w w w w w i i i i w w w w w w w w i i i i i i i i w w w w w w w w i i i i i i i i i i i i w w w w w w w w w w w w w w w w w w w w i i i w w w w w 9 w w w w w w w 3 3 3 3 3 w w w w w 3 3 3 3 3 w 1 1 9 9 w w w w w w w w w w w w w w w w w w w w w w w w w n w w w w w w w w w q 9 9 9 9 9 9 9 w 9 9 9 9 3 3 9 9 w w w w w w w w i i i i i w w w i i i i i i i i i i i n i i i w i i i i i i i i w w w w i i i i n n n n n n n n m m m m m m m m m m m m m m m m m m m m p p p p p p p i i i i i i i i i i i i i p p p p p p n n i i i i i i i i i i i i i i i i i w w i i p p i p p p i i i i i i i i i i i i i p p p p p p n p i i p p p m m m m m m p p p i i ",
"n n n n n n n n w w w w v v v v w w w w w w w w w w w w w w v v w w w w w w w w w w w w w w w w w w w w w w w w i i i i i w i i i i i w w w i i w w w w w w 9 3 9 9 9 9 9 9 9 9 3 3 w w w w w w 9 9 9 9 9 1 1 1 w w w w w w w w q q q q 9 9 9 9 q 9 q w w w w w i i w w w w w w w w w w w 9 3 3 w w w w w w w w w w w w w w w w 1 1 9 w w w w w w w w w w w w w w w w w w w w w w w w w 9 w w w 9 9 9 9 w w w w w w w w w w w w w w w w w w w w w w w w w w w w w w w w w w w w w w w w w w w w w w w w w w w w w w w w w w w w w w w w 9 9 9 9 1 1 1 1 1 1 1 1 1 1 1 1 1 1 1 1 3 3 1 1 1 1 1 1 1 1 1 1 9 9 9 9 1 1 1 1 3 3 9 9 9 9 9 q 9 9 q 9 9 3 3 3 9 w 9 9 9 9 3 3 3 3 3 3 3 3 3 3 3 3 3 3 w w w w w w w w w w w w w w w w w w w w w w 9 9 w w w w w w w w w w w w w w w w w w w w w w w w w w w w w w w w i i i i i i i i w w w w w w w w w w w i i i i i w w w w w w w w w w w w w w w w w w w w w w w w 9 9 9 9 9 9 3 3 1 1 1 1 1 1 1 1 1 9 9 9 9 9 9 1 1 1 1 1 w w w w 9 9 9 9 9 9 9 9 w w w w w w w w w w w w w w w w w w w w w w i i i i i i i i i i ",
"w w w w w w w w w w w 9 q q 9 9 w 9 9 9 9 9 9 3 9 9 9 9 9 q w w w w w w w w w w w w w w w w w w 1 1 1 1 1 1 1 1 i i i i i w i i i i w w w w i w w w w w w w w w 3 3 3 3 1 1 1 1 3 3 9 9 9 9 w w 1 1 1 1 1 1 1 1 1 1 3 3 9 9 3 3 3 3 3 3 3 3 3 3 3 3 3 9 q q w w w w w w w w w w 9 9 1 1 1 1 1 1 1 1 1 1 1 1 1 1 1 1 1 1 1 1 1 1 < 1 1 3 9 w w w 3 3 9 w w w w w w w w w w w w w 9 9 9 9 9 9 9 9 3 3 1 1 1 1 1 1 9 9 w w w w w w 9 9 9 9 9 9 1 1 w w w w w w w w 1 1 1 1 1 1 1 1 1 1 1 3 1 9 9 w w w w w w w w w 1 1 1 9 9 9 w w 9 9 1 1 1 1 1 1 1 1 1 1 1 1 1 1 1 1 1 1 1 1 1 1 1 1 1 4 4 4 4 < < < < < < < < < < < < < < < < < < < 2 2 2 2 2 2 < < < < < 2 < < 2 2 < < < < < < 3 3 3 3 3 3 3 3 9 9 3 3 3 3 9 9 w w w w w w w w 1 1 1 1 1 1 1 1 1 1 3 9 9 9 3 3 9 9 9 9 9 9 1 1 w w w w 9 9 9 9 9 q q w w w w w 9 q q q q w w q 3 3 3 3 3 3 3 3 3 3 3 3 3 3 9 w w w 9 9 1 1 1 1 1 1 1 1 1 1 1 < < < < < < 1 1 < < < < < < < < < < 1 < < < < 1 < 1 1 1 1 1 1 1 1 1 < < 1 1 1 1 1 < < 1 1 1 1 1 1 1 1 1 1 1 1 1 1 1 1 1 1 1 1 1 1 1 1 9 9 w w w w w w w w w w w w ",
"9 9 9 9 q 9 9 9 3 3 3 3 3 2 2 < 3 3 3 3 2 3 < < 2 3 3 3 3 3 3 3 1 1 1 1 1 1 1 1 1 3 9 3 9 w w w 3 3 3 3 9 9 9 9 3 9 w 9 1 1 1 3 1 1 2 < < < < 1 9 w 9 9 3 1 3 1 3 3 3 3 3 1 3 1 3 3 3 9 9 9 9 9 9 9 3 1 3 1 < 1 3 1 3 1 3 1 3 3 3 3 3 2 < < < < < < 3 3 3 9 9 q w w w w 9 9 9 9 q 9 9 9 3 1 3 1 < < < < < < < < < < < < < < < < < < < < < < < < < < < < < < < < 1 1 1 1 1 1 1 1 1 1 1 1 1 1 3 1 w w 9 9 3 3 3 1 < < < 1 < 1 < 1 1 1 1 1 1 1 1 1 1 1 1 1 1 1 1 1 1 1 3 1 3 1 3 1 < < < 1 3 1 9 9 1 1 1 1 1 1 1 1 1 3 w w w w w w w w 9 9 1 1 1 1 1 1 1 1 1 < 1 < 1 1 1 1 4 4 4 4 4 4 4 4 4 4 4 4 , , , , & & & & & & & & & & & & , , < < < < < < < < , < < < < < < < < < < < < < < < < < < < < < < < < < < < < < < < < < < < < < < < < < < < < < < < < < 2 1 < < 3 9 9 9 9 1 3 1 3 1 3 1 3 1 3 3 < < < < 3 3 2 2 < < < < < < < < < < < < < < < < < 3 3 3 3 3 3 3 3 1 1 1 1 1 1 1 1 1 < < < < < < 1 1 < < < < < < < < < < < < < < < 1 < < < < 1 < 1 1 1 1 1 1 1 1 1 1 1 1 3 9 1 1 1 1 3 9 9 w w w 1 1 1 1 1 1 1 1 1 1 1 1 1 1 1 1 1 1 9 9 w w w w w w w w w w w w ",
"< < < 1 < < < < , , , , , , , , , 4 , 4 , 4 , 4 < 4 4 4 4 4 < 4 < 4 < 4 < 4 4 4 < < < 1 1 1 < < , , , , , , , , # # # # # # # # , < < , < , > > < , < , < , < , , , , , , , , , , , < , < , < , < , < , < < < , : : < < < , , , : : , , , < < < < < < < < < < < , , , , , , , , : # : # : : , , , , , , , , , , , , , < < < < < < < < < < < < < < < < < < < < < < < < < < < < < , , , , : : , , < < 2 < < < < < < < 2 < 2 < < < < 1 < < < < < < , < < < < < < < 1 1 3 < 2 < < < 2 < < < < < 2 < < < < < < < 1 3 1 1 3 3 3 3 3 w 3 3 3 1 3 1 1 1 < < < < < < < < & & & 4 4 4 4 & 4 & & & & & & * , , , , & & # & & & & & , , , , , : # # # # , , , , , , , , , , < < < < < < < < < < < < < < < < , , < , , , , , , , , , < < < , < , < , < , < < 2 < < < < < 2 < 3 2 3 3 3 2 2 2 2 < 2 2 3 3 q 9 w w w w 9 9 9 9 w w 9 9 9 9 3 3 3 3 3 3 2 2 2 2 2 3 2 2 2 2 2 < < < < < < < < < < < < < < < < < < < < < < < < < < < < < < < , , 1 4 4 < < 4 4 1 1 1 1 1 1 1 1 1 1 1 1 1 3 1 3 1 3 1 1 1 1 1 3 1 3 1 3 1 3 1 3 1 3 1 3 1 3 1 1 1 2 9 q 9 q 8 q 8 < 8 q 8 9 9 9 9 ",
", , , , , , , & , , , , , , , , , , , , & & & , # # O O # O # # , , , , , , , , O O O O # O O O # # O # # # # # # # # # # # # # > > > > > : : : > > > > : : : : : : : : : : : : # # # # # : : : # # : : : : # # : : : , , : : : : , , , < < < < , : , , : : : : , , , , : : : , , : , , , , < < , , , , , , , , : : , , , , , , , , , , , , , , < < < < < < < < , , , , , , , , , < , , : : , , : : : : : : : : , , , , , , , , # # # # # # # # # # # # # # # # # # # : : # # # , , , : : , , : , , , , , , , < , , , , , , < < 4 < , , , , , , , , , , , , , , & & & & & & & & 4 & & & & & & 4 4 4 4 , , , , , , , , , , , , 4 , # # # # # : , , , , , , , , , < < < < < < < < < < < < < < < < 2 2 2 2 2 2 2 < 2 2 2 3 3 3 3 3 2 2 < < < < 2 2 < < < < < < 2 2 < 2 < < < < < < < < < < 2 2 2 2 3 2 2 2 < < < < < < < , , , , , , , , , , < , : : : , , , , , , < < < < < < < < 3 3 3 3 3 3 3 3 3 1 1 1 1 3 3 3 3 3 3 3 3 3 3 1 1 1 1 1 1 1 1 1 1 1 1 1 1 1 1 1 1 1 1 1 3 3 3 3 3 3 3 3 3 3 3 3 4 4 4 4 4 4 4 4 1 1 1 1 1 1 1 < < < < < < < < < < < < < < < < < ",
", , , , & & & & # # # # # # # # & & , & # # # # < < < < < < < < & & & & & & & & , , , , , , , , < < 4 4 < < < < < < < < < < < < > > , > > > > > > > > > , < > > : : : : : : : : < < < < < < < < < < < < < < < < : : : : : : : , < < , , < < < < < < < < < < < < < < < < < < < < < < < < < < < < , , , , , , , , , , , , , , , , , , , , , , , , , , < , , , , , : , , , , , , , < < , , , , : , , , , , , , < < , , , , , , , , < < < < , < < < < < , , , , , , , , , , < < < < < < < < < < < < , , , , , , , , & & & , , , , , , , , , , , , , , , , , , , & & & & & & & & & & & & & & & & & & < 4 , 4 , , , , , , , , , , , , , , , , , , , , , , , , , , , , , , < , , , , , , , < < < < < < < < < < < < < < 2 2 < < 2 2 2 2 2 < < < < 2 2 2 < < < < < < < < < < < < < < < < < < < < < < < < , , , , , , , , , , , , , , , , < < < < < < < < < < < < < < < < , , , , , , , , < < < < < < < < 1 1 1 1 1 1 3 3 1 1 3 3 3 3 1 1 1 < 1 < < < < < < < < < < < < < < < < < < < < < < < < < < < < < 3 3 3 3 3 3 3 3 < < < < < < < < , , , , , , , , < < < < < < < < ",
"# # # # # # # # # # # # # # # # # # # # # # # # @ # @ # @ # @ # @ # @ # @ O @ O # O o o @ @ @ # # # O O O O # # O O # # # # # # : : # # # # # # # # # # : : > > # # # # # # # # # # # # # # # # # # # # # # # # # # # # # # : # : : # : # # # # : : : : : : : : # # # # # # # # # # # # # # # : # # # # # # # # # # # # # # # # # # # # # # # # # # # # # # # # # # # # # : : : # # # # # # # # : : : : : : : : : : : : : : : : # # # @ @ @ # # # # @ @ @ @ # # # # # # # # # # O # # # # o o o # # # o o o o o o o o o o o o o o o o o o # # # # # # # o o o o # # # o @ # # # X O @ o @ o @ X @ # @ # @ o @ o o o o O @ # # # # # # # # # # # # # # # # # # # # # # # @ @ @ @ # @ # # # # # # # # # # # # # # # # # # # # # # # # # # # # # # # # # # # # # # # # # # # # # # # # # # # # # # @ @ @ @ @ @ @ @ o o o o o @ @ @ # # # # # # # # # # # # # # # # # # # @ @ @ @ @ @ @ @ @ @ @ @ @ # # # # # # # # # # # # # # # # # # # # # # # # # # # # # # # # # # # # # # # # # # # # # # # # # # # # # # # # # & # & # # # # # # # # # # # # > > # # # # # # ",
"o o . . . . . . . . . . . . . . . . . . . . . . o . o . o . . . . . . . . . . . . . o . . . o . . . . . . . . o o o o o . . . . o o o o o o o o o o o o o o o o o o o o o o o o o o o o . . . . o o o o o o o o o . o o o o o o o o o o o o o o o o o o o o o o o o o o o o o o o @ o @ @ @ @ @ @ @ @ @ @ @ @ @ o o o o o . . . o o o o . . . . . o o o o o . . o o o o o o o o o o o o o o . . o o o o o o o o @ @ @ @ @ @ @ @ o o o . . o o o . . . . . @ @ @ o o o o @ @ @ @ o o o o @ o o o . . . . . .   . . . . . . . .   . . . . . . . . . . . . . . . . X . . . . . . X . . . . . . . . . . . . @ . @ . . . . . . . . . o o o . . o o o . @ @ . . @ @ @ @ @ @ @ . . . . o o o @ @ @ @ @ @ @ # # # # # # @ @ @ @ @ @ @ @ o o o o o o o o . . . . o o o o o o o o o o o o o o o o o o o o @ @ @ @ @ @ @ @ @ @ @ @ @ @ # # # # @ @ @ # # # # # @ @ @ o o o @ @ @ @ @ @ @ @ @ @ @ @ @ @ @ o . . . . . . . . . . o o o . . . . o o o o o o o @ @ @ @ @ o o o . o o o o . . . o o o o o o o o . . . . . . . . . o @ o . . . . . . . . . . . . @ . . . . . . . ",
"@ @ o . . o o o o o o o o o o o @ o @ @ @ @ @ @ # # # # # # # # @ @ @ @ @ @ @ @ # # @ @ @ @ # # # # # # # # # # , , , , , , , , : : : : > > : : > : # # # # @ @ # # # # # # # # : : : # # # # # # # # # # # # # @ @ # # # # # # # # # # # # # # # # # # # # # # # : : # # # : : : : : : : > > > > > > > > > > > > > # # > # # # # # # # # # @ @ . . o o o o . . @ @ # # @ @ @ @ # # # # # # # # # # # # # # # # # # # # # # # # # # # # # # # # > > , , < , , , > < < < > > > > < < < 2 2 2 < < # # # # # # # # # # # @ @ @ @ @ # # # # # # # # # # # # # # # # # # # # # # > # # # # # > > > > , , , , < , < , > > > > > : > # # # > > # # # # # # # # # # # # > > > > # # # # > > > > > > , , > > > : : : : : > : : # : : : > : : : : : : : : > : > > > > > > > > > > > > : : : : : : : > > : , , , , , , , , < < < < < < < 2 < < < > > > > > > : : > : : : : # # # # # # # # # # # # > > # > # # # # # # # # # # # # # @ o o @ # # # # # # # # # & # : : : : # # # # # # # # # # # # # # # # , > > > > # # # @ @ # @ @ @ @ @ # # # # # # # # @ @ @ @ @ @ @ @ ",
"< < , , , , < < , , , , , , , , , < < < < < < < > > > > > > > > < < < < < < < < > > > > > > > # : : # # # # # # , , , , , , , , 8 8 q q q 9 q q q q q q 2 < < < < < < < < < < < < < , , , > > > > > > > > > > > < < < 2 2 8 < < < < < < < < < < q q q q q q q q 9 9 9 9 9 9 9 9 < < < < q q q q q q 9 9 9 9 9 9 w w w 9 w w 9 9 3 3 3 2 < < < < , , , , , , , , < < < < < < < < q q q q q q < < 9 9 9 9 q q q q < < < < < < < < < < < < < < < < < q 9 9 9 q < < < < < < < < , , < < < 9 w w 9 q 3 3 3 3 3 3 9 9 3 3 3 3 3 9 9 9 w w 9 q 9 9 9 9 3 3 3 3 3 3 3 3 < < 8 8 9 w w w w w w w w w w w w w w w e e v e e w w w w w w 9 w w w w w w w w 8 8 8 q q q q q q q 9 9 9 9 9 9 9 q 9 9 9 9 9 9 8 8 < < < < < < 8 < < , < < < < q q 8 8 < < < < q q q q q q q q w q 9 9 9 9 9 9 < q q q 9 9 9 9 q q q 9 q 9 9 9 < < < < < < < < , , > > > : # # # # # # # > > > < < < < < < < < q q q 9 q q q q 3 3 3 3 3 3 3 3 < < < < < , , , < < < < 2 < < < < < < < 2 2 2 2 q q 9 q q q q q < < < < < < < < < < < < > > > > , < < < < < < < < < < < < < < < < < < < < < < < ",
"w 9 3 < < 3 3 9 w w w w w w w w 9 9 w w w w w w 9 9 9 9 9 9 9 9 q q q q q q q q 9 9 w w w w w 9 9 3 3 3 3 3 3 3 < 2 2 2 2 2 2 2 , < < < < < < < < < < < q 9 9 9 w w w w w w w w v v w w w w w w 9 9 9 9 9 9 9 9 9 9 w w w w w 9 w 9 9 9 9 q q q q q q q 9 9 9 9 q q q q q q q q < < q q q q q 9 q q q q q q q q 9 9 q 9 q q q q w w w w w 9 9 9 w w w w w w w w v w w w w w w w w w w w w w w w 9 9 9 9 q q w w w w w w w w w w n n v v n m m m n m m m m n w 9 w 9 9 9 9 9 q q 8 q w w e e e w < < < < < 3 3 3 3 3 3 9 9 w w w w w w q q 9 9 9 < < < < < < < < 8 8 9 w e e e e e e w w w w e e w w w e e v e e v e e e e w w w w w w w w w w w w w w w w w w w q q 9 9 9 9 w w w w w q 9 9 9 9 9 9 9 q q q 2 2 q < < < < < < < < < < < < < < < < < < < < < < < < < < < < < < < < < 2 q q q 9 9 < < < < < q q q 9 9 9 9 9 9 9 9 w w 9 9 q q 2 < < < < q 9 q w w 9 w w w 9 9 9 w w w w w w w w w 9 9 9 3 9 9 9 9 w w 9 9 9 2 < < < < 2 3 3 3 2 < < < 2 2 2 2 3 3 9 9 9 9 q 9 9 9 q q 9 9 9 9 9 q w w 9 9 q 8 8 8 < < < < < < < < < < < < < < < < 9 9 9 w w w w w ",
"w n p 9 9 9 p p p p e w w w w w w e e e e e w w e e v n p e e e w w e e e e n m m m p e e w w w 9 9 q q q 8 8 8 q < < < < < < < q q q q q q q 9 9 9 9 9 9 9 q q w w w w w w w w q q w w w w w w w w w w w w w w m n v w w e e v e v e e v v n n v v e v n v e w w w w w w w w w w w w w w w w w w w w w w w w w w w w w 8 9 w 9 w w w w w 9 9 9 w w w 9 9 9 9 9 q q q 9 w w w w w w w w w w w w w w w w w w w w e e e e w w w w w w e e e p n n m m p w 8 w w 9 q q q 9 9 w w w < < 8 9 w e v m m m m m m m m m n n p p p n m m p p n n n n n n m m m n m m m p e e w w 9 8 8 8 e w w w w w e e w e e e e e e e e e e e e e e e w w w e e e e e e e e e w w w e w w w w w w w w 9 9 9 8 8 8 < < w 9 9 9 9 9 9 9 w w w w w w w w w w w w w w w w w w w w w w w w v v e e e e e e e e e e e e e e p e w w w w w w w w w w w w e e w w w w w w w w 8 q w w w w w w w w w w w w w 9 w w w w w w w 9 w w 9 9 w w w 9 w w 9 8 9 w 9 < 2 2 q 2 < < 2 q q 9 w w c c w w 9 w w w w 9 w w w w w w w w w w w w w w w w w 8 w w 8 8 < < < < * , < < 8 9 w w w w e w w w w w ",
"p m Z m m Z m n m p p p n m m m 9 8 8 8 8 w p m e w 9 8 9 w e m m m p e w w w w e e e e e e w w 9 9 q q q 2 8 8 9 q < q 9 w w w w w 9 9 9 9 w w w w w w w w w w w w w w w w w w w w w w w e w w w e e e e v v v n n v w w e e v e e v v e v v v v e e e v v e w w w w w w e w w v e e e e w w w w w w w w w w w e e e w w w w w w w w w w w w w w w w w w w w w e w w w w w w e w w w w w w w w w w w e w w e e v v v v e e e e e e n m m m m m e m m e w e w w v v w w w e v n F D D C C m m m p p w 9 < > # @ # # # # # # # @ # # # # # # # # # # * > > > * * 9 9 w w w e p m e e e e w w 9 8 w e e e e e e w e e e e e e e e w w w w e e e e e e e e w w w e e e e e e e e e e e e w w w w w w w w w w w w w w w e w w w w w w w w w w w w w w w w w w w w w w w w w w w w w w w e w w w w w w w w e e e e e e e w w e e e e e w w w w q 8 8 q 9 w w w w w w w w w e e e e w e e e e w w w w w 9 9 9 9 9 9 9 9 w 9 8 9 w 9 < < 9 q q 2 2 q q q 9 q w c w w w 8 w e e w w w e w w w w w w w w 8 8 9 w w 8 8 < > > < 8 9 9 w w e e e e e w w w p p p p p p p p ",
"< < * # > , < < * * , , < < 8 8 C C D D C p w < e n m C C m m e p e w 9 8 8 w w w w w w w w w w w w w w w w w w n p p e e p p e w w 9 9 w w w w w w e w p p e n e e e e e e e e e e e e e e e e e e e e p e v e p e e e e e e e e e e e e e e e e e e e e e w w e e e e e e e e n n v e e e e e e e e e e e e e e e e e e e e e e e w p p p p p e p p n n n n n m m e e e e e n e e e e e e e e e e e e e e e e v v v n e e e e n n n m m m m m e m C m m m e w 9 9 9 9 w w e n w 9 9 < , * # # @ @ @ # # * , < # > > # # # # # # # # # # # # # # # # > # # # * # # > * < 8 8 w e e e n p e w w w e e e e e w w w w w e e e e e w w e e e e e e e e w e w w e e e e e e e e e e e e e e e e e e e e e e e e e e e e e e e e e e e e e e w e w w e e e e w e w w e e w w e e e e e e e e e e e e w w e e p e e w e e e e e e e e p p e e w w w w w w w w e e e e e w w w w e e w e e e e e e e e w w 9 9 w w w 9 9 w w w 9 9 9 9 < q 9 9 q q 9 9 8 q q 9 9 9 9 q 8 8 e e e w w w e e e e e e e e w w w w w w w w m m m C C m m p w w 9 9 9 < < < < < < < < < < < ",
"@ # @ @ @ @ @ @ # # # # # # * * < 9 m D F F D C m C D F D C n w w w w w w w w w w w w w w w w w n n n p p p p p p p w w w w w w 9 9 9 9 9 9 9 9 w w w w w e w e e e n n n p e e e e e e e e e e e e e e e e e e e e e e e e e e e e w w w w w w e e e e e e w w n v v v e e e p m m m v e e p p p p p p e e p p e e e e e e w w e e p p p p p p p n p p w w w e p n e e e e e p e e e e e e e e n p e e e n m m n n n n n p e e e e e e p p m m n m m m e e w 9 < 8 9 9 9 8 < , # @ @ @ @ @ @ # # # # # > > > > # * , < < < < < < < < < , , * * , > * * * > # * # # # # # # # # < < 8 w e n m m w w e e e e e e w w w e e e e e w w w e e e e e e e w w w w e e w w w w e e e w w w w w w w e e e e e e e e e e e e e e e e e e e e e e w w w w e e e e w w w w e e e e e e e w w e w w e e e w e e e e e e w w e e w e w w e e e e e e e e e e w e w e e e e e e e w w e e e e e e e e e e e e p w w w w w w w w e n p w w w p 9 w w w w w w w w w w w w w w w e e e e e e e e e e e e e e e e m m n n m C D D C C m e w < * > # # # # # # # # # # # # # # # @ ",
"@ $ < 8 < # # # # # # # # # # # @ @ @ * < w m Z m p 9 < < < 9 w w p m m n w w 9 e e w w w w w w w w w e w w w w 8 8 8 9 w w w w 9 8 8 8 9 9 9 9 9 9 9 w w w w w e v v v p e e e e e e e e e e e e e e e e e e e e e e e e e e e w w w e e e e e e e e e e e e w n n e e e e p p n n m e e e p e e e e e e e e e w w e e e e e w e e e e e e e e w w w w w w w w w w e e e e e e e e e e e e e e e n v v e m m m m m e e n p e e e e e e e e e e e e e e w w 9 9 p w w 1 , # @ X # # # # & , < < < < < * > > > > 8 8 w w w w w w w w 9 8 8 8 8 < 9 < * 8 8 < < < 8 < < * * * > > # # # * < < w w w e w 9 w w e e w w w w e e e e e e e e e e e e e e e e e e e e e p p p p p e e e e e e e e p p e e e e e e e e e e e e e e e e e e e e e e e e e e e e e e e e e e e e e e e e e e e e e e e e e e e e w e e e p e e e e e e e w w w w w w e e e e e e e e e e m e e e e p p e e e e e e e e e e e e e e e e w w e p m e e e m m m m m m m m n n n n m m m m m C C m e e e p p e e e e e p p p m m Z Z Z Z Z Z 9 < * # @ @ @ @ # + # # # # # > > > > > # # # # ",
"< > > > > > < w 8 8 < < * * * * 8 < , * # # # @ , * # # @ # > * < 8 w w w w 9 9 m m m n p p w w w e w e e e e e e e e e e e w w 9 9 9 9 9 9 w w w w w w e e e e m m m m m m m m e e e e e e n n n n m m p e p p e e e e e e e w w w e e e p p p m e e e m n e e n n e e e e p p m n e e e e p e e e e e e e e e e e p m m p e e e e w w e e e e w w e e p p m m w w e e e e w w e e w e e e e e e n n v e e m m m m n n n n p p m m m m m m m m m e p m m e w e 9 < & # X @ # # # # # # # & * , > * < 8 w e m m m m m C C C m m p e e e e w w w w 8 8 w w w 9 w 9 9 < < < < < < < , * # # > * , e e e e e e e e w w w e e e e e e e e e e e e e p p e e p p e e e e e e e e e e p e p p e e p e e e e e e e e e e e e e e e e e e e e e e e e e e e e e e e e e e e e e e e e e e e e e e e e e p e e e p m m C m m p e e e e e p e e e e w e w p e e e e e e e e e w w e e e w e e e e e e e e e e w e e e e w w w e p p e e m n m m m m m v e e e e e m m m m C m e e e e e e e e e p p m m m p m Z D Z p 9 * * # # @ @ # > * # # # # # # > > # # # # # # # # ",
"C 9 * < w m Z F D D D C C m m m w w i p i w < & # & < 1 1 < & # # # & & < < 9 w M M m m m p i p e e e p p p n n C m m m m m e w 9 9 9 9 9 9 w w p e p p p p p p m m m m m m m m e e e e e m m m m m m m m m m m e e e e e e e e e e e e e m m m m v m m m m e e m m m m v v v m m v v v v e e e e e e e e e e e e p m m C m m p e e e e e e w w e e e p m m C C m v e e e e w w e e e e e e e e e e v m v v v m m m m m m m m m m m C C C C m m C C C C C e 9 9 # # X X o # & < < < < < < 1 1 9 p p p m C C Z D D C C C Z Z Z Z C C m m m p e e e w e p w < 8 e 9 9 1 1 < < < < 1 < < , , * * * 9 w p C C m p e w w w e e e e p e e e e p p p p p p p p p p p p e e e e e e e e p p p e e e e e e e e e e e e e m m m m v v v v e e e e e e e e e e e e e e e e v e e e e e e e v e e e e e e e p p p m m C C C m m m p e e p e m m m m m m m m e e e e e e e e e e w e e e e w e p p p p p p m p e e e p p e e e w w e m p e m e e e e e e w w w w w w e e p m m p e e e e e e e e e e e C C m n n p w 1 & # X # @ @ X @ # # & * * * * < < < < < < < < < 9 9 9 ",
"w < < m Q [ D m F F F D D Z Z Z Z Z M m p p p p i w w 9 9 9 9 9 1 < & # # & 1 w m m m n p p i w w w e e e e e e 8 8 w e m C C m 9 9 9 9 9 9 9 w n n n n p p p e m m m m m m m m e e e m m m m m m m m m m n m n e e e p e e e w e e e e v m C C m m m m m m v e m m m m m m m m m m m m m p p p p p e e p p p p e p m m C m m p p e e e e e e w w w w w e e e e D C m e w w e e e e e e e p m n m m m m m m m m C m C m m m m m C C C C C C m m m p m m p < # @ # & , < < < & & 1 1 1 9 w p p m p p m C Z F P P P P P P I [ [ { +.+.X.{ { [ [ Q P I [ [ Z w p F C m m w 9 8 < < * * < < < < < , @ * w m C m e w w e w e e e p p p p p p p m m m m m m m m m m m m m m m m m m m m m m m p e e e v n e n e p e p m m m m m m m m e e e e e e e e e e e e e e e e m m m m v v v m m m m m v v v m p m m C C m m p m p p e e e e e e e v n m m m m e p e w e e e e m m m C C C m p p p p m m m m m m m p p m m m p p w w m m m m m m m m m m m e w e w e e e m m C C d C C Z C C p e e e p e m m m D n 9 & @ X @ # # # * * * 8 8 9 9 9 0 e p p p m Z Z D D L L L P ",
"$ p [ C.C.+.+.+.+.+.O.+.+.+.+.+.+... ._ P G Z C d C p e w w 9 < 9 9 8 < # @ # < n m m p p m m e w e p n p p p w p p e w w w m D D m p m e w 9 w p p p p n m m m m n m m m m m m m m n v v m m m m m m m m n v n m n m n n n e e e e e w e e p p w m C e e m C p C p n C m e e C C C e p Z p 9 Z m p e p m m p e e m C C m m p m m p p e p p p n p p p p e e w w m m C Z D Z C m p p p p m m m m m m m m m m m m m m m m m m m m C n n D D m p m e C D e > @ # # # & 4 1 * * 8 p e p Z G G d A J _ [ { +.s.Z.Z.Z.Z.Z.Z.A.J.J.J.J.Y.Y.Y.J.A.A.Z.Z.Z.J.p.Z p +.H.6...{ { [ [ F C p w 9 8 < < < < < , < , # < n D F D m m m e 8 w C m p p p p p p p p p p p p p p p C m m m m m C m m m m m m m m m e p e e e w e w e p n m m m m n m m m n n n n n n n v v v n n m m m m p p m C C m m m p e p m m m m m m m C m p m p p p p p e e m n m n p p e p m m m m m n m m e v m v v m m m m m m m m m m m C C C C C C C C Q Q Q F D C C C C m m m p p e e e e e e e e p m p p d d C C C m e p m C C C C Z w < @ . @ & * * < * - 7 0 0 d d G d d _ [ _ ..Z.4...{  .[ P C p ",
"Z F P F D C C C p m C D D D Z C P _ _ _ _ ......_ [ [ _ F G C C m 9 , < < * # # < w m m m n n p n p p n p p p p p p p e w e m m C m p m p e w e p p p p m m m m m m m m m m m m m m m m m m C C m m m m n n n n m m m m n n p w e e w e e p m m m e e C Z m p C p m m m m m m m p C C p p p p p m m m m p e p p m C C m m p m m n p p p p p p n p p p p n p p p p p m m m m m n p p p n m m m m m m m m m m m m m m m m m m m m m n m C m m m C F m 8 @ @ # , & < & & 1 w p p p Z f G _ p.h.p.........+.s.d.d.p.F.A.A.A.Z.d.p.8.y.p.y.<....... .G A p p I _ Z C C G G G F _ [ [ [ F C e 8 * # # & , < * , 9 n C D C m m v e e m m p p m m C C C m m m m m m m m m m m m m m m m m m m m m m m m n n p p e w w w p p n n m m m m m m m m n v v v e v n n n n v p m m m m m m C C m m m m p p m m m m p m m m p m m m m m m p p p n n n n n p p p m m m m m m n n n v m m m m m m m m m m m m m m m m m m m m C C C C Z C m m m C m m m m p p e e e e e e e e m m C d d d m m p p C p e m D C w < # # # # # # * < * 9 d A @.@.G G d _ p.Y.J.p..._ _ P A d p 0 0 0 ",
"P D m e e e e e C m m e w e p m 0 0 p a d C Z Z F P [ [ Q Q Q Q L C p e e w < < . * w C C n n n n m m n p m m m w e p n p p p p m e e e e e e m m m m m m m m m m m m m m m m m m m m m C C C D C m m m m m m m C C m m m n p e e e e e p m m m D p e Z D C m m e m C e e C C n p p C C p p C p C C C m p p m C Z C C m e p m m m n p p p p n m p n m m m m m m e p p p n n n p m m n m m m m m m m m m m m m m m m m m m m m m m C Z m m m C D p 8 # @ # < < # & w p 9 p D D 0 A I ..4.p.....` G G G G G A A A Z f d f f f a p A G Z d d d d p d 9 Z [ Z p C 9 e e e e e d G C [ Q F D m w < , , < < < , , 9 p C m m m m C m e m p m m C C Z Z C C m m m m m m n m m Z Z Z Z Z C C m m m m m m m m m n p p w w p n n n m m m m m m m n p p p p w e n n n p w w m m m m m m C C m m C C m m m m Z m p C m p m Z m m m m m m m m m m m m n n n n m n m n m m m m m m m m m m m m m m m m m m m m e p p m m C C C m m m m m m C C C m m m m m p p e p p p e n m C C G d d C C C m C m p m m w , @ . # , < < < 9 e p A _ _ _ p.Z.Z.p.Z.p.P d p d d p p p 0 8 9 p M ",
"m e e e m C C C D D C m m m m C p p C C d p e w e p C m C D F D L I Q F C w w w @ @ < e C m m m m m m m n m m m e p n m m p p p e w w w e e p m m m m m m m m m m m m m m m m m m m C C D D C C D D C C Z Z Z Z D Z Z C m m m m e e p m m m m m C Z C p m D m w m C C m m C C m Z e p D p p D Z m C C C C C Z D C C m p e p m m m m m m m m m m m m m m m m m m p p m m m m m m m m m m m m m M m m m m m m m m m m m m m m m n m D D C C D D C > > > * , < 8 9 p 1 0 D D p D ..q.Z.Z.4._ Z d d d d C d d d C C Z C Z Z D J J H A A G f d d d C d +.[ Z I D p D F F F Z G C d e m C F F F Z m w 8 < < 9 1 & , 9 e m C m m C C p m m m C C C Z Z C C C C m m m m m C Z D D D Z Z C m m m m m m m m m m m m n n p p n m m m m m m m n n n n n n m p p n m m p p w m m C C C C C C m m C C m m n n m p p p p m m C C C C m m m m m m m m m m m m m n n n n m m m m m m m m m m m m m m m m m m m m m m m C C C C C C C C Z C C C C C C C C C m m m p p p p m m m C Z G d d C C C C p Z D m < @ @ # # < < 9 9 e C D P 4.Z.Z.Z.Z.p._ A A G 0 8 8 e p 9 e p p p p Z D ",
"m m m m C C C Z 8 w m Z D C m p Z C m m m M Z D C C m w p m m w Z L L L C p 9 < 8 # @ < n Z Z m C m m p p m m C p p p p p p p p p p e w p n n n m m m m m m m m m m m m m m C C m m Z Z Z Z m m Z Z C C C C Z Z m m m m m m m m n n n m m m m m p Z C e w m m p D m m Z Z m m m Z p m m i C L C m p m Z D D Z C p p p p p p p p m m m m M M m m m m m m p p p p m m p p m m M C C m m m M M M M C M M M M M M M M M C C m m p p m C Z m Z D m 9 * # # * < 8 w p e f C p Z { Z.Z.V.{ L C C d e 9 F F D Z Z D D D D Z C C Z Z Z f D D Z Z Z D D L [ m Z D p Z L 9 m C C C C C Z D p m C F F Z G C w < < 1 9 , * * < p Z C m C C m C C C C C C C C C C C C C C C C Z Z Z C M M C C m m m m p p p p m m m m m m m m p m m m m m C C n n n n n m m m m n n n n n n n m m Z Z C m m Z m m C C m n p p < p C m m Z m w Z Z m m C C m m m m m m m m m m p p n m n m m m m m m m m C C C m m m m m m m m C C C C m m m C m m m m m m m m C C C m m m m m m m m m m m C C C p p p d C m m p Z D p # . @ < < < < 9 p F { +.A.H.S.4...{ F e C e p Z Z m m Z C m m m p p p p ",
"m C m m m m C C Z C m m C C C C 9 * # # # < p m D D Z n n m m n Z C m C D Z w * w < # # 9 m D C m m m m m m m m C m p p p m m p m m m n n m m m m m m m m C m C m m m m C C C C C Z Z Z Z m m m m m m m m m m m p p p m m m m m m m m m m m m m Z m m D D m m L Z e w m Z n p m p D Z w 0 P I p m m m C Z Z m p p p p p m m m p m m m m C C m m m m m m m p p p m m m m m m M C C C C C C C C C C C C C C C C C C C C C M m p p p p p n m m 9 # * # # < w p e 0 p  .4.[ ,.J.Z.D C p p w p C D L Z C m m Z D Z Z L L D D H L H D p p p p C C Z D C D p m D 1 . < # # # > * 9 C F Z C G C G C F F m w < < < < * * > w C Z C m C C Z Z C C C m m C C C C C C C C C Z Z m m p p p m m m m m p p p p m m m m m m m C m m m C m m C C m m m n n i i n m m n n n m m m C C Z C m m m Z m m Z Z m m n n w C F F D F D m Z Z Z Z C C C C m m m m m m m m m m m m m m m m m m m m C C C C m C m m m m m m C C m m m m m m m p p p m m m m m m m m m m m m m m m m C C C C Z C C Z Z Z Z C C m w < # @ * < 9 8 0 m Q 6.S.S.Z.+.L p p D F Z D w < w e 9 w m D Z m p p p p p ",
"m m m m m m C D O.Q D m m m p e * & # @ # & < 1 w m M m m M D D D Z m m D L Z w 9 w 9 # # w D D m m m m m M M m C m p p m m m m Z D Z m m Z Z M m m m C C m Z Z m m m Z Z C C C D Z Z Z Z Z M M Z Z m m m m m m n n m m m m n n n m m m Z M m m D m Z W L D Z D 9 < < w p m m m m Z p p D P C p m M C Z Z C m p m m p m M C m m M C C Z Z C C C m m m m m p p m m m m m M C C C Z Z Z Z C C C C C C C C C C C C Z Z Z C C m m p p p p M M w * # # & 8 p m p p a 4. .s.Q.D.Z 9 p p Z L L D D W ! e w 9 i D L D D M m m m M M Z Z C Z Z D D L L L L M D D , . # # # & # # # < e C Z C C d C C F F F Z p 9 < 9 < < # 8 m D Z m m C Z Z Z Z Z Z C C Z Z Z Z Z Z Z Z M M m m m m m m C C m m M M p p m m m m m m m m m C m C Z C m m m m m n n n n n n m m m N N M M Z Z C m m m m Z Z Z D Z Z m m m L D m m p w m W Z Z Z m m m C C m m m m m m m m m m m m m m m m m m C C C C C C C C C C C C C C m C C C m m m m C m m m C C C C m m m m m m m m C m m m C C C C Z Z G A D D Z C Z p < # # * < 9 0 p Z [ 6.V.6.{ w p m D F D p 1 . . @ * < < , < w p m M M m M M ",
"C m m m C D D D C C m C C e > . # & < 1 < < & # , i D D m m B D m D D Z Z D F D * p n * @ 8 Z D p m m C C m m p M m m M Z Z m m C Z Z m m Z D M m m C C C Z Z Z m C Z Z Z C Z Z D Z Z Z Z Z D D D D D Z C m m m C m m m m m m m n n m m Z Z Z Z m D D m Z D m < @ # , , 9 Z Z n D w < D 2.C 8 C m Z Z Z Z C Z D Z Z m m M C C m M C Z Z Z Z C C m m m m M M C C M C Z Z Z Z Z Z Z Z Z Z C C C C Z Z Z Z Z Z Z Z Z Z Z C C m m p Z m C D Z w < * & 1 p p 9 0 A 8...Q..X .9 9 p 0 Z Z Z D D m 1 # # @ # < m D D M D D M M M M M M m M C Z Z Z D D L L i . . & , # & < < < * , 8 e Z Z C C G C C d [ Q D w < 9 w 9 * , w D D C m C Z Z Z Z Z Z Z Z Z Z Z Z Z Z Z Z m M C Z Z Z C M C C C C M M M C C C C m m m m m C C C C Z m m m i p n n n m m m i m m M B B M M Z Z C m m m m Z D D D D Z m m m 6.n # @ . . 9 O.Z Z Z m m m C m m m m C m m m m C C m m m m m m C C C C C C C C C C C C C C C C m C C C C C C C D Z C C C C C m C C C C C C C C C C m m C Z Z Z C G Z Z Z C p e m w < # @ > 1 w 0 a I 4.V...D e p m D L D w # . , < , # @ # & & # 9 M D Z m p m ",
"m m m m M Z Z Z Z m m m 9 # # , # # , < 1 1 w w 1 & w m i M D Z C p M C C Z P O.9 1 m w * 8 9 L Z C C C C C C C p C C C M a C Z i m M M M m m M M M M M M M M M M M Z Z M M M M M Z Z Z M M M M Z Z Z Z Z Z Z Z Z C M m m p p p p i i m Z D D D L p m L Q i # X < 9 w w & & i Q M + 1 H.p M M p M Z M M a M M Z Z a p a Z L L L C C C Z Z C C C Z C C a a a C C C C C M M C C C Z Z Z Z Z D D D Z Z Z Z Z Z Z Z C C C C C C C D C D Z m i * # , 1 9 < p d G p.p.OXp.Z 9 a d 0 C L m w * # # # # # < < # & w B D D i D M p D m m m Z D Z M D D Z D < # # & , 4 4 < < < < < < < < p P Z G d A d d p P P C p 9 < 1 9 * * L M Z Z M Z Z Z Z Z Z Z Z Z Z Z Z Z Z C C M C C C C C C C C f a p p p C C Z Z m m m m m m M M M M M M M M m m V i i m m M V M M M M M B D D m m M M m m Z M L N p Z M D C.1 # X # & & & < X.L m m m M M M M Z Z C m p M Z M M M M C C C C M C Z Z Z Z Z Z m Z Z Z Z Z Z Z m C C C M M M M Z Z Z Z Z Z Z Z m m m m m m m m p n m m Z D D Z Z Z Z Z C C m M F < # @ , 3 1 w 8 G ..4._ f e 0 m L m 1 , X # # , , , , , , , < < w 1 w D D p m ",
"m m m m m m m m C m m p , @ # # , , < < 1 1 1 1 w < & < M D m m Z C C C C C L [ p 9 p w < < < M D Z C C C C C C C C C M C C M a i m m M M M M D M M M M M M M D Z Z Z Z Z Z Z Z Z Z Z Z Z Z Z Z Z Z Z Z D D Z C m M C C m m m m w M D Z m m m i D M D Q M * X < 9 w w w < & 1 p * { S.! i p a Z M M M M M M M Z M M a M M p t 1 C C Z Z Z Z C C C C C M M C C C C C C C C C C C Z Z Z Z D D D D Z Z Z Z Z Z Z Z Z Z D Z C C Z D C D Z m i * # , * w p y f ..A.A..XZ p d p d p p * # # # & , 4 < < < < < < 1 i D L m L Z m D m M C Z D Z Z D D D i # X & , , 4 4 & & , < < < < 9 w L G F G _ G G p D P L C 8 # 8 8 # @ p C D D C Z Z Z Z Z Z Z Z Z Z Z Z Z Z C C C C C C C C C C Z C C f C C C C Z Z Z M m m m C C C C M M m m m m m m m m m M M M M M M B M M M m m n m M M M F N n Z m i } 3.& X # < 9 1 & # # i F Q M m Z D M C C Z C m m M Z M M C C C C C C Z Z Z Z Z Z Z Z M Z Z Z Z Z Z Z Z Z Z Z Z Z Z Z Z Z Z Z Z Z Z Z Z Z Z Z C C m m m m m m m m m M C C C C C m M C D < & # < w < w Z ` 4.{ Z p p L p D w & # X & & , , , , , , , < & w 9 w M D m D ",
"m m m m m m m m C m m w > # * # < < < < 1 1 1 1 9 i # @ m Z i p Z C C C C a D L D 0 w p w < # 9 L D Z C Z Z C C D C p a C Z M p D D D D M D D L D D M M M M D D Z Z D D Z Z D D D D D D D D D D D Z Z Z D D Z C m C Z Z C m M Z m D D m i m D M i M D m & . & i w w w w 9 < < < + V.+Xm M p L p M M M M M M Z Z a M M Z H Z M p D Z Z D Z Z C C Z C C C C C Z Z Z Z D D D D Z Z D D D D D D D D Z Z Z Z Z Z Z Z D D D Z Z C C D C Z C m 9 & # 4 & 9 p y A p.g.R.Q.9 y P y p p * @ # # & < 1 2 < < & & < < & < p Z M L Z m C p Z p C Z C M Z Z M * X o , , , < < 1 1 < < < < < < 8 D A Z G P G G C C D [ F * $ p m 8 * < D D Z M D D D D Z Z D D D D Z Z Z Z Z Z C C C C C Z Z Z D D D Z C C C C Z Z Z Z C C C C Z Z C C M m m m M M M M M M M M D M M B D D M m D M M M M m m M M m m D ! L < . & & < 1 1 < < < # n Q W D m M D Z C C M C Z C C m Z Z Z C M Z Z Z Z D D Z Z M M C M Z Z Z Z Z Z Z Z Z Z Z Z Z Z D D D Z D D Z D D D D D Z Z Z Z Z C m m m m m m m p C d m M Z Z m < & & 1 w 1 w [ [ _ D p y C L m M < # # X & & < < < < 4 < < < 1 i w w p M m m ",
"C C m m m m m m C Z Z w # * < * < < < 1 1 9 w w < m w & 9 Z L a Z Z Z C C C Z L I p 9 p m 9 # * L H D C Z D D C Z C C C Z Z C C Q Q L D D D D F D D B M M D D D D D D D D D D D D D D D D D D D L D Z Z L D Z C Z Z Z Z Z C M m M m i i m M M M w D Z * . * i w 9 9 9 w w 9 < < < i C.L L p P i M M M M M M Z Z Z Z M H P I ! ! D D D D D D Z C Z C C C C Z Z D D D D L H H D D D D D D D D D D D D D D D D Z Z D D D Z C C C C Z C Z a 1 & & 4 1 * 0 f _ ..h.&Xg.9 d I p p 9 . < < < < 1 < , & < & , < < & < w p M D Z C Z m Z m C C m M Z Z m * # & < 4 < < < 3 3 1 < < < < < 8 L _ Z G A Z d G Z Z P L e 9 D m w 0 * L D M Z D D D D Z Z D D D D Z Z Z Z Z Z C C C C Z Z Z Z D D D D D C C M Z Z Z Z Z Z C C Z Z Z C M m m m M M M M M M M M B M B B D D M M D D M D D m m m M B M Q ! &   < w < * < 9 w w 1 # & i Q W n m L D Z M C Z Z Z C M Z D Z Z C Z D Z D D D Z Z Z Z C Z Z Z Z Z Z Z Z Z D D D D Z Z D D D D D D D D D D D D D Z Z Z C m m m m m Z Z C C C p m M Z D p * * * 1 w 1 p ..J d p C C p p Z Z , # & & < , < 2 2 < < 1 1 1 w m p 9 p Z Z p ",
"M M m m m m m m m m M w # * 9 < < < 9 9 9 9 w 0 * p m 0 * D Z.p Z Z Z Z D D D D I p * w p 8 * + D L H Z Z D D C C Z D D Z Z D L Q L D B M M M M D D D D D D D D L L H H L L L L Z Z Z Z Z Z H H L D D D D D Z C C p p p C C p p i i V D D p w i W D w & & w w < 1 w w w w w 1 1 * X m { I i M L a M M M M M Z Z L H M M Z L P I D D D D D D D Z D Z C C C Z D D D D L L L H H D D D D D D D D D D D D D D D D D D D D Z C C C Z D f D M 4 & 4 4 i 1 p J ' y.P.&Xf p C C C Z 9 * < * * * < < , , < 1 1 1 1 w w 9 0 D D Z D Z C D D D D Z D J D C < * < < & * < < < < < < 1 w w w 9 [ 4.F Z A A f F A Z Z P D p C 1 * t + M L Z L F D F F D F F F D D D Z Z Z D D Z Z Z Z Z D D D Z D D D D C C C C C C C C C C M Z Z C C a a p p m M M M M M M M M M Z M M p p p i i m M D B M B M D } L X X 3 < < 4 1 w i i w < 1 # & p D M M L D Z C C Z D Z C C Z D D Z C D D C Z Z Z Z Z Z Z M M Z Z Z Z Z D D D D D D D D D D D D D D D D D D D D D D M M M M M M m m M M Z C C p p p p C Z i * * * 1 w w M 4.L p M L L Z p Z M * * < * * < < 2 < < < < 9 9 w 0 9 8 p _ [ Z ",
"M M M m m m m m p p m w & * 1 < 9 9 w w 9 9 9 8 9 0 0 p - L J.y C Z D D D H D Z L p # 8 w < < + a H P H Z D D D C D L H D D L P L D B B D L L D D D D D D D L L L H H L L L L L Z Z Z Z Z Z H H L L L D D D Z Z a p p p M C p p m m M B m i M W P < X * w 1 < 1 w i i i w w 9 1 * * + m ! ! i L M M M Z M M M Z Z Z Z Z Z M M M D D D H H H D D D D Z Z Z D D L L L L L L L H H H H L D D D D D D D D D D D D D D D D Z Z C Z Z J a H Z < & 1 4 < i p J ..P.*XE.6 C D p L D < < < < & & < < < < & 1 w < 1 i p 9 0 L d p D C C Z D A D Z D L D C 9 * < < & * 1 < 1 3 3 3 w w p p 8 [ q.A D A P Z Z P G Z I I p * 1 8 M * i P Z P D D F F F F F F D D Z D D D D D D D D Z D D D D Z Z D D D Z Z Z Z Z C C C C C C Z Z C C C a a a M M m m m M M M M M M M p i i i w i p M B M M B L ! L <   & 1 < & 1 w 1 4 4 w i w < # # w D L M D D Z C Z D Z Z D D D D D D D D Z Z Z Z H H L L M M Z Z Z Z Z Z D D D D D D D D D D D D D D D D D D D D D D M Z D D D M M m m m m d p p p p p m i * < * < w i D { L C C Z Z Z L M p * * 1 * < < < < < < < < < 9 i 9 8 6 a ..4.Z ",
"M M M M m m m m m i m i < & < 1 9 w 0 9 0 9 0 0 p p 8 p 0 C Z.J f Z H D D H D a D C * * 8 < 9 # p Z I J Z Z H D Z Z Z D D D J L D D D L L W L L L D D D D L L L L H H L L L L L L L L L L L L L D L L L D C D D D L L H C p p M M D M i i B Q ! < X X < 9 < < w w i i w w w w 1 9 1 X & M 3.P a a M Z H Z M M M a M H H H H Z M H H H H H D H Z Z Z Z Z Z D J J J J H H H H J J J J H H D Z D D Z D D D Z Z D D D D H Z Z Z Z H J a L L < & 1 4 < i p ,.g.R.-X( a D L M L Z < < 1 < < < < < < < < 1 1 9 w p p p d { C p D d d f A Z Z f D A D p 9 * * < * 8 w 1 i v w w w w w w < { Z.Z Z Z I Z Z P F F [ I p * p 0 Z 9 * I Z L L F F F F F F F D D D D F D D D D Z Z Z Z Z D D Z Z Z Z Z D H H L L D Z Z Z Z Z C C C C C C C M M M V V V M M M M M M M p p p p M m m M M M B D ! P * X 1 * X i w w 1 < 4 w i i w w < X & V L Z D D D D Z Z D D H D Z D J L J D Z Z H H H H H Z M Z Z Z Z Z Z H D D D D D D D D D D D D D D D D F F L D D D D D D D D D Z M M m m M M p m p m m w & < < 1 w i L ! D M M M m M L M m * * 1 - * 1 < < < < < < 9 9 p e e 0 a ..4.f ",
"M M M M M M M m Z p m m 1 & < 9 8 8 9 9 w w p y y C 0 Z a 0 ,.d.f Z H Z D D C p L D < * < 1 p * 8 Z I L Z Z J H H Z Z Z H J D Z D D D L L L D M L L D D L L L L H H H H L L L L L L L L L L L L Z L I L D C D D I { 4.[ Z p p D p Z m w M ! L &   < i 1 * 1 9 9 9 w w 9 w p i 1 i * i 1 . Z V.M M M Z H Z M M M M Z H H H H H H H H J J H H D Z Z Z Z Z Z D J L J J J D D H J J J J J H Z Z D D Z D D D D D D D D H J H H H J J J a P L 4 & 3 < p i 0 J.XX(.-Xy Z m D D L Z 1 1 < * * * < 1 < < p 9 0 p C p p Z [ A.F d P Z D D A A A Z A L D C 9 * * 8 8 y p 0 w w w w e p p p 9 +.J.A D D _ A L I F L [ L p 0 i 8 a 9 + ! L L L L L L L L L L Z Z D F F F D Z D D Z Z Z D D D H Z Z D D H J J P L H D Z Z Z D C C C C C C C M M M M p m M M M Z M m M M ^ D M M m p M M D Q ! Q &   & < 1 i 3 i 1 * 1 M L p * i w 1 4 # < m Q D D H D Z C D D L D C D L I L Z L L L L H H Z Z Z Z Z Z Z L H H D D D D D D D D D D D D D D D D L L L L L L D D M D D D D D Z Z C C C C Z C Z Z 9 & < < 1 i i L } Z p M H Z M M L Z * * 1 * * 1 9 1 8 8 9 9 9 9 9 0 p 0 a 4.Z.J ",
"Z Z Z Z Z m m m p m M p w * * 9 < w w 8 9 e p p a s u t y ) u.z.Z a a H L M m Z Z L < & 1 9 i & 1 P L C P L D [ P L L L D D L L L L L L L D D L L L L L L L L L L L L L L L L L L L L L L L L L P P P L L L P P Z p p  .D.I p  .f a D M Q C.3   < w < & w 0 6 t 0 f :X` % p p * w 1 1 3 & & B S.Z Z D Z M M Z Z M M Z Z H H H H Z H P P H H L P H H H H H H H H L L L L L L L L L L L L L L L L H H H H H H H H H H H H H H H H Z L P M 1 < 1 < 1 M Z ,.f.%XK J I D Z L L Z i 8 9 < * * 1 9 w 9 9 A y 0 J Z a ` K.J.I p C L C D D D A A A A A J 0 0 9 9 9 0 e 0 e p p 0 y a d d Z J.Z.d C P J P L L L C  .Q < p p w w 9 + I I H L L L L L L L D L L L L L L A F D D D H L L L L D D D J J D D D L I [ I D f C C p p M C C C C C m M M M M M M B M M a a Z L Z p a J [ ! Q ! ! Q . # < < 1 1 1 9 = a % 6 .X:X+ 1 0 p w 9 w X * O.Q M D L p L [ C C D H L J D Z Z J J J D D D D D D D D D D L L L L D D D D D D L L L D L L L L L L L L L L L L L D Z C Z D L D Z M M Z M Z Z Z D 9 # * < 9 i i D  .C a C C C D D I p 8 8 8 < < < < < 8 9 9 9 e p a a 0 f Z J oXZ ",
"Z Z Z Z m m m m m p m D M * * p w m C m p p p y a a s j J ) <.F.Z Z Z Z H H M p P D < * < 1 n < 0 I I D I P D [ I I L L L L L L L L L L L D L L L L L L L L L L L L L L L L L L L L L L P P P P P P P P L L P P P L a i Z 2.! 9  .Z * { Q   O 2 c n < < i 9 - 6 s %X<.<.f 0 9 p 9 1 1 w 1 , 3 B C.M Z P M Z P a Z Z H H H H H H H P I P H H H L H H L L L H H H L L L L L L L L L L L L L L L L H H H H H H H H H H H H H H H H H L P Z 1 < 1 < 1 p Z 3.-.F.f f ! I L D L L p * # * 0 p p p p m A 0 h J f A ` P Y.8.Z d L D Z L D A A A A A A A 0 7 6 d Z p p Z 0 0 d f g g f s g Y.Y.J D _ I P L I L C { { 9 w p w i 9 * I I J L L L L L L L L L L L L F L A A D D H H L L L L L L L L L L L L C D J L L L L L C C D D D Z C M M M M M M M M Z M Z Z L P ! ! I  .4. .D L O.L < # , < < 1 3 3 9 9 - 6 f.,X,Xa % * p p w p < # < D L m D [ Z p I D D J J J D D D L J J J D D D D D D D D L L L L L L D D D D D L L L L L L L L L L L L L F F L L Q P L D D Z Z Z M M M M M M Z Z 9 * * < 9 p p L [ Z a Z Z C D D D D p * * p m i 9 w p p p p 0 0 0 a J y ` %Xd.y ",
"Z Z Z Z m m m m D i M D p D D + < 9 p p p p p a y f s u K z.F.f.a H H Z Z P Z i O.m & < < 1 m 1 p ! I L I P D I ! I I L L L L L L P L L D D L L L L D D L P P L L L P P P P L L L P L L P P P P P P P P P P P P ! L P Z t I r.C L D [ I w . O N 3 1 1 9 t 8 0 J (.dXT.f d.t 6 0 i 9 w w w 1 , & Q 2.Z p I L p L Z H L L H H H P P P P P H H H P P P P P P L L L L L L L L L L H L L L L L L L L H H H H H H H H H H H H H H H H L L P Z 1 * 1 < 9 p P Z. .<.f H J I L C D I C * p p i 0 0 i p a y y f J I I ..d.J.J a A I D D L A A A A A D D D { C 6 8 0 p 0 p f d d f g g g ( ` Q.Y.J Z I P L P I J Z { { w 9 w w p 9 8 I I J L L L L L L L L L L L L L L L L J J H L L L L L L L L L L L L L D D D L I I H C Z D D D D D C C D M M M M Z D D D Z Z M a P -.w.w.I D L L n & . < < < 1 3 i 3 9 - + 1.wXT. XJ.p - 0 0 1 9 0 < @ 1 P Q D L D p L D L J J D Z Z D L L L J L L A A D D F F L L L L L L L D D L L L L L L L L L L L L L L D F D D D L L L D D Z D L M Z Z Z M M Z Z 9 * 1 1 9 i p P [ H Z J Z f D D D L D w 0 p p i p p p e 0 0 p p d C J Z D.rXf a ",
"Z Z Z Z m m m C m Z Z m D { Z # e p p p p p C Z f J Z J f.XXY.` a H L Z Z Z Z Z 6.9 # 1 < w m < M I I L I P L I I I P L L L L P P P L L D L L P P L M Z L P P L P P P P P P P P P P P P P P P P P P P P P P P P P L ! ! M Z  . .p P 6.&   i < < , < w t 6 6 J F.zX/.f.g.8.r.0 8 p p i w w w 3 4 * O.! m P L p P Z Z L L H H L P L P P P L L P I P P P P L L L L L L L P P L H Z L L L L L L L L H J J J L L L L H H L L L H H H L L P Z 9 < 1 1 9 w P J.-.-.J H Z L P H L I L p 8 6 9 a D L H a J ` ` J J ` d.Q.4.d p _ I D L L L L J A A D A D _ [ D 8 8 Z P Z ( A A J J g ( <.T. Xg.A Z J J I I P L I 2.L w 9 w w p 9 0 I I P P L L L L L L L L L L L L L L L L L L L L L L L L L L L L L L L I L D L L P L C D D D D Z Z D D D M M M Z D D Z M M M a a Z P I L Z D L m # . # 1 < 1 w i / 4 = X <.%X.XI ` W.Y.0 * * 8 9 i w < # 0 { { p D [ D L L L J Z Z D H L L L L L L L L J J F L L L L L L L L L L L L L L L L L L L L L L L L L F D D D D D D D D D L L D D D D Z Z D D p 1 9 1 1 i i L  .J J P Z Z D D L D D L D p 9 9 p p p p e p p d D D a K.>Xd.t Z ",
"Z Z Z M M M M Z 9 P M M ! i = t.D L L J D Z Z J 8.` :.T.%XK.:.J H H L L Z M Z ! { * + 9 9 i i < D P P P P P P P P P L L P P P P P P L L L L L P P L Z Z L P P P P P P P P P P P P P P P P P P P P P P P P P P P L { P M L L Z L w.6.1 & # & N < 1 w p 9 - t g.wXXXs = Y.Q.Z.{ Z i p p w 9 w w 3 & * ! C.M Z { M M Z H H H H P I P P L L L P P I P P P L H H H L L L P P P L L Z L L L L L L L L P P L L P P P P H H H H L L L L L L P L w < 1 1 1 1 M D.w.<.I H H P I I P H P P p p t t p a M f J y J _ d p.oXZ.J f L [ L J I Z L A A A A A D D 0 [ 4.J 0 p C f f g ( ( ( J ` u.%XY.' J I I L I J J P 4.{ p 8 w i p m 0 p I P P P I I L L L L L L L L L L L L L L L L L L L L L L L L L L L L L L L D D L P I [ I P D Z C Z D D Z Z M M Z Z Z Z p a H P I P Z a a { O.p # & < # < 4 w i w * * % H dX.Xa I f J :X{ 0 * 0 p i w w 9 . 0 O.[ D L P L L L J D D D J L L L L L L L L L L L L L L L L L L L L L L L L L L L L L L L L L L L L L D D D L L L L P L Z m Z L L Z Z Z H L p = 9 1 9 i p P { I I I Z Z H D L Z D I [ L Z p p C L L J P L D D [ 8.,X:Xy f Z ",
"Z H H Z Z Z Z Z H p Z L i i ! V.` -.d.J.K.J.Y.W.J.Z.D.J.Z.` Z H P H L P Z M L r.M # * 9 w m i 9 P P I I ! ! P P L L L L P P P P P P L L L L L P P L L L P P P L P P P P P P P P P P P P P P P P P I I I P P P P L ! H Z P M a 6.H.M # 1 m 3 1 w w i p 6 7 <.>XxXg - y a Q.W.Z.[ p M m i w 9 1 1 9 . i 6.! L P M Z Z Z Z H P P P P P P L L L L L P P P H H H H L L P P P P L L L P P P P L L P P P P L L P P P P H H H H H L P P P L I P i < 1 9 i 9 i r.Z.r. .f H H P I P Z H I -.r.r. .Z p f P A J ..d.D.Q.Z.Z f J [ ` J I I Z A J A A J A A A J J P ` I A A I <.<.<.<.y.z.(.%XY.' g K ' I J A J P I 8.I 8 9 p p p Z 0 J I L L I I I I L L L L P L P P L L L L L L L L L L L L L L I I I I L L L L L D D L ! { { [ I L D D D D Z Z Z Z Z Z Z M Z Z Z P I U P L { O.D * . # < & < 1 i t * % = a rXOX{ t I Z f -.OX .* * w 0 9 p 9 * + 0 4.2.D L L L L J D D J L L L L L L L L L L L L L L L P P L L L L L L L L L L L L L L L L L L L D L L D D L L L P ! ! L Z Z Z Z Z Z Z H L p * 1 1 9 p p L ,.` I L Z Z L Z C D D C Q C.C.[ M D D C C P ` ` Z.Y.,XQ.{ p I Z ",
"Z H L L Z Z Z Z ! i L L 9 { J.a 0 y H { r.8.9.Z.,.d.r.J a Z J Z P L L L L L ! 2.1 % 9 9 t p i Z ! P P I P P L Z P P P P P P P P L L P P L L P P L L L P P P P L P P P P P P P P P P P P P P P P P P I I I P P P P L P P L M L C.1   1 4 1 V X 1 9 8 0 0 ` >XtX(.- f H t f oXI w.! H p i i i 9 1 1 1 * i 2. .M L L H Z Z L P P P P L L L P L H H I I P L H L L P P P P P P L L L P P P P L L L P P P L L L L P P Z Z Z Z Z H P I P L I P i < 1 9 i p 1 L Z.t.-.H H H H H H H J J H <.K. XT.D.9.9.A.oXW.W.:XD.y 0 Z ` ` P I P J J J J J J J J A A { Z d ` Z.D.J.Y.Q.R.Y.g.Y.#X-X-X) k j K I I P Z L  .` [ p * p p p p L y I ` L I I I I I I L L L L L L L L L L L I I I L L L L L L P P I I I P L P P L J D Z J L I I I I P J D Z Z H L H Z Z Z a H Z Z Z H H I 2.2.m & & & # # 1 1 w i 1 % & U T.,Xa J I H J I t Q.K.I * * 8 0 p * p * . a { I D L L L J J J L L L L L L L L L L L L L L L L L L L L P P L L L L L L L L L L L L L L L L L L L L Z Z D L Q ! ! Q Z Z Z Z Z H L P a = 1 1 t p i Z 8.` I J D L L C Z L D M L 2.q.{ A.J.A.w.w.J.Y.W.D.K.oX .p L P H ",
"Z L L L L Z Z Z Z 2.L Z V.2.M H J H J I J Z Z J f a a Z L L P L L P L Z L { -.! + * p 9 9 p i I  .L P P L Z Z p P P P P P P P P L L P P P P P P L P P P P L P L P P P P P P P P P P P P P P P P P P I I I P P P P !  .M p 6.6.1   4 1 i 1 & i i 0 0 0 f Y.vX>Xy t ` a Z J 9 d.A.H.I i i M M i w 1 9 < & a -.{ Z ! L Z H P I P H H H H H P P P H ! I P P P P P P P P L L L P P P P P P P L L L P P P L L L P P P Z Z Z Z Z H P I P L I P p 1 1 9 w p * p w.6.r.P J I J f H :.:.U U J H U :.r.9.9.8.{ { ,.P y f [ I { I J I P Z I A A A J J L L L Z P ` _ I I [ { <.y.y.y.g.F.y.k j J ` ` J I  .P L r.[ J 8 * Z p p f L p [ ` L I I P I I I L L L L L L L L L L L I I I I L L L L L L L L L L L L J H J H J J D D Z J I I I I J D Z L P P H Z Z M a Z P I I P I -.m 1 # # < 9 9 1 9 i t = + t K.ZXZ -  .J I P Z I p W.W.D 0 p 0 p w 9 w < + p { [ L L L J J J L L L L L L L L L L L L L L L L L L L P P P P L L D L L L L L L L L L L L L L L L L L L L L L L L Q Z Z H L H L P P H 9 1 1 t p 9 i q.` L J Z H L C I L D L D C C J f I { { { { ` D C Z y J H I f Z ",
"Z Z Z Z H L L L P M P V.3.p p I I I J H H U I P I p P I H H Z I L H Z L  .6.P X = - p H p p P I ! P L L P ! ! P L L P P P P P P L L L L P P P P P P P P P I ! !  .! I I I I P L P I P P P P I I  .I P I I P P I { L M L 2.! 9   & 3 3 1 1 1 9 a a 6 6 .XdXvXh r f Z H H a P H.:XA.J. .y p p p p 9 9 i 1 * M -.! Z P I I L H L I P P L H H H P P H I I H H P I P I P L L H H P ! I P P P P P L L I P I I I I I I L H Z Z Z M H I P H P I M 1 < p 1 p w * p w.Z.P U U U H H H H J a H H H a a H H Z Z Z Z H J P I J I I P I ` I D L L J J J L L L L L L L I I P J J J J J J J J J K J J J J J I J q.4.J 9 = p f p a Z J J L I I I I I I I I I I I I I I I I I I I J L L L L L L I L P I P L L L L D D D D Z Z Z D J D Z D J P L D P P H H H H Z Z H I P a P w.2.M < & # , < 1 9 i p 1 1 % = T.xXf J J J J J P L J Z L J.Q.P 1 0 p 0 p w 1 * + p Z.L H Z [ H Z ,.Z I I P L L L L L L I I I L L L L L L L L L L L L L L L L L L L D L L L L L L L P L L L L D Z M Z L L L H H L P P  .Z * 9 i 9 M 1 p [ q.Q C D L C D [ L p H L D J L a a H Z t p I L L L H H H H H ",
"Z Z L L H H H H M P ! P L H Z H Z H H f a H P P I Z Z a H P p Z P L L M  .{ * + % a p t a i Z J.P P P P P P P P L L P P P P P P P L L L L P P P P P P P I ! ! I  .! I I I I I P P P P P P I I P P P I ! I P P  .P Z L { Q 9 # # 1 / 3 1 i i t y - 6 XX#XAXK - J J Z H I  .I P P OXJ.Z.{ 0 p D 8 M 1 < w * * Z Z.Z Z ! P p Z  .I I P P H H H Z M P I I H Z P P L P P P I P P P I H L P P P I I ! I I I I I I I I H H Z H H H H P  .P P  .P 9 1 i w i i 9 * t  .W.M H H H H U H H U U I U U I U H P P J J H J J P P P P P I ` I Z P P L L J J L L L L L L I I I P J J _ ` ` ) J J J ) j H I f a d.d.Z * 8 a a a a I Z Z ` { I H I I I I I I I I I I I I I I I I I J L L I L L L I P P I I L L L L J J J H D D H H J D Z D J P J H P P H H H H H Z P Z Z I -.I a 9 < 4 < 1 3 1 9 t 1 p - - f.ZX:.a J H H J J I I ` I Z D Z.W.D * p C w 9 p i * * C q.D I Z I -.p I I I P P L L L L L I I I L L L L L L L L L L L L Q P L L L L L L L L L L L L L P L L P L L L L L L L L L L L P P L { M * p M 9 p + C q.q.I H L D p C D L L C f L Z Z H I I L L I P P P L H H Z Z ",
"H H H H H H H H Z I I H M L U H Z H J Z a H I  .H a H H Z P L H p P Z V.2.. X i 9 t i t t P -. .L P ! P P L P P L L P P P P P P I P P L U P I I I I I I I I I I P P P P P P P P I U P U I I I P P P I I I P P I Z P { ! i X X 4 3 3 1 4 i p 0 6 t T.#XAXF.- K H P Z a L  .I Z t 8.K.Q.Z.J t 0 Z 9 w 9 9 1 - 9 L w.! Z H I P H H I P P P P L H Z I  .I L H P P P P P I ! I P P P P P I I P P I I I I P P P P P P P P P I ! I P P ;.J P -.! p 1 w m 9 9 i 1 + 9 ! V.P a H I P H P L L L H U I L H  .I P L H H H H P J J J ` ' I Z I P L L J J J J P L L I I I I I P _ _ ` ` ) K J ` g K ` Z I V.r.C 8 * p f a s K J f Z ` { P L [ I I I I I I I I L L P P P P I I J J J I I I P P I I I I I I J J P P J J J J J J J H H H J I P J P P P P L H Z Z H M P 3.{ i * * & < 1 1 1 w 9 9 = - = -.ZXJ.a a D D Z Z D J I I P I C P J.A.f * p 9 w m p 8 * + I 6.J Z [ P D I I I I I I I L L I I I I I L L L P L L L L L P Q Q Q L L L L L Q L L L L L L L P P P P L L L L L L L L L L P P P H !  .= = Z 1 p i @ 8 C.A.D t L I Z C Z C Z H Z Z P P H H P H a P P P L L L H Z ",
"H H H H H H H H P H Z L L H H U P U P H Z P ! -.-.t H  .a H  .p Z Z  X!   - p - 9 i H a 9 I w.H L P P P P P P P P P P P P P P P P P I I P I I I I I I I I I I I P P P P P P I I :.I I I I  .I I :.I P I ! ! P H L 2.O.p # # < 1 1 3 4 4 9 t 6 u z.%XZXT.6 Z  .Z H Z Z H H H H H p 8.J.D.f.f 6 f 8 p w 1 i 9 * * { V.P a 2. .a Z Z H H H H H L P ! ! ! P P P P P P P I  .I U P P P I I P P I I U I P P P P P I I ! I I  .{  .I P I U P `  .L p 1 i w 9 9 t 1 - + 3. .I P L H L U I I P L U I I L P P H H H H P P P J H I ' { ` K P L L J J J J J L I I I I I I I ` _ P A A J J K I I ` I J D.H.i * 0 f Z Z f Z J f I { I L I [ [ I I I I I I I I I I I I I I I I J J J I I I P J I I I I I I J J P P J P P P J J J J H J P I P P P P P P H H Z Z a ! 2.I i * & & < 1 1 4 1 t t = - % P cXoXt a D Z Z C C C Z Z D C L I Z J K.J.0 * 8 p p 8 t p + * 4.I I L f [ I I I I I I I L L I I I I I I I L Q P L L L P Q Q Q P L L L L L L L L L L L L L L L L L L D D L L L L L P P P P L P a 2.I & 9 p 9 i < * 9 L 4.[ C L Z D f p H I a -.-. .H L I I H H H H H L L L L ",
"H H H H H H H H L a a L L a a L P U H Z H P I I J.U a H H a M t  .oXi   * * 9 9 p Z t a t.t.U P L L L L P I P P P P P P P P P P U I I P L H L L ! ! I I I I I I I I I I I  .-.<.r.-.I I I  . . .I I I U I I P H 2.{ M * @ 1 w 1 1 i i 1 6 6 g <.#XxXrXy f H Z H a H I ! L Z Z Z I a ` J.F.f.K + p p 9 w p 1 - p % ! w.L Z I  .P a Z Z Z a a Z P I P P P P L P P P P P I I P P I P L H P  .t.r. .P P P I I I ! !  .I I P I I P L J I I U I { L w 9 i p 9 1 9 i t X H V.! Z L I H L I P L H L I I L L H H H L P I J H H I { <.$.' H H H H H H H H L P I I I I I `  .` I J Z A J K H 8.P Z Z.2.* * i p C Z J J g a <.f.9.` I ` [ I I I I I I I I I I I I I I I I I P J J I I I I J I I I I I I P P P L P P I I P J J J J J P P P P P P P P H Z Z Z ! 6.{ i # * 1 < 1 3 3 3 i i 1 & - U rXoXy p a D f Z Z D D Z Z Z D y a D Z { D.q.p 9 w p 8 p a 9 * * 8.{ Z I D ` I I I I I I I I I I I I I I I I Q Q P L L P Q Q L L L L L L L D L L L L L L L L L L L L D D L L L H H P P P L H P p P Z.p % p 9 * p w * * Z 4.q.p p J I a f P J  .U H H I I I I H H H H L L L L ",
"H H H H H H L L M M H H H H Z Z P L H H H U I P  .Z.H p L a a V.K.+ . = 9 t - a p t H J. Xt.H H L Z Z L P P P L ! Q P P P P P P I I I L H M Z H ! ! ! I I I I ! I I  .I I  .-.r.r.-. .! I  . .-.H I :.I H H I  .2.p + + < 9 w w 1 i i t t u $.).cXcX- K H Z I L Z L L L H H H Z ` J I <.G.G.<.s * p m i 9 1 1 i 1 % P Z.Z H 6.I L P P H Z a Z H L H L P P H H P P H P P U P P I I I P P <.Z.t.:.P P I I I I ! !  . .I P P I P P H ` ` P I -.{ Z i w w i w 9 i M & 1 M ! ! L H L H L L Z M Z L P L L H H H L P P J H J I ' { <.,.J H H H H H H H P P I I I I I I  . .[ ` _ K J J J Z D q.V.1 . w C p f J P Z J ' D.<.I ` { [ I P I I I I I I I I I I ` I I I I I I P J P I I I P I I I I I I P I P L J P I I P H J J J J P P P P P P P L Z Z H L V.! i * & & < 1 1 1 3 i t = & & H :X:X9 D Z C C C Z L I P P I I J Z 0 p I H J D.6.p < i p 0 t p 0 + p 8. .I P J I I I I I I I I I I I I I I I I Q Q Q Q P P L L L L L L L L D D L L L L L L L L L L L L L L L P L H H P P P L H Z I a 2.r.= = p p 9 0 p * X 0 q.8.Z p D H Z J I I H f J I H H L L H L L H H D Z ",
"H H H H H H L H ^ U U ^ M L L H H H L H H U I I a w.I H H H t.K.- * + i i 9 Z t p I OX,X:.a I  .L L L L P P P P ! ! U P P P U U U I I L H H H H ! ! ! ! I I I I P I I I P I  .-.-.-.-. .I I  . .P ` ` U H P I  .p * . < w 9 1 w 1 i t t j ` T.sXcXj r J H I I L L L M M Z P P H a ,.` K f.f.<.D.0 p M i 9 p i * L X = r.r.I I P I I I P P L H Z L Z H I I H Z L H H P I I P P I I I P I -.Z.w. .P I I ! I I P P I  . .I I I I I P I I I I  .{ ! D i 9 i p w 1 9 P 4 + M ! P ^ P P ! ! Q Q ! ! ! P L L L L H H H P J J I ` I ' ,.I P P L H H H H P P I I P P P I [ [ [ [ ` I I I ` 0 { H.w # m p p C J I I ` <.g.$.K J I [ ` I I I I I I I I I I I I I I I I I I I P J J I I I I I I I I I I I I I J P I I I P H H J J J J J P P L L L H Z L Q { ! i & * < < < 1 4 < 1 / = % 9 H  X:Xt f P I C Z C D L P P L I I J I Z a J H f ` Z.[ p 0 p i 0 p p i + J ,.L -.C L L I I I I Q I I I Q I ! ! ! I P P Q Q Q L L L L L L L L L L L L L L L L L ^ ^ L L L L L L L L L H H H P P L H Z I Z H 2.H 1 i 0 m m 1 * 8 8 * Z.,.Z p Z P P I -.U J I I P L I L L L L L L L L ",
"L H L H L H L H L L L H M M L P a H L H H H U I 3.I ` :.a :.K.= . = t = 1 t t M J.,X XH a U I U I ! ! I P P U ! ! ! U P P P U U P I I I U P I ! ! ! ! ! ! ! ! I U I I I P I  .-. .-.r.-. .I I  .<.` J H P  .! H . X & 1 i w w 1 i t t s $.G.>XZX) - ) H J H ^ H Z L L L H L H Z J J ` I H <.F.d.D.p * p p i i 9 - M 1 = r.6.Z P L H H P I I H M P H P  .! H Z L Z H P I I I I I H H P P -.Z.Z.r.I I ! I I P L H H P ! I P I I P I J J I I L I 6.L Z p 9 1 w i i 1 p i 1 p ! ! M L L L L P ! P H L L L L H H Z Z I J J I J J ` ,.` I P P L H H H P P I I P P P I I I L J J P I ` L { H.L   1 Q = D I I J ,.K.l.K s ' <.I H I ! L I I I I I I I I I I I I I I I I ` P H H P I I I I I I I I I I I I P L I ` I P H H J L J J J L P L H L H H P { C.< < < < < < < 9 9 1 1 1 % % H K.ZXt t P H P [ M C D J H Z Z D L D a P { Z Z I J [ Z.{ 8 1 p p t p p 0 + Z Z.I L L L L I I I Q Q I I Q ! ! ! ! ! P Q Q Q Q L D D Q P L L D L L L L L L L L L ^ B M ^ L L L L L H L H Z H P P L H H a I a Z 2.a * w i p p m p 8 * * r.Z.C p J I P I H Z M H H I :.H L L L L P P P ",
"L L L L L L L ^ M M ^ H L H L L L H L P P P P I I `  .I  .J.t . 0 * * - + p D.OX,XD.J H H U I L I I P P P P ! ! ! ! P P P P ! ! P P I I I P P P P P P I I I I I I I I I I I I I <.<.:.:.I I U U H ! I L ! ! i . & & 4 i p i 9 9 7 u u ) z.(.ZX/.- u J U M a H I H H Z Z Z Z H H H H I -.-. . .-.K.-.a p p i 9 9 9 i i 1 9 ! 2.m [ L D L P L H P H H L U L L H M I  .I L P !  .I P P P U I  . . .I I I I I I P J I I I I I I P U H P P P P P P P 2.6.P 9 - 9 i 9 i 1 m i @ p 2.M L P L H H H H L Z Z Z H Z Z H H a H J H J I ` ` -.,.[ D Z P I H Z I I J H J J H H P Z Z -.Z ! P L D.I + 6 a y s K J ` F.XXl.k J ` ` ` ` ` I I P I I I I I I I I I I I I I I I I I P P H H L P P H I I H H P I P P P P P P P L H H H L H L H Z Z H H Z p I Z.} 9 & < < # # 1 9 = t t t X = :.9.ZXa f Z J J L L L H H a p Z Z Z L L L P P L P L H a { Z.I 9 = t t t p t * * P w.P L L P P I I I [ P P P P I I I P P P P P P L L H L L L L H Z Z Z L L L L L H Z Z Z Z H Z M Z H H P M i Z L Z M H L L L Z Z L ! { 1 i 9 t Z M 9 p * X { J.i Z M Z Z a I H H H ! a H L P L H H L P ",
"L L L L L H L H M M M M M M M M Z Z H H H H H J H r.H P oXt X = y * % 8 Z D.OX Xt.H H I I H H U P P P I P P P P P P P L P P P P P P P I I I P P P P P I I I I I I I I I I I I I :.:.:.` I U P P U I H L 3.M X # & & 4 3 9 9 9 t s 7 $.Y.f.zXxX- a f H H H H L L H H Z Z H H P P L H H P I P L L I w.-.p = a Z 9 9 i i 1 * M } O.C D L L Z Z P -.U U U U L L L L I ;.-.I L I I I I P P U I I I I I I I I I I I U I I I I I I U U P P P I I I P P P P P I Z i 9 9 i 1 9 i 1 9 M P I Z Z P H H L H Z L I P P I P H P I I J H J U U I I I L J I I P P J J I I I I U H P P H P I Z L d.8.6 + f u 6 $.<.) ~.-Xg.J K I I I ` ` [ ` ` I I I I I I I I I I I I I I I I I I P P P L P P P P P P P P P P P P P L L P P L L L L L H H Z Z Z L a p P 3.! p < < # & w i w t p 6 y % - g.K.rXD.a f Z Z Z Z Z D H P L P I P H P Z H L P P P P H I a ! w.H t p p 9 t a a - & Z r.P P I [ [ I I P P P P P I I I U I I P P P L L L L L L L L L L L L L L L L H Z Z Z M M M Z Z Z M M a M Z L Z Z M L L L Z Z H P ! P 9 i p 1 M P 1 9 % 1 2.Z.i P P P Z P H P Z I ! I P P H H H P P ",
"L L L H L H H H M H Z H H H L L Z Z H H H H H H I H H J.{ X # t 9 = a 8.W.oXK. .H M L :.I U I I L P ! ! ! ! P L P P P P P P L L P P P I I I I I P P I I I I I P I I I I I I I I I ` I I U J J J U t L -.p * < X < 4 1 w 9 1 9 p t ` f.T.zXsX6 6 H Z Z M M Z M M H H H H H H H H I H Z H P P H M Z w.D.U 9 t p p t t 9 9 9 9 M { L J D D P { -.-.! ! I P I I I I I <.r.! H H I  .I I I P I I I P I I I I I I I I I I I I I I U U P P U U U P P P  .H Z ! 3.! p - 9 i 9 i p < - M  .M H I H H P Z L P L M Z P P P H P P H H U  . .L L H P P P H H J Z Z P J H H I I H U ! Z { M 3.J.8 + y y a ` ' u.#X-Xl.K J K I I I I ` [ [ ` ` I I I I I I I I I I I I I I I I P P P P P P P P I H H I ! P H P P L L L L L L L H Z Z Z Z Z H H Z a P 2.{ i & & 1 < < 1 < * = p y - + D.` %X,X% H J J J J H H J Z H H H P L a a Z H P I ! I P P P P M I Z.Z % i p t t a p % = P [ [ _ _ I I L L P P P I I I I U ! P P L L L L L H L L L L L L L H H L L L L H H H M M M Z H M a i M L Z Z H Z M L L H Z Z Z L L 6.{ L Z M p i M p 1 X p J.H L I ! P L M I H P I P P L H H H L P ",
"H H H Z Z Z H H H Z Z H H H H H Z H H H H H H H  .t w.D.  1 p 9 = f D.:XOXZ.H a U I I L H I ! L I ! ! { { ! I P P P ! ! ! P P L P P P I I I I I I I I I I P P P I I I I I I I I I I I I U J P P a a ;.L . X i & 4 1 w i 9 1 t a :.<.XX,X:X9.+ I Z H H H H Z L P Z H H H H H Z Z H M p a H L Z a P H  .w.I = - M i p 9 i M 9 * i [ I L J  .w.w.-. .! I I I I I ! I -.r.! H H I I I I I P I I I P I I I I I I I I I I I I I I U U P P P P P P L H  .I Z M ! 6. .a * w i w p w * = P P P L H H H Z L Z M a M Z H P P P P H H H H L  .P P  . .P L P P P I  .P H U :.I a H  .H P P J.P + = H t J g.' XX>Xz.u k <.` K ` ` ` ` ` I I I I I I I I I I I I I I I I I I I P P P P P P L L P H H P I P L P P L L H L L H H Z Z Z Z Z H L L i I w.I i & & * , 1 w < 1 p p t + . J.d.OX%Xt ' H H H H D D D H H  .! H Z Z Z I H H P I I I P P H r.H Z w.{ 9 i a p = 9 Z a 9 9 [ [ _ P J J L I P P P I I I I U ! P P L L L L L H H L L L L L L L L L L L H Z Z M M M M M Z M a M Z H Z Z Z H Z Z Z Z H Z Z Z H p { -.2.H.r.i * p i * * a Z.M H P ! P p  .P Z p Z Z H H H H H H ",
"Z Z M a Z j H H H H H a a a a a H L H Z Z H H Z Z -.J.% % 1 i t y f.OX.X9.H Z I ! L L L H P ! L ! ! ! ! ! ! ! ! P P I ! ! P L L P P P I I I I I I I I I P I P P I I I I I I I I I I I I U U U I t t.H X + & X i < 4 1 w 9 i Z I Z.9.:X.XH 6 J p  . .! P L M M M p a a Z Z Z Z Z H Z Z Z H P L H I a Z w.Z.H i M i M i 9 p w * 9 M P [ I P I :.-.! I I I I I I I I I  .I P P I I I I P P I I I I I I U U U I I I I I I I I I U U P P P P P P L H M P ! Z a L 3.Z.9 < 1 w i p p 1 i { P p P P Z P H a Z ! { L Z L L L L P P P P I ! L L P P H Z H H H H H H I I H M Z H I P a 6.3.+ 0 y y K ' f.XX,X%.j ) ` ) <.` ` ` ` ` ` I I I I I I I I I I I I I I I I I I I P P P I P P L L Z H H Z H P I L P L L H H H Z Z Z Z H H H Z Z Z Z -.-.p + + < < 1 1 < 1 p M 9 . + D.K.%X,Xp t P Z Z H H H H H L p L P a p p Z ! P P P P P I I I P a I I p I r.t 9 M p 9 a a t 9 Z L I I J D L ` I P P I I I I I P P L L L L L L L L L H H Z Z Z L L L L L Z Z Z M M M M M M M M Z M M Z H Z Z H Z Z Z Z H H Z Z p a L Z L J.J.9 9 p p + X r. .H H P I Z  .a p a H H Z Z H H H Z ",
"L H H H H H H H U L L H H H H H Z L Z M Z H H a p K.H + i = = 9 I XX:X9.H H I I I i M 3.3.! P I { ! I P P I ! ! P P I I P P L L P P P I I I I I P P I I I P P P I I I I I I I I I I I I I U U U :.! =   * * X 1 w 1 1 w i M ! w.D.oXQ.-.8.[ Z.{ ! L H P ! } ! L -.-.-.-.{  .! ! -.-.-. .{ -.-.{ { -.-.-.V.D.{ i i Z M 9 1 w m L 0 C I I P U I I I I I I I I U U I I P P I I I U I P P P I I I I I U U U U I I I I I I I I I U U I I I I I P P P H Z L P Z p L r.{ w 1 i 9 9 i i & P H p L P Z I I Z H { { P H P L L L Q ! ! ! ! 2.{ ! { ;.;.;.2.I P M a H I H = H -.3.U I P Z.9 + t a f ` <.Y.wX1.j j <.<.J J ` I I ` ` ` ` I I P I I I I I I I I I I I I I I I P P I I P P P L Z P P Z Z P I P L L L L L H Z Z M M Z Z M a p p -.P p - + * < 1 w 1 1 w < # - 9 OX%X:X,XH H H H Z Z H H H H L L  .P a Z r.D.3.P P P P L H L P P -.H { -.Z I w.I t p p p a p i p 0 f I [ I L J L I P P I I I I I P P L L L L L L L L L L H Z Z Z L L L L L H Z Z M Z M M M M M Z p i p L P H M Z Z Z Z Z L L Z Z L M p i i L Z.L.i i p = * 9 H.{ H Z P I P = p r. .P H Z Z H H H ",
"H M a a a p p a a a a M H H P I H L H M Z P H a I -.% t = t t p F.%X X` H I P H I H ! V.2.! ! ! ! ! P L L P P ! I ! ! ! I P P L P P P I I I P I P P P P I P P P I I I I I I I I I I I I P P P I Z.= X & * 4 w & w w w i p p M L a p = t i i Z i 1 < 1 m ! C.C.C.6.r.3.2.{ ! P P L P P L L L L Z Z I I Z H  .P i a M M p 9 p H H t a J { -. .P H ! ! ! I I I I ! I I P I I I I I I P P P P I I P U U I I I I I I I I I I I I P P I I I I I I P P -.Z p H P Z p M V.{ p 9 9 1 1 p = t Z P P H L L I P H Z L P L L ! L D M m w 1 1 1 1 1 1 9 i i t  .! I I  . .U H t.r.3.I P w.2.X p * f ` ` D.XXG.y $.) J :.` f ` I ` ` ` ` I I I P P I I I I I I I I I I I I I I P P I P I P P P L P ! P H H L P L L L L L L Z M a a M M M M M a -.Z = - - = = = < 1 i i < * D Z.K.K.D.a  .H r.r.6.6.V.V.V.V.V.V.Z.r.L P H.+XZ.P 6.6.6.6.6.6.t.6.! t.{ ! 6. .P r.M t t p a M M p 0 a A ` ` I P H P P P P I I I I P P L L L L L L L L L L L L L L Z H L L L L L H H Z M M M Z H H a Z L L L L Z Z L Z Z Z L H Z M p L P !  .9 i J.P i 9 i 9 + -.w.H Z I P L a  .6.P L H Z H P L H ",
"t 1 = & * % + + X X & = t a Z L L P L Z H P P a D.t 9 + t p p I OX.X9.J I J H  .I V.H.! M L ~ W ! ! P L L L P ! ! ! ! ! ! ! P P P P I I I P P P P P P P I I P P I I I I I I I I I I I I P P P P I = X % 1 1 1 4 < 4 w i 9 * X     % . X . +   X * * & + . . . . . X X X X . . X . X . . . X X   X . X & % . % a Z i M L Z Z M = = a :.Z.-.H H I ;. .! I I I ! ! I I I I I I I I I I P P P P U P U I I I I I I I I I I I I I P P I I I I I P P P ! L M p M L L Z P D.P - i p 1 p p * Z V.P H P a M P P Z L ! P i & X . X o X o # X & # X + * & + 1 i L ! U H I w.K.P H L Z D.Z + 0 p f J d. Xg.y <.K ` $.K ` ,.` ` `  . .` I P J J P P I I I I I I I I I I I I I ! ! I I P P P P P P ! { P M M P L L L P P L Z M M M Z Z L P !  .P H p 1 = 1 1 * 1 9 9 < 1 i i = + . + % . 1 - % * * = 1 = * * - X 1 9 % X X % * + % * - * * - - * 1 9 1 t p t 9 p p Z a 9 p Z t a a s J I ` I J P P P P I I I I L L L L L L L L L L P P P P P P M Z Z L L L L L P Z M M Z L L H L { { Z p Z L Z L L Z Z H Z Z M Z H P Z i Z I a Z.p t a * 9 1 V.P P  .a L w.J.L a a Z P I I P Z ",
"& & * * * < 1 1 * * * < * # # & = Z i t H { t -.Z.X = Z = = a r.%XF.` J P I P P I ! ! ! ! ! ! Q P ! ! ! L Z L ! P L L P ! ! P L I I ! I I I I ! -.I L P I ! I P I I I I I I I I P I I P H H P I ! = + - + * w w 1 w i i 1 * % + * * * * * * & < & & # # # & & & * * * * * * * & = 1 1 9 1 1 9 9 i i t t i i i i p a M M M Z p t 6 <.T.<.a I H :.I I ! ! ! ! ! ! I I I I I I I I I I I I P P P I I I I I I I I I I I I I I I I I P I I P P P I I P P Z Z L L Z L Z Z V.a 9 i p 1 i 9 t M H H Z H P Z H  .P 1 X X X # & < < 1 3 1 1 1 1 1 1 1 1 1 t X = a t P <.Z ;.H I ! ;.Z.% 9 p a Z ` XXf.k ) ` ` ` ` ` ` ` `  . . .` ` ` ` ` I I I I I I I I I I I I I I I I P P P P P P P P ! P P P ! ! P L P P P P L L L L L H Z Z Z Z Z Z H I I H a p 9 % 9 9 9 9 1 1 * * % % % % % % % % X X + + # # + + * * * - - - - - * * * * = = 1 1 1 1 1 1 1 1 9 9 1 9 i t p a p t 0 s s Z f.{ f :.P P P I ! I I L P P P P L L L L P P P L L L L L L H H L P L L L L L L P L H M M M M Z M M M Z Z H Z Z H L L H Z H Z Z Z Z L L P H Z.- i p t + L 6.M L H P Z I H H I I H p 9 - % ",
"< < * < < 1 1 1 p w w w i w w i = X p Z t Z p r.I % = p i - p r.T.9.J H P U P P P P ! ! ! Q W W P ! ! ! P P I ! ! P L P ! ! P P I ! ! ! I I I ! r.{ I P I I P L I I I I I I I I I I I I P P P I I U = X 1 p 1 1 1 1 w w 1 4 * = * * 4 4 4 4 1 1 1 1 9 9 9 9 w w 1 1 1 9 9 9 9 9 1 9 9 9 9 9 9 t 9 9 9 9 t i p p a p p p p p p t ` F.T.D.H f 9.H I I I I ! ! I I I I I I I I I I I I I I P P P U I I I I I I I I I I I I I I I I P I I I P P I I P ! P Z Z Z M L Z I P  .p i 9 i i 9 9 p Z L Z Z H P H p * X + * 1 1 1 < < < < < * * = = 1 1 9 1 = i t = t p a I I U U L Z.I + 9 0 D a D.G.$.J ` ` ` ` ` ` ` ` ` {  . . .` I I I I I I I I I I I I I I I I I I I ! P P I I P P P ! P P P ! ! P L P P P P L L L L H H Z Z Z Z Z Z Z M L :.I p 9 t = 9 9 9 9 1 1 * * & - & & & & & * - * * * * * 4 1 1 1 1 1 1 9 9 9 9 1 1 1 1 9 9 9 9 9 9 9 9 9 t 9 i p i t i p t a y Z G..XJ ,.` P P P I ! I I L P P P P L L L L P P L L L L L L L H Z L L L L L L L L L L H Z Z Z Z Z Z M M M Z Z Z Z Z L L H Z Z Z Z H L L L L M 6.M 1 p t * i V.I H L I Z P H  .P a = % % % + ",
"9 w w w w w w w 9 < < 1 w w w i i + a p p Z L 6.p 9 9 9 a - P F.r.` J P P P P P P P P P ! Q W W L P I ! ! I ! ! ! ! P P ! ! ! P I ! ! ! I I I ! r.-. .I I I P P I I P P I I I I I I ! ! ! I I I U r.H % 1 m 3 4 1 3 w 1 4 1 1 9 4 1 1 1 1 1 w w 1 1 1 1 1 9 9 9 1 1 1 9 9 9 9 9 9 9 t t t 9 t i w w w i i i p p Z p p a p p a Z f.T.>XK j U I H I I I I I I ! I I ! I !  . . . .I I I I P P P P I I I P I I I I I I P P P P I I P P I I I P I I I  .P Z M a M L Z I a w.I t 9 p i 9 9 p Z L D Z Z P Z * X % 9 9 * < < 1 w w i p p p p p p p a p t t y a f 6 y 9.H :.H U J.9 + 9 0 L a .X<.K ) I ` ` ` `  . . . .{ {  . .` I I I I I I I I I I I I I I ` ` I I I ! ! ! I I I I P ! P P P ! ! P L P L L L L L L L H H H H Z Z Z Z Z p Z -.r.H p p = = 9 t w 9 1 1 = = = = = = 4 4 1 1 1 4 4 4 1 1 1 1 1 1 1 1 9 9 9 9 9 9 9 9 9 9 t t i i i i t t i p p i 9 t p p 6 g ` Y.>Xf.H ` P P P I I I P P L P L P P P P P P P L L L L L L P L L L L L L L L L H Z Z Z L L H H Z Z M M Z Z M M Z Z L L Z Z Z Z H L L L Z Z M ! V.1 p i i - 2.w.Z P P H P L P p & X X - 1 9 ",
"1 1 9 9 9 9 1 1 9 9 9 i w w w i Z r.I = Z H -.Z.= 9 9 9 p 9 D..XI P I I ! I I P P P Q ! ! ! ! ! P P P P I ! P P ! P P P P I ! I P I I I P P I I  . . .! I I I I I P P P I I I I I I I !  . .! I U U 3.:.1 * i 1 w i w w 1 1 1 t 1 1 1 1 1 1 1 1 i i i i i i i i i i i i p p p p t i p p p p p p m m p p p a M M Z p p M a p Z  .9.,X%X6 H :.a  .U U I I I I U U I I I I I I !  .I I I I P P P P I I P I I I I I P P P L L P P P P P I I I I I I I  .P Z M p p H L H Z I Z.p i i p 9 9 i Z L L D L L M = * 9 t * i p p p p p p p a a p a p f f f H t f J y H d.<.H :.M 3.t.+ = 9 p Z I .XJ J ` I ` ` ` `  . . . . . . .` ` I I I I I I I I I I I I I ` ` ` I I I ! ! ! ! ! I I I ! I P P P P P L L L L L L L L L Z H H H L H Z Z Z Z Z Z  .r.I t 9 9 9 t w 9 1 9 1 1 1 1 1 = 4 1 1 1 1 1 1 1 1 1 1 1 1 1 9 9 9 9 1 1 9 9 t t t t t t i i i i t t i i i i i p p p t g g.Y.rXJ I K P P P I I I P P L P L P P P P P P P L L L L L L P L L L L L L P L L H H H H L L Z Z Z M M Z H L M M Z H L L Z Z Z Z H L L L H Z Z L H.p p p p * M Z.L I P I ! P P a = + % * = = ",
"0 t y y y y t 0 p a p p p a D L r.oXr.a Z i Z.V.& * i p t M oXW.D P I [ ! ! ! P I I P ! ! ! ! ! ! ! ! ! ! ! ! ! L L L L P P ! ! P I I I I I P I P I I I I I I ! I P H L P I I I I I I ! ! ! I P I M 3.K.Q & 4 m i i i i i i t i i / / / i i i i p p p p p p p p p p m m m m m m p M M M M M M M M M M M M M M Z Z p p a a p J t.T.bXK j $.j :.U U I I I I I U U I I I I I I I I P I I P P P P I P P I I I I I I P P H H H H L P P P P I I I I P I I H a M p p Z P M P Z w.! i 9 p t 9 i M L L D P L M p i t = - 1 9 t p p a a p a d f Z D J I I I K ` s s F. XJ J I Z H.H X i 9 C p f.D.J K ` ` ` ` ` [ ` ` `  .` ` ` ` ` ` ` ` I I I I I I I I ` ` ` ` ` I I I ! ! ! ! ! ! ! Q Q Q P P P P P L L L L L L P P P L L H L L L H Z H I H i H t.<.H y t 9 t i 9 w w 9 9 1 1 1 1 1 1 w w w i i w w w w w w w i i i i 9 w w i i i i i w i i i p i i i p i i i m m p t H ) l.AXf.y <.J I P P I I I P P L L P P P P I I P P P L L L L P P P L H H L L L H H L L L L H Z M Z Z Z M Z H L M M M Z H L H Z L L L H L L L P P Z V.P t a p 1 - w.{ I Z  . .L M p 9 9 9 9 9 t ",
"a a a a a a a a a a a f J ,.D.K..XD.Z P Z M J.p # & a H t <. X<.Z P ! ! P P P P P P P P P ! ! ! { ! ! P P ! ! I L L L P P P ! ! I I I I I I I ! P I I I P P P P I P H H P I I I P I I I I I I I I P I Z.L.Z * M w i i p p p i i i i i p M M M M p p p p p p p p p p p p p p p p p m M M m m m m m m M m M M Z Z a a p p t p I D.xX/.y u.` J :.f U I I I I I U U P P P P I I I I I I I I P P I I P P I I I I P P L H H H H H H L P P P P P I I P P P Z a M a a Z L H H Z L Z.a t p i w i m D L D Z Z L P Z p p H a a Z H P P P I I I I I I I ` ` J ) ` <.T.T.<.J I H I D.* % M i D f Y.` I ` ) ` I I I ` ` ` I ` I I I ` ` ` ` ` ` ` ` ` ` I I I ` ` ` ` ` I I I ! ! ! ! ! ! Q Q Q Q P P P P P P L L L L P P P P L L H L L H L L H L H Z a J <.f.H y 9 t i i i p i i i i 9 9 i i w i i i i i w i i i i i i i i i m m m m m p i i i i p p p p p p m p i p p p p p g G.rXsX7 <.f I I P P I I I I P P P P P P P I P P P P P P P P P L L L Z Z L L Z H L L L L L Z Z Z Z Z Z Z Z Z Z p p a M Z L L L L L L L L P P !  .H { r.i p i i + I w.I Z  .I H M a a a a i p p ",
"g g j j j k J J ` $.<.1.F.(.XX.XD.H 9 Z H 6.2.. # 9 a Z p K.D.H H I ! I L L P P P P P P L P U I ! ! ! P P P P P P I ! ! ! ! ! ! I I I I I I I ! I P P P P P P P I P Z H P I I P P I I I I P I  .P :.L I H.V.D i i i p p p p p p i i i i V M M V M M M M M M M M Z Z Z Z M M M M p p m m p p p p m m p p M M M M a a a i t H D.OXzXu J <.J $.H H U U I I I I U U I I I I I I I I I I I I I I I I I I I I I P P P H H H H H H H H P H H H P P P P P I L M M p a H H I H H a 6.P i i i i 9 i M D D M Z L P P L I -.D.D.Z.t.9.9.9.9.<.<.<.<.<.<.<.' y.f.F.#X#X<.s ` I H t.I + = p M C -.W.Z ` ` ) ` I I I I I I I I ` ` ` ` I I I I [ [ ` ` ` ` I I ` `  .` ` ` I I ! ! ! Q Q Q Q Q P Q Q P L L P Q L L P P P P P P L L H Z Z H L L L Z H P H f I f.<.H t t i i i i i i i i i i 3 3 p i i 3 3 3 3 w w 9 w w w i i i m m m m p i i w i i i i i i p p p i i p i i m H <.-XbXr K :.f I I U P P I I I P P P P P P P P P P P P P P P P P L P L L L L L Z L L L H Z Z Z Z Z H L L L H H L Z M M Z H L P P L P P P I ! ! ! { P P 6.M 9 p p * t w.I L ! H L  . . .-.! H a a ",
"f.f.f.g.l.z.F.F.F.F.F.T.(./.l.$.= a H a Z H.p X * M p i a OXt.H P ! ! P L P I P P P P P L P I I ! ! ! ! ! I P I ! ! { { ! ! ! ! P P I I P P P I P P P P I I P P I P Z Z P I I P P I  .! P P I { H I ! M L L.H.* M M p p p i i i i i / / i i i t i i i i i i i i a a m p p i i i M M Z Z M M M M Z M M m m m a a p M a t a :.OXxXF.y K K I U I ` U U I I I I U I I I I I I I I I I I I I I I I  .I I I I I P P L L L P L P L L L L H H H P U P P H ! I H M p a L H I P Z H H w.p 9 i i 9 w p Z Z L Z Z H I I I H U I I ` <.l.K.T.T.T.Q..X.XXXXXXX>X>XdX%XK s ` J P H J.t + 1 i H p K.K.Z ` K ` ` I I I I I I I I ` [ ` ` I I I I  .[ ` ` ` ` I I [  .[ [ [ ` I I ! Q Q Q Q Q Q Q P P Q P L L P Q P P P P P P P P L L H Z Z H L P P H H P I J J I F.` a t p i 9 w 9 t 9 9 t 9 9 1 M p i 9 1 1 9 t 9 0 0 0 t t y y 0 t y y t 0 9 8 i t 0 9 0 t p i 8 9 p i 0 t D { %XAXJ K ` H <.` I P P P P I I P P P P P P P P P ! ! P P P P P P P ! I P P I P L P L L Z M Z L L M Z L P P L P P P L L L L L P P L P P !  . . . .-.I P r.L 1 M i t + r.! I I Z I Z H -.D.K.J.D.Z.",
"l.l.D.F.J.K.K.K.T.K.D.1.:.I f t i a H 1 2.S.# * & ^ p 9 -.+XH H I P L L P U P L P L L P P U U P ! I ! ;. .I I  .I ! I P P I I P I P P P ! ! I P L L P ! P P P ! I I P P P I I I I I I ! ! ! I I :.H U I Z { H.6.H I ! L P ! I Z L L H Z M Z H H M a p a a p p a a p 0 0 i p i 0 0 y 0 8 t f M p m p m i 1 i a = t = = y ` T.>XdX= Z  .I U I ! I I I I P L L I ! L P I I I I I I I I I I I I ! ! ! ! ! ! I U P P L L L L L L L L U H a M L I I L U I I L M a M H a M Z L L P P P * p 1 t t t P L Z H P P P I I J P I I H H H :.t.D.D.D.K. XOXOXOXoXZ.P f H J J H a H.! X - M p Z ` .X` I I ` ` J ` I I I I I I I I I ! ! ! ! ! ! [ [ [ [ [ [ ` ` [ [ [ [ [ [ [ [ [ [ [ [ Q Q I Q I I I I I I I I I I I P P L L L L L L L L L I I I I I I I I I I I Z.,.H { r.`  .8.' :.g.G.G.D.g.K + - K <.f.f.` <.' ) ` ` ` ` ' ` ' <.<.<.' J g Z Z Z f g f g f f H J Z f ` J.:XrXF.J J ` I I ` I I I I I P I P P I P U I U I U ! Q P U P U P U ! U P L P P L L ^ L P L M M L P L L L L P P P L ! U I U P P P P I I I I I !  . .L -.Z 2.H p p i i = Z 6.! Z L ! I U P U  .<.w.D.",
"H J J I I I I I H H H f f H a p a p i M 3.L X & p M a M H.D.L U L P P P P P P P P P P P U U ! P I !  .! I I I I P I I P P P P L L L L P P P P P H H L P P P P ! I P L P P I I I I U P I I I I P ! L L L Z I -.I ;.3.t.3.t.H.H.D.H.D.D.Z.Z.Z.Z.D.D.Z.D.Z.Z.Z.D.J.J.J.D.Z.w.q.r.r.q.Z.J.K. X XD.! p i m ! 6.P Z ;.I -.` I /.xX>XI M U I U U ! ;.;.I I I I I I I I L I I I I I I I I I I I I I I I ! ! ! I I U U P P P P P P L L L U L H H U I I L L U U L H M ^ H M Z L L Z Z L P t p i i 9 9 Z H Z J I I J J I I J U I I ` ` :.-.r.;.I P P P H Z p Z H Z H I :. .3.V.p . * p p Z {  X` ` I ` ` J ` I I I I I I I I I I I I I I I [ [ [ [ [ ` [ [ [ [ [ [ [ [ [ [ [ [ [ [ Q Q I I L L I I I I I I I I P P P L L L L L L L L L I I I I I I I I I I J d.8.{ Z.J.J.Q./.-X>X-X-X-X(.f.+ $.cXbX.XF..X XT.T.Y.Y.T.(.(..X.X#X%X>X-X%X.X/.F.F.F.G.G.G.G.G.XX XT.Y.T./. X X,.I I { -.I P ` I I I I I I I P P U U I U U U U P P P P U U U U ! U P P L P U U L L L L L L P U L L P P P P P U U U U U P P U I I I  .{ -.{  . . .I L  .;.a t p 1 1 Z -.-.2. .Z P H f f H H J H ",
"a a a a a a a a a f H Z H P I I M a i 3.3.4 # 1 M M p H K.I H U H L P P P P L P P P P P P P P ! P  .-.I I  .! P P I I P P P L Z M H L L L L L P M M L P P P P ! P P P P P P ! ! P P I ! ! ! ! P I P L L L P P L L L L P ! { 3.V.3.;.! ! ! ! { { 2.3.3.;.! ! 3.D.K.K.K.J.H.D.J.L.W.OX,X:XOXoXW.K.L.Q & D :X<Xw.Z.3.r.t.J.OXOX9.t U I I L I ;.-. .I I I I I I I I U I I I P P I I I I I I I I I I ! ! ! I U U U P P P P P U P L L L L L L I I I U I P P L L H H H Z P ! P Z Z P { a t i t 9 i p I H I I P P P I I I I I :.<.<. .I P H H H H P P P H P I P P P L Z Z.P * X 9 p p Z ,.K.I I ` I ` I ` I I I I I I I I I I I I I I I [ [ [ [ ` ` [ [ [ [ [ [ [ ! [ [ [ ! [ [ Q Q I I L L L I I P L L L P P P L L L L L L I I I I I I I I I I I I I I Z ` I Z P J Z ` ` K K K J s u u <.f.g.J 6 s K s J J k J J K ` ` <.<.f.z.z.g.u.<.<.<.1.9.9.9.f.f.g.9.<.<.f.1.` J J I ` { ` I I ` I I I I I I I P P I I I I I P P P P P P P Q I I P P ! P L L P ! ! P L L P P P P L P ! P L L P ! P P P P P P ! ! I ! { -.-.{  .I  .Z P H w.M 9 a p 1 p -.3.P P P P H Z a f f a y ",
"H H Z Z Z Z Z Z H H H H H H H H M Z I V.L X * p i M i H r.Z H a H L P P P L L P L P P P P P P I L I {  . . .I L I I I P P P H Z M Z L P L L P ! M M L P P P P P P P P P P P I ! P P ! ! ! ! ! P L I L L P P L P L M M Z M a M P M M M M M M M M Z M M M a M H I M M Z Z Z H P ! P  . .H p p M H +XJ.L p I I a Z I Z I D.t.H y H L U L L I  .:.I ! I L L I I I P U I I P L P I ! I I I I I I I I I I I I U U U U P P P L L L L L H L U I U P L L U L L P U U L H H P ! ! L H P { L 9 p t t p 9 H ! I H H P I I H  . .I  . . .I L I U P H P P P L { I P P P P { 6.I 4 X * p p a Z ,.w.P I ` J ` ` ` I I I P I I I I I I I I I I I ` ` ` ` ` ` [ [ [ [ ! ! ! ! [ ! I ! ! Q Q I I I L L I I I I L L L P P P I I I I L I I Q [ I I I P I I I I I I I I  .` I { I I :.' g a s f u H ' g 6 6 g K ` ` g H g g g g k J J s g J J K J J H J J J J J J J J J J J J J J J J ,.{ I P I ` ` I I I I I I I I P P I I I P P P P P P P P P ! ! ! P P P P L L L P ! ! P P P I P P L P ! P L L P ! P P P P P P ! ! I I  . . .I P L L p Z p -.I 9 p Z 1 9 P { P M M H H H H H H f a ",
"Z Z Z Z Z Z Z Z Z Z Z Z H H Z Z M I Z.! * X & i i M t ! I M H H M L L P L L L P L P P P P P P P P P I 2.3. .P P P P P I P P P P L P ! ! P L P I L L L P P P P P P P P P P P P ! L L P P ! ! P P I ! L L I P P ! P L L P L M M L L L L L L L L L L ^ M ^ L L L L I L H H L I I I I L M a M H M i 1 Z  .Z 9 p P I Z Z Z Z Z Z Z H L P U P I ! ;.;.;.I U L U I I P P P P L L L I I P P I I I I I I U U U U Q U I I ! U P L L L P U H L I I I P L P P L L P U U P L Z L P P P L P P { p p i i p * t P I P P P I I P I I I I I P H H J J J J H H Z Z H P P L P { C.Z.1 X + 9 p p H P r.,.I I { P `  .I I I P P P P I I I ! I I I I ! I I I I I I Q Q ! ! ! ! Q Q Q ! I I I ! Q Q I I I I Q Q Q Q I I I I I I I I I I P I Q [ [ Q I I I I I I I I I I J H Z P ` I I ` J I I f H ` ` J I f H I H y f I I K K J J J I K I ` ` ' { ' ` ` ` I I I I I U U I I ` I U I ` :.I I I I ` -.` J I I I I I I I P P P ! ! ! ! P P P P P P P P P P P P P P P P L Z L L P I P P P P P P L L P P P P P P P P P P P ! ! I I P P H H H Z Z M a H r.p p i p i t P w.P = p a H H Z Z Z H ",
"Z Z a a M Z Z H H H H P P H H L ! 6.Z.M X * 1 w p i i t.L a a U M Z L L L L L P P P P P P P P P P H P -.r. .I ! P L L P I P I ! ! ! ! ! P L L L P L L P P P P P P L L L P P P P P P P P P ! P P ! P P P L L P P Z M H L L Z M H L L L L L L L L P ^ M H P L L ^ P H Z Z H L L H P H a a M H H M  .L I  .H H H i M H L Z Z H P H I I I P L I -.t.;. .I I I I I I L P U U L L I I P P P P P I I I U U U U U U ! ! ! ! P P L P U ! L I I I I U P P H L L L L L P P Z H L P P I P P { Z p i p p 1 9 a P  .I H H I  .H P I I P H H H f H J I  . . .! I  .P L { V.Q * X X = t 9 p P -.q.{ { [ -.I ` I I I I P P P P P I I I I I I I I I I I I I I Q Q I I I I Q Q Q Q I I I I I I I I I Q Q Q [ Q I I I I I I I I I I I I Q [ [ Q I I I I I I I I I I -.` I `  .` P H H H H J I I P H P J P I { { I J ` ` ` ` I `  .` I I I I ` ` ` I ` ` I I I I I U I P J J U I J H J I ` I I I ` ` I I I I I I I I P P ! P I I P P P P P P P P P P P L L P I P L M M M L P P P P P ! P L L L P P P P P P P P P P P  .I P H H H H L L I L H M w.P p 9 M p 9 p L P  .a Z H Z Z a a Z ",
"H H Z Z Z H H H Z Z H H Z a Z I V.V.M * & * i 9 p 9 I 3.H Z H P Z M M H L L L P P L M L P P L L P H H P I  . . .I P L P P L P I I P P L L L L L ! L L L P P P P P P L L P P P P ! I P P P ! ! ! ! H L ! H H P Z Z Z H L P L L L ^ ^ L L L L ^ ^ L ^ M ^ L L ^ ^ L H H H L L P U H H M M p M L ! H H H P P Z Z I H L P ! L M Z I ! ! P L L P ! ! 2.2.2.;.! ! P P L P I I P P P I P P P P P P P P P P P P P P P Q ! ! P P P P I I I I I I I P P L H H L H H H L U L L L L P P P P P L p p p i p i 9 a P L H H P P I !  .I L H H H U I I I U P L L P L L { C.} i   % - 9 t i a I Z.,.I { I -.[ { I I I P P P P I P I I I I I I I I I I I I I ` Q Q I I I I Q Q Q Q I I I I I I I I I I Q Q Q Q I I Q I I I I I I L I I ! [ [ Q I I I I I I I I I I J D J L P ` ` L P Z Z I ! H P -.I  .P a Z P I ! P P P P P P P P  . .! I ! !  . .I I I I I I I I ! I U I :.;.I P [ [ [ I L L I { I I I I I I I P P P P P I P P P P P P P P P P L P P P P P P P P H H L L P P P P P P L L L L L P P P P P L P P P ! P P L L L P P ! ! I I Z { 2.p p p i i 9 % i Z.{ ! P L H Z Z a ",
"H Z Z Z Z Z H H a Z P L M a I V.Z.3.  X 4 * M 1 p p H.! H I :.H H M M M L L P P L M M M L L H M L P H Z H  .-. .-.I P P H Z Z H L Z M M L L P P I L L L P P P P P P P L P P P I I P L L L P P P ! M L ! H L ! Z L L Z Z H L H M ^ ^ L L L L ^ ^ ^ M M ^ ^ ^ ^ L M M M M M M M ^ L M M ^ P I P H a  .H Z  .I a L P L Z M Z L L L P L L L L Z M M 2.3.t.6.3.! P P L P I I P P P P P P P P P P P P P P P P P P Q Q L P I I I P P L U L L L L L L H H H L H M Z H I L L Z Z Z H L P ! { M p i 1 M i 9 9 t a H P H p Z.r. .L Z Z H P P I I U P P P I Z Z } H.! @   < * = 9 p Z Z  .H.I C [ L {  .,.I I I P P P P I I P P P P P P P P I I I I I I Q Q I I I I Q Q I I I I I I I I I I I I I I I I I I Q Q Q I I I L L I I ! ! ! I I I I I I I I I I I I I [ I L I ` H a P  .I P I P H P I P I  .I L P I I I P P P P P I I I P I I  . .I I I I I I I I U I I U P P U I I L L ` [ I L I I I I I I I I I P P P P I I P P P P P P P P L L L P P P L P ! { ! I L L P ! P P L P P L Z M L P P P P P L L P P P L L L L P I ! ! H I ! L Z Z.M i p 9 i M 9 % = Z.r.I P I P Z a ",
"Z M M M M Z M M M p i p I w.V.2.m X . < = t a 9 Z Z.P P P H d.Z Z Z Z Z Z H L L L P I I P L Z Z P P L H H H L P P L H H L P H H H H H L L L P P L L P P P P P P L L P P L L L L L L L L L L P P P P P P P P P L L L L L L L L L M M B ^ B M M M ^ M M M M M M ^ L H ^ M M M ^ ^ P M M ! ! H ^ U H H P P L H H H Z D L P Q Q L L P L L L L L L L L P P P L L L P L P P P P L L L P P P P P P P P P P P P P L L L P P L L P P P P L P P I P P H Z P L H H H P P I L H Z H L L L H L { ! p 9 p p 1 t p p 9 * 1 L 6.2.{ ! P L L I  .H P P P H H L P 2.Z.6.p X X # * 9 6 p a p ` J.J.H L P I I I I I P P P I I P P P P P I P P P I I P I I I I _ Q [ ! I I I I I Q Q Q Q I I I I I Q L I I I I I I I I I I I L L L L P L L L L L I I L L L I I I P L L P I I I L P P ! ! ! ! ! ! ! ! I I I I I I P P ! ! ! ! I I I I P P P P P P I P I I I I I I I I I I I I I I I I I I I I I I I I I I I I I I L L P P P P P P P P P P P P P P L L P L L L L H P  .2.6.2.P Z L P P P P P P L L P P P P P L L L P P ! P L L P ! ! P I P L Z p M P  .9 1 9 i i Z a + X P Z.P M !  .Z ",
"P P L H L L P P L I ;.6.V.2.M *   @ # < p Z p 9 r.Z.H H H H r.I L Z M Z H L Z M L H Z Z Z L L L H H H Z H H H L P L H H L P L H Z Z Z Z Z H L L L L L L L L L L L P L P L L L L L L L L L L L P P P P P L P P L D L L L L D D Z L ^ L L ^ B M M ^ ^ M M M M M B ^ M M M M M M M M M M L P L H L H H H H L H H L D D D D L L L L L H Z Z H L L H L L P P L L L P L L P P L L L L P P P P P P P P P P P P P P L L P P L L P P P P P P P P P P L L P L H H H H H L L L L L L L L L p P ! Z 9 1 9 p 1 1 9 9 9 1 * - 9 p Z P  .{  .! H L P  .-.2.2.2.I Z < . . * w i * t f p D d.J.q.H H L P P P P P L P P P P P P L P P P P P P P P I I I I I I I I ! I I I I Q Q Q Q Q I I I I I I I I I I I I I I I I I I L L L L P L L L L L I I L L L L L L L L J J J L L L L L P P P P P P P P P P P P P P P P P P P P P P P P P P P P P P P P I U U U U I I I U U U U P P P I I I I I I I I I I I I I I I L L P P P P P P P P P P P P P P P P L D Z H Z Z L P  .-.{ P H L L Z H L L L L L L P L L H H H Z Z Z Z Z Z H L P P L Z H L H Z H L P Z 9 9 i 9 1 t p 1 % t r.Z.P M I ",
"{ } 2.3.3.2.{ Q 6.6.2.! L p & . , 1 * 1 p - - I D. .Z Z H H P { L Z M M Z L Z M H Z a a Z L L L Z Z Z Z Z H H H L H H H L L L H L Z M M M Z L L H H L L L L L L L L L L L L L L L L L L L L L L L L L L P P P P D D L L D D Z M L L L L L ^ M M ^ M M M M M M M M M M M M M M M M Z Z L L L L H Z H H H H H H H D D D Z B D D F L L Z Z H H H Z H L L L L L L L L P P P P P P L P P P P P P P P P P P P P P L L L P L L P P P P P P P J L P P P P P P H H H H H H L P L L L L P Z L I ! M = = p i 9 1 9 i i 9 * # * < 9 m Z L L w.6.2.2.{ I Z p X X + * * 1 9 9 a a 0 a 8.Y.q.Z Z Z H H L L L L L L L P P L L L L L L P P P P P I I I I I I I I I I I I Q Q Q Q Q Q I I I I Q Q I I I I I L L L I P I L L L L L L L L L L L L L L L L L L L L L D D F L L L L L I I P P P P I I P I P L P L P P L L L L L L L L L L P P P P I P P P P P P P P P P P P P P P P P I I I I I I I I I I I I I L L L P P P P P P P P P P P P P P P P L Z Z H L Z Z L Z L L L L P P H L L L L Z M Z Z Z Z Z Z Z M M M p a Z H L L L Z Z Z H H Z M M p I a * 1 p p 9 t M p & . < Q 2.P ",
"L L L L L D Z M M i * X   . @ # # & 1 p p = M K.-.Z H H L P Z ! ! P H Z Z Z Z M Z M M Z H L Z Z Z Z Z Z Z H H H H Z Z H H H H H L L L Z Z L L L Z H H L L L L L L P L L L L L L L L L L L L L L L L L L P P P P L L L L L L L L L L L ^ B ^ M M M M M M M M M M M M M M M M M M Z L L L L I P L H H H H Z Z Z Z Z Z M M M Z D D L L H H H L L H Z H L L L L L L L P P P P P P P L P P P P P P L L P L P P P P L P P P L P L L L P P H J L P P I I I P P P L L P Z L P P H Z L P ! Z Z P P p 1 1 9 9 1 1 < 1 w i 9 < # + # * 1 9 * & & & * + .   % % - 1 1 = 9 a a y p { W.Z.Z p Z Z Z Z H L L L L L L L L L L L L L L L L L L P L L L I I I I I I I I I Q Q Q Q I I I I I I I I I I I I L L L L L L L L L L L L L L L L I L L L F F D D L L D D H H F F L L L L I I I P P P P I L L L L L L L L L L L L L L L L L L L L L L L L L L L L P P P P P P P P P P P P I I I I I I I I I I I I I L L L P P P P P P P P P P P P P P I I I L H L P L H H Z Z Z Z L P P Z L L L Z Z M M Z a a M M M M M M p M Z L L L L L P L Z Z M M p i P P 9 * i Z t 1 < m Z 9 . . w Q ",
"w 1 & # X # # & . . . . X # < w , 9 p 9 * I J.F.Z p I D D I p L 4.{ [ P D C M M C C Z Z C C C C Z Z Z Z Z Z Z Z Z Z Z Z Z Z Z H L L L L L L L H H L L L L L L L L L L L L L L L D D D D L L L L L L L L W W W Q L L W W L L L L D D D D D D L L L L L D D D D Z Z Z D D L L L D L P P L L Q P Z L L H Z Z Z Z Z m M M Z D D D Z L L D D L L L L Z D D L L L L L L L L L P L L L L L P P P P L L L L P P P P P P L L L L L L L L D J L L I I I I I I I P P P P P Z L P L Z Z L P P M a H P L p = * 1 i i w 1 1 w p i w 1 1 < & # X # & , < * 1 1 p = - 9 i t t t 6 K d.Y.F.H 0 D Z Z Z Z Z Z L L L L L L L L L L L L L L L L L L L L L I I I I Q I I I I Q Q I I I I I I L L I I I I I I L L L L L L L L L L L L L L L P I L L L L L F D L D D D H L L L L L L L A A A A J A A A D D D D A A D D A A A A A A A A A A A A L L L L L L L L L L L L P P P P P P I P I I I I L L L L I I I I L L P P L L L L L L L L I I I I P P I P I L L I I L L D L L D Z D L D C C C Z Z C Z D L a a C C C Z Z D Z D L L L D L L L D D D D D Z M a P a - * 1 9 p M 1 & i m w # X ",
"< * & & # # @ X # # < w w w 1 w m w m D L d.D.P Z Z I Z C L C D L L L D C p M Z D Z C M p p a Z Z Z Z Z Z Z M a Z Z Z Z Z Z Z Z Z H L L L L Z Z L L L L L L L L L L L L L L L L D D D D L L L L L L L L W W W W L L L L L L L L L L L L L L L P W W P P L L L L L L L L L L L L L P P D D L L Z L L H Z Z Z Z Z M M Z D D D Z Z D M M M Z Z Z M Z Z M D L L L L D D D L L L L L L L P P P P L L L P P P P P L L L L L L L L Z Z Z D J L I I I L J L L L L L L L Z H L L Z Z H L P P P P P P Z i w w 9 w i i w w w w w i i w w 1 w w w 9 < < < 1 = * = t p t p a ' G.Y.8.Z y p L Z Z Z Z Z Z D L Z Z Z Z Z Z Z Z H H H L L L L L I I I I L L L L I I I I Q I P L L L L L L L L L L L L L L L L L L L L L L L L L L L L L L L L L L L L L L L L L L L L L L L P P L L L L L L L L L L J J L L L L I I I I I I P P L L P P P P I I P L L L L L L L P P P P P L I I I I I I L L L L I I L L L L L P P P P P L L L L I I I P P P P P I L J L L L D D D D D Z D L L L D L L L D Z C C C C C Z Z D L L L D D Z Z Z D D M Z D L D Z M p i p p M a 1 * i & M M < # w m < ",
"1 9 w i i w 1 < 9 1 1 1 1 1 9 w w w Q L.Q.Z.I f J H H Z D D Z D p p C C C Z D D D Z C C C Z D D M M Z Z Z Z Z Z Z H H H Z Z Z H Z Z H L L H H Z L L L L L L L L L L L L L L L L L L L L L L L L W W W W L W L L L L L L L L L L L L L L L L L W W Q Q Q Q Q L L L L L D D L L L L L L D D D D D D D D Z Z Z D D D D D D D D D D M M M M M Z M M D M M D L L L L D D D L L L L L L L L L L L L L L L P P P L L L H H H Z Z Z Z Z C Z A L L L L L J J J L L J J J H H L L L L L L ! ! !  .{ { ! I M p 9 < 1 9 w 9 w w 1 1 1 1 w i w w w 9 9 9 w 9 9 i t 9 9 a :.D.Y.D.{ a 8 p H f M M M M M M Z Z Z Z Z Z Z Z Z Z Z Z H H H H L L P I I L L L L L I I I I I I L L L L L L F F L L L L L L L L L L L L D D L L L L L L L L L L I I I P I L L L L L L L L L L L P P P P I I I I P P _ _ _ _ _ _ I I _ _ _ _ _ _ _ _ P P P _ _ _ I I P P P P P P I I P P P P P P P P L L P P L L L L I I I I L P P P P P P P L L L L I I P L L L L L L J L L L D D L C C Z D D L L I I ! { { [ P D C D Z C C C D D L L Z Z Z Z D Z M M M Z Z M m p p Z t p L P Z p w w 9 1 w n n w 1 ",
"p w < * * 9 p p p w 9 i m D ! 4.S.Q.L.6.{ L f ` P Z a D L D Z Z D D D L L L L D Z C Z L I I L D C M Z H H H D Z D H L H D Z D H L H H Z H H L L H H L L L L L L L L L L L L D D L L L L L L L L Q W W W L L L L L L L L L L L L L L F D D F D L L L W W L L L L L L D D D D D L L D D D D D D L D Z Z Z D D L L I L L D D D D D D M M M Z Z Z M D M Z D L L L D D L L L L L L L L L L L L L L L P P P P L L L L D Z D Z Z M C C D Z D D L J L L L L L L L L L L L L L L L L L L L C C ! 6.Z.Z.S.2.O.{ D p 9 9 9 9 0 w 9 < * < < < < < < 9 w 9 9 p C D ` w.J.J.D.,.Z p f p C H p C M M M M M Z Z D D Z C C Z D D D D D D D D D D J J L L L L P P I I I I I L L L L L A D A D F D A D A L F L F L F F F F F L F L F L A F F L I I I I I I P L L L F L L L L L P P P P P P P L L L P P P P P P P P P P P P P P P P P I P P P I _ _ I I I I I I I Q I I I I P P P P L L P P L L L L L L I P P P P P I I I I P I I I I I L L L L L L L L L L A D D I D L L L D C C Z D I 4.V.V.r.{ ! F D C C C C D D D Z Z Z D L Z M Z M Z m p M L ! [ P L M 0 Z O.! D w < 1 9 < < w ",
"7 0 p C Z A _  .Z.A.J.J.J.J.A.A.6.O.Q F Z Z D A C C Z Z Z C C C C C C C C C Z Z Z C C C Z Z Z Z Z C Z D D D Z D A D D C C D D D D D D D D D D D D D D D D D D D L L L L L L F D L D D D D D D D D D L L L D D D D D D D D D D D D D Z D D D D D Z D D D F F F F D D D D D D D D F F F F F F F F D D F D F D D D F D F L L L L L F D D D D D D D D D D D D D D D D D L L L L L L L L L L L L L L L L F L F D Z D Z Z Z Z Z Z Z Z C C D F F L F F L L L F F F F F D D D D F F D D D Z C C Z P +.6.H.6.[ _ { +.{ [ P F F F P P F F F F D D D P { 4.V.S.H.A.s. .D p p d C C C C p p p m m C C Z Z Z D Z C C C C C C D D D D Z Z C Z D A A A L L L L L L L A D D D D L L F F D Z Z Z Z Z D D D Z Z Z A D A D Z D Z Z G D A D Z D Z D A A F F F L F L Z D A D F F F F F F F F F F F F A A A A A A A A F F F F A F F F F F F F F P P P P P P P P P P P P P P P P F F L L L L L L L L I I I L L L L L L L L L I I I P L L L L L L L D L D D F F F F F F F D F D D Z Z Z Z Z Z F [ O.+.O.[ Q P D Z Z D D Z Z D D Z m m m m p p m C Z Z C Z C C M m m m m { { [ D m w w 9 ",
"....p.p.4.4.p.s..........._ P A F D Z C C C C Z Z C Z Z Z C C C D D D D D D D D C C C C C C C C C Z Z Z D D Z Z D D Z C C Z D D D D D D D D D D L F L L L F A A L L L L F F F F F F F D D D D D F F F F F F F F D D D D D D D D D D D D D D D D Z Z D D D F F F D D D D D D D D D D D D D F D D L F L L L L L L D D D F F F L L D D D D D D D D D D D D D D D D F F F L L L L L L L F F L L L L D D F F D D Z Z Z Z Z Z Z Z Z Z Z Z D F F F F D D D D D F D D D L L F F Z Z C C C C C Z Z Z C C F +.S.s._ G G [ [ [ ..+.+.+. ._ ....{ [ P P P _ F Z C e e e p d Z Z Z Z Z Z Z C Z Z Z Z Z Z C C C d C C C Z D A Z Z Z Z Z Z Z Z Z Z D A A A A A A A D D A D Z D Z Z Z Z C C C C Z Z Z Z C C C C Z Z Z Z Z Z Z Z Z Z Z Z Z Z Z Z Z A G A F F A A F F F F F F P P D A A A A A A A L P F F F F P F F F L F F P F P F F L P P P P P P P P P P P P P P P P P P P P P L L L L L L I I I I L L L L L L L L L L L L L L L L L L D D D D D Z Z A F F F D Z D Z Z Z Z Z Z C Z Z Z Z D F F P L F Z Z Z Z Z D D F D Z C C Z m m p p C C m m m m p p p p p p m D Q O.6.+.{ { ",
"I _ ` _ P A A L Z Z Z Z Z d d p p C C Z Z Z Z Z Z Z Z Z Z Z Z Z Z Z Z Z C C C C C C C C C C C C Z Z Z Z Z Z Z Z Z Z Z C C Z Z Z D D D D D D D D Z D D Z Z Z Z Z D D D D D D D D D D D D D D D D D D D D D D D D D D D D D Z Z Z Z Z Z Z D D D D C Z Z Z Z D D D Z Z Z Z Z Z Z Z Z Z Z Z Z Z Z Z m m m m m C C C D D D D D D D D D D D D Z Z D D D D D D D D D D C D D D D D D D D D D D D D D D D D D D D Z C C D D D D D D D D C C Z D D D Z Z Z Z Z D D D D D D D D D F F F F m C Z D D D C C C P +.6.[ F Z D Z Z D F F F Z C Z Z Z Z C C p e Z Z C C C Z D D Z C C m m m m C C C C C C m m m C C C C C C C C C C C Z Z Z Z Z Z Z Z D D D D D Z Z Z Z Z Z Z Z Z D D D D D D D D D D D D D D Z F F D D D D Z Z D D D D D D D D Z Z D D D D D D D D F F F F L L F F F F F L L L D D D D D D D D Z Z Z Z D D F F L L L P P I P Q P P P P P L L L P P L L P P L L P L L L I I L L P P I L P P L P Q I L L I I L L L L L L D D D D D D D D D D D D D D D D D D D D D D D D C m C D F D D D D D D D C C C C m m m C D D Z Z Z Z Z C C C C m C C m C 8 9 w e m C Z Z ",
"d f C f C d C d p p d f Z Z G D Z Z D F D Z C m C C C C C C C C C C C C C C C C C m C m m m m m C C Z Z Z C Z C Z C C C C C C Z C C C C Z Z Z Z C C m m p p p p C C C C C C C C C C C C C C C C C C C C m m m m C C C C m C C C m m m m m m m m m m m m m m m C C m m m C C C C C C C m m C C C m m m m C C C C Z Z Z Z C Z Z Z Z Z Z C m m Z Z Z Z Z Z Z Z Z Z C C C C C C C C C C C C C C C C C C D D Z Z Z C C C C Z C D D D C C C Z Z Z C C Z Z D D D D D D m m C Z D F P Q D D D D D F P Q F Z C F [ { P C F F Z C C C Z Z P P L Q [ [ [ P Z Z F P L D C m C C C C C C C m C C C C C C Z Z F D Z Z Z Z C C C Z Z Z Z Z Z Z F F F F L L L L D D A A A D D D Z Z Z Z D D D D F F F F F P P Q F L F F F F F F F F F F F F F F Z Z Z D D D D D Z Z Z Z Z Z Z Z m C C C C C C Z Z Z Z Z Z Z Z Z C C C C Z Z Z D D F F L L L P P L L L L F F F F L L L L F F F F L L L L L L L L L L L L L L L L L L L L L L L L D D D D Z D Z Z Z Z Z D D D D D D D D D D D D D D D D D C C Z D Z Z D Z D D D D D D D Z D D F F F D D D D D D D D D D Z Z Z Z Z Q F Z m C Z Z Z ",
"Z D D D D D D F Z Z Z C Z D D D D D D Z Z m n p m n n n m m m m m m m m m m m m p p n n m m m m m m m m m m m m m m m m m m m m m m m m m m m m m m m m m m m m m m m m m m m m m m m m m m m n n n n n n n n n n n n n p p p p p p p p p p n n n n n m n n n n m m m m m m m m m m m m m m m m m m m m m C Z Z Z Z Z Z Z Z Z Z m m m m m m m m m m m m m m m m m Z Z Z Z Z m m C C m m m m C C m m Z Z Z Z C m C C Z Z Z Z Z Z D D D D D D D D D D D D D D D D C C C C C C C C F D D C C D D D Z Z D D D F F Q [ [ Q F F F P Q D Z C C D D Z C F D D C C m m C D F L L L F F D D D F F F F F D D D D F F L Q Q F F F D D F D D L L L P I I L L I P P L L L L L F F F F F F D D F F F F F F F F D D D D D D D D D D D D D D D D D D D D D D Z Z C C C C C m m m m m C C C C C C Z Z Z Z Z Z Z Z Z Z Z Z D D D F D D D D D F F L F F F F F F F F D D F F F F F F F F F F F F F F L F F F F F F F D D D D Z Z Z Z m m m m m m m m m m m m m m m m C C C C C C C C C C m m C D D Z m C C C C D D C D Z Z Z Z D D D Z Z Z D C D Z D D D D Z Z Z Z D m m C D F F Z m ",
"Z Z M m p p p p p p p p p p m m Z C m n p p p p w w w w w w w w e e e e w w w w w w w w w w w w e p p p p w w w w w w w w w w w p p p p p p p n p p p e p p p e w w w w p p p p n n p p p p p e e e w e w w e w w w w w w w w w w e w w e w w e p p p p p p e e n n n n n n n n n n n n n n n n e w e e p p p n m m m m m m m m m n m n n n n n n n n n n n n n n n n m n n p p n n p p p p n n n n n n m m m m m m m m m m m m m m m m m m m m Z C C m m m m m C C m m m m m m m m C m m m m n C C C C C m C Z C C C C C m m m D C C C C D Z Z F D D Z Z D D F D D F L L F D D D D D D D C Z m C C C C C C Z Z Z Z Z Z C C C C m m M C C C C C D Z Z Z C M m m D D D D D D D C C C C C m m n n m m m m m m m m C C m m m m C C m C C C C C m m m m m m m m m p C m C m C C m m m m m m m m m m C m C C C C C C C C C C C Z D D D D D Z D D D D C C Z Z Z Z Z Z Z Z C Z Z Z Z Z D Z D D Z Z Z Z D Z Z Z m m m m m m m p p p p p e e n m n n m m m m m m m m m m C m n m C C C m C C C C D D D D C m m n m n n n m m m m m m m m C C m m m m m m Z Z Z D F F F F ",
"m m i w w w 9 9 < 1 1 9 w w w w w w w w w w w w 9 8 9 9 9 9 9 9 < < < < < < < < 9 9 9 9 9 9 9 9 9 9 9 9 9 9 < < 9 9 9 9 9 9 9 1 9 w w w 9 9 9 9 9 9 9 8 8 8 9 9 < < 8 8 9 9 9 9 w w w w w w w 9 9 9 9 9 9 9 9 9 9 9 9 9 9 9 9 9 w w 9 w 9 9 9 w w w w w w w w w w w w w w w w w w w w w w w w w p p n n n p p p w w w w w w w w w w 9 9 9 w w w w w w w 9 9 9 9 9 9 9 9 9 9 9 < 9 8 8 9 9 9 9 8 9 9 9 w w w w w w w w w w w w w w w 9 9 w w w w w w w w w w w w e e e e n m m m w w e e e e e w e w w w e e w 8 8 w e e w 9 9 9 w w w w w w e n w w e n m n e w w e p p p p w w p e w w w 9 9 9 w w w 9 9 8 8 8 w w w w w w w w 9 9 9 9 9 9 9 9 w w 9 9 9 9 9 9 8 8 8 8 8 8 8 8 w w w w w 9 9 9 w w w w w w w w e e e e e e e e e e e e e e w w e w w w w w w w 8 < < < < < < < w w 9 9 9 9 9 9 w w w w w w w w w w e w e e e e e e e e e e e e e e e e p e p m p p p n p n n n m m n n n n n n m m m n n p p p e e w w w w w w w w w w e e e e e e e e p n v v m e e e e e e e e e e e n n n n m m m m m m n p w e n e w w w p p e w w w w e n m n w 9 < < 9 w ",
"w w 1 1 1 1 1 1 1 1 1 1 1 1 < < < < < < < < , , < < < < < < < < < < < < < < , , < < < < < < < < < < < < < < , * , < < < < < < , < < < < < < < < < < < < < < < < < < < < 8 9 9 9 < < < < < < < < < < < < < < < < < < < < < < < < < 8 8 8 < < < < < < < 8 8 8 < < 9 9 9 9 9 9 1 1 < 8 < < 8 8 8 8 < < < < < < < < < < < < < < < , < < < , < < < < < < < < < < < < < < 9 9 < < < < < < < < < < < < < < < < 8 8 8 8 9 9 9 < < < < < < < < < 8 8 9 9 < < < < < < < < 8 8 8 8 8 9 w w w w w 8 8 < 8 8 < < < < > , < 8 < < < < * , < 8 < < 8 < < * * , 8 < < < * * * , < < , , , , < < < < , , , , , , < < < < < 8 8 8 < < < < < 8 8 < < < 9 9 9 8 8 < < < < < < < < < < 8 8 q 9 w w w < < 8 8 8 q 9 9 8 8 8 8 8 8 8 8 < < < < < < < < 9 9 8 8 8 8 8 8 8 8 < < < < < < 8 < < < < < < < < < < < < < < < < < < < < < < < < < < < 8 8 8 8 8 < < < < < < < 8 8 8 8 8 8 9 9 w w w w 9 w w w e w w w w w w w 9 9 9 9 8 < 8 < < < < < < < < < < < < < < < < < < < < < < 8 8 8 8 8 8 8 < < < 8 < < < < < < < , , * * < < 9 < , 8 9 9 9 < < < < < < < < < < < < # , < 9 < < , < ",
"i w w w w w w w w w w w w w 9 3 w w w w w w w w w w w w w w w w w w w w w w w w w w w w w w w w 9 9 9 w 3 3 3 9 w w w w w w w w 9 w w w w w w w w w w w w i w w i i i i i i i i w w w w w w w w w w w w w w w w w w w w w w w w w w w w w 9 9 9 1 9 1 1 1 1 1 1 w 3 3 9 9 9 3 3 1 1 1 3 1 1 1 1 9 9 9 9 3 3 3 3 1 1 1 1 1 1 1 < 9 9 9 9 9 9 9 9 w w w w w w w w w w w w w w w w w w w w w w w 3 w w w w w w 3 1 1 1 3 9 w w w w w w w w w w w 3 9 1 1 9 9 9 9 9 9 9 9 9 9 9 9 9 8 8 9 9 9 w w w w w w w w w w w w w w w w w w 9 w w 9 9 9 9 9 9 w w w 9 9 9 9 9 9 1 1 9 w w w w i i w w w w w w 9 9 9 9 w w w w w w w w w p p p p n p p i i i i i i i i i i i i w w w w w w w w w w w w w w w w w w w w w w w w w w w w w w w w 9 9 9 9 9 9 9 9 w w w w w w w w w w 9 9 9 9 w w w w w w w w w w p p p p p p p e e e w w w w w w w w w w w w w w w w w w w w w w w w w w w w w w e w w w w w w 9 9 9 9 9 9 9 9 9 w w w w w w w w w w w w w 9 9 9 w w 9 9 9 9 8 8 9 9 9 9 9 9 9 9 w w w w w w w w w w w w w w w 9 1 1 1 9 w w w w w w w w w w w w i i i i i i i i ",
"i i w w w w w w w w w w w w w w 9 9 9 w 9 9 3 3 w w w w w w 9 9 w w w w w w w w w w w w w w w w 1 1 1 1 1 1 1 1 w w w w w w w w 1 1 1 9 3 3 w w w w w w w w w w w w w w w w w w w w w w w w w w w w w w w w w w w w w w 9 w 1 1 9 3 9 w w w w w w w w w w w w w w w w w w w w w 1 1 1 1 1 1 1 1 1 1 1 1 1 1 1 1 w w 9 9 3 3 1 1 8 8 8 8 9 9 9 9 9 9 9 9 9 9 9 9 w w w w w w w w w w w 9 9 1 1 1 w w w w w w w 3 w w w w w w w w 1 1 1 9 9 w 3 3 9 9 9 9 9 9 9 9 9 9 9 9 9 9 9 9 9 9 9 9 w w w w w w w w w w w w 9 9 9 9 w 9 9 9 p p w w w w w w w w w 9 9 9 9 w w w w w w i i i i i i i i i i i p p p p p p p p w w e w w w w w w w w w w w w w w w w w w w w w e e e e w w w w e p p p p p p e w w w w w w p p p p e e p p p p w w w w w w w w 9 9 9 w w w w w w w w 9 9 w w w w w w w w w w w w w w w w w e w w w w w w w w w w w w w w w w w p p p e w w w w e e e e w w w w n m n p p p p p w w w w w w w w w w w w w w w w w w w w 9 9 9 9 w w 9 9 9 9 9 8 w w w w w w w w < < < < < < < < 1 3 9 9 9 9 w w w w w w w w w w w w w i i V m m i i i i i i i i ",
"m m p i i i i i i i i p p m m m p i i i i i i i m m p p i i i i i i i i i i i i 1 1 1 1 1 1 1 1 1 1 1 1 1 1 1 1 1 1 1 1 1 1 1 1 w w w w w w w w w w w w w w 9 1 w w w w w w w w w w w w w w w w w w w w w w w i i i i i i i i i w w w w w w w w 9 9 w w w w w w 1 3 1 1 9 9 1 9 9 9 9 w w w w w w w w w w w w w w w w w w w w w 9 9 9 9 w w w w w w w w w w w w i i i i w i i i p i i i i i i i 1 1 9 9 9 w w w < < < < < < < < < 1 1 1 9 9 9 3 w w 9 9 9 1 1 1 w w w w w w w w w e p p p p p p p p p p i i i i p m m m m m m p p p p p p p p p p p p p p p p p n p n n i p p i n m m m p n p p w i p p p p w w 0 0 9 9 9 9 9 9 9 9 w w w i i i i i i i i i i i p p p m n n n n n n m m n m m m p p p p p p p p p p p p p p p p p p p p p p p p p p p p p p p p p p p p p p p p m m m C C C C C p p p p p m p p C m m m m m m m m m m m m p p p p p p m M C Z Z C C C C M M M M m m M M C C C C m m m m p p p p p p p p p p p p m m m m n p n p n n n n p p p p w w w w w w w w m m m m m m n m w i i i i i i i n n p i i i i i w i i i m m m m m m m m m m m m ",
"Z M M M m m m M M M M M M M Z Z D D D D D D M M Z Z M M M M M M m m m m m m m m M M M M M M M m M M M M M M M M M M M M M M M M m m m p i i i i p i i i i i i w i i i i i i i i i i i i i i i p p p m p m m m m m m m m m p m p m p p i i w w 9 w 9 w 9 w 9 w w i i i i i i i i i i i p m p m p m m m m m m m m m p m p p p p i m m m m m m m m m m m m m m m m M M M M M M M M D Z D Z D Z M M M M M M M Z Z Z L L L L L P Q P F D L L L L L L L L L D D D D D m M m M C M m m Z Z Z C Z Z m M Z C M M M M M M Z Z D Z L Z D Z m p p p p p p p C p m p m p M M m m m m m p m p m m m p m m m m p p M C Z D Z Z D Z Z Z Z C Z Z m m m M M M M M M M M M M M M M m m C C Z C M Z m m m C m C C C M M M M C C Z C C C C C C C M C Z C C C C C C C Z D Z Z D D D Z D Z Z C Z C Z Z D F L P I I I I L L L L L L D D L L L L L L L L D D D D D D D D C C Z D L L L P L H D D D D D D Z Z Z D D D D D D D D D D D D D L L L D D D Z Z D D D D D Z D Z D D D Z D Z Z Z D D D D D D D D m M C C C C C M M M M M M M M M m m M M M M M M m m m m m M m m D Z Z Z Z Z Z M ",
"D D D D D D D D D D Z Z Z Z Z Z M M M M M M M M M M M M M m m m M M M M M M M M M M M Z Z Z Z Z D D Z Z D D L L L L L L L L L L Z M Z M M M M M M M M M Z Z Z M M M M M M M M M M M M M M M M M M M M M M M Z Z M M M M M M M M Z Z M M M M M a M M M M M M M M Z Z D Z D Z D H Z Z Z Z D H L L L L L L L L L L L L L L L L L L L L L L L L L L L L L L L L L L L L L H L L L L L H L H L H L H L L L H D Z Z Z M Z Z Z L H L L Z Z Z Z M M M M M M M M M M M M D H D H D H D H D L L L D Z D Z Z Z M M Z Z Z M M Z Z H H H Z Z Z C Z M M M M M Z Z M a M a M M Z M M M M M M M M M M M M M M M a a Z Z L H L H P P P P P P P P L L L L L H H H H H H H H H H H Z Z Z Z D Z D H Z Z Z Z D H D H H H H H H H L H L H L H L H L H P P P L L P P P L L L P P P L P L L L L L L L L P P P I ! I ! I I I I I I I I I P P P P P P P L L L L L L H L H P P L L L H L H L J L J L H L L L J L L L P P I I I I I I I I I [ ` [ I I I I I L L L L L L L L L L L L L L L L M M M M M M M M L H D H D H D H L H L Z D Z Z M Z Z Z Z Z Z Z Z D Z L Z Z Z Z Z L L L H L H L H ",
"L L L D D F L L D D Z C M m M M m M M M M M M M M M M M M M M M M M M M M M M M m M M M M M M M M Z Z Z D D D D P P P P P P P P P P L L L L L L D D Z D L L L L L L L L L L L L H H L L L L L H H H H H H H L L L H H H H Z Z Z L L L L L L L L L L P P P P P P P P P P P P P ! P P P P P P I I P P P P P P P P P P P P P P P P L L L L L L L L I I I I P P I P P L L L L L P P L P L L L L L L L L H H Z Z M M L L L L L L L L I I ! I I P P P I I I P P P P P P L P L P P P P L L P L L L L H H H H H H H H H L L L P U U P P I P P P P P P P P P L H H H H H L H H H Z H Z Z Z M Z Z Z Z Z H M Z Z Z Z Z Z Z H H H H H H L L P P P L L L L L L L L L L L L L L L L L L P L P P P P P P P P P P P P P L P P P P P P P P P P P P P P P P P P P L L L P P P P P P P P P P P P P P P I I I I I I I I I I I I I I I I I I P P P P P P P P P P P P I I I I P P P P I I I I I I P I I I I I ` ` [ [  . . .[ [ [ [ [ [ [ [ [ ` ` ` I I I P I I I I ! ! ! ! ! ! ! ! ! { { { { { { { {  . . . . . . . .! ! I P P L L L L L L L H Z Z Z Z Z Z Z H L L L L L L L L L L L ",
"L L L L L L P P F D D Z C C C Z M Z Z Z Z H H L Z H H L L L L L P P P P P P P P P P P I I ! ! ! ! ! ! { { { ;.{ 2.2.2.2.2.2.2.2.! ! ! ! ! ! P P L L L L P P L L P P P P U U P P L P P P L L L L P P P L L L L H L L P P L L L L P L P P U I I I L L I I I I I I I I I I I I ! ! I I I I I I I I I I I I I I I I P L P L L L L L L L L L L L L L L L L L L L L P P L L L L L L P I I I I I I I I ! ! ! ! ! ! I I I I I I I I I I L L P P P L L L I I I I I I I I I I I I I I I I P P P P P P P P I I I I I I I I I !  . .:.:.:.:. . . .I I I I  . . .I I I I I I I I I I I U U U P P L L P P P I ! I I I I I I I I I I I I I I I I I I I I I I P P P P P P L P L I P P I P P I I I I P P P P P P P P P P P P P P P P P P P P P P P P P P L L L P P P P P H P P P P P P P P P P P I I I I I I I I I I I I I I I I I I I I I I I I ` ` I I I I I I I I I I  . . . .` ` ` ` ` ` ` ` ` ` ` `  . . . .{ {  . . . . . .` ` ` ` ` ` ` ` ! I I [  . . . . . . . . . . . .! ! ! ! ! ! ! ! I ! I I I I I I :.:. .! ! ! I I I I I P P L H H H H H H H H L L L L L L L L L L ",
"I I I I P I I I I P L F F L L P L H L L P P P I P L P I P I ! I 2.-.2.;.2.;.2.-.2.;.2.-.2.-.2.2.{ { { { ;.2.2.2.{ { { { { { { { { { { { { {  . .{  .! ! ! ! ! I I I I I I I I I P P P P P P P P I I I P P P P P H H H H H H H H P P L L L H L H L P P P P P I I I I I I ! !  .! I I I I I I I I P U P U P U P U P P P L P P P P L P L P L L L P L P L L L P L L P L L L L P P P P P P P P P P P I I I I I I I I I I I  . . . . .I I !  . . . . . . .{  .{  .{ {  . . . . . . . .` ! [ ! ` I ` I I I I I I I I I I I I I  .!  .!  . . .I I I I  . . . . . . . . .! !  .! ! !  .! I I ! ! ! ! !  . .!  . . . . .-. .!  .I I I I I I I I ! ! !  .! ! ! ! ! ! ! ! ! I I I I I I I I P P P P P P P P P P P P P P P P P P P P P P P P P P P P P P P P P P P P P P I I P P P P P P P P P P P P P P P P  . . .!  . . . .` I ` I ` I ` I ` ` ` ` ` ` I I ` ` ` ` ` I I I ` ` ` ` ` ` ` ` ` ` ` ` ` ` `  . . . . . . . . .I I ` ` ` ` ` ` I I I I ` ` ` ` [ ` [ ` [ ` [ [ [ ! [ ! [ ! [ !  . .[  .[  .[  .! ! ! ! ! ! ! I ! I ! I ! I ! I I I I I I I P I P P P P P P P P ",
"` ` _ _ _ ` ` ` [ ` _ I P I I P I P I P I P I P I I I I [  .{  .` I [  .[  .[ I  . .[ I  . . .[ ` I I ` [ { { { [ [ [  .[ [ [ [ [ ! I I [ {  .[ { {  . . .{ { { { :.:.` ` ` ` ' I I ` ` ` ` ` ` ) ) ' $.$.$.' ' $.$.) ) ) ` ) K I I I I ` ` I I P J J Z H J P H P J I I ` I ` `  .` ` I ` I I U I I I I I I ` I ` I ` I ` I ` `  .` ` `  .`  .` ` ` ` ` I I ` ` I [ [  .[ [  . . . . . . .[ ` ` ` ` ` ) ) ` ` ` ` ` ` ` ) ) ` ` I `  .:.,.<.r.<.,.,.,.,.,.:.-.-.-.,.,.,.,.-.{  .{ :.{ { {  .` ` {  .` I [  .{ -.I I  .{ { -.-.4.,.-.{ { { { { -.{ { -.-.{ { { {  . . . .{  .{  .` `  . . .I I I  .` ` ` ` ` { :.` ` ` ` ` ` ` ` ` :.,.-.-.-.{  .4.I { 3.{ ! { { 4. .I [ { { [ I [  .{ { {  .I I  . .{ { { { {  .[ [ [ [ { { { [ { { :.:.{ { { { -.-.-.-.,.-.-.{ { { { { { { { { I ` ` ` ` ` { :.<.:.{ { <.,.{ { <.{ ` { <.,.{ ' { { { { { ..,.4.....{ { { { { [ [  .{ {  .[  .{ ` [ [  . . .{ { ` { <.{ { { { ` ' ' ' { ' ' ` ` ` ` ` { { { { ` ,.{ { ' [ ` ` ` [  .[  .` ` `  .` ` [  .{  .{ { [ [ { [ { { {  .{ [ [ [ Q I Q I P P I I { ` ` P I I ` `  .`  .I ",
"{ { { { { { { {  .{  . . .{  .{ ` I `  .{ -.,.,.{ {  . . . . . .{ { { -.-.,.,.r. .{ { {  .`  .{ 8.,.{ [ ` ` ` ` { { { { { { { { ,.{ { { ,.,.,.,.,.,.,.{ { ,.,.,.<.<.<.<.<.1.f.g.<.<.<.<.<.<.<.<.<.<.1.1.1.1.<.<.1.<.<.<.<.$.$.$.$.' ' ` ' ' ` ` ` <.8.<.{ ` ` I I I ` ` { :.{ { { { { ' { { { { ` ` { { :.:.,.,.:.:.:.:.:.<.:.:.,.,.,.<.:.:.:.:.r.r.<.<.,.-.:.:.{ ,.,.,.,.,.,.4.8.8.8.q.q.q.8.8.<.<.<.<.<.<.<.<.' ' ' ' $.$.$.$.<.<.8.<.8.<.<.<.,.<.,.<.8.9.8.8.,.,.8.<.4.,.,.{ { { { <.,.,.,.,.`  . .{ { -.{  .4.,.,.-.-.-.-.-.{ { {  . .{ { -.`  .{ ,.,.-.{ { ,.r.r.r.8.8.8.8.` `  .{ -.,.,.<.{ { :.:.:.:.{ { <.,.:.:.:.:.{ { ` ' :.` ` { { { ` P ` { [ [ { { {  .[  .{ { { { { { { {  . .[ ` L I ! [ { { 4.,.{ { { { { { [ [ { :.,.-.:.{ { -.{ -.,.,.-.{ -.-.{ { { { { { {  .r.<.,.:.{ ` { { ' { ,.<.8.<.,.,.,.<.8.<.<.,.,.,.<.<.4.,.<.,.......<.8.p.p.<.<.,.,...,.,.,.,...,.Z.d.s.q.q.8.4.8.<.<.8.<.<.<.<.' { :.<.<.<.<.{ { <.<.,.<.,.<.8.<.` ` ` ' ..<.<.,.{ { :.{ { { ' { ' ' ' ` ` ` ` ` { { { { { [ [ ` { {  .[ [ ` [ ` :.{ ` ` ` ` ` ` { :.:.,.,.:.:.{ ",
",.,.,.,.,.<.{ {  .' { { ,.<.s.f.d.d.d.d.d.d.d.d.Z.Z.Z.Z.Z.g.g.d.D.D.Z.Z.d.f.9.8.f.g.Z.Z.f.8.d.F.g.f.f.<.<.<.<.<.<.<.<.<.f.f.f.d.f.1.1.u.f.f.g.f.z.z.g.g.g.l.z.F.g.l.g.g.f.f.g.g.F.z.z.z.z.z.z.z.f.u.g.g.g.g.g.l.l.l.z.z.z.l.z.F.G.G.G.F.F.l.g.g.f.f.<.<.<.f.f.<.<.<.9.f.f.f.9.9.f.f.f.f.f.g.g.g.f.f.f.f.f.9.<.<.:.:.:.:.:.:.$.$.<.<.<.<.<.<.<.<.<.:.<.<.<.<.<.<.<.y.u.f.u.u.f.f.<.<.<.u.f.f.u.u.<.1.u.u.u.u.u.u.f.u.u.u.<.<.<.<.<.<.<.<.<.<.<.<.<.<.9.1.9.1.<.<.<.<.<.<.,.<.,.<...<.<.<.,.<.,.,.{ <.,.<.{ { [ ` { { { <.,.8.8.8.8.<.8.<.8.<.8.8.8.8.8.<.4.,.,.{ ,.,.:.{ { { { { d.f.8.,.{ { ' ' ' ' <.<.<.<.<.<.<.<.<.:.:.:.:.' ` $.$.' ' :.,.{ d.q.Z.d.4.q.d.8.4.8.d.8.,.' ` ` { { { ` [ ` { { ,.,.4.,...{ [ ` ,.,.4.4.4.,.,.,.{ { { { { <.,.,.{ ,.<.<.,.{ { ,.4.4.4.8.8.8.,.<.K K I K I ` ' <.<.<.f.<.<.' ' ' ' <.<.<.<.' <.,...<.,.<.8.<.<.<.,.<.<.<.,.<.,.<.8.8.8.8.s.p.p.<.,.,.............<.<.<.<.<.<.<.$.<.<.<.<.<.<.<.<.<.<.<.<.<.<.<.y.g.f.f.f.<.<.<.$.<.<.<.<.<.<.<.<.<.<.<.<.$.$.$.$.' ' { <.,.<.8.<.,.<.,.<.,.<.<.<.<.<.<.:.' ' ' <.<.<.<.<.<.<.<.<.",
"f.f.f.f.f.f.p.9.<.<.<.<.<.<.p.f.8.8.<.,.,.,.,.,.8.8.8.8.8.8.8.8.<.8.8.8.f.d.g.g.,.8.d.f.8.8.d.g.f.u.y.<.u.f.f.g.u.f.g.f.g.g.g.g.g.l.g.l.l.z.z.z.z.z.z.z.z.z.F.F.T.T.T.T.Y.G.Y.G.F.F.F.F.F.F.F.x.T.T.Y.P.Y.T.Y.T.Y.T.Y.Y.Y.Y.Y.Y.Y.Y.Y.F.z.g.f.u.z.l.z.l.z.F.F.F.F.F.F.F.F.F.D.D.g.g.g.g.g.g.f.f.g.g.f.f.f.<.<.<.f.f.f.f.f.f.f.f.<.<.<.f.f.f.f.f.f.f.f.f.f.f.f.f.<.&.<.<.<.<.<.<.u.g.g.z.z.l.g.g.g.g.g.g.g.g.g.g.g.g.g.f.f.u.u.u.g.l.l.l.g.g.g.g.g.g.g.g.g.f.u.u.g.f.f.f.f.f.f.f.<.<.<.$.' ) ` ` <.<.<.<.<.<.f.f.<.<.<.<.:.` ' ' ` ` ` ` ` ` ` ` ' ' ` ` ' ' <.<.<.<.{ { ..,.,.<.{ ' { { { { ,.<.:.<.<.<.<.<.<.<.<.<.<.<.,.<.<.<.<.f.z.g.g.g.g.f.g.f.g.f.,.8.8.{ ,.f.F.F.f.f.<.<.' ' ` ` ` ' ' $.{ { { ,.,.8.8.8.<.,.<.8.<.,.,.<.<.<.{ ' { <.,.<.{ :...<.<.<.{ { { { { <.,.,.<.' ` ` ) ) ` $.<.<.' $.<.<.<.<.u.g.<.y.u.y.<.<.<.f.<.<.y.<.y.y.y.u.f.f.y.<.<.<.y.f.<.<.<.<.<.f.p.<.f.f.f.f.f.f.f.f.<.<.<.<.<.<.<.<.$.$.<.<.<.<.<.<.$.<.y.u.u.u.y.<.u.u.f.g.f.g.f.u.i.u.u.j.l.l.l.j.u.u.u.u.y.y.y.y.u.f.f.u.<.<.$.$.$.$.<.<.u.f.g.g.f.g.F.F.l.g.g.g.f.f.g.g.l.l.l.l.",
"Y.Y.Y.Y.Y.Y.E.Y.E.Y.P.F.g.g.g.g.f.f.f.f.f.d.d.g.F.F.D.D.F.F.F.F.A.F.F.F.F.F.A.A.G.G.F.G.G.F.F.F.z.l.i.g.z.z.z.z.z.F.P.z.i.z.z.u.z.x.z.z.z.x.x.x.b.x.b.F.P.P.I.P.P.P.P.P.Y.Y.Y.Y.I.I.I.Y.I.Y.P.Y.x.x.z.l.z.x.x.x.U.P.b.x.P.P.x.l.z.x.P.F.z.g.u.u.] u.P.Y.i.y.u.g.g.f.f.y.y.y.f.f.f.f.f.f.f.f.f.f.f.f.f.f.u.u.u.u.<.<.<.<.<.<.<.<.f.g.g.g.g.g.g.z.g.g.g.f.f.f.u.u.z.x.b.P.b.b.b.P.z.z.x.x.z.k.i.i.P.P.P.P.P.F.F.F.z.z.z.F.P.P.Y.Y.F.x.z.z.z.l.i.g.i.z.z.F.P.Y.I.Y.@X.X.X.X.X.X.X.X@X.X.X(.R.T.R.T.F.g.f.<.` ( ( ) ' <.g.g.f.f.f.g.T.R.R.(.(.(.R.R.Y.Y.F.g.f.<.<.$.' ' ' ..<.<.<.<.f.d.d.d.g.g.g.g.f.u.y.<.<.<.<.<.f.f.f.g.F.F.F.F./..X.X(.T.Y.Y.Y.Y.F.F.F.g.G.Y.F.Y.R..X@X#X%X-X%X&X%X#X XY.F.g.u.p.<.<.<.<.<.<.p.f.<.<.f.<.<.<.p.<.<.' ` ` ` ` ) ' ` ` ` <.<.<...<.<.<.f.g.g.g.g.F.z.z.f.<.&.<.<.y.y.<.y.y.y.y.<.u.y.y.y.u.u.u.y.z.g.g.f.u.u.u.u.u.u.y.u.u.f.g.i.y.f.f.y.f.f.f.y.y.y.f.f.f.f.y.y.z.l.i.i.l.k.i.i.P.P.P.P.Y.I.I.Y.Y.I.R.R.R.T.R.R.E.I.I.I.I.Y.E.I.m.n.n.n.U.U.m.n.k.k.k.k.k.k.k.k.k.k.k.k.x.x.k.k.i.y.i.u.i.j.k.l.g.z.Y.Y.Y.F.G.Y.F.F.F.F.F.F.F.z.",
"z.z.z.z.z.F.F.P.P.F.F.z.F.F.P.P.T.Y.Y.Y.G.G.G.G.Y.Y.Y.Y.Y.G.G.G.Y.Y.Y.Y.Y.G.F.F.G.G.F.F.D.A.d.<.<.*.y.u.i.z.z.z.u.k.z.l.k.P.I.b.z.x.x.x.k.k.k.k.i.k.l.k.k.k.i.i.z.z.z.z.z.z.i.i.z.z.z.z.z.i.u.i.k.z.z.k.z.z.z.z.i.u.u.i.k.z.z.z.P.U.(.(.(.(.(.(.k.i.u.k.z.k.z.z.F.F.F.F.G.Y.Y.T.Y.T.T.T.R. X X XY.Y.Y.Y.F.F.F.F.F.F.F.F.F.F.F.F.g.g.g.f.f.g.g.g.g.g.g.g.g.g.z.z.x.b.P.P.P.n.n.I.U.U.U.U.U.I.I.I.i.i.i.g.u.u.u.u.u.u.u.u.y.y.y.y.i.i.i.i.i.l.z.z.P.P.P.I.I.I.U.U.z.z.z.k.z.z.z.z.P.b.P.P.I.I.R.R..X.X XT.F.u.<.&.g.F.(.). X(.XX$X.X.X.X.X.X.X.X).#X#X%X#X.XT.F.z.z.A.g.f.p.<.<.<.f.f.p.<.<.<.<.' <.<.<.<.y.f.g.z.g.z.F.Y.Y.T.Y.Y.(..X(.Y.z.z.F.P.T.g.<.<.$.<.u.<.` $.' ( K ` $.` $.<.g.x.T.(.#X#XY.F.z.u.<.' ` ) $.' $.<.<.<.u.z.(.T.F.g.g.g.f.f.u.<.$.<.f.z.z.g.g.g.g.z.F.Y.Y.U.Y.Y.Y.Y.P.F.P.P.F.z.z.P.Y.P.i.u.Y.z.i.i.i.z.z.i.y.y.y.*.y.*.y.y.y.i.u.k.P.b.i.y.u.z.z.g.f.i.g.u.u.u.g.i.F.P.Y.P.x.l.i.i.l.i.u.u.i.i.l.l.k.k.l.l.b.P.b.z.i.k.P.I.I.P.P.P.P.P.I.I.~.m.n.n.n.n.n.x.n.n.n.n.n.n.n.n.n.n.n.U.U.U.U.^.(.^.^.^.U.U.U.U.I.U.U.U.T.T.(..X(.(.^.T.Y.Y.Y.F.",
"@X@X@X@X#X$X&X-X-X-X-X6XqXwXwXwXqXqX>X&X%X%X@X@X.X.X.X.X.XR.R.(.R.R..X@X&X>XwXtX@X@X%X%X@XQ.T.Y.R.(.@X&X-XqXqX6XqXtXtXwXtXzXzXsXwXeXeXwXwXqXwXwX-X-X-X-X-X$X*X@X(.R.R.R.U.I.P.z.y.y.u.h.g.u.u.y.y.y.y.i.i.i.i.i.i.z.b.b.k.i.z.b.k.b.I.U.U.U.'.'.$X(.U.U.(.(.(.^.(..X@X#X%X#X@X@X(.(.(.(..X.X.X.XR.T.T.T.Y.Y.P.F.P.P.P.P.P.P.P.P.F.z.z.g.z.F.F.Y.R.(..X@X@X#X%X%X#X#X$X&X$X$X$X$X@X@X@X*X#X$X$X&X-X-X-X&X&X%X#X#X#X@X@X(.(.R.R.U.U.U.U.U.U.(.(.'.U.U.U.U.I.I.b.b.I.I.I.E.U.I.I.I.k.k.k.k.P.I.U.R.R.(.#X$X&X&X-X6X#X#X#X@X(.U.T.I.I.I.Y.P.P.P.P.P.u.u.z.I.(.(..X.X.X.XR.T.Y.F.g.g.F.F.F.Y.T..X%X&X&X&X-X>X>XqXwXwXqXqXwXtXsXtXwXqXwXsXsXeXqXwXeXtXwXT.u.u.y.y.y.&.P.(.@XR.I.I.R.I.(.(.(.(.(.(..X@XwXwXrXtXwXqX>X-X#X@X@X#X#X@X&XwX>X&X@X@X@X#X#X@XR.T.Y.P.F.P.Y.I.u.y.&.&.y.y.y.y.z.b.I.U.(.(.'.@X&X-XwXsXcXbXbXbX-X;X#X'.(.(.(.(.#X$X-X6XwXwXwXwXzXsXsXgXvXcXtX-X-XeXtXwX-XqXqX6X#X@X@X@X#X;XqXwXqX-X;X6XwX6X-X-X*X*X#X*X#X*X*X@X$X$X$X$X*X*X*X$X*X*X*X$X6XwXsXgXaXeX7X6X7X7X7X7XgXgXgXgXaXaXaXaXbXjXhXgXeX7X6X=X$X$X#X].].'.'.'.$X#X@X@X@X#X#X#X$X#X*X@X'.).(.(.",
"i.i.i.i.k.b.I.U.'.(.(.R.U.I.I.E.z.g.g.f.f.y.y.y.p.f.f.f.f.g.g.g.F.g.g.f.g.A.Y.T.@X&X>X>X&XOX@X@X.X.X@X%X&X&X%X*XqXwXqX&X%X&X%X@X@X*X*X@X(.R.(.(.qXqXqXqX-X#X@XR.I.E.P.P.I.I.P.b.(.@X#X&X&X-X&X&X#X$X$X&X&X&X$X$X'.#X#X(.z.i.i.i.i.k.k.k.k.b.I.^.b.].wX6XI.&.] i.<.u.i.z.z.f.y.&.u.y.<.<.&.' ] ` <.<.y.u.f.i.z.z.Y.Y.Y.Y.Y.Y.Y.Y.(.R.R.(..X#X&X-X>X>X>X>X-X-X&X&XI.T.R.R.R.R.R.R.T.T.R.R.(.@X#X&X#X#X@X@X(.(.R.R.@X@X#X#X#X#X$X$X-X$X*X'.(.(.U.U.(.(.(.(.U.U.U.I.b.n.I.I.E.I.I.b.I.I.I.I.I.E.U.U.I.I.I.P.z.k.P.I.I.x.l.l.x.P.P.x.b.x.k.i.i.i.i.i.b.z.l.i.i.i.l.z.z.F.F.F.F.F.F.F.F.g.g.F.T.@X&XqX-X-X&X%X#X.XR.R.(.(.@X@X@X.XR.I.R.@X-X6X-X-X6X-XsXU.*.y.y.*.y.y.&.U.6XwXwXeXsXtXwXwXqXqXqXwXeXeX-X-XqXwX6X$X).^.*X(.I.P.i.y.i.x.Y.F.i.i.F.I.T.R.%X%X#XR.F.g.F.Y.z.i.i.&.$.] ] ) *.y.u.u.i.*.*.&.u.u.u.u.u.k.U.).wXqX-X@X^.R.(.).*X$X6XwXeXeXwX7XeX-X'.'.].'.E.k.R.#X$X).U.R.(.(.$X@X^.I.I.U.(.@X).^.(.*X$X$X*X*X-X-X-X-X-X-X-X-X$X6XeXsXeX6X-X-XeXeX6X-X$X*X*X*X].^.^.^.'.].].].6X6X6X-X=X=X=X=X'.'.'.'.(.^.U.U.^.U.U.U.U.U.U.U.U.U.I.U.R.I.P.k.P.x.b.x.x.b.b.P.",
"z.z.z.k.k.i.i.i.i.i.i.k.z.z.b.z.F.F.A.g.f.f.y.y.y.y.y.f.y.<.y.y.y.y.y.<.<.....' ........<.<.<.<.` ` ) ) ) ) ) ) ) ' ..p.g.g.p.p.g.f.y.<.<.' y.y.y.p.g.g.g.g.g.f.F.z.g.i.y.y.u.u.g.z.b.P.P.P.I.I.U.I.b.k.i.i.i.i.i.i.u.k.P.b.z.k.k.i.i.i.k.n.(.$X$XsXaX^.&.&.=.i.i.i.i.g.g.i.g.g.z.g.g.f.y.<.$.' &.<.y.u.f.g.z.F.F.F.P.T.R..X#X%X.X(.T.F.g.f.u.u.&.' ` ] ( ` ' <.f.y.' ' ' ' ' ` ( ( ( ` ` ` ( ( ` ] ] &.&.&.&.&.$.&.u.i.z.P.I.U.I.b.P.U.(.(.(.U.b.I.E.b.k.k.b.n.U.U.U.(.(.(.(.R.'.'.(.(.U.I.b.b.b.b.P.P.P.P.P.P.P.P.I.I.I.I.I.P.P.I.R.^.R.U.I.I.P.P.I.I.U.U.R.R.I.T.T.T.T.Y.F.F.F.F.A.p.<.<...' ` ' y.f.F.Y.T.R.T.T.Y.g.y.<.y.f.u.u.u.u.u.i.i.i.#X-X&XP.i.i.y.] j &.I.(.R.U.(.#X$X@X'.(.(.R.I.z.z.l.i.u.u.i.l.k.i.i.z.I.R.^.U.I.@XT.z.g.z.F.z.i.f.g.P.(.%X&X@XR.I.I.P.z.i.y.&.] ] y.P.(.).(.R.U.U.U.P.z.i.i.i.l.i.l.z.P.I.U.^.(.'.(.(.^.U.U.U.^.'.'.'.*X*X*X#X#X(.(.U.P.b.b.P.I.k.x.P.P.x.z.k.z.(.U.I.n.b.P.U.^.(.(.(.(.'.].*X#XU.U.I.b.k.k.k.k.i.i.i.i.i.i.i.i.i.k.I.I.b.b.k.k.i.k.k.b.b.I.U.(.(.(.(.(.'.@X*X*XR.R.(.(.(.R.U.U.R.R.U.I.I.P.b.b.b.x.x.z.z.z.z.k.",
"i.i.i.i.g.k.z.z.i.k.z.z.z.z.z.z.z.g.F.F.F.F.F.F.g.f.p.f.y.<.<.y.<.<.<.<...' ' ' ..' ' ' ' ' ' .................._ _ ......p.......' ` ` ' ............y.p.p.p.p.<.y.y.y.y.y.g.g.f.h.g.g.g.g.g.g.y.i.u.i.g.h.u.u.i.i.z.I.R.(.'.@X$X$X-X6X6X6X6X6X-X'.b.&.*.k.k.=.i.g.g.f.f.f.f.g.P.P.F.F.z.g.g.g.y.y.u.u.u.u.y.y.] ' y.f.i.f.y.<.] ` ) ( J J J ( ] ] ] ] ] ` ` ' ` _ J J J J J J _ _ ) ` ` _ _ _ ` ` ' $.&.&.<.$.` ) ] $.<.u.g.F.y.i.z.i.i.u.b.R.R.R.U.I.b.P.I.U.z.k.z.k.z.k.k.k.i.i.u.i.u.i.i.i.u.u.g.i.i.i.g.u.u.u.g.i.i.i.i.i.Y.P.P.x.z.k.z.z.z.z.z.k.i.i.g.u.g.f.f.y.<.' ' ' ( ` ) ( ` y.g.F.R.T.T.T.Y.F.F.A.u.f.g.g.g.f.f.f.z.z.i.i.i.i.g.u.g ^.tX-XU.I.z.&.&.y.i.l.u.*.y.y.y.] ( ( ] &.y.i.u.u.i.u.u.u.u.u.P.b.z.z.z.z.l.i.u.u.f.u.y.&.` ] u.<.] ) &.F.#XqXcXwX*XR.U.I.x.i.] $.y.i.z.P.P.P.P.U.(..X#X#X#X#X#X#X#X#X#X#X#X@X@X@X*X@X@X].'.'.'.(.(.U.I.b.z.k.z.z.z.l.l.l.l.l.i.l.z.x.z.l.i.l.y.y.u.u.i.u.y.y.y.<.*.&.&.&.y.y.&.&.y.y.y.y.*.&.i.i.i.i.i.i.i.i.u.u.y.&.] ] ] ' ] ] ] ] ] ] ] ] ' ' ' ' ] ' ' &.P.F.F.z.g.g.g.u.u.u.u.u.u.u.u.u.z.z.i.i.i.i.i.g.",
"&.&.<.<.y.y.u.u.u.u.u.u.u.y.y.y.' ' ' ` ` ` ` ` ` ` ` ' ' ` ` ......{ { { ` ` `  .` ` ` ` ` ' '  . . ........... . ._ _  .......[  . . . . . . .......4.4.p.p.y.<.<.<.<.<.&.<.y.<.<.<.<.<.<.<.&.f.i.z.z.P.P.Y.P.g.i.F.P.Y.Y.I.T.P.P.R.).).U.b.k.i.i.*.&.y.i.u.y.y.<.<.<.$.' <.$.` ` ` ` ` ` ` ' ' ' $.<.' ` ` ( K ( ) ) ( ( K J ` ` ) ) ) ` ` ` ` ` ` ` ) ( ( K ` ` ` `  .`  .` _ _ _ I I I _ I ` ` ' $.<.<.<.<.<.<.$.` ` ) ` ` y.&.] ] ` ] &.&.$.` ( ( ] ] ] ] &.&.&.] ] ] ] ] ] ) ] ] ] ] ] ] &.&.<.<.<.&.$.$.<.<.<.&.<.<.<.<.$.$.` ) ) ) ) ) ' ` $.$.<.&.<.<.' ' ` ` ` ` ' ..g.F.G.G.Y.Y.Y.Y.g.f.<.<...` ` _ ` ` ` ' ....` ) K K K ) ) ` ` ) g.h g #XsX(.g.Y.<.$.' $.<.&.<.$.<.) k g k ) <.u.&.&.<.y.u.y.<.$.<.$.` ) ( ( J J ` ' $.' ( J ) ` ` $.<.<.] ` ' $.g.(.>XwX-X).T.T.u.` K J ) ` ` ) ` $.<.f.g.g.f.u.u.u.u.f.f.f.g.f.Y.Y.I.U.I.Y.Y.x.y.&.y.y.y.<.y.<.<.<.<.<.<.%.<.$.` ` ' $.` ` ` ` &.$.$.` ` $.$.$.$.$.$.$.` $.` ` $.$.<.<.y.y.y.<.<.<.<.<.&.$.&.&.( ( ( ( ( ` <.y.y.y.y.y.y.y.<.<.<.<.<.<...' <.<.' ' ` ` ` ] ` ` ` ` ` ` ` ' $.$.u.<.1.1.<.<.<.<.",
"` ` ` ` ` ` ` ` ' ' ' ' ' ` ` ` ` ` K J J A g g J J K _ _ _ ` ' ` `  .`  .`  .` ` ` ` ` ` ` ` ` ` [ [ [ [ [ [ [ .. .[ [ [ [  . ... ...{ ..{ ..{ 4.4.4.4.4.4...,.p.<.y.$.] ` ` ` ' ' ' ' ' $.' $.' ` ] ) ( ) ` ` <.1.u.u.y.<.<.<.&.$.&.<.y.$.] ` ) $.u.u.<.` ] y.' ` ` ` ( ( ` ) ( K J J k k J J J J K K ( K J J ` ` K K K ( ` ` ` ` ` ` ` ` ` ' ( ) ` ` ) ( J K I I I _ ` ` _ I I P P P I I I ` ` ` ` ' ' ' ' ' K ) ) ) ) K J J ` ( J K ' ' ] J ' ` ` ` ' ' ' $.` ` ` ` ] ) ] ) ` ` ] ` ] ' ' ' <.<.<.<.<.<.$.' $.' ' ' ' ' <.<.( ` ' ' ' ' ` ` K ( ` ' $.<.<.<.p.p.f.d.g.F.G.Y.g.g.g.d.<.' K J K K I K I _ ` ` { ` _ _ _ ` ` ` ' ' <.<.<.<.f.f.` g.<.J <.-XwXT.z.y.' ` ' $.' ` <.' ` ( ( ` ` ` ` ` $.$.<.<.$.' $.` ` ) ` ` ' $.$.$.$.` ` ` ` $.K ` <.<.' ) K ) ) J ) y.Y..X XT.Y.g...` ` ` ` K K K K J J J J J J J J J K K I ) J J J J J J k k k J J ) ` ` $.$.) ) ) ) ` ` ` ` <.<.<.1.1.1.1.1.<.<.' ` ) ) ' $.' ' ` ' ' ' ' ` ' ' ` ) ` ) ' $.' ' ' ' ` ` ` ` ' ' ....' ' ` ` _ ` ` ' ` ` _ _ ` ` _ K ( K ( K ( J J J J K ( I ` ` ` ` ` ` ` ` ' ' ' ' ' ' ' ` ",
"' ' ' ' ` ' ` ` ' ' ' ' ' ' ` ` I _ _ ` ` ` ` ` ' { { ' ' ' { { ` [ [ [ [ ` [ `  . . . .[ [ [ [ [ [  .[  . . . .[ _ _ I _ ` ` _ _ _ _ ` ` [ { {  .{  .` ` ` ` ` ` ' ` ` ` ' ' ' ' ' ' ' ' :.{ $.<.$.' ) ` ` ' $.` ' $.$.' ' <.<.u.<.$.$.<.$.$.<.<.$.` ` ' ` ` $.' ' ` ` ` ` ` ` ' ' ' ` ` I I ` K J J J K I ` ` J K ` ` ` ` ` ) ` I K K K K K K ` ` ` ` K K K K L I I I I I P P I I P I I I ` ` I I I K K K J J J J J J H f a a H K ' ' ` ` ' ' J J K ` ` ` ` ` ' ' ' $.' $.' $.<.<.<.$.$.$.$.$.<.<.<.<.<.$.<.' ` ) ) ` ` ` ' ` J J I ` ` ` ` ` <.<.<.<.<.<.<.<.8.p.d.d.d.d.d.f.f.8.<.' ` ` ' { { ' { ' { { { <.` ` ` ` I I ` ` ` ` _ I I I I K K ` ` K J ` g.Y.<.:.` ` ' ' ' ` I ` ` ` ) ` ` ` ' ` ) ` ' $.$.' <.<.<.<.<.1.f.g.$.$.<.<.f.f.$.) <.<.$.` ) ` ' $.J ` ' K g J u.T.f.<.{ { { { { { { ` ` I J I ` ` { { ` ` ` I I I ` ) ) K K K ` ` ` ) ` K K K J J J J J J J K I ` J J J J J J J J K I ` ` ` ` K J K K I I I I K K ` I K J K K ` ` ` ` ` ` ` ` ` ` { { ..,...{ ` I ` ' { { ......{ ` ` ` ` ` ` ` ` ` ` ` ` ` { ..<.<.<.<.{ { { ' ' ` ` ` ` ` ` ` ` ",
"{ ' { ' { { { { { { ..<.{ { { ' I I _ ` ` ' { { ` { { ' ` ` { { [ [ [ [ ` ` ` `  . . . .[ [ [ [ [ [ [ [  . .[ [ ` ` ` ` { { { [ ..{ ` ` I I I ` _ I I I I I _ ` K K K ` ` ' ' ' ' ' ' ' ' ' ` ` K K ` ` ' ' ' ` ` ' ' ` ' $.<.<.<.' ` ' ' ` ` ` <.) ` ) ' ' ` I ' ) ` ` ` ` ` ` K K K K K K K K I K K J K K ` ` I K K K K I ` ) ` ` ` ` ` ` ` ` ` ` ` K K K K I I I ` ` ` I ` I I I I I ` ` ` ` ` I I U J J J J ' ) I J H H J I ,.{ { ` ` ` ` _ D J _ ,.,.{ { <.{ ' { ' { :.{ :.` ' ' ' ' ' { { { { { { { { { ' ` ` ` ` ` ` ` ` 8.<.,.<.{ { ,.8.,.<.,.<.{ { [ ` ` ` ` ` ` ` I K I I ` ` ` ` ` { { [ ` ` ` ` ` _ I `  . .I L J J I P P I L L J J J j f f H J H s J K I ` ` ' { <.` ` ` ` { { { <.{ ' ` ` ` ' ' ' ' ' ' ' ' ' ' :.<.) ` <.g.F.z.f.F.g.u.<.$.) K J <.` ` ' <.<.` Z J I I ` _ _ ` ` I I I I I P I I [ I ` I I P P P I J J H H J J K I I I I I J J J I P P H H H J H P H J H P J P H H H J P I I I I ` I ` I I I I K I ` ` ` { `  .` ` ` ` `  .`  .` I I _ ` ' :.<.$.` ` ` ` ` ` ` ` I K I K I I I ` ,.<...' { ' { { { { { { { { { { [  .[  .[ [ [ [ ",
"[ `  .{  .{ { {  .{ { { { { [ `  . .{ [ ` ` ` ` P I ` I I `  .` [ { [ [ [ [ [ [ [ [ [ [ [ [ [ [ ` ` ` ` ` ` ` ` { ' ` ` ' { { ' <.<.<.<.' ' ` ` ` ` ` ` ` ` ` ` ` _ _ ` ` ` ` _ ` ` ` ` ` ` ` ` ` ` ` ' :.:.' ' ' ' ` I ` ' ' ` ' ` I ` ' ` ` K J ` <.<.' ` ` ` ` ` I K J J J P J J J J J J J J I J J J J J J I ` ` I J J J ` ` I I I I I I I I I I I I I I I K J J I U U U U U ` I ` I I I I I I I I U P P U U H H J U ` <.D.J.Z.,._ I  .` D p C p Z _  .` I ` ` ` ` ` ` _ I ` ` ` ` ` { ' { { { { { -.{ -.{ {  .{ { { { { { { { { ` I L J I I I ` ` ` [ ` [ `  .{ { { { { { { `  .8.Z.Z.,.` I [ [ [  . . .[ [ 4.4.4.4.,.{ [ I L L L L L L L P I `  .` I J J I  .{ { ` P H D Z [ ` I I I I I ` ` ` ` ` ` ` ` ` ' ' ' ` I I ` ` :.) I ` :.f.F.G.f.<.` I I ` <.<.` ' ,.:.` I  .,.` [ [ [ [ [ [ [ I I ! I P P P P L H L L P P P P I I I U I I I I H H P P I I I I  . .I I P L H H P P L H P U P H I P H H H U !  .P P P U I U P P P P P I I I P P  . .! I I I I I <.$.' ` ` ` ` K <.$.<.$.:.$.' ' :.$.' ' ' ' ' $.' ' ' ' ' ) ` `  . .[ [ [ [ [ [  . .[ [ {  .{  .",
"{ { { { { { { { { { { { { [ _ _ I I I I P P P P { ,.,. .`  . .I  .{ [ [ [ [ [ [ [ [ [ [ [ [ [ ` ` ` ` ` ` ` ` ` { ` I K I ` ` ' ` ` ' <.<.1.1.<.$.' ` ` ` ) ) ` { ` ` ` { { ` I I _ ` ` ' { { { <.$.` ` I ` ` ` ` ` K J K ' ' I { I K ` ' { ' { ` ` ` K I { <.{ ` ` I I J J J J J J J J J J J H J J J J J J J J J I ` ` ` ` I J I I I I I I K K J K I I I I I K J K I I I K I $.` I ` I I U J J J H H H H H J H U U I I I I  .:.I ` { { ` J f a D a d I {  ._ ` ` ` ` _ I I I I [ [ { { { ,.,.,.-.-.,.,.<.r.,.,. . .{ { { {  . .{ -.:.{ ` I I I  . . .{  . . . .{ ` ` I I I ` ` `  .,.w.8.{  . .[ [ { { { { { { { I L I [ ,.4.4.4.4.4.{ [ ` I I I P P I ` ` I I P P I P L H H H  .{ { {  . .[  .` ` ` ` ` ` ` I ` ` ` I I I ` :.` $.<.' I K I ` ` ' :.<.:.' ` I { ` I ` { -. .I I I P I I I ! I I I P P L L I I P P P P P P P P P P P I I P P P  . . . . .I I P P I ! :.;.:. .! I P L P P U P L P I I ! ! I L H P I I  .:.;.;.;.{  .I P P I !  .! ! I I P P P P K K K ) ` $.' ` ` ` ` ` ' ' $.$.' ' ` ` ) ) ) ) ` ` ' ' ' ' ' '  . . .[ [ ` ` ` [ [ [ [ [ [ [ [ ",
" .`  .{ { '  .{ -.{ ` ` { { ` I I I ` I I I  .-.Z.8.{ I _ [ { { _ ` ` [ [  . . .[ _ ` ` ` _ _ _ ` ` ` ` ` ` ` ` { I L J I ` ` ` ` ` ` ` ` ` ` ' <.<.<.<.:.' ` I { ' ` ` I I I I { { :.{ ' ' { :.{ ` J J J I I I I K J J J J I I I ` ` ` I I ` ` ` ` ` ` ` ` I I I K J J J J I I J J J J J J J J J J J J J J J J J J J J J J J J I I I I I I I I I J J J I ` ` { { $.{ ` ' ` ` ` ` I J H Z H J J I J J J I I I U I J J H J J J J { ` I I ` { ,.9. .I J J I ` ` I I I I I I I ` ` { ` ` ,.<.:.{ { { { { { ` ` I I ` ` ` ` ` ` ` ` I I I ` ` ` ` ` ' ' { ` ` ` ` ` ` ` ` ` ` ` ` ` ` `  . . . . . . . .{ { {  . . .` ` ` ` I I I I { { { { { { { { ` ` ` ` ` ` ` ` ` I I I P J J J Z J ` ` I K I I I I I I I I I I J I ` ` I I ` ` ` ` ` { :.,.:.{ { ` ` I I I ` ` I I I  . .I I P ! I ! ! ! ! ! ! I U I U I U P L P P P P P P P P P P P P P P P P I I I U U P P P H H H H P I I ` :. . .I I I P P I ! I I I U I I U I :.;.:. .! ! I I I I I I I U I I I I I I I I ' K J K I ` ` ' ` ' :.:.' ` ` ) ` ` ` ` ` ` ` ' ` ` ` ` ` ` ` ` `  . . . . . . .` ` ` ` ` [ [  .",
"` ` ` ` ` ` ` { ` ` ` ` ` ` ` I ` ` ` ` ' ,.d.D.Z.w.{ [ [ [ [ I _ ` ` ` _ _ _ _ _ _ ` ` _ _ _ _ I I I I I I I I  .I P L I ` ` I ` ) ` ` ` ` ` ` K I I ` ' ' ' ' ` ` ` ` I I I I I ` ` I I I ` ` { ` I K J J J J J J J H J J K I I I I I I I I I I I I I I I I I I I K J J J J J J J J J J J J J J J J J J J J J J J J J J J J J I I I I I I I I I I J I I I ` ` 8.<.<.,.:.:.{ { J J J J J J J J H Z J I ` I I ` I I I I ` ` ` I K K I ' :.:.,.8.F.d.{ I J J J J J I I I I I I ` f f f J J J J I I I I ` ` ` ) ` ` ` ` ` ` ` ` ` ` ` ` ) ` ` ) ) ` ` ` ` ` ) ` ) ` ` ` ` ` ` ` ` ` `  . . . . . . . .` ` ` I I I ` ` ` ` I I I I J J P P I I I I  . . .` ` ` ` ` I I J J J H g g J I ` { ` I K I I I K K K K I I ` ` ' ` ` I I K ` ` I I I I K J J K I I I I I K ` I I I I !  . .I I I P P P P P U P U U U P L L P P P P P P P P J P P P U U I I P P P P H H H H I I U J J H H H J J U I I ` `  .I I I I U P U I I I I U P I ! ;. .I P H H H H H H H L P U U U U I K ` ' ' I I ` K K K K K K K I ` ` ` ` I I K I ` ` ` ` ` ` ` ` ` ` ` ` ` I I I ` ` ` ` ` ` ` ` ",
"` ` ` ` ` ` ` ` ` ` ` ` I I ` ` :.{ :.<.9.f.D.D.9.<.{ [ [ ` I I ` ` _ _ _ I I I _ _ _ _ _ I I I I I I I I I I I ` I P P I I I I I I I J J J J J J J I I I I K K K J J J J J J J J J J J J J K I ` ` ` ` I J J H H H Z H J J I I J J K I I K I I J J J J I K I I ` ` I I J J J J J J J J J J J J J J J J J J J J J J J J J J J J I I K K I I I I I I I K K K I I I I I I J J J J J J J J H f a y J J I ` ` J J I J J I I ` ` I J J J J J I I ` :.:.` J g Z Z Z Z J K I I I I I ` I ` { ` I ` ` ` K J J J K K I ` ` ` ` ` ` ` ` ` ' ` ` ) ` ` ` I ` ` ` ` ) ) ` ` ` ` ` ` ` ` ` ` ` `  . . . . . . .` ` ` ` ` I I I I I I I I I I P P I I I I I ` I I I I I P I I J J J H H g f f I I ` ` ` ` I J J J J J J J J J H H J I ` { ' ` I I J J J J J J H J J I I I J J P P P P P P I I P P P P P P P P L P P P P L H H L P P P P P P P J H P P P P P P P P P P P P P P J J J J J J J J J J P P U U I I U U U P P L P U I U L H H L I :.t.<. .I U P U I H H H H H H H H H J I ` ` J J K J J J J J J J J J J J K K K K J ) ` ) ` ` ` ` ` ` ` ` ` ` ` ` ` ` ` ` ` ` ` ` ` ",
"I I I ` ` ` ` ` ` ` ` ` I I ` :.{ :.,.9.f.f.w.,.` I I I I I I L I I I I I P P P I I I I I I I I I I I I I I I I I I P I I I I P H H H H H J J J P J P J J H Z f H H H H H H H J J J J J J J J K J I ` ` I J J I H H J J J J J J J J J J J I K K J J J I K I I I I I I I I J J J J J J J J J J J J J J J J J J J J J J J J J J J I I K K I I I I I I I K K K I I I P K K K K I I Z Z Z g H J J I H I ` I J J J J I K K K I J J H I J J J J J I ` J J J I ` ` ` I J I I I I I I ` I <.<.` I I ` I ` ` ` I K K K K ` ` ` ` ` ` ` ` ` ` ` ` I I I K I I I I ` ` ` ` ` ` ` ` ) ) ` ` ` `  .` ` [ [ [ I ` ` ` ` ` ` I P P P P P J J J H H H H H Z Z Z J J J H H H J H J J H H H Z g g J J J K I I I J J J J H H H H H J J J J J H H Z J J J J J I I I I I J J J J I I H H P P P P H H L L P L L L L L L H L L L L H H H L L L L L L L P P H H H H H H P P P P P P P P Z H H H P J P J U U P J H H H H H L L H H H L L H H H L P P P P U I I I I P L H H H H H Z Z M a g f Z H H g H K J J I I I K H f Z H J J I I I K I I I ` ` ` ` ` ` ` ` ` ` ` ` ` I I I I ` ` ` ` ",
"I I I I I I ` ` I ` ` ` I I ` :.` ` { ,.<.,.` P P I I I I I I L P P P P P P I I I I I I I P P P P P P P P P P P I I P I I I J J J J J J J J L I Z Z D H J J J J J H H J J J J J H J J J H J J J Z J J J J J I I J J K I I J J J J J J I I I K K I I I I K K K K I I I I I I J J J J J J J J J J J J J J J J J J J J J J J J J J I K K K I I I K I I I I I K I I I I I I I I I I H Z f f f f f Z g ` { H f I ` J I I J J J J J J J J K ` ` K J J ` ` ` ` ` ` I J I I I I I I I ` f I { ` I I ` I ` ` ` ' ' ` ` ` ` ` ` ` ` ` ` ` I I I I I I I I K K K I I ` ` ` I I I I I I I I ` ` ` ` ` ` [ [ I I I I P P J J J H H H H Z Z Z H H Z Z Z Z Z f J J J J J H H H Z Z H H H H H H H Z f Z J J J H H Z Z Z Z Z H H Z J J J Z f H J I J J J J I I I I I I J J J J J I I I I P P J J J L L L L L L L H L L L P P L L L L P P P P L L P P J J J H H H H H H H H H H H J J L J J H Z Z D H H H J J L P H H L H H H L L Z H H P P P L H H H L P P P L H L L H H Z Z M a Z a a f J J J J P J P I I I J J Z H J K I I I I I I I I I I I I I I I I I I I P I I I I I I I I ",
"I I I I I I ` ` I I I I I I ` ` ` ` I I I I I I I I ` ` I I L L L L L P P P I I P P P P I P P P P P P P P P P P P P P P P J J J P P L J H D D D Z Z Z D D H J J H H H H H J J J H J J H H H H J H H H H H H J J I I I I I I J J J I I I I I I I I I I I J J J J J J I I I I I J J J J J J J J J J J J J J J J J J J J J J J J J K K K K I I I K J J J J I I I I J J J J J H H H J J K I J J Z f :.f.9.J Z ` ` H J H Z Z H J J I H f a a a s H I J J H H H J J J I ` ` ` I I I I J ` ,.:.` ` ` { J J K ` ` ` ` ` ` ` ` ` ` ` ` ` I ` ` ` ` ` ) ) K K I I I I I I I I I I I I I I ` ` ` ` ` ` [ [ ` ` I I I P J H H H H H Z Z Z Z H H H H H J J J H H H H Z Z Z Z f f Z Z Z Z H H H Z f f Z H Z f H H Z Z H H H J a f H J J K ` ,.I I J J J J H Z J J I I I J H f { ` I H H J P I L L P I P L L L H H L L P P P L L L P P P P L L J J J J P P P P H H H H H H H H L L J H D Z Z C Z Z Z D D J J J Z H H H Z H H P H H H H H L L L P P L L L L P I H H H H H H H H D f f J ` ` I H H J H Z Z H I ` J J P I I I I I P P I I I I I I I I I I I I I I I I I I I I I I ",
"I I I I I I I I I I I I I I I I ` I I I J J I ` ` ` ` I I I I I P P P P P P P P P P P P P P L L P P P P P P P P P P P J J J J J L L L D D Z Z C L L L D D Z D Z Z f f f g Z H H J J J H H Z H H J J J J J J J J I I I I I I I I J J J I I I I K I I I J J J J J J J J I I I J J J J J J J J J J J J J J J J J J J J J J J J J J P J K K I I I I J J J J I I J J I I I I I J J J f H I ' <.f.D.D.d.f.8.` K I J f f f f f H J J J J f t 6 0 y Z ` J J J J I ` { :.` ` ` I I K K I I I ` ` I J I ` I K K J K K I ` ` I I I ` ` ` ` ` ` ` ` ` ` ` ` ` ` I I I I I I ` ` ` ` ` ` ` ` ` ` ` ` I I I `  . . . .` I I I P P P J J J J H f f f f f f f f Z Z Z Z f f f f H H H H H H H H H H Z Z H H J J J H J J J J J K I I I J J H J J I J J J J J J H H J I I I J H f ` I K J J P P I P I I I I I P L L L P P P P P P L P P P P L L L J J J J J I I I J J J J J J J J Z Z Z Z Z D D H J H H D Z Z Z C Z Z H H Z H L P L L Z Z Z H L L H H Z Z Z Z H L L L L L L H H H D C C L I I J H J L P J D D L I L L P P I I I I I I I I I I I I [ [ ` ` ` ` I I I I I I I I I I ",
"I I I I I I I I ` I I I ` ` ` I I ` ` ` ` I I ` I I I I L I I I I I P P P P P P P P P P P L L L P P P P P P P P P P P J J H J J L L L H D H H H H D D D D Z D Z H H Z Z H H J J J J J J H H H J J J J I ` ` ` I I I K K K I I I J J J J J J J K I I I I J J J J J J J J J J J J J J J J J J J J J J J J J J J J J J J J J J J J P J K K I I K K J J K K J J J J J J J J J J J J H g g Z J I { ,.{ I J I I Z f Z Z Z H J J J J H J J J I I J J I I ` ` ` I J J H ` ` ` I K J J J J H H J J J I <.f.<.:.` K K I I I I I I I I I I I I I I K K K K ` ` ` ` I I I I ` ` ` ` ` ` ` ` ` ` ` ` I I I I I I I ` ` `  . .I I I I I P P P I I I J J J J J H H H H H H H H J J J J J J H H Z H H H J K I ` J J J J K I I I J J H H H J J J H H J I ` { { ` J J J J J J J J J I ` :.-. .I P I I I ` ` I I P L L P P P P P P L L L L L L L L P J J J J J J J J J J H H H Z Z D D Z Z Z Z Z Z Z D D D Z Z Z Z C Z Z H Z H L P L Z Z Z Z H Z Z H L P !  .! ! I P P P L L H Z Z H C f C C C Z J J ` -.{ I H D J J J L L P I I I I I I I I ` ` [ I I I I I I I I I I I I ` ` ` ` ",
"J J I I I ` ` ` ` ` ` I I I I I ` I I I I I I I I I I I I I I I P P I _ _ I I I P P P P P P P P J P P P I I I I P P P P P P P J C Z L L P L L D Z D D L L L L L J J H H J J J K H H J J J I I I ` ` ` ` ` I I I J J J J J I J J J J J J J I I I I I J J J J J K H H J J J J J J K I I I K J J J J I I I I I I J I I K K I J J J P P J J J I I I J J K J J K I I I J J J I I J H J H J I I J J J J J H H Z Z H H J J J J J J J J Z J ` :.<.8.8.<.,.{ ` I J J H H f g g Z H J J J J H H H J J I I ` <.f.f.<.) H s J J K K I K K J K K K K K K K K ` ` ` ` ` ` ` ` ` ` ` ` ` ` ` ` I I I I I I I I ` ` `  .` ` I I P P I I I I I I J J J J J H Z g H H H H H H H H K J J H H J I ` ` ` :.<.<.<.{ ` J J J H f f f f H J J J H g Z H f J K J J I { 9.:.` I H Z Z J J J p.I y { D.{ f L P I L P I I L L L L P L L J J J J L L P P P P I I K J J J J J J J J J J J Z Z L L J A A Z Z Z D D D D D D A J Z Z H I ` I L Z J L L I `  .{ ,.r.4.,.{ ` I L L C C C f f C C C f C C Z D H J J D D L { d.Z.,.I C Z H P I I I P J J J L L I I I I I I I I I I I ` I I I I I I I ",
"` ` ` I ` ` ` ` I I ` ` ` ` ` ` I I I I I I I I I I I I I I I I P P P P P P P P P P P P P P P P I I I P P P J J P P J J J J J J J L D D D D L L I I P L L L L D J J J K I J H f J J J J J J J J f f f f f f f f J J J J K I K J K K J J H H H H J J J J J K I I ` ` ` I I J H H J J J J J H H H J J I I I K J J J J J J J J I I J J I I I I K J K I K J J J H a Z I { I f a H ` { { ` ` I J J H f f f f g H J J I I K J J H H H { { ` I J f a y a a a f f f f f H H H Z Z Z Z Z f f g H J J H f g J K ' <.1.f.D.` I K K J J J H J J J K K I ` ` ` ` ` ` ` ` ` ` K K K I I I I I ` ` ` ` ` I I I P P I I I P P J I I I I I P P J J J I I I I I I H J J J J K I I K J J J J J I I J J Z f a y y y g Z H H Z Z H H f f Z g f f f f H J J H f f H J <.<.<.,.{ ` I J u f.F.g - Z 8.,.J Z J I L C C A L L L L L L L L H H H H H H H H J J J Z g g f f J H Z Z Z A J J Z Z A A A J J J Z Z Z Z D Z Z Z { [ P D C Z J I D H P I I I L J 9 0 t p p p p p D D Z Z f f a p f f C Z D D H J I L D D I -.w.Z.d.8.{ ` I L L P J J J L L L I I I I I I I I I I I I I I P P L P ",
"I I I J J J J J I I I I ` ` ` ` I I I I I I I I I I I I I I I I P P P P L P P P P P P P P L L L I I I P P J J J H H H H H H H H P L H D D J J I D D D Z Z Z D Z Z Z H J J J H f J J J J H H H H J J J J J J J J J J J J J J J J J J H H H J J J J J J J J J J J J J K J J J J J J J J J J J J J J I I I I I I J J J J J I I I I J P I I I J J H ` H H I J f I d.K Z a s J ` :.:.I ` ` J J I I J I J J J J J J J H Z g g f f f f f a a a s f f Z J J J I I I J J J J J H H H Z Z Z Z H H J Z f a g g f f f H K ` ` ` I K J J K K H H J J K K I ` K K K K K K K K I I I I I I I I I I I I I I I I I I ` ` ` I I I I I I I I P P J I K K J H g s a J J J J J J J J f f f f f f f f f f a a f Z J I J J J J Z g g g H H H H J J H Z H J J J J J J I I I { :.,.{ ` I J a <.F.f - f { ..I Z f Z J L J H H H H H H J J P P J J J H H H J J J J J J g g g g f s s g g J Z Z Z A J J L J I K I K J J Z Z a Z P I P H Z Z Z Z H H Z f a p J P I I I I ` ` H H H Z Z f f a f f Z Z Z H H H f Z f a a a Z P r.-.I J H H J P J J J J P P P I I I I I ` ` ` ` ` ` I I I I I I ",
"I I I I ` ` ` ` K K I I I I I ` I I I I I I I I I I I I I I I I I P P L L L L P L L L A A A A A H H J J J P P I I I I P P P P P H J L P I I L J L J J J J J P I Z f f f f Z Z Z Z Z Z H H H H H H J J J J J J J J H H H H J H H f f f g Z H H J H H Z Z Z Z f f s f f g H H J J H H H Z Z H H J J J J J J J J J I I I J J J J J J J J H J J J K Z I I H I <.J - t g ` <.' I J I f J H a a J I J K J J J H g f f Z Z g g Z Z Z H Z Z Z Z J J I I I J J J J J Z f f f s f f f f f Z f f f f g Z Z H J J J H J J K J H H f f f g g J J J J J K K K I I I I I I I ` K K K K K K I K J J P P P P P P P J P P P P J J J P P P J P P J H J J K I ` ` ` g g s a u y t t Z Z Z Z Z Z Z Z J J I I I I I J J J J J H Z Z H f f a a f f a u a a a f Z H J J f f Z J J I ` ` ) K <.F.8.J 0 + _ ,.,.I A I _ J I J P J P K I I I I P J P J P J K K ` ` ' ' ' ' <.<.<.' ' ' $.$.K K I K I K I K I K K J J J J J H H H Z Z g J I I J P J P I I I -.<.-.{  .` I ` P J P J I I I I I I P P I I I K H J ` I J f f f Z Z H J P K I I J J P J I J P J I K I K I K I K I K I I I ` ` ` ",
"` ` ` ` ` ` ` ` ` ` ` ` ` ` I I ` ` ` ` ` `  . . . .[ [  . . . . . ._ I I I ` [ I I I I P P P P Z H H J P I I I J J J J J J J J P J P J I J J J P J J J H H Z Z ` I J J J J J J H J J J J J J J H H H H H H H Z J H Z Z Z H H Z H H Z f f f f f a f f Z H J J J H J J J H H H Z H H Z g Z Z H H J J J J J J J J J J J J J J J J J J J I I I ` ` ` I J H a 6 0 a f.d.9.:.I J J H J I J f f J I H I ` ` ` { :.,.,.I I J J H H Z f J J J J J K I K J J H H J J J J I I I I I I I I ` ` ` ` { ,.<.8.<.<.9.9.<.<.<.<.1.9.9.9.9.<.<.<.) ` ` ` ` I I I J J J J J J K K J J J J J J J J I I I ` `  . . .I I I I I I ` ` I I I I I I I I I I ` ` ' :.<.<.g.f.f.f.9.<.<.<.I J J J J K I I J I I ` ` I J H J I I ` ` ` { :.8.<.,.,.<.,.:.` <.<.,.<.<.<.,.:.9.8.<.,.,.,.<.<.f.d.<.f.G.<.u - - A Z.J.8.I I ` I I I K I ` ` ` ` ` ` ` ' ' { ' ' <.<.<.<.f.9.9.<.<.:.:.{ ' ' ' <.<.<.<.<.<.<.$.<.<.<.<.<.f.g.F.f.f.,.:.{ ` I K I K I ` { <.,.<.` ) ` ` ` ` ` ` { ' { :.<.<.,.<.,.<.:.:.{ ' ` ` ` ` ` ` I ` ` :.J I ` :.<.<.,.:.` ` { ' { ' { ` ` ) ` ) ` K I K I K I K I K ` ) ",
":.:.:.:.:.{ :.:.<.<.<.<.:.:.{ { :.:.:.:.:.:.,.,.r.r.4.4.r.r.r.r.s.q.4.4.4.4.q.q.4.4.4.4.........` ` `  . . . . .d.d.w.w.w.w.w.w.` ` I J J J J J J J J J I I J J J J J I ` ` I J :.:.:.:.{ { ` ` ` { ' ' ` ` ` ` I I J J J J J J I I J J J J J J I I I ` ` ` ` ` ` ` ` ` ` ` ` I ` ` ` ` ` ` ` ` ` ` ` ` ` ` ` ` I I ` ` ` ` ` ` ` ` { { ` I J H J y t a a f D.yXOXF.` I ,.d.9.,.8.9.<.` ` ,.<.:.I I ` ` { :.,.,.9.9.8.<.<.<.,.,.` { :.:.<.:.:.:.8.<.,.<.,.<.8.8.d.d.f.9.9.9.8.8.9.9.d.d.f.9.<.<.<.<.:.` I K J K I ` ' :.<.<.<.<.<.<.<.<.<.:.:.:.` ) ` ` I I ` I :.:.:.' ' ' { { :.:.-.,.,.<.<.r.r.r.,.,.r.r.r.8.8.r.r.r.,.,.-.:.d.9.1.<.<.:.' ` <.<.<.1.9.f.f.f.<.<.,.,.<.8.9.f.D.D.D.D.D.F.F.F.Z.D.F.D.D.F.J.K.J.F.F.D.D.D.Z.Z.D.D.Z.Z.D.Z.f.d.f.f.f.d.d.9.8.<.<.' J <.XXY.` <.6 - a Z.Y.d.4.A.<.<.<.<.<.<.9.f.f.f.f.f.g.g.g.g.f.f.f.d.f.f.f.f.f.f.g.D.Z.Z.D.g.1.1.u.u.f.f.f.f.<.<.<.$.<.<.<.u.g.g.F.Y.T.G.f.<.<.9.f.f.f.<.:.' :.<.<.<.<.<.<.<.<.<.<.<.<.<.<.<.:.:.:.' ` ` ` ` I K K K ` ' :.:.<.<.<.<.9.9.f.f.f.f.g.D.D.g.g.f.l.l.g.g.f.f.f.f.f.f.1.1.<.<.<.<.",
"D.D.D.D.Z.Z.Z.Z.f.f.d.9.9.8.8.<.<.<.<.<.<.<.r.r.r.r.4.4.r.r.r.r.s.s.s.s.q.s.s.Z.s.q.q.q.8.4.4.4.,.,.,.,.-.-.-.-.` ` ` ` ` ` ` ` ' ` ` ` ` ` ` ` ' :.<.f.f.g.g.g.D.F.J.T.Q.Q.T.Y.9.9.9.9.8.8.8.8.,.,.,.<.<.<.,.,.,.:.` ` ` ` ` ` ` ` ` ` ' :.:.,.,.,.<.,.,.:.{ { { { :.:.,.,.,.,.<.<.<.<.<.,.,.,.{ ' ` ` ` ` { { ` ` ` ` ` ` ` ` ` ` I I J Z f f 6 Z J J K.zXrXD.J ` f.Z.d.8.8.9.<.<.<.<.<.8.9.9.Z.Z.D.D.Z.g.f.f.D.D.D.D.D.D.F.F.F.F.D.Z.f.8.<.<.8.8.<.,.,.,.:.:.` ` ` ` ` ` ` ` ` ` ` ` ` I H f a s f g g H J J K K ` ' :.<.<.<.<.<.<.<.<.<.<.<.f.f.f.f.9.9.9.<.<.<.<.<.<.<.,.,.:.:.-.:.:.:.:.-.` ` ` ` ` `  . .8.r.r.r.,.,.-.:.-.<.<.<.9.f.f.f.` ` ` ' :.<.<.<.d.d.d.d.f.f.f.f.,.:.` I J J H H J J J J H H H H J J I I J J J J Z Z H H H J J J H H J J J J J H g _ K J <.R.Y...{ 6 + d 8.Z.d.d.f.f.f.f.g.g.g.g.<.<.<.<.1.1.1.u.<.<.<.<.<.<.' ..' ' ' ' { <.<.<.' $.' $.$.<.<.<.F.F.z.z.l.g.g.g.g.f.<.<.u.l.G.Y.F.F.F.F.g.1.<.' ` ` ) ` ) K ` ` $.$.' ' ` ` ` ` ` ` ` ) ` ` ` ` ` :.<.<.1.<.<.<.<.<.<.<.<.1.9.9.f.g.D.F.F.D.D.g.F.F.F.F.F.F.F.F.F.F.F.z.l.l.l.l.",
"8.9.w.d.Z.Z.Z.Z.Z.Z.Z.Z.f.d.d.w.8.8.r.r.r.r.4.4.{ { { { { { { { { { { { { { +.-.+.{ { { { { [ [  . . . .[ [ [ [ { {  . . . .[  .I ` :.<.8.8.<.<.,.8.9.f.Z.Z.f.d.d.9.r.,.-.:.:.{ ,.<.r.<.8.8.8.9.8.8.w.f.d.d.d.d.d.9.r.,.,.<.r.,.<.:.:.{ ' ' ' { ` ` ` ` ` ` ` ` { { { :.:.:.:.:.` ` ` ` ` ` I I ` I I I I I I ` ` I I J J H Z Z f a y y y a H J <.f.Q.,X,XD.J a K J Z Z J J J J I I I I I I I ` ` ` ` ` I I P P I I P P J J J J I I I P I I I I P P I I I I I J J J J P I I I I P P J P I `  .` I ` :.<.<.:.{ ' { ` ` K I K I K ` ) ` ' :.<.,.<.-.<.:.$.' ` ` ) ` ` ` I K K I I I I I I I P P P I I I I I I ` ` P P P I I I I I H J H J J H H H J J H H H g Z Z f Z H H H H f f f f Z H J J J J J J J J J J K I Z J J J J H J K J J P J J J P I I P J J J P P I ` g J I u f 4.Z.d. .a 6 y J J p f s f g g g g g g g g g g g g g J Z A Z A J A J I K J H A J J K J J J J K K K K J K ` ' ' ' ' ` :.<.<.<.` I K K I I K K I ` ` ) ' $.:.$.' ` ' $.:.$.$.$.$.$.' ' ' ' ' ' :.:.:.<.` :.<.<.<.<.9.f.8.9.9.9.9.8.,.:.{ :.,.<.<.<.,.<.<.<.<.<.<.<.<.<.f.9.9.9.f.f.f.f.",
"! ! P P P P P P P P P P P P P P ! I ! I I I I I ! ! ! I Q P Q P Q P Q P Q I Q ! Q ! ! ! ! ! [ [ I I ! [ [ { { { [ [ [ [ [ [ { { -.-.-.-.-.-.-.-. . . . . . . .I ! !  . . . .{ ;. . . .I I I I I I I I P L L L P I I I I I ` [ [ I I ` ` ` { { { ` { { :.:.,.<.<.:.:.:.{ { ` ` ` ` ` ` ` ` ` ` ` I I I I I I ! ! I P P H Z Z Z Z a a f H I ,.w.Z.Q.oXoXJ.{ Z Z I I I I I I I I I I I I I I I I I ! ! ! ! ! ! ! ! I I I I I I I I I I I I I I I I I I I I I I L L P P L H H H Z Z L P P L L L P P P U I I I I P U P J P I I I  .` I I I I P J J J J J J J J J J J J J J J J J J J J J J J J K I I I P P P L L H H Z Z Z Z Z Z Z Z H H H H H H H H H H H H H H H H H H H H H L L H H H H H H H H H P P P P P P P P I I I ` I I P J J J J J L L L L I I P P P P P P D H L L L D Z C Z 8.r.p - f [ P I I I I I I I I I I I I I I I I I I I I I I I I I I I I I I I I I I I I P P P P I I I I I I ` ` [  .{ { -.,.,.,. . .{ { { { -.-.` ` ` ` ` ` ` ` ` I ` ` ` ` ` ` :.:.{ { ' { ' ` :.:.:.:.{ { :.'  . . . . . . . . . . . . . . . .-.-.-.-.-.-.-.-. . . . . .! ! I ",
"m m m p p p m m M M M M M Z Z Z D D D D D L L L D D D D Z Z Z Z Z Z Z Z Z Z Z D D D D D D L L L L L L D D D D D Z Z Z Z Z Z Z Z M a M a M M M M Z Z Z Z Z Z Z Z Z Z Z Z H H L H L L L H H H H H L L L L L L L L Z Z D Z D D D D f f Z Z Z Z H H H H J J J J J J P J P J J J H H J J J J L J J J I P P P L H H H Z a a p p p p a Z H L I  .-.r.8.w.{ J a p a Z J Z Z Z Z Z H H H Z Z Z Z Z Z Z Z Z Z H Z H H Z Z L L L L L L L L H H L L L L D D L D D D D D Z Z Z Z Z Z Z M M M M M Z M Z Z Z Z a a M a Z a a a a M Z Z Z H H H D Z Z Z Z f C Z C Z C Z C Z Z Z H H Z Z Z Z Z Z Z Z Z Z H H H H H H H Z Z Z Z Z M M M M M M M M Z Z Z Z Z Z Z Z Z Z Z Z Z Z Z Z H H H H H H H H Z Z Z Z Z Z Z Z C C C f C f f f Z H H H H D Z C Z C Z D D D D Z D D D D D D D D Z Z D L H Z M M p Z P P Z p p M C C C C C C C C C C C C C C C C C C C C C C C C C C C C C C C C M M M M M M M M Z Z Z Z Z Z H H Z Z D D D H H H L L L I P I I I P J P J P J P J P P P P P U U U J J J J J J J J Z Z Z f Z f Z Z Z M M a M a M a M a M M M M M M M M M M M M M M M M M m m m m m ",
"p i i i i i p p p p p p m m m m m m m m m m m m M M M M m m m m m m m m m m M M M M M M M M Z Z D Z Z Z M m m p p p m m p m m m M M M M M M M M M M M M M M M M M M M M M M M M M M M M M a M M p p p p p p m p Z C Z C Z Z Z Z L J L P L P P P I I I I I I I I P P L P L J L J J J J J L J L J Z Z Z M M a p p p p p p p p M a C C C C C a p a M t 8 8 p f M a p p p p p p p p M a M a M a M M a a a a a a a a M M M M M M M M a M M M m m m m M p p p p p p p a p p p p p p p p p p p p p p p i p p p p p p p M a M a M M M M C f C f C f C C C C C C C f C C a a a a f f f f Z Z Z Z Z Z Z Z Z Z Z M M M M M M M M M M M M M M a M a M a M M M M M M M Z M Z Z Z Z Z Z Z Z Z H H H H H H H H D Z D Z D Z D Z p p M a M p p p p p p p p p p p p p p p p p p p M M M M M M M M Z i i L H t 9 M p p p p p p p p p p p p p p p p p p p p p p p p p p p p p p p p p p p p p p p p p p p p p p a a C C C C Z Z Z Z C C C C C Z C C M a Z Z Z Z Z Z Z Z Z Z Z Z Z Z Z Z Z Z C Z Z f Z Z Z Z C f C C M M M M m M M M p p p p p p p p p p i i i i i i i i i i i i i i ",
"m m m m m m M M m p p p p m m m i i i i p p p p p p p p p p p p m m m m m m m M m m m m m M M M M M m m m m m m m m m m m m m m m m m M M M M M M M Z Z M Z D Z D D D Z D Z Z Z M M M m m M m m m m m M m C Z Z Z Z D Z D D D D Z Z Z Z Z Z Z Z C C Z Z C C C f M a M a M a M a p p p p p p p p p p p p p p i i m p p p m M M M Z C M p p p i 0 0 p C Z Z M p p p p p p p p m p m p m p m p m p p p p p p p p p i i i i p i p p p p p p p p p p p p p p p p p i p p p p p p p p p p p p p p p p a a M M M M M Z M M M M M M M M C C C C C C C C Z C Z C Z C Z C p a p a p a p a M a M a a a M M M M m m m p m p m p m p m p m p p p p p p p p p m p m p m p m a m a m p m a m p p p p p p p p p p p p p p p p p p p m p m m m p p p p p p p p p p p p p p p p p p p p p p p p p Z a i t i p p M p p p p p p p p p p p p p p p p p p p p p p p p p p p p p p p p a a a a a a a a p p p p a a a a p p p p a p p p C M M C p p p a a a a a M M M M M a M a M a a a C C C C C f C f M a M a a p p a m m m m m p m p M M M M M M M M M M M M m m M M m m m m m m m m ",
"i i p p m m m m p p p p p p p p p p p p p p p p i i i i i i i i p p i i i p m m V V V V p m m m i i i p m m m m m m m m m m m m p p n p n V m V n p m m m m m m M M M M N M m m N M m m m m N M M M M M M M B M m m m m m m M M p p p p i i i i i i i i i i w t i i i i i p i p p p p p p p p p i p p p m p m p m p m p m p m m p p i i p m M M m M M m i w p m m p m p m p m M p p p p V p p p p p p p p p p p p p p p p p p p p p p p p p p p p p p p p p p p p p p p p p p p p p p p p p p p p p m m m M M M M M M m m m m p m p m p m p p p m m m p m p i p p p p p p p p p i i i i i i i i i i w w w w w w i i w i w i w i i i i i i i i i i i i i i i i i p i i i i i i i i i i i p i i i i i i i i i i i m p m m m M M M p m m m m m m m m p p p m m m m p p p p p p m M i M M m p M M p m m m m m m m m m m m m m m m m m m m m m m m m m m m m m m m m m M M M M M M M M M M M M M M M M M M M M m m m M M M m m m m m p p M a M M M M m p m p p p p p m p m p p p p p m p p p p p m m m m m m m m m m N M N M N M N M M m m m m m m m m m m m V m m m ",
"i i i i p i i i i i i i i i i i i i i i i i i i i i i i i i i i i i i i i i i i i i i V p p p m i i i i i i i i p n n n i i i p m m m m N N N N i i i i i i i i i i i i i i w w i i i i i i i n w w w w w w w w i i i i n n n n m m m m m m m p m m m m m m m p m m m m M M M M M M M M M M M M m m m m m m m m m p V p n p n i i w w 9 w w i i m i w 9 w w i i w i i i i i i p i i i i i i i i p i i i i i i p p p p p p p p p p p p p p p p p p p p p p p p p p p p i i i i p p p i i i i i p i i w i w i i i i i i i i i i i i i i i i i i i i i i w w w w w w w w w w w w 9 w 9 w 9 w 9 w w w w 3 3 3 w w w i i i i w i i i i i i i i i w i i i i i i i i i i i i i i i i i N M M M M M N M m m M M m N N N i p n p m m m m m p p m m m p p p p p p p p p p p p p p p M m M p p m M M p p M p p p p p p p p p p p p p p p p m m M m m m m m p p p p m m m m m M M M M M M M M M M M M M M M M M M M M M m m p p p p p p p p p p p p p p p p V p p p p p p p m p m p p p p p m m m m m m m m M M M M M M N N V V m m m m m m V V i i i i i i p p p p V i i i ",
"w i i i i i w w w w w w w w w 3 w w 3 3 3 3 w 3 w w w w w i i i i i w w w w i i i i i i i i i i i i i i i i i i i i i i i i i i w w w w w n n i n n n n n n n n w w w w w w w w w w w w 3 w w w w w w w w w w w w w w w w w w w i i i i i i i i n i i p i i i i i i i i i i i i w w w w w w w w n n n i n i n i n i n i n i i w N m n w w w 9 w 9 1 3 w n i 9 1 3 3 3 3 w w w w i i i i n i n i i i i i i i i i i i i i i i i i w w w w w w w w w w w w w i i i i i i w w w w w w w w w w w w w w w 3 1 3 3 w w w w w w w 3 3 w w w w w w w w w w w w w 9 9 9 1 1 1 1 1 1 1 1 1 9 9 9 w w w w w w w 3 3 w w w w w w w w w w w w n i i i w w w w w i n i n i n i w w w w w w w w w w w w 3 3 3 3 w w w w w w w w w w w w w w w w w w w i i i i w i i i i i i i i i i i i p p p p M i w p i w i M i i i i i i i i i p p i i i i i p p i i i i i i i i i i i i i i i i i i i i i i i i i i i i i i 9 9 9 9 9 9 1 9 i i i i i w w w i i w w w w w w i i i i i i i i n i i i i i i i w w w w w w w w w i i n n i w w n n n n n n n n n n i i i i i i n n n n i i i i ",
"1 1 1 1 1 1 < < 1 1 1 < < < < < 1 1 < < < < < < 1 1 1 1 1 1 3 3 3 3 1 1 1 3 3 w 1 1 1 1 1 3 3 3 9 9 9 w w w w w 9 9 9 3 3 9 9 9 w w w w w w w w w w w 3 w 3 3 3 3 3 3 3 3 3 3 3 w w w 3 3 3 w w w w w w q q q q q q 9 9 9 9 9 9 9 w 9 w w w w w w w w w w w w w w w w w w w w w w w w w w w w w 3 3 3 3 w w w w 3 3 3 3 3 3 3 3 1 3 3 3 3 3 3 3 q w w w 3 3 9 w 3 3 3 3 3 w w w w w w w 3 3 3 3 3 1 1 1 1 1 1 1 1 1 1 1 1 1 1 1 1 1 1 1 1 1 1 1 1 1 1 1 1 1 9 9 1 1 1 1 1 1 1 1 1 1 1 1 1 1 1 1 3 3 1 < < 1 1 3 3 3 3 3 1 1 1 1 < < < < 3 3 3 9 3 3 3 < < < < < < 1 < 1 < 1 < 1 < < < 1 < 1 3 3 3 3 3 1 1 3 3 3 3 3 3 3 3 3 3 3 3 3 3 3 3 1 3 1 3 3 3 3 3 3 3 3 3 3 3 3 3 3 3 3 3 3 3 3 3 3 3 3 2 < 2 < 2 < 2 2 q 9 9 9 3 3 q 9 1 1 1 1 1 1 1 1 9 9 9 9 1 1 1 1 w w w w i i w w w i i w i p i 1 w w w w w w w w w w w w w w w w 1 9 9 1 1 1 1 1 1 1 1 1 1 1 1 1 1 1 1 1 1 1 1 1 1 1 1 1 1 1 1 1 w w w w w w w w w w w w w w w w w w 3 3 3 3 3 w w w w w w w w w w w w w w w w w w w w w w i v v w i n n n i w w w w w w w w w w w w w w w w w w w w 3 3 3 3 1 1 ",
"< < < < < < 4 , < < < < < < < < , , , 4 < < < < 4 4 4 < < < < 4 3 3 3 3 3 3 3 3 3 3 3 3 3 3 3 3 3 3 3 3 3 3 3 3 3 3 3 3 3 3 3 3 3 3 3 3 3 3 3 3 3 3 3 3 3 3 3 3 < < < < < < < < 2 2 2 2 2 2 2 2 < < < < < < < < < < < < < < < < < < < < < < < < < < 4 4 4 < < < < < < < < < 2 < 3 3 3 3 3 3 3 3 3 3 3 3 3 3 3 3 3 3 3 3 3 3 3 3 3 3 3 3 3 3 3 3 3 3 3 3 3 3 3 3 3 3 3 3 3 3 3 3 < < < < < < < < < < < < < 1 1 1 < < < < < < < < < < < < < < < < < < < < < < < < 4 4 4 4 4 4 4 4 4 4 4 4 < < < < , , , , 4 4 , , , , , , 4 4 , , , , , , , , , , , , , , , , , , , , , , , 4 4 4 < < < < < < 4 < , 4 4 , , , , , 4 4 < < < 4 4 4 < < 2 < 2 < 2 < 2 2 2 2 2 2 2 2 2 3 2 3 2 3 2 3 2 2 2 2 2 2 2 2 2 2 2 2 2 2 2 3 2 3 2 3 2 2 2 3 1 1 1 1 1 1 1 1 1 1 1 1 1 1 1 1 1 1 1 1 < < < < < < < < < < < < 1 1 1 1 1 1 1 1 1 1 1 1 1 1 1 1 1 1 1 1 1 1 1 1 1 1 1 1 1 1 1 1 1 1 1 1 1 1 1 1 1 1 1 1 1 1 1 1 1 1 1 1 1 1 1 1 1 1 1 1 1 1 1 1 3 3 3 3 3 3 3 3 2 < 2 < 2 < 2 < 2 < < < < < < < 3 3 3 3 3 3 3 3 3 3 3 3 3 3 3 3 3 3 3 3 3 3 3 3 < < < < < < < < 3 1 1 3 1 1 < 1 ",
"< < < < 4 4 , , , , , , , , , , # & & , , , , 4 < 4 < < < < < 4 , , , , , , < 4 , , , , , , , , , , , , , , , , & & & & & & , & , , , , 4 4 4 4 : : : : : : : : , , , , , , , , , , , , , , , , , , , , , , , , 4 4 , 4 , , , , < 4 4 4 < < < < < < < < < < < < < < < < < < < < , , 4 < < < < < 4 4 , , , , , , , 4 , , , 4 < < 4 < < < < < < < 2 2 2 2 2 2 2 2 < < < < < < < < 4 4 4 4 < < < < , , , , 4 4 4 4 < < < < < < < < < < < < < < < < < < 4 4 < < < < , , , , , , , , & & & & & & & , , , , , , , , , , , , , , , , , , , , , , , , , : : : : : : , , , , , , , , , , , , , , , , , , 4 4 , , , , , , , , , , , , , , , , , , , , , , , , , , , , , , , , , , , , , , , , , , , , , , , , , , , , , , , , , , , , , , < < , , , , & & < < < < < < < < < < < < < < < < < < < < < < 4 4 < 4 4 < < < , , < < < < < < < < < < < < < 4 < < 4 4 4 < < < < < 1 < < < < 1 1 < < < < < < < < < < < < < < < 4 4 , , , , 4 4 4 , , , , , , , , , , , , , , , , , , , , , , , , , , , , , , , , , , , , , , , , , , , , , , , , , , , , , 4 4 , , , & & , # & # # ",
", , , , : : : : O O O O O O O O O O O O O O O O O O O O O O O O O O O O O O O O O O O O O O O O , , , , , , , , , , , , , , , , O O O O O O O O : : : : : : : : O O O O O O O O O O O O O O O O # # # # # # # # # # # # : : : : : , : : , : , , , , , , : , , , , , , , , , , , # # # # # # # # O O O O O O o o O O O O O O O O # # # # # & # # # & , , , , , , 4 4 , 4 , , , , , , , , , , , , , & & & & & O O & & & & , & & & & & & & & , & & & & & & & & & & & & & & & & & & O O O O O O O O # # O O & & & & # # # # & & & & # # # # # & & & # # # # # # # # # # # # # # # # # # # # # # # # O O O O O O O O O O O O O O O O : : ; ; ; ; ; ; ; ; ; ; ; ; ; ; ; ; ; ; O O ; ; O O O O O O O O : O : : : : : ; : : ; : : O : # # # # # # # # o # # # # # # # # O O O O O O O O O O O O O O O O # # # # # # # # # # O O O O # # # # # # # # # # # # # # # # # # O O O O # # # # O O O O O O O O # # # # # # # # # # # # # # O # O O O O O O O O O O O O O O O O # # # # O # # # # # # # # # # # O O O O O O O O O O O O O O O O O O O O O O O O , , , , , , , , ",
"O O O O O O O O O O O O O o o o O O O O o O O o o o o o o o o o o o o O O O O O o o o o O O O O o o o o o o o o o o o o o o o o O O O O O O o o o o o o o o o o O O O O O O O O O O O O O O O O O O O O O O O O o o o o o o o o O O o o o o o o o o o o o o o o o o o o o o o o O O o o o o o o X X X X X X X X . . . X X X X X X X X o o o o o X o o o o O o o O O O O O O O O O O O O O O O O O O O O O O O o O O o O O O O O o o o o o o o o o o o o O O o O O O O O O O O O o o o o O O O O O O O O O O O O O O O O O O O O o o o o o O O O o o o o o o X o o o o o o o o o O o o o o o o o o o o o o o o O O O O O O O O O O O O O O O O O O O O O O O O O O o O O o O O O O O O O O O O O o o o o o o o o o o o o o o o o o o o o X X X X X X X X . . . . X X X X X . X X X X . . . . . . X X X o X X X . . . . . . . . . o o o o o o o o o o o o o o o o O O X X X X X X X X X X X X X X o o o o o o o o o o o o o o o o o O O O O O O O O O O O O O O O O O O O O O O O O O O O O O O O O O O O O O O O O O O O O O O O O O O O O O O O o o o o o o o o ",
"O O O O O O O O O O O O O O o o O O O O O O o o O O O O O O O O O O O O O O o O o o O O O O O O o o o o o o o o o o o o o o o o O O O O o o o o O O O O O O O O O O O O O O O O O O O O O O O O o o o o O O O O o o o o o o o o o o o O o o o o O O O O o o o o o o o o o o o o O O o o o o o o X X X X X X X X X X X X X X X X . . . . X X X X . . . . X o o o O o o o o O O O o o o o o o o o O O X O O O O O O O O O O O O O o o O O O O o o o o o o o o o o O O O O O O O O O O O O O O O O o o O O O O o O o o O O O O o O o o o o o o o o o o o o o o o o o o o o o o o o O O o o o o o o O O o o o o O O O O O O O O O O O O O O O O O O O O O O O O O O O O O O O O O O O O O O O O O O O O O O O O O O O O O O O O O o O o o o o o o X o o o o o o o o O O O O O O O O O O O o O O O O o o o o o o X X o o o o o o o o o o o o o o o o o o o o o o o o O O O O O O O O O O O O O O O O o o o o o o o o o o o o o o o o O O O O O O O O O O O O O O O O O # O # O O # # O O O O O O O O O O O O O O O O O O O O O O O O o o O O O O o O O O o O o o O O ",
"O O O O ; O O O O O O O O O O O O O O O O O O O O O O O O O O O O O O O O O O O O O O O O O O O : : : : : : , , # # # # # : # : O O O O O O O O O O ; O O O O O o o o o o o o O O O O O O O O O o o o o O O O O O O O O O O O O O O O O O O O O O O O O O O O O # # # # # # # # O O O O O O o o O O O O O O O O o o O O O O O O o o o O X o X o o o o o o o # # o O o O O O O O O O O O O O O O O O O O O O O O O O O O O O O O # # # # # # # # # O # # # # # # # # O O O O & & O O O O O O O O O O O O O O O O O O O O O O O O o o O O o O O O o o O O O O O O o o o O o o O O O O # # # # # # O O O O O O O O O O O O O O O O ; ; O O ; O ; ; O O O O O O O O O ; ; ; O ; ; ; ; O O O ; ; ; ; : : : : : : : : ; ; : ; : : : # # # # O o o o o O O O O O O O O & # O O & O O O # # O O O O O O # # # # # # # # # # O O # # # # O O O O o o O o O # # # O # # # O O O O O O O O O O O O O O O O O # O O O O O # # # # # # # # # O O O O O O O O O O O O O O O O # # O # O O # # # # # # O O # # : : : # O O O O : : # # O O ; ; : # : : O ; O O , , , , , , , , ",
", , : : : : : ; ; ; ; O ; O O ; O O O O O O O O O O O O O O O O O O O O ; ; ; ; O O O O O O O O O O O O O O O O O O O O O O O O O O O O O O O O X X X X X X X X O O O O O O O O O O O O O O O O O O O O O O O O O O O O O O O O O O O O O O O O O O O O O O O O & # & & # # # # O O O O O O O O O O O O O O O O O O O O O O & & & & O O O O O O O O & O & & & & O O O O O O O O & & # & # # # # O O O O O O O # O O O O O O O O O O O O O O O O # # # # : : # # : : : : : : : , O O O O O O O O O O O O O O O O O O O O O O O O # & & & O O # & # # # & # # # # O O O O O O O O O # # # & O O O O O O O O O O O # # # O & # # # ; : O O : : : : O O O O O O O O O O O O O O O O : : # # O ; ; ; O O O O O O O O O O O O O O O O O O O O O O O O o o o o O O o o O O O O O O O O O O O O O O O O O O O O O O O O O O O O O O O O O O O O O O O O O O O O O : # # O O O O O O O O O O O O O O O O , , , , , , , , , , , , , , , , , & & & & & # # # # & O O O O O # # # # O O # # # # # # O # # # , , , & & & & , , , , & & & & , : : : : : : : : O O O O O ; O O ",
"; ; ; O O O ; ; O O O O O O O O o O O O O O O O O O o O O O O O O O O O o O O O O O O O O O O O ; O ; O ; O ; O ; O ; O ; O ; O O O O O O O O O O O O O O O O O O O O O O O O O O O O O O O O O O O O O O O O O O O O O O O O O O O O O O O O O O O O O O O O O O O O O O O O O O O O O O O O O O O O O O O O O & & # # & & & & < < & & & & & & & & & & & & & & & & & & & & & & & & & & & & & & & , , : : O # # # O # O # O # O , & , & , , , & O O O O O O O O # # # # # # # # # # # # # # # # # & # & # # # # # # # & # & # # & & & & # & # & & & & & & & & & # # & & & & & & # O # O O O O O # # O O & & & & O O O O O O O O O O O O O O O O : : ; ; O : : : O O # O # O # O : : # O # ; : O # O # O # O # O # O # O # O # O # O # O # O # O # O # O # O # O # & & O # # # # # # # # # # # # # O # O # O # O # O # O # # # # O O O O O O O O O O O O O O # # , , , , , , , , , , , , , , , , 4 , , , , , , 4 , 4 , , , , , , , , & & & & & & & & & & & & # & & & , & , & , & , , , & , & , & & & , & , , , , , , & & & & & , O O O O O O O O , , , , , , , , ",
"4 , , , , , : ; O ; O O O O O O ; ; O O O X X O X X O O o o o # O O O O O O O O O O O O O O O O O O O O O O O O O O O O O O O O # # # # # O O # O O O O O O O O o o o O O O o o o o o o o o o o # # # # # # # # # # # # # # # # O O # # O O # & O O O O O O O O # # # # # # # # # # # # # # # # O O # # # # # # & # # # # * < 1 * 8 t 0 * * * * * * * * % * * * * - * - * + + + * * * * * * * * , , , , , < < < , , , & # & & , # # & & , & , & , < 1 < # # , < & * < < < < < 1 < < < < 1 < 1 1 < < < < < * < < 9 1 < * * * < 1 < < < < < 9 w i w p p 0 w p w < 9 9 < * * & # # & # # # # # : , # , , , , , , , & , , , , , , < , , , , & & & & # # & & & & & & , # # # # , , , # # # & # , , , , & , , , , , , , < , , , , , , , , , , , , , < # & & & & & & & 1 # & < < , , & # , < < @ # < * # # # # # # # # o : : o . # : # & & & O O & , 4 O # , & & # O O # , , O o # , # # , , , , , , , & & & & & * * * * & * * * * & & * * * * & & & * & * & * & * * * & & & & , 4 < * & * & & & & & & & & , 4 , ; ; , O # & & & , > , , , , , , , , , , , & , < < , & ",
"3 3 3 2 2 4 , : , , , , : O ; : O O ; 5 5 O O X + & & & & , & # & & & & & O O O O O O O O O ; O O & O O O O O O O O O O O O O O # # # # # # # # # # # # # # # # # # # # # # # # # # # # # # # # & # # & # # # # # # # # # # # # # # # # & & # # & & & & & & & & # # # # # # # # # # # # # # # # # # # # # # # # # & * & * * < 1 p p p Z A A Z f f d a p y 0 0 0 0 0 9 8 6 6 9 0 0 9 9 8 6 7 * * < , , & # & # # , , , , , & & & & & , * , * < < < 4 3 w 3 < o . * * * * < < < < < < < 1 1 8 8 1 9 9 9 0 0 w p p p p w w e e e w C C D F L F D Z D C p p m p e w p 0 0 e p p p w < , , , , , , 4 , < < < , & & # # # & , , : : : & & & O # # # # # & & & & & & & # # : : # , , , , , , , , , < < < < < < < < , , < < , , , , , , < , , , , < < < < < < < < * & & 1 * < < < , < & w < * * < 9 8 # 9 3 < < < < < < < < , < < < < < # & 4 < 4 & & & & * 4 4 * & 4 4 & , < < , < , & & , < < < < < < < = = = 1 1 9 9 9 9 9 i i p p p i t t 9 1 9 9 9 9 1 1 1 1 1 1 1 4 4 4 4 < < < * 9 1 1 < < < < * * * & , , , ; , < 4 * * # # # # < < < < < * & & < < < < 1 1 1 1 ",
"w 3 3 3 3 3 < 4 , , , , , , : # O O 5 & & O & & + & * # # < < & 4 4 4 & , , & & O O : : ; ; # # O O & & & O O O & O # # O O # # : : : : : : : : # # # # # : : # # # # # # # # # & & & & & & & & , & & & & & & & # # # # # & & # & & & & & & & & , , , , , , , , & & & & & & & # & & & & & & & & & & & & & & & & # & < < < < 8 9 0 y p D I I A C Z C f d d d d d C f C f f f C Z A A A Z f p p p w 9 8 < < < , * < < < < < < , * & * < < < & < < 1 < 9 p L P L M 0 0 w w w 0 0 9 0 0 0 0 w 0 w w w w 0 9 9 8 9 w p p p m Z D Z C e p m Z Z Z C m F m p Z D C m Z D Z C C Z C m e w 1 < < < 4 4 2 2 2 < < < & # # & & , < < < 4 , , , , , , , , < & & & & & & & & & & & , & & & & , , , < < < < < < < < < < , , , < < < < < < < < < < < < < < < < < < < < < * & & < < < , * < < < # & , < < * 8 9 # * * * < < * * 9 * * 1 9 * # * 1 1 4 * & & < 1 < * < * < 4 3 i 1 < < 1 1 < < < < < 1 1 1 1 1 9 9 9 9 9 9 i i p i i i i i i i i i t 9 9 9 9 t i p p p i i i i i i i i i 1 1 1 4 * * * * < 1 9 9 9 * & , , , , , 4 4 * * * * > # & * # # # + # + * * < * < * 1 1 ",
"< < < < 3 1 3 1 < < < 4 , & , & # 5 5 O X X X % * = * * * < 1 1 1 4 4 & , , & & O O : : : : : : & & & & & & O O & & & & & & # & : : : : : : : : : : : : : : : : # # # # & & & & & & & & # # # # & # & & # # # # & & & & & & & & & , , , , , , , 4 4 4 4 4 4 4 4 , , & & & & & & & & & & & & & & , , , , & & & & # & < 1 < 9 w p 0 f P _ I A D A P L L L P I _ _ _ [ { { {  .[ [ ` ` [ [ _ P D C p p p w w w w 0 < 1 8 8 8 8 < < * * 1 < * * < 9 * * # * p L } 6.I I Q Q Q Q I I ! ! ! ! Q Q Q Q P L D C p w w e w p m Z D F L P C C m m C Z F L Z Z Z F D C m Z C C C Z D D D D m w < < < < 2 3 3 2 < < < < < * # # + # & & & & & & & & & & & & , , 4 4 4 4 < < & , , , < , & & , , , , , , , , , , , , , , , , < < < < < < < < < < < < < < < 1 < < < < 1 1 9 9 * < , & 1 1 < < 1 p D L H p d L [ I Z a p Z L ` I P P ` I J Z Z p i 9 1 1 1 1 1 < < < 4 1 1 i p P Z p p p p p p a a a a a p a Z Z Z Z Z Z Z Z Z Z Z Z Z Z Z Z Z H Z Z Z Z L L P H Z Z M M Z M Z Z H L H D Z Z Z M M M p p i w 0 i 9 1 3 2 , , 4 & * = 9 0 p m e w 9 9 9 9 9 9 9 1 1 1 < * * & * ",
", & , 4 < 4 1 4 w 1 < < < * * & # & & & & & & - = - = i 9 * + # 1 1 4 & & & & & & & , , , , , , & & , , & # # # & & & & & & & & : : : : : : : : : : : : : : : : # # # # # # & & & & # # # # # # , , , , , , , , , , , , , , , , , , , , , , 4 4 4 4 4 , 4 4 4 4 & & & & & & & & & & & & & & & & & & & & & & & & # * < 1 0 p M Z C Z D Z f a Z H p p a p p a p p Z Z D D D H J L J J L I  .[ P Z C C p p p p p 0 9 8 8 8 8 8 8 8 * 1 8 8 < = 8 0 p i 8 * * = p D L L L P P P P P [ [ [ [ ! ! ! ! L L D Z m m M C m Z D D Z Z L I I L D C C Z L L L O.q.O.Q P L L L P I I L Z D D D i < , < 1 3 w 3 2 , < 1 1 w p i 9 1 * * < < < < < < < < < < < < < < < < < < < < < < < * < * * < < < < < < < < * * < < < < < < < < < < < < 1 1 9 9 9 9 9 9 w 9 i i w i i p M Z 1 3 < < i w 1 0 [ -.,.q.D.8._ I ' <.<.<.<.` J g J ` $.) K K I J L Z m M D Z p 9 i i t 9 0 9 p p I J H J J J H J I I J J H f f Z M Z Z H H Z Z M i p p M M Z Z Z Z Z Z M M Z Z Z L H H H H H H H I I !  .{ ;.-.-.Z.Z.V.4.[ D p t t t i w 3 , , 4 * 1 a Z J _ [ P D C a p p p p p p p p i 8 * = 8 ",
"3 1 < * 4 * < * 1 < * & * * * & & < w p m a a a I I  .w.q.I p 1 1 1 4 & & & & & & , , , , , , , , , , , , & & & & & & & & & & & , , , , , , , , , , , , , , , , & & & & & & & & , , , , , , , , < < < 4 < < < < , , , , , , , , 4 4 4 4 4 4 4 4 4 4 4 4 4 4 4 4 < , & & & & & & , , , , & & , , 4 4 & & & & & & & * 1 w p C Z Z C y * - 8 p a p a p p p a f C Z 0 0 6 * = 0 p C p a Z L ` { [ I P J D C d a p y 0 0 0 0 9 0 0 0 0 0 9 9 9 0 0 0 p Z L Z p 6 8 0 0 w w i i p p i i i i i p p p p w i p p p m D L L L L Z p p p M Z C p p 0 9 8 8 w L { P D L L D L I I I L D D D D i < < 3 w w n 3 < < 3 w 9 p H I H a p i t t w 9 9 w 9 9 9 9 9 1 1 1 1 1 1 1 1 1 1 1 1 1 1 1 1 1 1 < < < < < * < * < < 1 1 1 1 w 9 9 9 w 9 w w p p p i p p p p Z Z M M Z Z H L w w < < w = - a ,.J.D.D.G.g.<.<.u.F..X%X%XT.g.<.) <.g.<.$.<.u.1.8. .D Z L P I J D Z Z f p p p y y g I $.<.9.f.9.f.<.<.<.' K J I Z Z L L P L L L P P P I ! ! ! ! { { ! ! P P P P Z Z Z H H H H Z a M H H P U I I  . .{ { [ I D C t 9 w w 3 4 , 4 1 a J U ` `  ._ I L D C C f C p Z Z Z C p p p p ",
"M i 1 * * * * * & * * * 4 1 < & * 1 w p Z P I  .I I I  .,.,.d + 1 4 4 & & & & & , , , , , , , , , , , , , , , , , , , , , , , , , , , , , , , , , , , , , , , , , , , , , , , , < < < < < < < < < < < < < < < < , , , , , , , , 4 4 4 4 < < < < < < < < < < < < < < < < < < < < < < < < 4 < < < 4 4 < < * & & & & < 9 m D D Z m p 0 8 8 p p p p 8 8 8 8 9 0 p p p p p i i p C D p C Z D H L [  .{ ` I J A Z f s d a d d d d d f f a y y y y y 0 8 y C J A f p y i i p p p p i i 9 9 9 9 0 0 0 w 0 w p p m C D L Z C p p i 0 0 0 i i w 0 0 9 8 1 X # * < 1 8 9 9 8 8 p C L { X.X.M w , < w n w 3 < < 9 i i i a P J H Z Z Z H Z Z p p m p p p p p C C C C C C C C m p p i i i p p i i i t w 9 9 9 i t i t i i i i p p p p p p m a M M M M M M M M Z Z H H H H Z M 1 w * < 9 * 6 ,.Z.%XXXl.g.u.<.F.z.z.z.g.u.g.F.T.` $.$.$.` ` ' $.8.{ L Z D I ` { I I J Z C f d f g ' 1.<.<.g.D.f.f.1.f.g.f.<.' <.I ! ! ! ! ! ! ! L H H Z Z Z M M H H Z Z Z M a p a M Z Z H Z Z Z t t i p p a p a t y a Z J J I I f p 9 w w 1 4 & i H ` I K ` ` ` 4.{ _ I _ ` I I P I L L J J C f ",
"Z p t 4 * * * * * & * 9 i p t 1 * - * = t Z ` r.r.9. .J 8.J.,.6 1 1 < & & & , 4 & , , , , , , < , , , , , , , , 4 4 4 4 4 4 4 < , , , , , , , , , , 4 4 4 < < < < < < 4 < < < < , , , , , , , , , , , , , , , , , , , , , , , , 4 4 < < < < < < < < < < < < < < < < < < < < < < < < < < < < < < 4 1 < < < < * * & < w Z P L Z i * 8 p p p p 0 8 p p 0 0 9 9 9 9 p p p p p 0 0 0 p C Z p p p D `  .` I J J J A A Z A A J J J A A J Z a p a a y 0 f a f J ` { I A i i i w w w 9 9 9 9 9 9 0 0 w w 0 0 w 0 9 9 9 9 p 0 9 0 p p p w 1 1 9 9 w p m C p 9 9 p p w 0 p p 0 0 p L I L Z i 1 , < w i 3 < < 1 i M p t a J J J I :.9.Z.Z.Z.Z.Z.Z.q.q.q.r.6.[ [ [ [ [ [ [ [ L L Z Z M Z Z H Z Z Z Z Z Z Z Z H H H Z Z Z Z Z M M M Z Z Z Z Z Z Z M M M Z Z Z a Z L P P H Z a 1 w 1 1 0 * f  X X-XY.K ) ` J K J J J g s s s g ` J g J g u u g f Z I ` I J J J I J J Z f Z Z J I ,.<.g t a a t u y a J J f f J H Z M a p p M M M M M M M a p p a M M M M M a p p p M Z Z Z Z M Z a a a a a a p H H H J J J I I ` Z i w i w 4 X a U :.) ) ) ,.8.{ ` I I _ ` ` ` { { { { { ` J Z ",
"a p 9 9 9 9 9 t t = 9 p a p t p i 9 9 9 a J `  .{ 8.8.G.d.Y...p w i 4 * < & # 1 4 & , , , , , < , , , , , , , , , , , , , , , , , , , , , , , , , , , , , , , , , , , 4 4 4 & & < < < < < < < < , , , 4 < < < < < < < < < < < < < < < < < < < < < < < < < < < < < < < < < < < < < < < < < 4 4 4 4 4 < < < < & * * * w P { L p 9 p p t 9 9 9 9 t i i t 9 1 1 1 1 t 9 t a M p i i a Z P P Z a a f J K K K K ( ` ` K ( ` ` ` ` ( I J f a f a 0 6 0 * a I I J L I _ D p 0 w i 0 9 9 0 0 0 w w 9 9 8 9 9 1 9 w i i i w 9 9 9 i p p p 9 9 9 1 1 1 9 9 i 9 1 9 i p i 0 C 8 p C p D D Z w 3 < 9 n n c 3 9 w w Z Z p J :.T.T.T.T.K.Z.9.8.d.2.[ { q.Z.q.2.P I L H D L ! { P P P P P P P P P  . .P P H L ! L L L P P P P P L P P P L Z Z M Z Z Z Z Z Z Z Z Z H -. .r.J H i i < 1 1 8 + J T.>X<.g ) ) ) J s J g s s f g g f J g g g A g f d C Z Z Z f Z J ` J J J J J I ` { Z.I y y f J J Z I f 0 0 f Z a 9 p p p p p a M M M M M M M M M Z Z Z Z Z Z Z M M Z M a a M M Z Z a a a f H H f f I I K Z f g K ` ` ` a 9 m w & & 9 I $.$.<.$.` f 0 p J I I L I ` ` I I ` { { ` I ",
"P P H Z a t = - - = p P I Z t 9 = t a H ` ` P H f Z J f.f.G.<.` M M w < * & # < , , , , , , < < < < < < < < < < < < < < 4 4 4 < , , , , , , , , < < < < 4 4 < < < < < < < < < < < < < < < < < < < < < < < < < 1 < < < < 1 1 < < 1 1 1 1 1 1 1 1 < < 1 1 1 1 1 1 4 4 4 4 4 4 4 4 4 4 1 1 4 4 4 4 4 4 < 4 4 < * * # < m { q.{ C 8 9 9 9 1 1 1 9 9 9 9 9 t t t t t - * t M H M i t 1 9 i Z L P L C f s f J J K _ ' ..<.,.<.,.<.....I I J Z d a y 0 0 a f f f C Z C p p 0 p p p w w 0 0 i i w 0 9 8 9 9 9 9 w w w w 9 1 1 9 9 i i w 9 9 9 9 9 9 9 9 i 9 1 9 w i i w p 9 d p p Q Q m 3 1 3 w m m c 3 D D p f f f :.f./.G.f.<.` H f Z I L D D L P L L ! I P H Z C C C p p p p a a a a i p p p L H M M L L L L L L L L L Z M M Z Z Z M p p p p a a a M a a P P -.P H a w 4 < 8 9 - ..R.&.J ] $.J g j j y a f Z Z Z Z f A Z Z Z Z A Z f f Z Z Z f Z Z J { ,.,.,.,.,.8.8.J f p p Z C p y 8 p L J p 0 p C p p M Z Z Z M M M M Z Z M M Z Z M M Z Z Z Z Z Z H Z M M Z Z Z M Z f f f H H Z Z I I J J J J J J $.` J a m w * & t :.f.l.1.g 0 - y f D J Z f p a Z Z f f f Z Z C ",
"Z L I !  . . .I ! I { r.-.P Z Z H P  .-.-.I a 0 0 = 0 K K ' ` I L P m * & * & 4 < < < , , < < < , < < < < < < < < < < < < < < < < < < < < < < < < < < < < < < < < < < < < < < < < < < < < < < < 1 1 1 1 1 1 1 1 1 1 1 1 1 1 1 1 1 1 1 1 1 1 1 1 1 1 1 1 1 1 1 1 1 1 1 1 1 1 1 1 1 1 1 1 1 1 1 1 1 1 1 1 1 1 * * * 1 p P { [ C 0 = = 1 1 9 9 9 9 t i i i i i 9 9 1 = 1 9 i p p M p t 9 9 i M Z Z Z s f Z Z f Z J I I I I I I I I Z I I J J `  .I J Z f a a f a p p p w p p p i w 0 0 w w w 9 9 9 w 9 9 9 9 9 9 9 1 1 1 1 9 9 1 1 9 9 9 9 9 9 9 9 9 9 9 9 9 w i p 0 e C 0 p { W w < 1 w n N m w 3 P P p a f H <.f.K g y t y p a C Z M M p i i p M 1 1 1 1 1 * - * = 1 1 9 9 t 9 9 i i 9 9 p p t i * * = = = = 1 1 9 * * + % * * * 1 1 1 9 9 t i i = - 9 p H a p i w 4 < 8 0 7 f.@X] ( ] ` k g g f 0 p Z D D C C C D D C C Z D D Z f Z Z Z C f f Z C Z J J J D Z Z a p Z D D p 0 8 9 p D L Z p p p p a M Z Z Z M M M M Z Z Z M M Z Z Z Z Z H Z Z Z H Z Z Z Z Z Z Z H H H Z Z Z H H J J J P I P A g <.$.:.P p 1 4 * a :.<.<.K 6 y d { I H f p f Z H I I I I J J I I ",
"P I I P P !  .;.2.{  . . . .r.Z.t.w.r. .I Z a 0 p t p H J ) ' ` P ! M & & < < < < < < < < < < < , , < < < < < < < < < < < < < < < < < < < < < < 1 1 1 1 1 1 1 1 < < < < < < < < 1 1 1 1 1 1 1 1 1 1 1 1 1 1 1 3 1 1 1 1 1 1 1 1 1 1 1 1 1 1 1 1 1 1 1 1 1 1 1 1 1 1 1 1 1 1 1 1 1 1 1 1 1 1 1 1 1 1 1 1 1 1 4 * 1 9 M ! { D i 0 = = 9 9 t i t t p i t t 9 9 9 9 i 1 * * = 9 i a Z Z M i 1 1 i M Z Z Z f p a p a p a a a p a p a p f Z Z I { ,.,.I J f a a f a p p p p p p p w 0 0 0 w w w w 9 9 9 9 9 9 9 9 9 9 1 1 1 1 1 1 < < < 1 1 9 9 9 9 9 9 9 9 9 9 w i p p p C 0 p Q m * < w n m N n w 1 D P H J I ` <.) K H s f H D Z Z M M M p 9 9 i p i i i i p a p i 9 9 9 9 9 9 9 9 p M p 9 9 1 1 p p p p p p p p p p p p i 9 1 9 i = 1 1 1 9 9 t t i 9 t Z I P Z a i 4 < 9 9 6 A.R.y.&.] J g g f p D D D Z C C Z D Z Z C C Z Z Z Z f Z Z Z f f f f p a f f f a a p D D D D Z M C Z D M p M L P D p p p p p a M Z Z M Z Z Z Z Z Z Z L L L H Z Z M M Z Z M Z Z Z Z Z H H H H H H J J Z D A J L J J Z $.$.<.{ i < 1 * Z  .J g s d _ s.J f 0 6 6 t a f y p a p 0 9 t p ",
"D D C p p p M C C C D D H D P I  .I L H Z Z Z M p p f a Z ` 1.' ! ! m & & < < < < < < < < < < < < < < < < < 3 3 < < < < < < < < 1 1 1 1 1 1 1 1 1 1 1 1 1 1 1 1 1 4 4 4 4 4 4 4 1 1 1 1 1 1 1 1 1 1 1 1 1 1 1 1 1 1 1 1 1 1 1 1 1 1 1 1 1 1 1 1 1 1 1 1 1 1 1 1 1 1 1 1 1 1 1 1 1 1 1 1 1 1 1 1 1 1 1 1 1 1 = * * 1 L Z.d.C 8 0 1 1 9 i i i i i i w 9 9 9 9 i i 1 1 1 1 1 1 1 1 1 p Z D M p i p 0 a C y w f C y p a p p p p p a a t p a a a a Z a a p p p i t t p p w 0 w w w w w w w w w w w w 9 1 1 1 w i w 9 1 1 1 1 1 1 1 1 4 1 1 1 9 9 9 9 9 w i i 9 9 i p p p p p Z D 9 # w i m m N n w 9 f I ` <.f.<.<.J ' K J J L D C M m p i i 9 9 9 w i 9 1 1 9 9 1 1 i i w 9 9 w i i 9 i w 9 w 9 9 p i i i i w w w w 9 9 9 w 9 9 1 < w w w w i i i i a p p P  .{ L M i 1 < 0 9 6 P.P.] &.' ( A Z f a Q L Z C C Z Z Z M M m m m M Z C f f C a a f C Z C Z Z Z Z Z D D H M p p M H I  .H Z Z Z M a M Z p p p p M Z Z H Z Z Z Z Z Z Z Z H L L H Z Z Z Z P L Z Z Z Z Z H Z H J L P P L L A A L A A A I ` $.$.1.:.i * 1 * Z -.` K _ ` ..P = - = 9 t t 9 = t a Z a p t p a ",
"p p M p i p p p p p p p t 9 9 t t t a M M M M m i p f t y J <.I  .! m * & < * * 1 1 < < < < < < < < < < < < < 3 < < < < < < < < 1 1 1 1 1 1 1 1 1 1 1 1 1 1 1 1 1 1 4 4 4 4 4 4 1 1 1 1 1 1 1 1 1 1 1 1 1 1 1 1 1 1 1 1 1 1 1 1 1 1 9 9 9 9 1 1 1 1 1 1 1 1 1 1 1 1 1 1 1 1 1 1 9 9 1 1 1 1 1 1 1 1 1 1 1 1 4 * = 1 Z 3.{ p 8 p 9 9 i i i i 9 9 i i i w w i i i 9 9 9 1 1 1 1 1 < 4 1 i M M p i * p p 0 w p p 0 m p m p m p m p M t t p p = = 9 t t t i t 9 9 t i p w 9 9 w p p i i w w w w i i 9 1 1 9 i i i w 9 9 9 9 1 1 1 9 1 9 w w i i i i 9 i i i 9 w i p M 0 p C L D < 9 i m B B N n c 9 f K ` f.g.<.<.` g a y 0 p p m m m i i i i i w 9 p i i 9 w i i w i i w 9 9 9 9 w 9 w 9 i Z Z i 9 p i i i i i i i p 9 1 i Z L p < w w 9 9 w w i i 1 9 1 a H  .Z 9 9 1 < 0 9 6 R.g.y.y.( A P L Z Z D Z Z C D D Z p m p C p m p M C C f a p a C C Z f f f f a C Z Z H a i p a a Z H Z Z H Z a a a a p a M Z L H Z Z Z H H H Z Z Z Z Z H L P P ! ! ! ! P L H Z Z Z Z Z D J I I I I P P P P A A L  .<.$.$.1.` p < < < i  .` _  ._ F < 8 = 9 t p p p 9 9 p a a i t t p ",
"D P P Z p p p w i w 9 9 w p C M 1 t i a M M p p D M L a H J <.:.! P p < 1 < < < 1 1 1 < < < < < < < < < < < < < 2 2 2 < 1 < 1 < 1 1 1 1 < < 1 1 1 1 < 1 1 1 1 1 1 1 1 1 1 1 1 1 1 1 1 1 1 1 1 1 1 1 1 1 1 w w w 1 1 1 1 1 1 1 1 w w w w w w w w w w w w w w w w 9 9 9 9 1 1 9 9 i i 9 9 9 1 1 1 1 1 1 1 1 1 1 4 9 1 9 i 0 6 9 p 9 9 i w i i i w w i i i i i 9 9 p p i 1 < 1 w i i 1 < * 1 w i i 1 9 i p p w w 9 i i p p p p i i p p i p i i i i i t i p p i i i w p p 0 0 i p i p p w w w i i i i w 9 9 i i i w t i 9 9 1 1 i i i i i i i i i i w i i i i i i w p e p C P Z < w m N B S B N v 9 f k J <.1.` $.' K Z f a p w w n i i i i p p i i 3 3 3 3 3 3 i i w w w w w w w w i i w i D D i 1 w w w w w w w w p w 1 w m M p 1 9 9 9 9 w w 9 9 9 p 9 p Z 2.L 9 1 3 < t 9 0 R.g.z.y.J f I L Z D p a M Z Z Z M a p a M a M a M M C M M M M Z M C M M Z M M M Z Z H a a a a t p a Z a a a H H a a Z Z H L L L Z Z H L L L H Z H H H L L P P ! ! ! P P L L P L L Z J L L P I I I P P P I P P P [ { %.y.1.` Z 9 * < 0 P P P L C e < 0 9 1 1 1 9 t i i a M a p i p M ",
"M D D p w p m p p p p p p m p t a a a i p m M M M t M a P H <.t.P Z w 1 w 1 < w 1 1 1 1 < < < < 3 3 3 3 3 3 3 3 3 3 3 3 3 3 3 1 1 1 1 1 < < < 1 1 1 1 1 1 1 1 1 1 1 1 1 1 1 1 1 w 3 3 3 3 3 3 3 w 3 w w w w w w w w w w 3 w 3 w w w w w w w w w w w w w w w w w i i i 9 9 9 i i i i i i 9 9 9 9 i i w w t 9 1 1 1 9 1 * - 9 8 - w w w i i i i i * * 9 i p i i 9 i M M M i t 1 * w p p p 9 1 w i 9 < 9 M Z w 9 p i i p m m p i i i p a i i a a i p i t p p p i i p p p p w i w 9 p p w w w i p p i i i i i i w 9 9 w i 1 1 9 i p i t w 9 9 9 i t i i i i i i 9 9 p p p p L C * 9 m N D D D B n 9 f g k <.f.) <.<.f a a a p w p m 3 3 i i i i i i i i m i i 3 w i w i p m m m i i w i w w i i i m i i w w w w w w w w w w 1 1 w i w w w w w w i i i M 9 t p 3.L 1 w i 1 p 9 0 R.y.g ] ] _ I p i L a M Z Z M a a Z a a Z Z M a a M M C Z Z Z Z M p M M M M M M M a a a a M a a M H a a M M a M H L P L L Z Z Z Z Z H L L L H Z H H H Z Z Z Z M M M M Z L P P P L H I I L L L L P I P P L P P I I J 1.l.1.I L i & 1 p `  .{ P w 8 9 8 9 t i i i 9 9 p p p i i i p a ",
"p p p p p p p p p p 0 p p p p p i a a a a a a M M a a p J <.:.9.H Z i 1 1 3 3 3 1 1 i 1 < 9 < 3 3 1 1 1 3 3 1 1 3 3 3 3 3 3 3 3 < 1 3 1 1 3 1 < 1 1 1 1 3 3 1 1 1 1 1 1 w 3 1 1 w w w w w w w w w w w w w w w w w w w i w w w w w w w w w i i i i i i i i i i i i i i i V i i i i i i i t t i i p i w i i w 9 9 9 * p i * 9 i i 1 i p t a Z p 9 p M C p 0 t p p p p p p p p m m m i w p p i p m m M p w w p m p p p m m p p p p p i p i p i p i 0 p p p 0 t p 0 0 i p p p p p C p p p p p p p 0 i 9 * - 9 t t 9 t t t t t t 9 9 t t t t 9 t t t i t i t i t i t y a p C P p * p m Z Z L { L n p a f K Y.K.:.,.I a p t t p M Z Z D D Z M p i i i p p p p M M M m M m p i p m p w p M Z p i i i i i i w 9 1 9 i m 9 9 9 9 9 w w w i w 9 9 i p p m 1 M 9 i M 3.D 9 i i w p 6 A Y.] ] ( ( ( s u p a Z Z Z Z Z Z Z M Z Z M a a Z Z H a M H H M M M M M Z Z H H M M p M a a a a M M M M M M M M Z H H M M M H H M M M M M Z H H H H H P H H Z H H Z Z Z Z Z Z Z Z Z Z L L L L P I P L I I _ I I I I I $.F.l.{ L w * 9 a ,.{ ,.a 9 9 0 9 9 p p p p p i p p p p p p p p ",
"p p p p p p p p p p 0 p p p p p a a a a a a M M M Z a a J :.<.1.U ^ i 1 3 2 3 3 3 1 i 1 9 w q q 3 3 3 3 3 w w w 3 3 3 3 3 3 3 3 1 1 3 1 1 i i i 1 3 1 1 w 1 1 1 1 1 w w w 3 w w w w w w w w w w w w w w w w w w w w w i w w w w w w w i i i i i i i i i i i i i i i i i i i i i i i i i i i i i V i i p i w 1 1 1 1 p w 4 i i p 0 9 9 9 t p p p p C C p p p p p p p m m m m m m m m m M p p p p p p p w p m C m p p p p p p p p p p p p p p p p 0 p p p 0 0 p 0 p p p p i 8 * % p t 0 0 t p t 0 p 9 * - = 9 i i i i t t t t i t p p i i t p p p p p p p p p p p 0 p p C L p * t p C Z L { L p p a j { Y.K.,.:.J Z a a Z H H Z a D D D D D D D D Q L L Z Z M m m m m p i p M p i i m M p i p p p w p M M m i w 9 9 9 w w w w w w i w 9 w i p p p w m 1 p M P i 9 w w w p 6 K T.y.] J J ( g f Z f p a a M M Z Z Z Z Z Z Z M a p p M Z Z M p p M Z M M M M M Z M M M M M M M M M M M M M M M Z H H Z Z H H H H Z Z H H H H H H H L P H H H H H H Z H H H H H H H H L L L L L I P L L I I _ ` `  .' $.u.f.{ L p < * p { ` ' a 0 0 0 0 0 i p p p p p p p p p p p p p ",
"p p p p p p p p p p p p p p p a a a a a a M M M Z H Z f H ` 1.t.U H p w 3 3 3 3 q 1 i 1 9 v q w w 3 3 3 w w w w w w w w 3 3 3 3 w w 3 1 1 w i w w w w w w w 1 1 w w w w w w w w i i i i i i i i w w i i w w w w i i i i i i i i i i i i i i i i i i i i i i i i i i i i i i i i p i i i i i i i p i p p p i 1 1 1 t p 1 1 i i M p 1 9 p 0 i p p p p p p p p p p p p p p p p p i m Z D Z p p p p i p p p p m M m M m p p p p p p p p p p p p p p i p p p 0 p p p p p p p p p 9 * p p p p p p p p p i 9 1 1 9 i p i i i i i i i i p t i t t p p p p p p p a p p p a f C D L a 0 0 p M Z L { L m p a J ,.Y.D.,.{ Z a a p a a a p i i i p p p m m m M M m p i i i p p p p i p M m i i p p p p m m p p p p p i w w w w w i i i i w 9 9 9 w i p p i i p i 1 m M m 1 i i w w p 0 ` T.i.&.( J ( J J J Z f a a M M Z Z Z Z a a p a Z H P M M M M a M M M M M M a M M Z L Z Z Z Z Z Z M Z M M M M Z Z H H H H H H H H H H H H H L L L L L P H H H H H H Z H H H H H H H H L L L L L P P L P P I ` ` { ..<.` ) <.,.L p 9 * f ' I ` a t t 0 0 0 0 i i p p p p p p p p p p p ",
"p p p p p p p p p p p p p p p a a a a a M H M M a H Z f f I f.f.I H p w 3 q c 3 3 1 i 1 9 w 9 9 w w 3 3 w w w w w w w w w w w w i i w 3 w w i i w w w w w w w i i i i i i i i i i i i i i i i i i i i i i i i i i i i i i i i i i i i i i i p p i i i i i i i i i i i i i i i i p p p i i i i i i p a M p t 9 1 1 a M 1 1 i i L D 8 p D p 0 p 0 t 0 0 t p p p p p p p i i w w w p Z D C p m m p p p p p p p p p C C M m p p p m p p p p p p p p p p p p p p p p p t 0 p p C D D M p p p p p p p i i p p i i i i i i i i p p p p t t t t t t t p i p p p p p a a Z D H L L C p 9 p m Z L { L m p y J 8.F.8.` I a a p t t t t t t p p p p p p p i i p m m p p M Z p p p i p m m i m p p p p p p i p i w 9 9 9 i p w i i p p i w 9 w w w i i i i i p i 9 p M i 9 m m i p p y ) F.f.' ( J ( J J L H H Z Z Z Z Z Z Z L H Z Z a a a a a M M Z H Z M a M M M M M M M Z H Z H Z Z Z H H M M M Z H H H H H H Z Z Z Z H H L L L L L L L L L L H H H H H H H H H H H H H H L L L L L P I I I _ ` ` [ { ..<.) K <.r.L p w * Z { I ` a p p 0 0 0 i p p p p a a a M M a p p p ",
"C M C C a p p p p p p M M p p a M a a a M Z Z M a Z a H f K F.f.$.H p w 3 c w w 1 1 p 9 9 w 9 w w w w w w w w i i i w w w w w w w 9 i i p p i p i 9 9 w 9 i i i i i i i i i i i i i i i i p i i i i i i i i i i p p p p p p p p p p p p p p p p p p p p p p p p p p i i i i i i a p p p p p p p t p M M a p t 9 9 H H 9 9 p p P L 9 p L p 0 p t p p p p C C a p m m m p p p p p p m M p M D Z p M m m m p p p i p M Z Z m p p m p p p p p p p p p p p p p p p p i i p i i p M Z p p p p p p p i i p p a p i i i i i i i p p p p p p p p p p p p p p p p p a a a C Z D D Z D p 8 i m C L X.L m p a J p.f.` K H f M a p p a a a a M M M m m p p i p M Z Z M m m M p m p p p m p i m p p p p p p p w i i p p i w 9 i i p p p i w 9 i i i i t t i p i i i t p i i m m i m p a ' g.u.] ( ] ` J g J H J H Z Z Z Z Z Z p a Z H H Z a i p a M Z L L Z M M M M M M M M M L L L Z H H H H M M Z H H H H H H H M M M M H H L L L L L L L L L L H H H L H H L L L L L L L L L L L P P I I I [  .{ {  . .` ' ) ) 1.<.Z p w * J :.I ) a p p 0 0 0 p p a a a a C C C C a a p p ",
"C C C C M p p p M p M C C p p M a a a a M M Z M p Z a H f K G.t.:.H p 1 3 c w w w i Z p w p w i w w i i i i i i i i i i i i i i i i i i i 9 1 1 i i i i i i i i i i i i i i i i i i i i p p p p p p p p p p p p p p p p p p p p p p p p p p p p p p p p p p p p p p p p p p p p a a a p p p a a p a H Z a a t t 9 H  .a t Z Z P Z 0 t M i 0 M C p p p p C C a p m m m m p p p p p p p p Z D Z p m p m m m p p p i p Z Z m p p p p p p p p p p p p p p p p p p p 9 i a a p i p p p p p a M M p p a a p i i i p a i i i i i p p p t t p p p p p p p p a a a a a a a C D Z Z I I p w p M L X.W m p p J d.p.I J Z Z i p a M M a a p p p p i i i i i 9 w p p p i i i p m m p p p p i p i p p p p p m p p i i i i w 9 i i i p p i i w i i i i t i i p i p p 1 p p p m p w m p f <.f.g.` ) ' ' K A J H Z Z M Z H H Z Z H H Z Z Z Z H H M M M M M H L P a M M Z H H L L L L L L H H Z H M Z Z Z H H L L H H M M M M Z H L L L L L L L L P L H H L P L L L L L L L L L L L L P P I I I ` { { ,...{  .` ` ` %.9.I p i w * J ,.I ' f p p i 0 p p p M a a p C C C C C M a p ",
"f f f f a f f f C f Z D Z f a Z a M M a a M M Z a H a H f I T.1.:.L i 1 3 n n w w p P Z p n w m w i p V m p i i i i i i i i i i p i i i i 1 1 1 p p i i i i i i i i i i i i p p i i i p p p p p p p p p p p p p p p p p p p p p p p p p a a a p p p p p p p p p p p p p p a M M a a a a a a a a a H J H a a p t 9 H w.I f I I J a 0 i p p p p C p t p p C p p p p p p p p p p p C p p m Z C m m M p p M M m m C p p p m C C p p p p p p p p p p C p p p p p p p t p p M M M M M M a a M M M M p a a p i i p a M p i i i i i i i t t i p p p t t p p p a a a a a C Z L D D 4.q.L w p M L O.Q m m p Z Z.d.I J f J t i p a a p i i M m m m m M Z Z i i p m M M M m i p m p p p m p p p p m p i i m M m i w i i i i i i i i i i i i i p p p i i i i p p p 9 Z M H L m w m i Z 9.f.z.] ] &.y.' ( I Z Z Z Z Z H H Z a w.-.P a p p p a M Z M M a M L P M M Z Z H L L L L L L L Z Z Z Z Z Z Z Z Z H L L H H H H H H H H L L L L L L L L P L H H L P P P L L P P P P P P H P P I I I `  .{ ..,.,.<.{ ` ' $.u.<.a 0 p 0 * Z :.` ' f p p p p p p p a M a a C C C C C C M a ",
"f p p p a C Z Z Z Z D J Z f f Z a ^ H M a a M H Z L a J f I /.<.:.H i 1 3 n n w w m ! H p p w m i i m M M m m i i i i i i i i i i 9 w p m m M L M p p i i 9 i i i i i i p p p p i i p p p p m m p p p p m m p p p p p p p p p p p p p p a a a a p p p p p p p p p p p p p a M Z a a a a a a a a j J K H a a p t = Z D.r.J :.:.J 0 p p p M p i p p p p C C p p C m m m m m m M C D M m Z C p p C Z m m C C m m Z Z p w p Z D C p p p p p p p p p C p p p p p p p C p p p p M Z Z a p p p p p p p p i i p M M a p p p i i i i i i p p a a a a p p p p p p p a p p Z Z L D Z 4.V.L 9 p C L O.Q C m a f Z.Z.` H a J M M a a p a a M m p i i p m M Z p i i i p m p i i i p p p m M m M M M M p 9 w p i p M L L D M i w i i i i i i i t p a a p i i i a i p i I H ! 2.M i m 0 Z f.f.P.&.] <.u.<.' _ H J H H H P L Z a p p a Z Z Z Z M M M Z Z M M Z L H H Z Z Z Z H H L L L L Z Z Z Z L Z Z Z Z H L L H L L P L L L H P P P P P U U U P L H H P P P P P P P P P P P P L P I I I I  .{  .{ 4.8.<.,...:.$.l.' 9 9 p 0 * C { I ' a p p p p p p p p p C C C C C C C C C a ",
"f f f f Z Z Z C a f D P J f a a a H a a H H M a H a P J H I T.1.I H p i w 3 c n i Z I M p m p i m p i w i p p i p p p p p p p p p i i t i M L ! 9 9 t t i i i i i i i i i i i i a p p i i i p p M p i i p M M p M M M a a a M M M M M M M M M M M M M M M M a p m C C f f C C C f Z H Z Z f J K ) $.1.f.' a 9 9 = f r.d.D.<.:.t p p p p p p p p p p p p C C p p m m m p p M D P L Z m M C m m C p m m p p m C M M M m m m m C C C p p p p p p p p p p p 0 8 9 0 M M a a M M M M p p p p p p a M a a i t i a M p M i i M a 9 9 a t a p p a a t p p p p p a a M Z f a C M C I [ L i p Z I X.L m Z 0 I d.8.` J D Z p a a a M M M M p m m p M Z M i D m i p i 9 i M M m M Z Z p i i i i i i i 9 9 9 w w i M L L M i i i i w w i i p p p p p p p p p p 1 i 9 9 { V.V.m p w p Z ' f.F.u.J k g g ` I J L P P P H Z M a a Z Z H H Z Z a M M M M Z M M M L L L L H Z Z Z L H Z Z Z M Z Z L L L L L L P P H M Z H P I I I I U U I I I U L P P P P P P P P P P P P P I I I I I I I ` `  . .4.d.8.{ ' ,.,.' g.u.- p L Z 1 9 a :.` ' p y Z I C p p p p C Z Z Z C M C C C C a ",
"f C f Z Z Z Z C f p a C f p f H a L H a H H Z L H a H H f ` .XF.I H p i w 3 c n i Z  .Z p C p m * i m i 1 1 i M i i i i p p p i t i i i t 9 1 1 t t t i i i i i i i i i i i i i i i i i p p p p M p p p p a M M M M M M M M M M M M M M a M M M M M M M M M a a p a f Z Z Z C f Z H P J J J J K $.1.z.G.1.H t 9 9 a  .w.J.:.K y p p p p p p p p p p a p p p p p m m m p p M D L P D Z D D Z p i i p p p M Z M p m m m M C C C m C p p p p p p p 0 0 i 0 0 0 p M H M a p p p p p p p p p p p a a i M M a p a M a a i i M a i i p 9 p p p Z Z p a a a a a a M Z Z Z D Z p p [ { M i m Z Q O.L m Z p [ Z.8.I H Z f a a a a M M M M p p p m M Z Z p p p M L L m i i w 9 9 9 9 1 w m i w i p i w w p m i w i i p p i p p i i p M Z D Z Z Z M a p p a p 9 a i p 2.w.2.1 m Z M f ` g.I.] k <.y.` J A ` I P P P L H Z Z a M Z Z H Z Z Z M M Z Z Z Z M M L L L L H H H H L H H Z Z H H H L H H L L L P ! I I I I I I I I I I I I I I I U P P P I I P P P P P P P P I I I I ! I I I `  . .4.8.f.8.,.{ { <.F.J 6 H D i 8 8 Z -.{ :.a t p D p p p p a C C C C Z D D C p a C ",
"Z f f Z Z Z Z f f a a a p a f H a L H a a a M H Z a H H H I .XK.I L p w w w n V i Z ! Z p M p i w p p 1 * < i M i i i i p i i i p p M M M a i 9 i i i i i i i i p p i i p p p p i i i p a a a a p a a p p p M Z p a M M M M M M M a a a a a a M a a a a a a a a f C Z Z Z Z H H f f Z J I ` <.1.1.j.G.F.<.j t 6 t p P ,.K.I u f a p p p a a a a a C C p p p p C M C C m m C Z D D M M L Q L C p p m m p i m D L m m m C Z Z m p p p a p p p p p t p i i p p D P H M a i i p p p M p i i p a p p p M ^ M p p M M p p a a a p p p p p t t p t t p a a a a M Z Z Z p Z C p C r.q.D i p Z Q O.Q m C p { Z.4.I Z f a a a M M M M M M p p p p m M m i w i Z Q Q M w 9 w w i w 9 w m L M p M L L m p Z m p i 9 9 9 i i i i w w i m Z L H H Z Z a a a a p 9 p t t P H p < m D C f ` f.P.i.( ` <.` A f I P P P P L H H Z a M Z Z Z Z Z Z Z Z Z Z Z Z Z Z H H H L L L L L L L L L L L L L H H L L L P ! ! I I I I L L L P P I I I U L I I P P I I I I P P P P P P P P I I  .! I I I `  .{ <.,.<.d.<.` ..f.g.7 f { D 0 w 9 Z ,.{ :.a t p p p p p p C C C C C H I P Z p C D ",
"Z Z Z Z Z Z Z f H Z Z f a a a a a H M a H H a a a a P H H J T.F.I L m w w c n N m H  .Z p p 0 w Z M p i p M M p p p p p p p p p i i i p p p p p i i i i i i i i a a p p p p p p i i p a a a p p p p p p p p a M p a M Z Z Z M M Z M M a a M M Z M a a a a M Z Z L J Z Z Z H P I ` I J J I ' <.<.u.j.l.1.K f t 9 0 a I ` D.J t H a p p p a C C a a C C a p p a C C C C C C C Z Z m p M L Q L Z p m m p p Z I Q Q m p p m C C m p p p p p p p p p p p p p p C D P M M p i p p p p a i i i a M M a p p i t 1 / p M p M M p p M p i r.r.P a p p p Z a a a a M Z Z Z f f C C L q.q.L p p Z Q +.Q m m p ` q.{ J f a a M M M M M M M M m m p p p p i 9 i i p Z Z p i w p m M Z M M Z D Z M L { { Z p M p p m p i i i p i i w w w i p p p p p p p p p a Z a Z p a I a 9 i M m p Z <.f.u.i.k J J J J f H D H H H H H Z Z M Z Z Z Z Z H H Z Z H H Z Z Z Z Z H H L L L L L L L L L L L L L L L L L L P P ! H L L L H H H L L I I I L L I ! P I !  . .I I P P P P P P I I I  .! I I `  .{ -.<.,.<.,.:.' <.F.k 7 <.` D p i 8 f :.` ' a y p i p p p a C C C C C H I I D C C D ",
"Z Z Z Z Z Z Z f I J H Z Z Z f a H L a M !  .H a a M P H J J F.D.I L M w w n N N Z P -.H a C p p p p M L ! { H i i i i i i i i i i i t t t t i i p p p p i i i p a a p p p p a a p a p a p p p i p p p p M M a p p a M Z Z Z Z M Z Z Z M a Z Z Z M M M M Z Z H H P J J J J J K I ` ` ` <.<.f.f.f.1.i.u.$.J g a 0 8 C { P 8.I t J p p p p C C C M a p p C C Z Z M C C Z Z Z Z C M C C Z L L Z m p m p M I C.Z.Q i M p p p p m p p p p p p p p p p p p p p p p M M a p p p a a p i p i i i M M M M / 1 4 4 1 1 1 / i i i i p M p i w.r.P a p p p Z a a M Z Z Z Z Z I Z D P I I L p p p Z Q 6.Q m m p ` q.{ Z a p p M M M M M M M M M m p p p i i w m i w w i i i p i i p m M M m i M m Z P L p i m p m Z M m i i p i i p p p p i i t t t i i p p a a p a p H -.Z i m M m p D <.g.f.] k ` ) J J J J C Z H L L H Z a Z Z Z Z Z H H H H H H H H H H H Z H H L L L L L L L L L L L L L P L P L L P P P H L L H H H L I L P I U L L I ! I I ! !  .I P P P P P P P I I I I I I I  .{ :.,.,.,.<.' ' <.f.<.h ) F.a p m 9 8 f :.` :.Z Z C p p p p a M M Z D C D D H D D D D ",
"Z Z Z Z H H Z Z I P Z a f Z J H Z ^ a Z ;.3.P M H Z H f H J F.K.I L M w w n M M D I r.H a Z f Z M M M M M M a i i i i i i i i i i p p p a p p p p p p p p p p a a a p p p p a a a a a a p p i i M p p p M Z M p M M M Z Z Z Z M Z Z Z M a Z Z Z M Z Z Z Z H L L D J I I ` ` I K I ' <.f.l.l.g.f.( &.1.$.K J p 8 8 C 6.A  .` a Z p p p p C C C C C a p C D H D C Z Z Z Z Z Z C m M M Z Z Z m M Z Q { 6.6.O.Q Z i m m p p p p p p p p p p a p p p p p p p p p p a M M M M M p i t p i i p M M M M 1 1 1 i p i / 1 i / / i p a p p a a p t p p t a a a Z Z Z Z Z H L f D P D p i 0 p m C Q 6.Q m m C { Z.,.D p p p a a M M M M m m p p p p m p p m M p w 9 w i p p p i w w p M M p M p p p p i m M M M M p i w i p w i p p m p i i p p p p p p p a p p p 9 H { a 9 m M Z M Z ' F.R.u.] ] J A ` I J Z H L P P H Z M Z Z Z H H H H L L L L L L L H H H H L L L L L L P L L L L L L L P P P L P P P P L L L H H H H L L P I I L L I I I I I I I I P P P P P P I I I ! I I I  .{ -.,.,.<.8.<.:.<.f.<.) $.XXY.t p M 9 0 Z ,.` :.H J H a p p a a p p C Z D Z C C Z D Z C ",
"Z Z Z Z H H H Z Z Z f a a Z J Z a M a a L I L Z H Z Z a J H l.F.:.I M w w n B M Q { r.H a Z f Z H H M t 1 1 i i p p p p p p p p t t t t i i i i i i p p a a a a a a a a a a a a a a a a p p p p a p i t p a a a M M M M Z Z Z Z a a a a a a a M M Z Z H H P P P L P I ` { { <.,.l.l.g.9.$.K k j j ) &.) J J p 8 9 e 4.D I ` f f a p p p C C C a C C C C C C C C Z Z C Z Z Z Z m m p p M Z C Z L [ 6.6.I p 0 p Z p M Z M p p p m p p p p a a C C C p p M M M M M M M a a a p i i p p a M M M M M i i p M ^ M a M H p i a M a p a t a p p M a p a p a a M Z Z Z Z a p C C i 8 p p m m C I o.Q m m p { Z.4.D p p p p p m m p p p p i i i p p i p M M m i i p p p i m m p i p Z Z M m M m i i p M M M M p i w w i i 9 w i i p p p i p p p p p p p a H H Z p  .6.M 9 m M Z M f J g.#X(.*.` J J ` I P L L P P P H H Z H H H H H H H H L L L L L H L Z L L L L L L L L L L L L L L P P P P P L P P P ! I U H H H H H H P I I I I I I I P I I I I P P P P P P P I I !  . . . . .:.:.:.:.,.,.<.<.<.<.<.<.P.;X1.a C M 9 0 J <.` ` Z J H p p p C M p p p a I L Z C C D D D ",
"Z Z Z Z H J H H p p a p C Z C p p H H M M M M H Z Z Z a P H 9.t.:.I M w w N B M r.w.Z.I s Z f C p M M M Z Z M i M M M M M M M M Z a a i i i a a i t i p a a a a a a p a p a a a a a p p p p a a a p t 9 1 9 p Z Z Z M M M Z Z Z a a a a a a a a M Z Z H P P P P { [ ` ` { 8.Z.D.f.<.{ J s s H J k &.$.J g H C 0 p < { D I { f a a p p p C C C M Z D D C p p a C Z Z C Z Z D Z m L C m C Z C M M m p 8 8 i m m w p C D D m p p m C C C a p a p C C p p p p p p p M a p p a M M a p M M M M M M M M a M M M M H ! 3.L M H H a i a p a i t p t 9 i i p p a a a a a t p Z p - = p p M M C P O.Q m m p ` d.,.D p p p p p p p p p i i i w w i i 9 w p Z m i i i p p i i p p i i p p p p Z D m p m p w i i p p p p i i i i i p p p p p i t p i p p p a p a p t  .r.a 9 B m p p a A f.@Xi.) $.<.( J J :.P P L H H H H H H H L L L L L H L L L L L L L L L L L L L L L L L L L L P P ! ! P P L L P P ! ! ! I L L P I I U I I I I ! ! ! I I P P P P P P L P P P P I I !  . . .-.-.:.:.' ` f.<.' <.<.<.f.G.T.T.s H Z p 8 8 L r.I I f Z C t 0 p M C p p p p -.[ P D Z D L L ",
"H H H Z Z C C C f C C C C M M M M a M Z L L H Z Z Z I H Z J F.-.<.! M i w i L V.Z.8.I a a Z Z p a Z Z a p M p t p i i i M M a i p a M a p i i i p p p a a a a a M a m p p p M M m p m p M a M a a i 1 9 p Z Z M Z M M M Z Z M a Z M p i p a M Z Z Z Z L  .! { Z.8.Z.Z.d.w.w.,. .I ` ` J H J H a J $.$.k J P a 1 t p L C p C p Z Z d p p m Z m n L L D M p M a a D p M L m w w i M M M M M M m m m m M M M m p p m Z L D m p p M p p p p p p p p p p p p a p p p a a a a p p p a a a a a a a M M ! I I L L U :.3.H H M a t t i a i i i i i i i i p i i p p p i t C a y 0 t p p y Z 0 Z Z O.Q D m p [ Q.8.D p C p p p p p p p p i p p i i i i i i i i i i i i p p M a a a p i p M p p p p p p p p p p p p p i i i i i p p p i i i i i p a M p p i w i p Z P Z p p M m M M a f 8.OXg.` J ` I H J J U U P J L H H H H H H H L L L L L L L L L H H H H H H H L L L L L L L L P P P P L L L L P P ! ! I I I I I I I I I I I I I I P U I P L H H H L P H L H P ` {  .I ` I :.<.{ { <.:.<.,.{ { :.,.9.f.<.T.` D m m 9 i L ,.{ J a p D p p p p p p p p p L I I L D D L L ",
"Z Z Z Z Z Z Z Z C C C C C C M M M M Z Z L L H H P H P H Z H D.r.:.I M 1 w i L V.{ I g y a A A C M M M p i p i i * 9 i i t 9 i M p p a a p i i p p p a a a a a a p p m M M M M M M M M M m m m m i p M L ! P M i p p M M Z Z M M p p M H L P P L H L H L I P ! w.A.Z.8.{ `  . .I  .{ I f a H ` { J $.) j H J a = 9 i Z a p p p f C m p p m Z D D m M M m M M M a M p m D Z M D P Z Z M m m M Z D M M M M M m m p m M Z M p i i p M a a a a a a a a a a a a p p p p p p p p p a a p a a M M a a a a H :.t.w.r.;.! p p p p i a a M p p p p p p a a p i i p p p p p p t = = y J ,.9.H 0 C D O.Q Z m 0 I Q.q.D 0 p p p p p p p p p p w w i i i p p p i p p i p p p p i i a M M p p a M M M M M M M a p p p p p p i i i i p p p i i p p p V M M V p p i p i M D M i p M M M Z p a { J.F.' K ` U H H H H H H H H J U P H H L L L L L L H H L L L H H H L L L L L L L L P P P P P P I P I ! P I P P P P I I I I I I I I I I I I I P P U L L L H H H L L P P P P I `  .-.8.` ` ,.:.:.<.,.<.<.,.,.:.:.:.:.' /.,.p w m w < L ,.{ J a p D p p p p p p p p p Z H L D Z D J L ",
"f f f Z Z Z Z Z Z Z Z Z C Z C C M Z Z H H H H H  .H H Z Z Z Z.<.` I M 9 w i L w.Z s y r a A D p Z M p p i i p M H Z M M M M a a i p a a a p p a M M M M M M a a m M M M M M M M M M M M m m p p a M Z L L Z a i p a M p i i i p a M Z L P L Z M H L L L P L P w.q.,.I J J I  .`  .I Z Z ` 8.r.` J ` ) g H H a 1 9 t Z a p p y p d p p p n m Z D m M M M M M a p D Z Z L L Z D P M M m p m m m M Z M M M m m m p p p m p p i i i a a a a a a a a a a a a a p p p i p i t t t p a p a a Z Z M a a t a M H H H a t a a a p i i t t i i i t i i i i i i i i p a a a a Z J ` 9.J.Q.T.H 0 C Z O.Q D m p I  XZ.P p p p p C p p p m m p i i i i p p p p p p p p p p m m i i p M M M M M a a a a a a a a a a a a p p i i i i p p p p p p p a M M M V m p p p i p M m i m D M M Z p p J <.g.) I ` U H H H H H H H H J P P H H L L L L L L H H H H H H L L L L L L L H H H P P P P P I P P ! ! ! ! ! ! P P I I I I I I I I I I I I I P U U L L L L L L L L P P P I I L [ w.D.{ I { :.:.<.,.,.,.<.<.,.:.` I <..Xd.0 p n n < L r.{ J a y Z p 0 p p p C C C C p Z D Z C Z D D ",
"f f Z Z Z D D H D D D D Z Z Z Z M Z Z H Z Z H L I Z Z a H a r.-.I I Z i w i L 6.f a y y s J Z p Z p i a a p a H P M p p a a i 1 p p M M M M M M M M M M M M M M M M M M m M M M m m m m M M M M Z M M p i i a M M M p i i i a M L Z M M M M M a M H H H P L ! V.[ I P J I ` ` ` I P H P ,.w. .f J ` K s H H a 1 9 t Z a p p 0 a p d p p m m m Z M Z Z M M M a a D L L L L Z m m m M M M M m p i M M m p p p p p i i i p m M m a p p p p p p p p a a a a p p p p p p p t t t t p a a a a M a a a H M a p p i i t H M a a a i t = t 9 9 1 1 9 t t i t t i i a M a Z ` <.Z.K.Q.Y.D.J 0 C C O.Q D m p J K.w.I a C M C C C p p m m p m m m p p p p p p p p p p p m m M p i p p p M L a a a a a a a a a a a p p p i i i i p p p p p p a M M V V V m m p p i i M M p M D M M Z M a Z ` <.K K ) I J J H J J J H H H H H L L L L L L L L L H H H H L L P L L L L L L L H L L L P P P P P P P P I ! ! ! ! I I I I I I ! ! I I I I P P U P U P I I I I U P P H P ! I H ` d.D.` I { :.{ <.<.` { :.,.,.:.` ` F./.8.p D 9 w i L r.' J a y C p t p p p C C C C p C Z C C C Z C ",
"Z Z Z D H J H H D D D D D D D D M Z Z Z Z Z H L P Z a a H M -. .I I Z w w p D { f s a u g J Z p Z a p M M p p M t p M a i t p M M M M M Z Z Z Z M M M M M M M M a a a a a a a a p p p p a M M M M M M M M a a M M M p M H P I I H Z M M M Z H L p Z Z Z L L P 3.-.{ ` ` ` I P J P  . .P f a Z J J ` K j J H p 9 9 9 M a a a 0 a p p C C Z C Z Z p m m m M Z H H D P L Z L D m M Z Z Z Z Z Z Z M M m p p i i p p p i i p M M M M p a a a a a a a p p p a p a p p a a p p t t p a Z M a p a a a a M a a Z H H M a a a a a a a i t i i t 9 t t t i i i t i p M M M Z J J J ` 9.f.9.P t M C X.Q Z n p a 4.` L p p p C D Z a p p m p m m m p p p p p p p p p m p p p M p p p p p a Z M M M M M M M a a a a a p p i t i i p p p p p m p p p p p p p p i i i p Z M p M D M m M M a J ` <.K K ) I U I U U P J J H H H H U P P P L L L L I P P L L L L L H H H L L L L L L L L L L L L L P L L L P P ! ! I I I I I I I I I I I I U U P P L L I I I I I U P H H ! [ L I ,.w.I I :.` ` :.<.` `  .{ { ' ` ` F.G. .9 Z < 9 w L r.{ J a y C p p p p M C C C C p C Z C C C C C ",
"J J J J H H L L H H D D D D D D M Z Z Z Z Z Z H H H H M P H -. .U I M 9 w i m H y y y u a f d p M M M M M p i p p M M Z H H L L M M Z Z Z Z Z Z M M M M a M M M 9 i p M M M p p p p p p a M M M p a M M M M M M a a M H P ! P H M M M Z Z Z Z Z p Z M M Z Z Z P r.-. .` I J J I J I I J Z Z I ` J ) K J U H a 9 1 1 p p p p 0 a 0 0 p p m m m m m m m p p M H H Q } L p Z D M L D Z M M M Z L L M m m p p p p m m p p m M M m p p p a a a p p p p p p a a a p p p a p p p p a Z Z a p p a M M a i i p a M M a a a a a a a a a a p p i i i t i i i i i i a M M a a a a y H <.D.D.P t m p { Q Z n p 8 I D H p p p D D Z a p p m p p p p p p p m p p p p p m p p p p p p M M p p p p p p p p p p p p a a p p p i i i i p p p p p p p p p p p p p p w i 9 i Z M p m M m p p m C L { <.` I ` U U I U J H J J P P U U U U U P P L L L I P P L L L H H H H H H L L L L L L L L L L L L P L L L L L P ! I I I I I I I I I I I P U P P P L L L P U U P L P H L I [ I I `  .I ` { I I { :.{ { ` ` ` ` ` ) l.G.I * n p e 9 L r.{ J a y C p p a M C C C a p C Z D Z C D D C ",
"D D D H L L L L L L H H D D D D Z M M M M Z Z Z Z P L a L H -. .U I a 9 w i i p 9 t t y y y p C M M M a p a a p Z M p M H L M i M M M M M M M M M M a p a M M M p a M M M M M a a a a a a a a a M a i i i p M M M M M M Z M a i M M M Z Z Z M p M Z M a Z Z M Z [ ` [ ` I J P ` J Z Z P { 4. .P J ) ) I ` P a 1 9 = p p p p 0 a a p 0 0 p p p p M D Z M M M M M P 3.L p L L Z L D Z Z M M M Z Z m m p p p p m m m M M M M m m a p p a a p p i t a a a a a a a p a a a a a a M Z a a p a Z Z M a M M M M a a M M M M M a a a p a p p i i t 9 9 9 i i i i p a a a p f f f J f.D.Z.I t p p { Q Z n p 8 L J L a p p C Z C p p m m p p p p p p m m m m m m p m p p p i p a Z M p p p i i i i p p p p p p a a a p p p i p p p p p p p i p V M M V p p i i i i M m i m M M m a p f L ' <.` ` ` J J I U J U U U U U I I U U I U P P L L L L L L L L L L H H H H L H L L L L L L L L L L P L L L L L L P I I ! ! I I I I I I I P P P P L L L L L P P P P P P P I ` ` I I I I ` ` J I { ` { { ` ` ` ` ` ) l.F.f 9 m m w w L <.{ J a y C p p a a C C C a a C Z Z C C D H D ",
"Z Z D D D L L L L L L H H D D D Z M p a M Z Z M a I P p Z Z  .! I I M 9 i m i t y u s s a a C L p M M p p Z L M p M H L M M M M M M M M p p p p M M p p p M M M ! P Z M a M M Z M M M a a p p p M a p p M M M p M M a p i p a M Z M M M Z Z Z Z Z H M M L L Z Z L I [ { I D D L I L H L I I L Z H ) ' `  .I p 1 9 1 p p a a y f I Z d p a p m p p M M Z Z L L H M { L M ! { D L D L Q Q L Z p i p p i i p p p p m M M M M M M Z M M Z Z a a p p Z Z Z a a a a p a M a a a a a a a p p M Z H a p t a H L H M a a a a a a a a a a a p p p i t 9 9 9 9 9 t i i i t f Z a t a ` <.<.I t p p { Q Z p p 8 I L L p p p p C a p p M C m Z Z M M M m m m m m m m p p p p a p a M a p a Z M M M M M M M M p a a a p p p p p p p p p p p p i p M M M M p p M M i i M m p M M M M M p a J ` <.` ` ` J U I I I I I U U U U U I I I U P P L L Z H L L L L L H L H H H Z Z Z Z H H H H H H Z Z L L L P P P P L ! ! I I I I I I I I P P P P L L L L P P P U I I P I ! I I I ` I I I ` I H ` { I ` ` ` ` ` ` ` ' F.<.- p Z w * m L <.{ J a y C p p a a C C C C a C Z C C Z L L H ",
"D D D D D L H J L L L L D D Z Z M M Z Z Z Z Z Z a Z P p H P  .H I U M i w w M { ` :.<.$.{ ,.4.{ p M p i Z ! I M M M M p p p p i M M M M a p p p p p p p p p p p { { ! L L L L M M a p a M Z M a p p M M Z M M M M M a p p a M M M a a M Z Z Z M L p i M L L L H I [ { I Z a Z I I J J L I J J I I K ` :. .H p t 1 1 a Z p a Z a ' <.0 y p a p p m M M Z Z Z H H D Z D L L L D Z L ! L L C.3.m p i i p m M p p M m m p p m M Z Z M a a a M H P I Z Z Z Z M a a a t a Z a a Z M p a a a a a p p a a H a = 1 M H a a a a a a a a a a p p a M M p i t i i i i i i i p H J I J I f.d.` 0 i C L { D m 8 f H `  .C 0 D p p p p Z L L D i p p m m M L P L L Q P D Z M Z Z M p M M p p C C C p p p C D L a a a a a a p p M M M M M m m m i p V V p p p p p i i p M m m M D m M p C Z a f.<.' I K J J I :.U U U U U H P U L L L P I I L H L L L L H L L L L L H H H Z Z Z Z Z M M M M Z Z L L L P P P I ! L I I I I I I I L L L L L P U U H L L I I L L H P P I P I L I I  .` ` I I I ` ` { ` ` ` ` ` ` ` 1.g f p w w 9 w D ,.<.J f a p M p p C C p p p p C C C C D D D Z ",
"D D D D H H L L L L L L D Z Z Z M M M M Z Z H H P L P Z H H I I ` U a i i p D 2.,XOXT.T.J.d.I p p M p p M L L M p M M p p M M M a a a M M a p p p p a a a a M M = L V.V.! M M H H H H Z M p M M M Z Z Z Z M p p a a a a a a M M M M M M Z Z Z M i M Z Z a p Z I { I Z C Z H J J L D D L I I I ` J K I ` I H p t i * = a Z a s s <.<.t d Z J D L Z Z D D L L H L L D D D L L D Z M L M M ! L i m M p p m M m p p L D M p p p m M L Z Z M a M M Z p t = 9 a Z a p p p p a a a a p Z Z Z Z Z M M Z I a = % = i a a a a a a a a i i M a a M M M a p i i i p p p p i C J H I J :.T.Q. .t 0 C L Q D m i Z 0 J I p 0 p p p p p m Z Z Z p p p p p p M Z M D Z m m D Z p D M M C C p p Z C C p p p p p a a a a a a a p p p p p p p p p p p p p p V V m m p i i p m m m M D M M p C f a <.' ` K I I I  .<.I I I I U U U U P L L P I I L H L L H Z Z Z Z H L L H H H Z Z H Z Z Z Z Z Z Z Z Z H L L P P L L H L L U L L U I L L L L L P P U L L U I I I P L L P P P I I I I ` ` ` ` ` ` { :.` ` :.:.{ { :.<.f.j Z M p n w p D ,.,.J f a p M p M C C p p p a C C Z D D D D Z ",
"D D D D L L L L P L J D Z Z Z Z Z M a a Z H H H L H Z H Z H I w.:.L i 9 i p D -.Z.f.f.<.` f y 0 M M p p a M M M p p a p a M M M a M M M M M M M M M M M M M M M a i i H -.t.;.Z H H H H M Z H L L H M M p i i i i p a M M M p p Z M M Z Z Z Z Z M Z L Z Z L P P [ L C C L P L D L D L L I I I ` f K ` I P H a 9 1 i p a f a f ` F.f.a Z J I L I L L L L L L L L L L D D Z Z Z Z M D Z Z L M i D L M i i p m M Z Z M M m m m M M i p a Z Z Z a p a a a p i i a Z p t p H P Z Z P M Z Z Z a a M M t = = a H a i a M M a a a a a a M M M M M M p p p p p p a a p a a a a f f I F.K.,.t 0 C L L m Z p Z 6 ` ,.P 0 0 p p p 0 p m M m m m m p p p p m M D M w p P L p C C M C C C C C p p p p p p p p p p a a a a p p p p p p p p p p p p i i V M M M M p i p m m m m M M M a C a a { ' K K ` :.:.:.<.<.:.I I U U I I U P U I I U L H L L L H H Z Z H H H H H H Z Z Z Z L L L L L H Z M M Z L P L M M H H H L L L P U L L L L L L P U L L L P U I I I L P P P I I I ` ` I ` ` ` ` { :.I ` :.:.:.{ :.<.1.s a p p n 9 i H ,.,.J f a p M p C C C a p a C Z Z Z D D D D Z ",
"D D D D D L L L L L D Z C C Z Z L Z M M Z H Z Z M H a L p H I Z.t.U i 1 i i m I d.f.<.J a y a Z H M p M M p a Z M M M a a a p p M M M Z M M M M M M M M M M M M H a t t Z ! r.w.I U L L I I I P L M i 1 1 1 i p p p M M M M a p Z Z M Z Z Z Z M P P L L P { ! P L I [ [ P D D D L L L L L L L L f ` :.I H H M 1 * I ! a a Z I <..XF.s J J P L I Q P L D Z L H L L D D D D Z Z Z Z D Z D D p i D M i w i M Z Z Z p m M Z Z Z M M a a p p p p p p P I I H p i a H t t p a a p p Z a a M a a a a Z I H H L M t t H a a a a M M H H H Z M M M p p i p p p p p p p p a f f J J ` F.K.8.t 9 M D D m Z p p 0 { Z.w.0 i p p p p p M Z M m m m p p p m m m M p w m L D p p p p M C p p p p p p p a C a a p p p a a a p p M p p p p p m M M i / i p M M p m p p p m m M M M M M M p a f ` <.' I ` :.:.:.-.t.<.:.I I I I I I I I I I U L H P P L L L L L L H H H H H H Z Z L L L L L L L H Z Z M Z L L M p H H H L H H L L P L L L L L P P L L H H L P U I L P P I I I I ` I I ` ` ` ` ` ` ` ` ` :.{ { ` ` <.u p p p p 9 w L <.,.J f a p M C C C p a M C C Z Z Z D D D D D ",
"L L L D D D D D Z Z C f f f Z Z H Z M Z H L Z a a P H P t H P -.D. .i 9 n p m I K.g.` u u J P C P M i M M a p M M M M M a p p p M M M M M M M M M M M a M M M M a H H M i i H ;.3.-.;.! U H M a p i t 1 1 t p M M M M M M M M M M M M M M Z Z Z Z P ! P P L P P C P { { P D D L D L L L L L L J Z ' { P D H M = i ! P p Z ` $.<.>XG.g J Z J P P L L D Z M M Z Z M Z Z D D D Z D D Z Z Z Z i w p 1 1 i D Q L m w Z Z M M M m p p a p t t p H  .r. .H p p Z P H M P -.2.! H H H H M Z Z Z M M Z Z t H ;.t.;.H i t a a a a M Z H H M M M M a p p p p a a a a a p a y f f I J ` J.T.8.y 0 p D D m Z C 9 C ` w.Z.* p p p C M M Z Z C M m m p p p p p i i i p m p p p p p C C C C C p C d p p p p C C d d d d p p p p C M p p p p m M p i 1 1 i p p p p p i i m M Z Z M M M Z p p J { 9.:.` ` :.:.:.<.t.<.:.I I I I I I I I I U P L L P P P L L L L L D L L L L L D D L L L L L L L L L H Z Z H H M M H L L L L H H L P P L L L L L L L L H H H L U I P P P P P I I I I I ` ` ` ` ` ` { ` ` ` :.:.` J 1.s a p p p w i L <.,.H f a p M M a p p M C C C C C C Z H L L D ",
"L D D D D Z Z C C C C f f f Z Z Z M M Z L L H Z p P I P a H I -.D.I i 1 n i M !  .I f 6 0 f Z p L M i a M M p a M p p p a p M M M M M M M a p p a a a a a M M M H a a a M M a i L I ! L i = 1 t 1 9 i p a a a a M M M M M M M M M M M M M M Z Z L L P ! { P L Z H D D D F L L I D L L L P I I L J ` [ J Z D p * p M H H J J $.G.zXY.g K f Z D Z D D Z M M M M M m M Z D D D D D L D D Z M p i i i i i M D Z m p Z M p i w i p M a Z P { t.Z.Z.Z.P H a a Z H H Z p H L a t p a p a M Z Z a a M Z a a i t a P ! I M a a a a a a a M M M M a M M M M M M M M M M a Z f y a y f 9.D.r.p 0 p D L C m p 0 4.Z.K.4.* p C D L D D D Z M M m p p p p i w p i p Z M w i M p C D D D D Z C C C p p p p p p d d d d d d p p p p p p p p p m p i 1 1 / i p p i p i i p M Z Z M M m Z p p { <.<.:.` ` ` :.<.t.t.<. .I I I ! I I I I I U P U I L L L L L D D L D D D L L L L L L L L L L L L L L L H Z Z Z Z H P U I U L L L L U P L L L L L L L L L H L L I I P I I P I P I I I I ` ` { :.:.:.{ ` ` ` :.:.` K 1.s f p p w 9 p P <.:.H f f M M p p p p M C C C a a M C D D D D ",
"Z Z D Z Z Z Z Z Z Z Z Z Z Z Z Z Z Z Z Z Z Z H H a Z U H H Z  .w.D.U 9 1 i w m { 8.' I J f y p a Z M a a a a p p a i i p a a M L M M M M M M a a a M M M a M M M a a a a i t a H a a a t 1 = 1 t 9 i p M M M M a M M M M M M M M M M Z Z M Z L L ! L P r.V.{ Z M J D C C D L L L D L I L L I I J I ` I J H H p * t i H  .J J g.%XrXg.y J f Z Z p Z Z Z Z M M M M M Z Z D Z M Z D L L P Z p M M p D M i i p p M Z p p p m Z L Q ! 2.r.Z.Z.w.{ L Z Z L P H Z a Z H a Z Z Z M Z Z Z a M Z M a a a a M M a a M H a t a a a a a a a a M M M M M M M Z M Z M M Z M M a q.` a a p f <.9.-.p i i m Q D m 9 D A.W.oXH p D L I I L Z Z Z m m p p p m m p i m M Z Z m p m M p Z D D D J D C C C d d p p p p d d d d d d d d p p p p p p p p p i / 1 1 i p p p p p i p M Z Z M M m Z p a d.g.:.$.` $. . .<.t.<.:.I I I :.I I I I I I U U I I L L L D D D D L D D D L L L L L L L L L L L L L L L L L Z Z L P L P I I P L L P U P P L L L L L L L L L L P P U P P P P I I I I I I ` ` { { { { ` ` ` ` ` ` ` ` 1.j Z C w w 9 p I r.:.H f f M C p p p p C C C C C a C C Z D Z C ",
"Z Z C Z Z Z D D Z Z D Z Z Z Z Z H L Z Z M M Z H P Z P H P p P r.D.! i 9 i i M { q.f t g I Z p M p M M a p p p a M p i p p a M L M M M M M M M M M M M M M M M M M a a M a a a M U a 9 1 i a a t p p p p p a M M a a M M M M a a M M Z Z Z Z L P L P 2.D.6.H M L C D L L D Z D L L I I L L L L C I I K P P P M 1 i t H I I g..X%X.XI - H Z L I D Z Z Z Z M M M M Z Z Z Z M M M Z Z P Q M w p Z p a p M Z Z M p a M Z P { 6.V.V.V.r.-.P Z a a M Z H Z Z H H H H Z ! H Z L P H a Z Z H H Z Z Z Z Z M M Z a a a M H a a a a M M M M H L H Z M a M M M M M M M M M a Z.` y a f H <.,. .p p w m Q F m p ,.w.D.W.* [ 4.L I I H Z M Z M p p p m M M M M p M M p i m M M p C D D D D Z d p p C Z Z Z C C C d C d d p d p p p p p p p p p p i i / 1 i p M p m p i i M Z M M M m Z p a Z.D.' $.:.:.$.` <.t.:.` I I :.:.I I I I I I U U I I L L L L L L L L D D D L L L L L L L L H H L L L M L P L Z Z L P L L U U U P U U U U P L L L L L L L H H H L L L L P P P P P I ` I I ` ` ` ` ` ` ` { :.` J H J K l.K I H p w w m I r.:.H f Z C M p i p a M Z M m Z M M M Z Z M M ",
"M M M Z L L Z M Z H Z H Z Z Z Z Z D H H D Z Z D L P L I I a a I 6.I p 9 9 w Z 6.Z.H p Z H M f a H M M a p p a M L a i p M a M ^ M M M p p M M p p M p a M p i M M a p p a M M ^ t t i i i p p p M M M M M M M M M a p M M M p p M H L L H ^ L I P ;.3.U M p M L Z Z Z Z Z Z D D H H H J J L L P K ) <.J M L p 1 i i P G.g.).$X.X<.L a Z H Z Z Z L D Z M m m M Z Z M M a M a Z H ! P L a p p M Z Z C C f Z D H L { { ` L Z f Z J p J H p a J J H J J J J J J J J H L L L H H Z Z H H Z Z Z Z Z Z H Z Z Z Z M M M a a Z H H H H H M Z a a a M a t a a M M Z Z Z Z f f f a f P ` ` ,.M 9 p Z D F D A { D.%Xd.Z  .L L Z Z Z Z M p p M M C Z Z Z D D m m m m m m M C d f Z J J Z f a p C J L Z d d d p p M C Z M m m m p p p p p p p p i i i p M p p M p m i i Z L M m D m M p Z D.F.g K ' ) ) <.<.:.:.1X1X1XI I I U I I I U U H H L L ^ M M H L L M ^ M M ^ L P L H ^ H L L P P L L L L L L L L L L P P P U U P P L P P L L L L L L H H H L L L L L L L L P P P P P  .` I `  . . .` I I ` ` ` ` K <.~.f.I J C 9 8 D  .r.:.H a H H M i p m M M M M M M M M M B B B M ",
"D D Z D L L L Z H H H H H H H Z D D H D D Z Z D Z Z C J L f f ` { L i 9 i i Z 2.V.a = i Z P P Z H ^ M p p p M M H M p p M M M M p a a p a M M p a M M M M M p M M M p i t / / / t t i i i p p p i i p p p M M M M a a M M M a M H M M ^ L P ! ! I L M i p H P L Z C C Z Z Z Z Z H H J J J J J J ` ) :.J H P p 1 w Z Z.%X^.).~.k.P p w p Z Z Z D Z Z M M M M Z Z Z a a a a a a Z a i 9 t a H H H P J J J J P I I a f Z Z Z f f Z H -.{ J J P H Z J J J J J J J J L L L L H H H H H H H Z H Z Z H H Z Z Z M M M M Z M a a a a a a Z H M a a Z M a a a a a M Z H H J f f f a a 4.oX .p 9 n Z D D m C ,.Y.D.Z f { P P H M a p i p M m m M C Z Z Z D Z Z Z C M m m m d f Z Z Z f f p p f f d p p d D p m m M M m m m p p p p p p p p M p p p M M p p M m m p i Z L M n D m M p P F.F.I ) ` K K :.<.:.I 1XI I I I U U I I I U U H H H H H M ^ H H L H L L L L L P L L H H L L L P P P L L L L L L P P P P P P U P P P L L P P U I U U H H L L L L L L I I I P I I I I [ I I I  .{ {  .' ` :.` :.<.$.z.l.1.K g p 9 0 L I r.:.a t M H M p p V M M M M B B B B B B B B B ",
"Z Z Z D L L L Z H H H H H Z Z Z D H H D Z Z Z D H D Z D J a f [ 3.Q p w i t a  .r.M 9 p a Z Z a M M a p i p M M M M a p a M M p p a a a M M M p H I L M M M a a i i t / 1 1 / / i i i i i p p p i i i p p p a a M a M M M a M Z L Z M H P ! ! P M p i p L ! P Z Z C C C Z Z Z D Z Z D D D Z Z Z ` J I J L L i 1 < Z J.>X).^.k.y.I Z p M H Z Z Z M M M M M M Z Z a p p a a p p a 9 1 = 9 p a p p f f a a a a f f Z Z Z H J H Z Z Z ` I H H J Z Z H H H H H H H H H H H H H H H H Z Z Z Z H Z Z Z H Z Z M M M M M H H a a a a a a M H H a a a M a M M a a a M Z H Z g J J Z f { W.I p 9 m D F D p C ` D.` 0 C I L Z M p i i i p M C C C C C C C C Z Z Z C M m m m C C C d f f C C p p C C d p p a p p m m m p p p p p p p i i p p M a p p p a p i p p m p i M F m m Z p m C  .J.D.' ' ` J J ` :.:.! ! ! ! I I I U I I I U P L L L H H L H Z Z L L P P P P L L L P L L L L L L P P L L L L L P P P P P P P P P P P P P P P I I I I L L L P P P P P I I U P I I I ! I I I I  .{ :.:.f.8.<.` ` :.) l.k.z.<.J M 9 9 L  .r. .a t a M i p p p M M M Z Z D D L L L D B B ",
"Z M M Z D D Z Z Z Z Z Z Z Z Z Z D H D D Z Z Z D H J J L L C L d.Z.{ p 1 9 t M { P M a M t = 1 = p p p i i i p p a M a i p M M p M M M M M M p p P ;.I a p a i i 1 1 1 1 / i i i i i i i p p p p a a a p p p p p a p M M M p M L L L L P ! ! H M p M M H L L Z M D H D D H H H H C Z Z Z Z C f a J g J H Z Z w 1 & M d.XXz.l.=.y.` P H H L Z M a M M M a M M M a a p p a a p p p a H P P Z p a Z Z Z f f f f f Z P H f a f f a a p H Z a f Z Z P Z Z Z Z Z Z Z Z Z H Z Z Z Z H H Z Z Z Z M Z Z Z H Z M a a a M Z H H j Z Z H j j a M H a a a a M H H M M a a a a a H J J H H Z a L p w m D D D p Z p [ J p L Z D a i i p M M M M D Z Z Z M m m p m m m m m M M C C d d d p f C C C C D D Z C p p p p p p p p p p i i i i i i i p p p i i p p i i i p m p i M D i m m p p Z ,.D.f.` :.' I P I  . .I ! ! ! I I I I U U I U P L L L Z L L L Z Z L P P P ! P L L L P L L L L L L P P L L L L L P P P P P P P P P P P I I P P L L L L L L P P P P P P L L L P I I I I ` I I `  .-.,.<.g.9.<.I I I J <.~.~.g.` L 8 < L -.:.I f t t t i M p p a M D L L L L L L L D D M ",
"M M M M Z Z Z Z Z Z Z Z Z H H H D D H D Z Z D D p Z J I I J ,.Q.6.Q i 1 i p Z { p i p a 9 1 t 9 i i p a p p i i i a a i i M Z M Z M a a a a p p H ! H t t i 9 1 t t t t t i i i i i i p p p p a M M M M M a a a p p a M M p M L H L P P P L M p Z Z Z M p i M Z L L J H J J J J Z Z Z D Z Z C f K J ` L M p 1 w < Z 4.J.<.$.) ( f a a Z Z Z Z f Z a a a M a a a a a a M M p p p a H I P H a Z H Z Z Z Z Z Z H H H Z f a Z Z Z Z a H Z f Z Z Z P Z Z Z Z Z Z Z Z H Z Z Z Z H H H Z M a a a f Z H Z Z M a a a Z Z Z f f j H H H H M Z H M a p a Z H H H H Z Z a a Z g f a a f p 6 P p w n m D D m C d [ J C P C Z Z p i m D D Z M Z Z Z Z C M m m m m m m m M C Z p M C C C C C C C p 0 8 8 0 p p m m p p p p p p i i i i p p p p i i i i i p p i p p M m i m D i m p p p f r.f.<.K { <.,.` I  .;.I I ! ! ! I ! I P U P P P L L L Z L P L L L L Q P Q Q P L L L P H L P I P I P ! P P P P P P P P P P L L L L L P P P P P P P L L I I P P P P P P L L I I I I I I  . . .{ { -.,.<.:.` { I ` ' ` f.P.P.<.I L 8 * [ 3.I J J j t t a M a a M Z Z H H Z H L L D Z M M ",
"Z Z D D H H L L H H H H H L P P D J J L L J J J f D L P L D ,. XO.P i 9 p p a Z H p p p p H H Z i p M M M a p p i a a p a M Z M M p i p p p a M i M p 1 1 9 1 9 i i i i i i i i p p p p a a M M a a a a M M M M p p a M M M M L H L H Z M M M M H M M M Z M M M J J J D Z Z Z D D H J L J J J H ` :.9.P p i 1 w & M  .F.f.u.k g y p p a a a a Z f a a a Z Z Z a a a a Z Z a p a p i t p a a p t a a a a f f Z f Z Z H J J J H Z a f a f J H f Z Z Z Z Z Z Z Z Z H H H H H H H H H Z Z Z Z Z H H Z Z a a a a Z Z a a a f f f f f Z H H H Z p a Z a M Z H H H H Z f y a J H p a Z P p w n m D F m p  .Z.I a Z Z Z L M i i M M M M Z Z Z Z Z Z Z Z Z Z C M M M M C M C C Z Z Z C C p p 0 i p p M a m m m m m p p p p p p p p i p p p p p p p p m m p m Z m i M D p p y p y f r.8.` f I { { I L L I P P ! ! ! ! I I P P P P P L L L L L L L L L P P P P P P L L L P Z L ! ! ! ! ! ! ! I P P P P P P P P P P L L L P P P P P ! ! ! !  .! I I P P P P P I I  . . .I I  . .{ -.-.-.,.,.` ` :.{ <.<.:.l.G.U.<.J H 8 * { -.H a J U a a H M M H H H H H H Z Z H H Z D Z M ",
"Z L L L L L L P L L L L L L L L J P I ` I I I I I I J H H Z ` J.6.! p 9 p i 9 i P Z M a a P I H p a M M M a p a p a M L H M M M M i i p a a p a t i i 9 i i i a i i p p a a a a a a a a M M M M a a a a M M M M M p a M Z Z Z H Z Z M M p a M Z M M M L P L M a Z Z Z Z Z Z D D H H J L L P I I ` <.d.P i i 1 w & i D d.F.F.] J a a f f a a f f H f a a a Z f Z a p a M M a a a Z a p p M Z M p Z Z Z Z H H H H f f Z Z f a a a P H a a J H f Z Z Z H H Z Z Z Z H H H H H H Z Z H H H H H H H Z Z Z a a a a Z Z a a f f f f Z Z H Z H H Z a p a a a Z H H J P P f a Z I P a a L L p w n m D F m w 4.Z.{ C i m m M p i p p p m Z Z Z Z Z Z Z Z Z Z Z C M M M C C C C C C Z C C C Z D P { 4.{ I Z M M M M M M m p p p p p p p p p p a a a m m m M p m M m w m M p p 0 C y a 8.<.` g H J L D D D D L P P Q Q Q P P P P P P P L L L L L L L L P P P Q P L L L P P P ! !  . .I U I I I I I I P I I I I I I I I I U L I I I I ! ! ! { -.:. .I I U P P I I I I I I I I I ` { :.:.:.:.,.,.,.8.-.<.<.` f.z.#Xl.f a 8 8 { -.J u s J J H Z a H L L H M Z H H H H H H L Z Z ",
"L L L L L L P P P P P L L H H H L I ` {  .[ [ ` [ I Z Z J D [ D.C.! p 1 i p i M i p Z a i a H M a M M p p p p M M M H ! P Z a M M a p M M a i p p a p p M p p Z M M M M M M a p M M M M M M M M M M M M M M a a M M M H L L H H M M M M M M M M M M M M M p M L C C Z Z Z D J L D Z D J J P I I J { r.Z 1 i 1 1 1 p p  .f.F.` K y a f f f H H H J H a a a f a a a p p a a a a M a a a p a a Z H Z Z Z Z Z Z Z Z H H H Z Z Z J ` K.d.P Z P J Z P Z Z H H H Z Z Z f f f j f f a a a f H H J H f a Z Z a a a a M Z Z Z H H H H J J Z Z Z H Z p t p Z Z Z Z H H P I ` ` J a a Z Z f D p p n m F F m w I I q.[ 8 0 i 9 i M D D M Z L L L D D Z C M m p p p m m M Z Z C C C C C C C C C M C D L D p 0 M M Z Z Z M m m m p p p p p p p M M M M m m m m i p m i 9 i m i p 0 C y f 9.,.` I J Z Z D L L D L L L P P P P P ! P P P L L L D L L D L P Q P P Q P L L L I I I 3.r.3.:.U H H L I I I I I I I I I I I I I I I I I I I ! ! ! ! ! r.<.:. .I I I I  .I P P P I I  .L I ` :.:.{ :.:.,.:.<.:.,.,.` f.1.;XG.y 0 9 i ,.-.I s y f I P a a H U U H M M H H H H H H H L L ",
"H H H H P P L L L L L L L L P P  .I I [ [ I I ` J D H P D C ` D.{ ! i i p i p a a 1 = t p a Z Z Z M i 9 i p M Z L { { L a a M p a a M M M a a p Z M M M M p M Z M M M M M M M Z M M M M M M M M Z M M M M M Z Z Z M a a M Z M M Z Z M a a M Z Z L M p p Z H Z M C Z Z Z Z D D D L D C Z H J Z f 9. Xa = M 1 1 1 1 i M r.I K F.J a a a a a a a a f f a a a a a a a a p a a a a M a a a a p i p p a f Z Z Z Z Z H Z Z Z H Z a H { K.8.P Z J J H Z Z Z Z Z Z Z Z Z Z Z a Z H H H f f f f H H H H J Z Z Z C a p a f Z Z Z Z Z f f a Z Z Z f f f Z Z Z Z Z J I I J Z ` H I I t 0 J P L C w w C F D m i L } 3.Q m i i p p p p p p C D p p m m m M M C m M C Z Z D D D M M M M M Z Z Z M M m m m m M M i p M D Z M p i m m p p p p m M Z Z Z M M Z D D D M m n n n i i p p a a P r.d.9.H H D D L L L D P L D Z Z Z Z D D D D D L L P P L L Q Q ! Q L Z P L I -. .I  .t.-.P a i p Z H Z -. .I I I I I I P P P P I P P I P I I P P P P I P I -.{ I J I  .I I I I I ` I I I { ,.:.{ :.,.,.{ ,.:.` J J  .8.%Xl.J Z p * i w. .:.K u s ' { Z a H H f f H H a H H L P P L H H ",
"H H H H L P L L L L L P P P ! ! I J H I ` I L J  .L D D Z C I 8.C.O.p 1 1 9 Z { a 9 9 t 9 t Z P p Z L Z p p M L a Z M i i M Z Z Z Z Z Z Z Z Z Z p p a Z M p p M M M M M p p p a M M M M M M M M p p a M M Z Z Z L L Z M a a M Z Z Z Z M M M M M Z Z M a p i p M C Z D D J J L L H J L P I I L J I r.9 1 M * 1 3 w p p  .I J A.' f a a a a a p y a f H H Z H H P P P L H Z a p p t i p p p a Z Z Z Z H H Z Z Z Z Z Z Z H Z f Z I 8.I Z Z Z Z f a f f f f f f a a M a a a Z f a a a a Z H H U I  .{ -.{ { ` I I P ` ` ` ` ` ` I I I P J J J H Z f H Z Z Z Z H P I I K I ` { ` L I L p w w C D D m 1 L 2.Q M Z L D p p p p p m C Z M m m m M Z Z D Z Z Z C C Z Z Z D D D D Z Z Z Z D D D Z Z D D D D M i 9 9 i m Z i i p m m p i i p p p p m M D D m m n i w w i i C C p p Z { w.9.I J Z C Z D D D Z Z M M M M M M D D Z D L P Q Q M L ! ! Q I { 2.! r.r.P H  .-. .9 9 t p Z P !  .-.{ ! I I P P P  . .{ ;.{  .I I  . .{  .! I I I I  .,.,.-. .I I H P I I I I ` { ` ` I K ` { ` I ` :.:.{ ` I  .:./.1.H M p < i 2.,.,.` j s Z P I H U U f a f H H H H H H H H H H ",
"H H H L P P P P P P P P P Q ! ! [ I I [ { I H C J a p D L H L ` P Q p 9 9 1 Z { ! Z p t = 9 a Z M M Z M M Z Z Z { ! H p p Z H Z M Z Z Z Z Z M M Z H P ! ! L M M Z H H Z Z M M M p p p p p p p p M M Z Z Z Z Z M M M M M p a Z L M M Z Z Z Z M a a M M p i p M Z L L J J J J Z Z Z H L L J D Z Z p a - i m * 1 3 3 i 9 L L Z { { P P H H H H H Z P I :.:.I I I  .! ! ! I P P H Z a a a a a M Z H Z Z Z Z H Z Z Z Z J P H H H J H I J H J J H Z Z J H H Z Z Z f a Z Z H P P U I I  . . . . . . . .w.Z.Z.Z.Z.Z.d.w.,.,.:.:.{ ` ` I J Z f s Z Z f a H J J J Z Z J K K I f `  XY.` Z D p w w m D D m w p Q 3.} M p D L D Z m p p 0 9 D Z Z C C C Z Z D D Z Z Z D L L D D D L L L L L L L L L L L L L L D M p i i p p w i p M M M m m i i i i i i p m w i i i w w i i C C p p Z  .r.,.` P D C D D D Z D Z Z Z Z Z Z Z a M Z P ! {  .! ! ! { ! !  .-.r.-.H a f J H y = Z H I  . .I  . .I ! ! I I I I I H H I  . . .I U I I  . . . . . .I I P I :.,.,.:.<.:.' ` I J J J <.<.' ` ` { :.` :.:.-.-.{ { -.,.<.I a i i 1 i ! { ` I K f y L q. .t.9.I H Z H L H H H H H H L L ",
"P P P I I ! ! I { ! P P L L P I I I I [ [ I L H D Z L ,.q.,. . .M D p i p t H { -.Z i 9 = 1 9 = Z M M p a Z L P Z M i 1 9 i i 9 p p p p a a M M M Z P {  .P Z Z M M Z Z Z M M M Z H Z Z Z Z M M M M M Z Z Z M M Z H H Z M M Z Z Z L L L L L Z Z M i 9 i p Z Z Z D D D D Z Z Z C L L H Z f p p y 9 9 1 p i = i 1 1 p 9 D [ Z L `  . . . . . . . .P U I I H Z a a H H P P I !  . .I I I I I P P P J J H J I I I I -.r.,. . .,.-.` { { ,.8.8.-.{ -.I I J J P J H Z I  .-.-.;.;.2.r.! ! I P L Z Z Z H L I  .{ 4.8.w.r.r.<.<.<.,.,.,.,.` J H H J J J J ` <.9.<.` J H K ' :.f.W.D.I Z C p w e m D D M m w m 3.S.! m m w w i p C D D C C Z Z Z Z D D D D D D D D D L L P P L L L D D D Z Z Z Z Z Z Z Z M Z D L L Z M p p p i i w w i i p p i i i i i i i p n i w w n m m M m C L { { I Z Z Z Z C C a p a a M a M a M a M Z L I  .I P L L Z M Z P I P Z H H H H t - y ` f.D.D.w.-.I P P P I I I P I  . . .-.r.r.w.r.r.<. .:.-.-.-.-.-.-.9.<.-.:.,.,.{ ` ,.` K K ` ` I J J ` ` I H Z I ` ` ` I J J P I P H Z i 1 w 3 n Q Q L J I Z a L q. .9.l.t. .I I I P P L L L P P P ",
"I I I I  . . .I -.! L Z Z Z L P P [ { -.{ -.r.q.I ` -.d.d.{ I I { ! i 9 i i I 6.Z p p i 9 9 9 = i D I L p p L 4.P I L D C p p p C C Z D D L L L D L I { { [ I I L P P P P P P P M Z Z Z Z Z Z Z L L L L L P I [ { [ ! I P D C p C C C C C C C M L C p p C D D Z C Z D J P I I I ` I Z f a a p 0 9 t i i 1 1 p 4 3 V i Z { L L ..{  . . . . .{  .H Z H H L H M a a a a a H L I I I  .-.r.r.r.2.2.-. .`  .-.<.<.,.`  .` J P ` I J I I `  .` I I ` { { { -.,.,.,.,.6.6.6.2.! P L P M M M M M a M M p p p Z A I { ,.8.8.f.d.Z.F.D.G.G.G.F.d.,.<.,.<.<.<.d.F.D.g.,.` :.D.OX.Xr.J L J p p w p m D D M w M B B X.H.V.L L L I [ { 4.4.{ L Q { O.2.2.O.O.{ { { { { [ Q Q Q Q L D M m i i i i i i i i i i p p p M Z D L P Q P L D Z M M m M M M M M M D D m m n i w w N D Z m p m P -. .H a f Z f p a p f C Z Z H J J L P [ ` I P L Z f p Z C f D I ` P f a H a 6 6 K F.T.f.8.-.` I I I I I ` ` I I { ,.,.D.D.Z.d.8.,.{  .w.w.d.w.8.r.r.r.{ ,.d.g.g.f.<.<.,.{ ` ` I I J J J K ` ` K J I :.8.,.{ ` I P H Z p a i 1 q w N W { I P P J Z D L Z J ` ` ` [ [ ` I P P L P I Q ! ",
"I P P P I I P P Z M p w w i p M L [ { [ I I [ ,.A.A.D.J.A.q.4.8.O.! i 9 i i L { Z L  .! Z a Z a 0 p H L C M D L { 4.q.4.{ ! I I p M C Z D D D D { { { 4.{ I P I ! ! ! ! I P P P P P ! !  .{ { { ! I L D D D L L Z C Z L I I P L D D Z Z Z D D D I [ [ I D C D L I I ` [ { { { { L Z a a p a p 0 t i p 9 4 1 i 4 3 i 1 i L D D { L L H H Z Z Z Z M M M Z P ! I P Z a a p p a a Z H P I  . . . .! ,.-. . .{ { { { Z Z Z a a Z Z f f a f f a p a f y y p a Z H H H  .! ! P L Z M m p p p p p p m M p p p a p C J I { { { { { <.,.,.{ 8.d.d.8.{ { <.,.{ ` ` <.<.<.<.f.f. XT.{ I [ D p p p n Z D D M < m B M L } O.Q C.6.4.O.{ I L D P Q ! [ Q L D Z D D L I Q I P L m m m i i i w w w 1 1 1 1 1 1 w w w w w i p m M L L ! { } { ! Q L L L L L L L D m n w w w n m D F D p w Z [ [ J I I I I L L `  .I `  .{ -.r.8.8.w.-.I J H J P I [ { { ` P Z f s a r y ) /.;X(.u.9.-.I J P I ` ` ` { {  .,.Z.D.Z.r.,. .I J Z Z Z P I I I ` ` { -.I ` ` ` ` ' ,.f.{ 8.f.<.` K ` ' 9.<.:.<.f.f.9.<.d.d.w.8.{ I C p t i w 3 c v N W L L J H J P F C C f a a f D D D L L L L L L P Q ",
"H Z Z Z Z M a a 9 9 1 < < 1 9 9 p f C p 0 0 y p L J J J D C f C M Z 9 i p 9 p M L P -.-.I I I L M p p p L L C p 8 i M D D L P ! { 4.4.q.q.q.4.{ L L L L Z p p p M M M a p p p p 9 9 t i i p p p C p p p 0 0 0 0 0 0 p p Z L P I I I I I I [ [ [ D L I L Z a C L I I I I P J J D p y t y y p 0 0 i t t 1 1 1 1 1 1 1 1 4 i p p M p p i i w w w w w 9 9 w p m M a a p p t t t t t a Z Z Z Z a a a H H Z Z f f f Z J H H J J H H J H Z Z Z Z f f Z Z Z Z Z H J J H M m m m m m i i w 9 1 1 1 1 1 1 8 8 8 6 7 6 0 0 C f d a a u u u t a f Z Z g g Z Z f a a a Z J I ` I ` ` { { I p p p n m D D D D w 3 i D M w 9 m 0 w e w 0 0 0 e 0 0 9 9 1 * * # * * < 1 9 9 9 9 < 4 4 1 1 1 1 w 1 1 4 4 4 4 1 1 1 1 9 9 9 1 < * < 9 i M Z Z M M F F D D M M m m i w w w n B D B E D n w p D L D I I ` :.8.9.w.8. .` ` ` ` { { :.:.` I J J I ` ` P I P f y y a j K <..XdXrX~.1.1.f.w.,.-.-.-.-.{ :.,.,.,.w.D.D.d.I I H f a a a a 0 0 t y a f H P { { ` J Z Z J ` J _ ,.8.8.d.Z.G.<.) K ` :.$.` I P P P H f y 6 - 9 i w w b c b S m M C C Z C Z C D f a y y p p p m M Z Z Z Z Z Z ",
"p p i i i i 9 9 9 9 9 9 9 9 9 1 i p C p p a C M D Z Z Z Z a p w 1 i < 9 i 9 p Z M i i M P 2.{ M H Z M M Z Z Z M ! P P L Z p p p 0 0 p p p 0 8 * i i p M M p M C i p p i i i p p p i i i w i i i p p p p M Z Z Z D D Z m p w i p i i p i p p p p 9 1 8 9 p p p p p p p i 0 0 0 9 8 0 p p p t 0 9 w 1 4 1 i 3 4 i 3 1 w 1 w i < * w w 9 9 w w w w m m i w 1 < < < < = = 1 1 9 9 9 p p p p p p p M t i i 9 8 9 0 i p p C H D a p Z Z a M a a p p a C a p p p i 0 9 w w 1 1 9 9 < < 9 9 9 9 9 9 9 w 8 8 0 0 9 0 0 t 0 0 0 0 0 y a a a y 0 0 0 t 0 t 0 t p p y t y y t H Z p H M 9 9 i p p m M D D D B n 1 * < 1 1 < * 1 9 9 1 * 8 9 1 1 9 9 w i p m i i w 9 9 1 1 1 1 1 4 4 4 < < < 4 < < < < < < 1 1 < * * * 1 1 9 9 9 w 9 9 9 1 1 w w i i i w w w w 1 9 v B F D D S D B n i m Z a 9 t Z  .w.Z.,.I r.r.-. . .I I I L H P P J H f a p 0 0 y Z -.Z.K..XrXxX%Xf.K J K :.-.r.w.d.d.w.8.8.w.r.-.r.8.{ Z J Z a p t 9 = = t t 9 9 9 t p a f J { q.Z.d.8.,.4.{  .,.d.d.4.` ` I J J H f f Z C M p 0 9 9 9 w < 1 3 w v 2 2 N n n M C p 8 9 p i i p p p i i p i p p p m m m m ",
"i i i i i i i i w w w 1 1 w w w w w i i i i n n m m m n i i i i w i w w 3 3 1 1 w w 1 4 < 4 w p m p p i w i i p p i i p p i i p p p p p p p M C p p p p p p p p p i i i i i i i i i i w w w w w 9 9 9 9 9 9 9 9 9 9 9 w w 9 9 9 9 3 3 3 1 1 1 1 1 1 1 1 1 3 9 3 < < < < < < 9 9 9 w w w w 9 9 9 9 3 3 3 1 3 3 1 3 1 3 1 3 1 w w 3 w w w w w 9 1 1 1 1 1 1 1 1 1 < 1 1 1 1 1 1 < < < < < < < < < i i i i i i i i i i n n n i w w w w w w w w w w 1 1 1 1 1 1 1 1 1 1 1 1 1 1 1 1 1 1 1 1 1 1 1 1 w 9 9 9 0 9 0 9 i i w w w i p i p i p i i i p i p i i i 0 9 0 9 i t 1 1 9 i i i a a M M D L D M M M V i i / 1 1 i i i i i w 9 9 w w i i i w w 9 w w 9 9 9 1 1 1 1 1 1 1 < < < < 9 9 9 w w w w w w w w 0 9 9 9 9 9 9 9 9 9 w 9 9 2 3 3 3 1 3 3 w i V B W W Q W W R R D n 3 1 1 i t 9 1 * * 9 M L M M M p p p m m M M M M a p t t * 0 L +.q.4.[ L ` [ { ` I J J K { { { { { { { { { { ....{ [ I L Z M p 9 1 1 1 9 1 1 1 3 1 1 3 1 Z D P L L D D L L L D D Z C C C p p i t w i p m n i w w 3 3 9 9 w w 3 3 3 < 3 < 1 1 1 1 9 9 9 w w w w w w w w w w w w w w w w w ",
"w w w w w w w w w 9 1 1 1 1 9 w 3 3 3 w w w w w w w w w w w w w w w w w w w w w w w w 3 1 < 1 w w w 1 1 < < 1 1 i / 1 i i 1 1 t 9 8 8 9 0 0 0 i i 0 0 0 9 9 0 9 9 9 9 9 9 9 9 9 w w w w w w w w w 9 9 9 9 9 9 9 9 9 q q q 9 q 3 3 3 3 3 3 3 3 3 3 3 3 3 3 w 3 3 3 9 q q 9 9 q w q 9 w w 9 9 9 3 3 3 3 3 3 3 3 1 3 3 3 3 1 1 1 1 3 3 3 9 9 3 3 < 3 3 3 3 3 3 3 3 3 3 3 9 9 3 3 3 3 3 3 3 3 3 3 3 3 3 3 3 3 3 3 3 3 3 3 3 3 3 2 2 3 3 3 3 3 3 3 3 3 3 3 3 3 3 3 3 1 1 1 1 1 1 1 1 1 1 1 1 1 1 1 1 1 1 1 1 1 1 1 1 w w w w w w w w w w w w i i i i i i i w w t w 9 i i i i i p a M a p a M M ^ M M M M M V p p i i i i p p p p p p i i i i i i i i i i i i i i i i i i i i i w w w i w w w w w w w w w w 0 w w 9 9 < < < 9 9 9 9 3 2 3 3 q w c n n N B D W W W W W Y R B M i 3 1 3 1 1 4 * & * 1 w 1 1 1 4 1 1 3 3 i i p i i t t 9 w p p m m p e 0 * 8 8 0 a C Z Z J J J J P L P P J J J L L J F L M M i 3 1 3 i i 3 3 3 3 3 3 3 w w i p p p p p m m p p p p i i i i i i i i i i i n v c q 3 3 q w w w w 3 1 1 1 1 1 1 1 1 3 9 9 w w w w w w w w w 9 9 9 9 w 9 9 9 ",
"1 1 1 1 3 9 9 9 3 1 1 1 1 1 1 1 1 1 1 1 1 1 1 3 3 3 3 3 3 3 3 3 w w w w w i i i w w i w 1 1 1 3 1 1 1 1 < < < 4 1 4 < 1 1 4 4 4 1 1 1 < 1 1 1 1 1 1 1 < < < 1 1 1 1 1 4 4 4 4 4 1 1 1 1 3 3 3 1 1 1 1 1 1 1 1 1 1 1 2 2 3 3 3 3 3 3 3 3 w w w w 3 3 3 w w 3 w w w w w w w w w w 3 9 w q 9 3 3 3 3 3 3 3 3 3 3 < 1 1 1 1 < < < < < < < < < < < < 3 3 3 3 3 3 3 3 3 3 3 9 9 3 3 3 9 9 9 9 9 9 9 9 2 2 2 2 2 2 2 2 2 3 3 3 3 3 2 2 3 3 3 3 1 1 1 1 3 3 3 3 3 3 3 3 1 1 1 1 1 1 1 1 1 1 1 1 1 1 1 1 < < 1 1 1 1 1 1 1 1 1 1 1 1 9 9 1 1 9 9 w w w w w i w i i i i i i i i p M M M M m m M M Z D Z M M M M M M M M M M M M M M M M M M M M M M M M m M M M M M M m m M m m m m m m m m p p i i w w w w w w w w w w w < < q q 9 9 9 9 9 w n n N N B B D L W W W W L R B R D B N i i i i i w 1 1 < < 4 * & * * 4 4 1 3 3 1 1 4 < 1 1 1 p w 9 < < < < 8 w 9 < * 1 8 * * % % % % % % * * 6 1 1 * 1 8 9 w i i i w w w w i w w w w w w w w 1 9 w w w w w i i i w w w w w w 9 w w i i w w w w w w q q q q q w w w 9 3 1 3 3 w 9 1 1 1 1 3 9 9 9 9 9 9 9 9 9 9 9 9 9 w q w w ",
"1 1 9 9 9 9 9 9 3 1 1 1 1 1 1 1 1 1 1 1 1 1 1 3 1 3 1 3 3 3 w w w w w w w w i i 3 w w w w 3 w w 1 w w w 3 1 1 1 4 < < 4 1 1 1 1 1 9 1 1 1 1 1 1 1 1 < < < < < 1 1 1 1 4 1 1 1 1 1 1 1 1 3 3 3 3 1 1 1 1 1 1 1 3 w 9 3 2 3 3 9 9 3 3 3 3 w w w w 3 3 3 w w w w w w w w w w w w w w w w w q 9 9 q w w w w w w 3 3 1 1 1 1 < < < < < < < < < < < < 2 2 2 3 3 2 3 3 < < < 3 3 2 2 < 3 3 3 3 3 3 3 3 3 3 3 3 3 3 3 3 3 3 3 3 w 3 3 3 3 3 3 3 3 3 3 3 3 3 1 < < < < < < < < < < < < < 1 1 1 1 1 1 1 1 1 1 1 1 1 1 1 1 1 1 1 1 1 1 1 1 < < 1 1 9 w w w i i i i i p p p m p m M M M M M M M M M D L L L L L L D D D D L D D D D M M M M M M M M B M M M M M M M M M M M M M M m m m m m m m m p i i i i w w w w w w w w w w w w w v v v n N B B D D D D D L W W W D D B B B B B B B M V p p p p p i w w 3 1 1 1 1 1 1 1 < < 1 1 < 1 1 1 9 9 9 1 8 9 9 9 w 9 9 9 9 9 9 8 0 0 0 0 0 0 0 0 0 0 9 9 9 9 9 w w w w w w w w w i i i i i i i i w i i w w w w w w w w w w w w w 9 9 9 w w w w w w w q q q q q w w w w w 9 w 3 3 w w 9 1 3 1 3 3 3 3 3 3 3 3 3 3 w w w w w w w w ",
"9 9 9 9 3 3 9 9 3 3 3 3 3 3 3 3 1 1 1 1 1 1 1 1 3 3 1 3 3 w w w 1 1 1 3 w w w w i i w w w w w i 1 3 i i w 3 1 1 3 w w w 3 w w w 3 1 1 1 1 1 1 1 1 1 1 1 1 1 3 1 1 1 9 9 9 9 9 9 1 1 9 9 w w 9 w 3 1 1 1 w w w w 3 3 3 3 3 3 3 w 9 9 9 9 q w w w 9 9 9 q q q q w w w w w w 3 w 3 w w w w q 3 w w w w w w w w w 1 1 1 1 1 1 1 1 1 < < < < < 2 2 2 3 3 1 3 3 3 3 3 < < < 3 3 < 2 < 2 3 3 3 3 3 3 3 3 3 3 3 3 3 3 3 2 3 3 3 3 3 3 3 3 3 3 3 3 3 3 3 < < < < < < < < < < < < < < < < 1 1 1 1 1 1 1 1 1 1 1 1 1 9 9 9 1 1 1 1 1 1 1 1 1 1 1 w w w i i i i n m m m m m m M M M D D B M B D D D D L L W W Q W W L L W W Q W W L L D D D B B D D D B B B M M M N M M N M M M M M M m m p m m m p p p p p n n n n n n n m m m m m N N N N B D D D D D D D B D D F D S B m B N N M B B M m m m V V V V n n i i i 3 3 3 3 3 w w v v w w w w 1 3 3 3 3 1 < < < 1 w w w 9 i i 9 9 9 9 9 9 9 9 i i i i i i w w 3 3 w w w 3 3 3 w w w w w w c w w w w w 3 3 3 w 3 3 3 3 3 3 3 1 9 9 9 9 9 w w w w q w 9 q w w w w w w q w w q q c w q 3 3 3 3 3 3 3 3 3 3 3 3 3 3 3 3 3 3 3 3 3 ",
"9 9 9 9 3 3 3 3 9 9 9 9 9 9 9 9 1 1 1 1 1 1 1 1 1 1 1 1 1 3 3 3 1 1 1 1 w w w w i i i w w w i w w i i p i w 3 3 w w w 1 1 1 1 < 1 < < < < < < < 1 1 1 1 1 1 1 1 < < 1 1 1 1 1 1 1 1 3 3 1 1 1 1 1 1 1 1 1 1 1 3 w 3 3 3 q q w w w w w w w w w w q q q w w w w w w w w 3 3 3 3 3 3 w w 3 3 3 w w w w w w i w w w w w w w w w w w 9 3 3 3 2 2 3 3 3 3 1 3 3 3 3 3 3 3 3 9 9 3 3 3 3 3 3 3 3 3 3 3 3 3 3 3 3 3 3 3 3 3 3 3 3 3 3 3 3 1 1 1 1 < < < < < < < < < 1 < < < < < 1 1 < < 1 1 1 1 1 1 1 1 < 1 1 1 1 1 1 1 1 1 1 1 1 1 1 9 w w w i i p m m n p m m m m m m m m M M D D D D B D D D D D L W Q Q Q Q Q W Q Q Q Q Q Q Q Q Q Q L L L W L W L D D D D B B B B M Z Z Z M M M M M m m M M M M M M m m m m m m C C C C C C S S D D B B D B m N n n n N m B B N N N B N N V N m V i M m i i n V m m V i i i n i c c c n n n n w w 9 3 3 3 3 3 3 9 9 w i i w 1 1 1 9 i i i i i i i i 1 1 w w w w 1 1 w w i i w w 3 3 w w w w w w w w 3 3 3 3 w w w w w w w w 3 3 w w 9 9 9 9 9 w w w q w w w w q q q q q q q w w q w w q q 3 3 3 3 3 3 3 3 3 3 3 3 3 q q q q q q q q ",
"9 9 9 9 3 3 3 3 q 9 9 q q 9 9 9 1 1 1 1 1 1 1 1 1 1 1 1 1 1 1 3 1 1 1 3 3 w w w i i i i i i i w i p m m i w 3 1 1 9 9 1 1 3 w 1 3 3 3 3 3 3 3 3 3 3 3 3 3 3 w w 9 9 w w w w w w w w w w w w w w i i w w w w i i i i i i i i i n v v v v v v w w w w w w w v v n w w w w 3 3 3 w w w w w w w w i i i i i p m p i i w w w w w w w w q 9 3 < 1 3 3 3 3 2 2 3 2 3 3 3 3 3 9 9 3 3 3 3 3 3 3 3 3 3 3 1 1 < 1 1 1 1 1 3 3 3 3 3 3 3 3 1 1 < < < < < < < < < < < < 1 1 < < < < 1 1 1 < 1 1 1 1 1 1 1 < < < < < < < < 1 1 1 1 1 1 1 1 9 9 w w i i i p m p p n m m m N N N N N M B B B B B B B B B B D W W W L L L L W W L L L W W W W L L L L L L L L D D D D B B B B M M M M M M m m m m m m m m m m m m m m m m m m m m m m m m N N m N m m n i i i i i i i i i n m N N N N N n i i i m p i i N N B N V V V V N N n n v v v n n v w w w w w w w n n V w w w i i i m m w i w w w w w w w w i i n n n i i i i i i i w w w w w w w w w w 3 3 / i i i i 3 i i i w 3 / i w 9 9 w w w w w w w w w q w q 3 3 q 3 3 c c c c c c c q 3 3 3 3 3 q q q q q q q q w w w w w w w w ",
"w w w q q q 9 9 3 3 9 9 9 9 3 3 1 1 1 1 1 1 1 1 3 3 3 3 3 3 3 1 w w 1 w w w w w 1 3 i p m V i i i p p i w 1 < < 1 w w w i m N m i i n i n i n n n i n i n m N m M M M M M M M M D Z Z Z M M M M M M M M M M M M m m m M N m m m n n n n n i n i n i n i n n n n i i w w w w w i w i w i i i n m m p p p m M M M i i i w w w 9 1 w w 9 3 < 1 3 3 3 3 3 2 3 2 3 3 < 2 2 3 3 < < < 3 3 3 3 3 3 3 3 < < < < < < < < < < < < < < < < < 1 < < < < < < , , , 4 4 < < < < < < < < < < < < < < < < < < < < < < < < 1 1 1 1 1 1 1 1 1 1 1 9 9 9 9 w w i i i i i i n n n m M N N m N N N m N M B M N M B D B B B B B B D D B B B B B M M M M M M M M M N N V V m V n n n p p p p p p p p i p p p p p p p i p p n n n p p p m n n n n v v w i n i i w w i n m i w w w i m m n N N M m m m m i i w i N B B B M M M M N n n n n n n n n n m N N N N N n n i w B m n n m m i i p p m m m m m m m m m m n n n i p p p p i i i i w w w w w w w w i i i i i i 3 1 w w 3 3 3 3 3 1 9 9 i i i i w 9 w w w q w q 3 3 q 3 3 q c q c c c q q 3 3 3 3 3 q q q q q q q q q 3 q q q q q q ",
"9 9 q q 9 9 9 9 3 9 9 9 9 3 9 3 1 1 1 1 1 1 1 1 1 1 1 1 1 3 3 3 w 9 9 1 1 i i i i M 4 p M 1 M w 1 V i i 3 1 i i m w 9 p m p n m m i w i m m V i i i i p m m m M m p p p p p p p C C C D D L L L M Z Z M a a M Z i p m m m m m M i p p p p p e p p p n n p p p p i i i i i p p p i p V p m p p i p p p p p p m m w p e w w e w 8 w 9 3 3 3 3 3 3 < < < < < < < < < < < < < 3 3 3 3 3 2 2 2 3 3 3 3 3 3 3 3 3 3 3 < < < < < < < < < < < < < < < 1 1 1 1 1 < < < < < < 1 1 < < < < < < 1 < < < < < < < < < 1 1 1 1 < 1 1 1 1 1 9 w * 9 i p p i p m 9 i p m m i p m m m m p n p n m i p m M M M M m D M M M m m m p m m m p i w w i m w 1 w p i w w w w w w w w w w 9 9 9 1 9 1 9 9 9 9 9 t i i p p p p p p p p p p 9 9 w p w w v n w p p p m Z D D m m m m m D D D N N n m W 3.C.C.! m Q D w B N B N N N N m m m m w i n n n n n i w i N n w w i i i i i p m m i w p i p p p M M p i p M m n i i n p p i i w w i i i i i i w w w w i w w i i i i i i i i i i 3 3 w p 9 t i 9 1 w i w w 9 9 q q w q c c c c c c c c c c c q q c c c 3 3 3 3 q q w c w q w w q w q q ",
"9 w q w w w 9 9 9 9 q w q w 9 9 1 1 1 1 1 1 1 1 1 w w w w w w w i i i i 9 w w i 9 m 9 M M i M w i V i m p w m i M m m p M C C C D M p p p m m m Z M Z M M p i i m p m M C C D D [ I I J D Z Z D H H Z Z Z a a a Z Z M a i i w w p p p p p p p p m p m p n p m m p a M M M a p i p p m M M p p i 0 y p p p p i i p p p w w w w 9 w q 3 3 3 3 3 3 3 3 3 3 3 3 3 3 2 < < < < 3 3 3 3 3 2 2 3 3 3 3 3 3 3 3 3 3 3 3 < < < < < < < < < < < < < < 1 1 1 1 < 1 < < < < < < 1 1 < < < < < < < < < < < < < < < < 1 1 1 1 1 1 1 9 1 9 9 9 w 9 9 9 9 9 9 t i i t 9 1 9 t i p p i i i p p p m p p p p m M Z M M M M m m m p p p m m M m m i m i i i i 9 1 9 i i i i i w w 9 t t t t i i i i t i i i i t t 9 p p p p p p p p Z m n n n p w 9 9 w w w p m m m Z Z D D F F L L D W Q D M Z L P 3.P P ! m D N n D D B B m m m M m p p m M m m Z M M M M M M M M L D M M M M M a a p p p p p p p L L L D D M m m p p p p a p p p p p p p i i i p w 1 3 i i i 3 / i i i i i i i i 9 t i 9 1 w i w w w 9 9 q q q q c c c c c c c c c c q q c c c w 3 3 3 3 q 9 q w q 9 w w q w q 9 ",
"w w w w w w w 9 w w w w w w w w 1 1 1 1 w w w w w w i i i i i i i i i i i p p p M M p m M M L L i n 3 V V 1 i i L P P J J I ` I I ! [ ! [ I P L D Z C M Z H I ! I P L H D D D Z p C Z H H H J J J H f Z Z Z Z a a a C M C Z D D p p m p p p m p p p p p p p M C p a C Z D Z D Z D H L P P P L D f f Z C p p p p m m p w w w w 9 w q 3 3 3 3 3 3 3 3 3 3 3 3 3 3 3 3 3 3 < < < < 3 3 3 3 3 3 1 1 1 1 1 1 1 1 1 1 1 1 1 1 1 1 1 1 1 < < < < < < < 1 < < < < < < < < < 1 1 < < < < < < < < 1 1 < < < < < < 1 < < 1 1 1 9 9 9 9 w w i t 9 9 t p p p t 9 9 t t t t t t t t i i i i p i i t 9 t i p p p i i i i i i t p i 9 9 9 i i i p p m M m p m Z M M M M M M m p a M M M a p p p p p p p p i i i p p p p p p m m D Z m m D D Z m C Z Z C Z D L D ! [ { { { { ! Q ! } 3.{ P P I I { ! D { D D D N B B B N p p M Z P Z C H J H D L P D M Z Z D Z Z Z Z M a a M M Z H Z Z H H M M Z a M M Z L L L L M Z Z H H H Z Z M M M m m m p p M M M M M M M M p p p p p p p p 9 p i 1 9 p p < 1 9 9 w q q w w w w w w w w w w q q q q q w w w 9 9 3 1 3 9 9 w 9 w q w 9 w 9 w ",
"w w w w w w w w w w w w w w w w w w w w i i i i i i i i i i i p p p p M M M M M D M M M M L D W V n 3 i i 1 p Z {  .` ` ' ) ) K J P I I P J J J {  .I P J H H J J J L P L P J J H J I ` I J H s H g g g H J H Z J J J J H Z Z C C C C f M a C f M f C f C Z L I J Z Z f f Z J I P I I `  .{  .{ ` ` I H f a Z L D D m w 9 w w w w q 3 3 3 3 3 3 3 3 3 3 3 3 3 3 3 3 3 3 3 2 < < 3 3 3 3 3 3 1 3 1 1 1 1 1 1 1 1 1 1 1 1 1 1 1 1 1 < < < < < < < 1 1 1 < < < < < < < 1 1 < < < < 1 1 1 1 1 1 1 1 < < < < < < < < 1 1 w w 9 w w w 9 i p p a a a p Z a y t y y t 6 y p t t t t t t t t p p p p t t p i i i i p i i i t i t t t i p p p p i i t p p 9 t i i i t p p p p p i i i i i a a a a M M M M m a C f C C C C Z m m m D L L L D L L D L P I I L L L P Q Q P P {  .! { 2.r.;.I I { P { P i L F N N N V i p H I I I ` ` ` ) ` `  .P Z Z H Z Z Z P I ` :.:.` I I P H J U J Z Z H H L L L Z Z M a H H H H H H H Z L L H H Z Z Z M p a p a a a a a M a M M M M M M i a p 9 i p w < 1 1 1 9 9 q w w w w q q q 9 q q w w w w w w w w w w 9 9 9 9 9 9 w w w w w w w w ",
"i i i i i i w w 9 w w i i w w w i i i i i i i i i i i i i i p p M M M M M M M a p p Z Z Z L M M M n 3 V i 1 H -.D.9.<.1.u.$.] ) ' ` K j f g K ` J J ` ` ` J g a I I I I I J J Z I K K I ` K k s j J K K J J J K J K K I J Z g g A J D Z Z Z Z Z D Z A J L I { 4.d.<.' J Z Z J J I K J J J I ` ` ` ` I J A Z L P L L Z p 9 9 w w w q 3 3 3 3 3 3 3 3 3 3 3 3 3 3 3 3 9 3 3 3 < < 3 3 2 2 3 2 3 3 1 1 1 1 1 1 1 1 1 1 1 1 1 1 1 1 1 1 1 1 1 1 4 1 1 1 1 1 1 4 4 4 1 1 1 1 1 1 1 1 1 1 1 1 1 1 1 1 1 1 1 1 1 < < < 1 9 w w w w w w 9 p M a p p p t f u r r u s k J j g f f s s s s u u a s a u y y a a a a f f C f p Z I I I H Z Z D H D H H Z C a C H I P H H L I P P L H H L L P Z Z Z Z Z H L L D H H H D D D Z Z Z Z Z C Z D D D F F D D L L F F F L P Q [ { 2.Z.q.r.8.d.w.r.:.-.Z.J.V.Z.9 F D N N N p i a U :.K $.1.1.<.y.1.$.:.` I J J Z Z J :.<.<.<.1.<.<.<.f.1.1.1.:.' ` ' I ` ` ` J J J J H H Z Z g f f f f f a a p a a p p p p a a a a a p p p p a a a a M Z p p Z p 9 9 1 1 1 9 9 w w w w w 9 w 9 w 9 w w w w w w w w w w w w w 9 9 w w w w w w w w w w ",
"i i i i i i i i i i i i i i i i i i i i i i i i i i i i i i i i i i p a M M Z Z M H Z Z Z Z L L n N 3 i 1 1 ! Z.I H g k ( ( ( ( ` ) ) J J g s y j k J J K ) ` ` I I I ` ` <.<.<.:.) ) K ` ` $.$.` $.<.<.$.` $.$.) ` ) ) ' ) ' $._ I I J J A Z Z Z A J J I ` ,.8.Y.G.F.g.f.<.<.' ' ` K J J J J K J I ` '  .` _ P P P D p w 9 w w w q 3 3 3 3 3 3 9 9 9 9 9 9 9 9 3 3 3 3 3 2 3 3 3 3 3 2 2 2 3 3 1 1 1 1 1 1 1 1 1 1 1 1 1 1 1 1 1 1 1 1 1 1 4 4 1 1 1 1 1 1 4 4 1 1 1 1 1 1 1 1 1 1 1 1 1 1 1 1 1 1 1 1 1 1 1 1 1 9 w w w w w i w a Z a a H U I J K K $.%.%.$.$.K K ` ) $.<.1.1.<.$.$.) ) ) ) $.,.-.-.,.r.r.r.r.8.r.,. .I J J J H I -.w.Z.D.Z.8.D.J.K.J.D.Z.D.K.6.3.{ ! P P P P { {  .! !  .{  .{ { {  . .` ` ` [ { {  .` ! [ { [ [ [ [ I [ [ [ +.{ { { O.4.6.q.w.d.Z.d.<.{ :.8.` 9.W.J.W.Z Z m D B m i p Z ` 1.$.1.j.j.j.k.k.l.1.:.' ) I J J ) K K ) $.<.u.g.l.u.u.<.) K ) ) K y u s j g g H J K K J J J J J J a a a a f f f f a a a a a a a Z H H H H P P J P H P a a P M 9 p 1 1 3 9 9 9 q q w w w w w w w w w w w w w w w w w w w 9 w 9 w w w w w w w w w w ",
"i i i p p i i i i i i i i i i i i i w w i i i i i i i i i i i i 1 1 9 i i a M Z H ! L ! ! L ;.! n N 3 3 1 i -.Z.F.T.P.l.k.(.=X$XsXzXzXzXsXwX%X).Y.F.g.u.<.$.$.$.g g g J ` <.F.Y.G.Y.G.z.f.u.u.l.g.l.z.z.z.l.g.g.Y.F.z.u.$.` ' $.<.' ' ` I K K J Z J J J I ` { <.F.F.Y.T.T.Y.F.z.f.u.y.<.<.$.` ` ` ` ' <.<.,.` L P I F p w 9 w w w 9 3 3 3 3 3 3 3 3 3 3 3 3 3 3 3 3 3 3 3 3 3 3 3 3 3 3 3 3 3 3 1 1 1 1 1 1 1 1 1 1 1 1 1 1 1 1 1 1 1 1 1 1 1 4 1 1 1 1 1 1 1 1 1 1 1 1 1 1 1 1 3 3 1 1 1 1 1 1 9 9 9 1 1 1 1 1 9 w w w w w w i w M H H I t.D.D.D.G.~.~.~.z.1.&.g.l.l.l.F.F.G.G./.T.T.G.G.G.G.G.Y.Y.Y.Y.T.Q.T.T.K.D.<.` ` ` ` ` ` ,.9.9.d.Z.Z.f.D.Z.f.d.d.d.f.Z.W.L.K.J.D.D.Z.V.w.6.r.2.-.-.-.<.,.<.,.<.:.:.:.-.,.,.,.,.,.4.,.-.{ { { { { ..+.{ _ _ I P L L F A I J K J j f H I J I r.J.W.q.p m B m m p Z ` l.T.(.x.j.n.m.n.n.^.l.<.$.$.<.` ` $.) ) <.l.T.^.(.^.T.~.G.u.l.T.T.l.T.Y.F.F.F.l.f.<.$.$.$.$.$.$.$.:.:.:.:.:.,.,.,.,.d.d.f.d.d.9.9.9.9.9.9.9.9.f.f.d.I r.I Z P Z 9 p 1 1 1 1 9 9 9 9 3 3 3 3 9 9 9 9 w w w w w w w w w t w 9 w t i i i i i i i i i i ",
"i i p p p p i i i i i i i i i i i i i w w w i i i i i i 9 w 9 9 i i 9 1 9 9 9 t 9 I P D.Z.I ;.M n N w 3 i Z 9.D.,XcXgX#X(.sXbXgX>X%X(.Y.Y.Y.G.F.(..X%X%X#XT.z.u.D.<.K s t y s g ' f.F.G.z.g.F.Y.P.G.Y.T.(.(.T.Y.T.Y.z.1.<.<.u.g.<.<.<.' ` ` I K K K I ` ` ' <.<.<.u.g.F.G.F.F.z.F.F.F.F.z.g.f.y.<.<.' ' ..{ P Z P I L p w 9 w w w 9 3 3 3 3 3 3 < < < < 2 2 2 2 3 1 3 1 3 9 9 9 3 1 3 1 3 1 3 1 1 1 1 1 1 1 1 1 1 1 1 1 1 1 1 1 1 1 1 1 1 1 4 4 1 1 1 1 1 1 1 1 1 1 1 1 1 1 1 1 3 3 1 1 1 1 1 1 w w w 9 9 1 1 1 9 w w w w w w i i Z P I 1.F.G.F.l.l.x.G.~.XX-XdX%X%XXX/.G.F.l.f.l.l.l.l.l.f.1.<.f.9.9.9.f.f.f.d.f.9.8.Z.K.Y.D.8.%X%X.Xf. .I I `  .I J J I ` ` ` P I  .-.3.r.r.r.-.-.{  . . . .-.I I ` I `  . . .{ I I P I P H C D L L D D L L L M C C D D D Z C { J g j J J J J ` I J Z.D.W.p Z M N m Z  .D.XX-XgX).x.~.).~.~.#Xl.<.` $.1.<.$.<.$.u.F..X;X%X.XT.f.F.f.$.1.T./.l.Y.F.g.g.F.D.1.$.$.$.<.1.9.9.1.1.9.9.8.8.<.,.:.:. .` ` ` I I I J ` ` ` ` ` ' { { { D.<.Z L Z 9 w 9 9 9 3 3 3 3 3 3 3 3 3 9 9 9 w w w w w w w w w w t t t t i i p i i i i i i i i ",
"p p i i i i i p i i i i i i i i i i i i i i w i 9 9 w 9 1 9 i i 9 t y i y t y y a a f P J.J.P P D w w w t = :.DXHX-X-Xk.~.~.l &.) ` ,.9.f.<.{ :.,.9.d.d.f.d.g.D.T.T.J.d.I f y t y s J <.l.G.g.:.1.<.<.1.F.T.(. XXX.XT.G.F.l.g.g.f.9.<.:.' ` I J ` ` ` ` ` ` ` ' f.g.g.g.z.Y.(.#X(.(.T.T.XX-X%XT.d.d.d.8.,.<.` I P L D p w w w w w 9 9 3 3 3 3 3 3 3 2 2 3 3 3 3 1 1 1 1 1 1 1 1 1 1 1 1 1 1 1 1 3 3 3 3 3 3 1 1 3 3 3 3 3 3 3 1 1 1 1 1 1 1 1 1 9 9 1 1 1 1 1 1 , < 1 3 w 3 w 3 1 1 1 1 3 3 w w i i w 3 3 1 1 1 w w w w i i i p a % F.1.(.x.k.T.Y.Y.F.u.%.&.&.1.) I K J K ` $.<.<.<.<.$.' ' ' ' { {  . .` ` ` ` ` `  .,.d.J.Y.Q.F.,.L Z D f a p p p a a p p p y a p a y t p a Z C C C f f Z Z Z L H H M a a a a i p a a M Z Z Z L Z M Z L L Z p p p a M Z H Z M H J I J J H H J Z  .J 8.{ A.H C D n n P I l.bX7X-X=X}.=XaXcXsXwXxX-XF.' ` $.1.g.Y.%X:X/.F.F.f.` 9.r.<.<.` H H U P P J J I ` ,.r.9.` :.8.` I I f Z H H Z Z H H Z H Z C Z J I J H J I J I :.` ` ,.<.g.Z.I H L 9 n w w w w 3 3 3 3 3 3 q q w w w w 9 w i i i w i i i i i i i i t t p i 9 t p p p p ",
"m p p p i p p p i i i i i i i i i i i i i i w w 9 9 9 9 1 9 i i 0 0 y p a a a a J  .I ` 9.f.f.Z.M w i i t t f.DX&.].j.-X#X*.1.<.f.w.8.r.-.`  .-.I I I I H Z H J f I 8.F.F.f.` J y y t 0 y f f y s u u u a s a a u a f J K ' <.f.D.D.g.f.9.<.' ` J J J J J I <.g.<.$.$.$.<.u.g.g.(.(.Y.F.Y.T.G.f.`  .' ` { ,.{ I P J C p w w w 9 w 9 9 3 3 3 3 3 3 3 3 2 3 3 3 1 1 1 1 1 1 1 1 1 1 1 1 1 1 1 1 1 1 3 3 3 3 3 3 3 3 3 3 3 3 3 3 3 1 1 1 1 1 1 1 1 1 1 1 1 1 1 1 1 3 3 3 3 3 3 3 3 3 1 1 1 3 3 3 3 i i w w w 3 w w w w w w i i i i 9 p J ~.^.^.#Xx.&.) K <.1.$.K ) a a f f g J J I ` ` ` I I ` ` ` `  .` I I I I P  .I I J H Z f a y 0 0 p f f C Z f f Z Z D D D D a C Z Z Z Z Z D f f f f f Z Z Z M a a a M M M M M M M a a M M M Z Z H L H Z M p M M M Z Z H H H Z Z J I I `  . .H f a { I { T.p p n w y a ) cX).=X`.m.n.(.-XeXdX%X.XG.g.u.f.F.G.G.F.{ y 6 y f f I P  .-.I Z a Z p p t t 9 9 9 9 f 0 a D f C H f a Z C a p f f p C C C f f f f f Z P I ` { ` I :.f.u.g._ Z C 8 w w w w 9 3 3 3 3 9 9 9 w w w w w i i i i w w w i i i i i i i i i p i i i p M M M ",
"m m p p p p p p i i i i i i i i i i i i i i i i 9 9 9 9 1 9 i i t y p p C Z Z Z y I H I ` d.Q.Z.9 w i 9 1 t l.DX~.1.&.u.7 r J s J H Z f a a a Z a a f a a p a a Z f a f I ,.9.f.` I f t 0 y y y y y u u u y y t s s s a a a s f ` ` :.<.9.<.<.' 9.` H K <.F.F.g.J J J J ) ` K J K ) ` ' <.l.l.f.{  .` ` { ,.<.` P H p 0 w i w 1 w 9 9 3 3 3 3 3 3 3 2 3 3 3 3 1 1 1 1 1 1 1 1 1 1 1 1 1 1 1 1 1 1 1 1 1 3 3 w w 3 3 3 3 3 3 3 3 1 1 1 1 1 1 1 1 1 1 1 9 w w w w w w w 1 1 1 w w 3 3 1 3 3 w w w i w i w w i i i 3 w w w i i i i - p u -X).-XcX(.u.$.` $.<.$.) ) J J I I ` ` I I J J J I I I ` ` ` ` I I I P J J Z Z Z Z Z Z f a D D L L D C Z J H H J L P I I I L L J H H Z Z f C C Z Z Z Z C a p a M M Z Z H H M M M M M L P P M L P L M a p M M Z Z Z M M H H J H Z H P I I P { J I ,. .w.Z.* M W m 9 Z $.DX7X&.&.&.$.l s r - + 6 s ` ' :.,.,.t t 0 y a f f y Z a a Z a t p M a a a a p p p t p 0 p a a f Z C f Z C f f C f a p C Z C a p f H f P I I ` I I <.f.$.8.{ C p 9 w 9 9 9 w 3 3 3 3 9 9 9 w w w w w i w w w i i i i i i i i i i p p i i i p a Z Z Z ",
"m m m p p p p p p p p p p p p p i i i i i i i i i i i i i i i p p p a C D J H Z J -.I :.<.D..XH < w i 9 1 y l.bX#Xu F.s - K f u t t p f f a a a a a f f f f Z H Z a y y a g H H ` ` I H f f f f u a s g g H H J J J J H g g g H y a f J I ` I I <.K f J <.9.' J f s f g J J J g g k J J J ) ` K ,...{ ` { ,.<.<.I Z p 0 i i w 1 w 9 9 3 3 3 3 3 3 3 2 2 3 3 3 1 1 1 1 1 1 1 1 1 1 1 1 1 1 1 1 1 3 3 3 3 w w w w 3 3 3 3 3 3 3 3 w w w w w w w w w w w w w w w w w w 3 1 1 3 w w 3 3 3 3 3 w w i i w w w w w i i 3 w w i i i i 9 p 6 ` >Xx.n.^.&.l.T.Y.<.` <.<.K J I I ` ` I I I I I I I ` ` ` ` ` ` I I I P J P I I I I I I J Z H L L H Z Z J I J J H H H J J J [ I D Z Z Z Z Z H H H D Z Z C f Z Z H L L L H Z M M Z M Z L P P M H L H M p p M p M Z M M M Z H L H Z Z Z Z J P Z Z I J I OXa * N D p 9 ` ) ZX).k.j.=.) j s t 6 u J ` ) J a 0 6 Z a a f Z Z C a a p t t t t p a p p p a a a Z Z Z C C Z C C C C C D Z C C Z Z C p C D Z f f H I Z J J J I I ` f.f.) ,.<.Z 0 w w 3 9 w w 3 3 3 3 w w w w w w w w i i w w i i 9 1 i i i i i i i p i i i p a M Z Z ",
"p p p p p p p p p p p p p p p p i i i i t t i i i i i i i i p p f C f Z D D H Z J ` H { -.J.:XP 1 n i i t f F.rXy K ' s :.H a J a a Z J J Z a f Z Z Z f f f f f a a f Z f f a y f Z J J H Z f f f g g g f f g H f f g H j H J K H g g H H H g f s H K K j s s s s g Z g Z g H J K K I J J J J Z _ _ I J K _ ,.g.I Z p 0 i p w 1 w q 9 3 3 2 3 3 1 3 3 3 3 3 3 1 1 1 1 1 1 1 1 1 1 1 1 1 1 1 1 1 w w w w 3 3 3 3 w w w w w w w w w w w w w w w w i i i i i w w w 1 1 3 3 3 w 3 w 1 1 1 1 w w w w w 9 9 1 9 9 w w 9 9 i i i t 9 9 p t $.bXz.&.&.s J u.g.<.$.<.$.J J J J J I I I I ` ` ` ` I I I I I I I P P P P P I I P J J H Z Z f C f a f Z D J D D D Z Z Z Z D I J Z Z D L P P Z D Z Z Z Z C C Z Z Z Z Z Z M M M Z Z M M M a p Z M M M a a M Z p a M M a M Z H D J J Z Z J  .8.r.-.{ J P %XZ p i m i p <.j #Xk j.*.( s y s f f 0 6 9 6 0 p f Z I D a p p y p p i t t p p p p p p p i t i p p p y a p p a a p p a C C p p f f p f f f f a f Z J H J H J ` ` ` <.f.$.<.d.H 0 i w 1 1 3 1 3 w w 3 w w w w w i i i m m p i i 9 * * t t t t i i i i i i p p p p p a ",
"p p m m m p p p p p p p p p p p p p i i i i i p p p p p p p p M f f C C C Z H P J I H J J d.%XJ.1 w w i t Z K.:Xu :.y a t 0 0 f p a f Z Z f a f Z Z f f f a a a a f Z f a a f H f f Z H H g g H J J J J H H J J K K K J H g g g ` I J J J H H g g J K J j g H J Z J J J Z g Z J Z A J J L I ` ` I P K J g Z ` f.I Z p p p i w w w q 9 3 3 3 3 3 1 3 2 3 3 3 3 1 1 1 1 1 1 1 1 1 1 1 1 w w w w w i i w w w w 3 3 w w w w w w w w w w w w w w w w i i w w w w w w i i i w w 1 1 1 1 1 1 w w w w i i 9 w 9 9 9 9 9 i i i i i i t 9 & a s DX~.&.u.#.k g Z ` <.$.) K :.{ { ` ` I I I I I I J J H H Z H H H H H H H H a a a a f Z Z Z D H H D D D Z p Z Z Z Z D D H H D Z Z Z Z C a p a p f f f C C C M Z Z Z Z Z M Z a Z Z Z Z Z a p Z M p p M M Z Z a M Z Z Z Z D H Z J J H Z J { d.K.d.w.d.,.Z.D.+ M m i a 9.$.XX%.&.&.( J J Z y 7 f a p p a a a p 9 0 p M p p 0 i p 9 = = 9 t t p a a p p p a M Z p Z C a Z C p C a C C p p f f p D Z f f C C f f H J J I { I J K 9.1.8.f.L 9 0 9 1 1 1 3 w w 3 w w w w w i i i i i i i p i i 9 1 i i i i i i i i i p p p p p p p ",
"m m m M m m m p m m m m m m m m p p p i i i p p p p p p p p a M p f Z Z Z H I -.D.d.9.:.J :.J.J.1 i 1 i 1 a K.:X:.t f J - L m p p a C H J Z Z D p p p a f f C f t a H J g a a s Z s a f f a f f H g g H J K J J K I ` ` K K K I J J J J J J J J J Z a f J I J f J J A J D Z D Z P P L J A D A J _ _ I K Z Z I ,.I Z p p i w w w w q 9 3 3 3 3 3 3 3 2 3 3 3 3 1 1 1 1 1 1 1 1 1 3 3 w w w w i i i i w w w w w w w w w w w w w w w w w w w w w w w w w w i i i i p i i w w w i i 3 1 3 3 w w w i i i i i i i i i p i i i i i i t 9 a u AXj.#.) j <.J Z I { I K ) ` ` I I J H Z Z I J J H Z Z Z Z Z Z Z Z Z Z Z Z H D C f a p a a t a f f C D D Z Z Z Z D D Z D Z f f C a p y 0 0 a a a p p a f C M M Z Z Z H H H a Z Z Z Z H H Z Z a a a Z Z Z Z Z Z Z H Z Z Z Z H J P H Z Z I { P J J r.{ r.J.% m w i = I l.%XG.K J j f Z J D C 0 y a f C p 0 8 C Z p w 9 9 w i t t 9 9 t p p p p p p p a a a a f I H a Z Z p Z C Z Z C f Z C f J H D Z Z Z Z f Z J J J I J H I ' f.,.,.I 9 9 9 1 1 1 9 3 w w w w w w w i i i i w w i p p p m M p p p p p p p i p p a a p p p p ",
"m M M M M M m m m m m m m m m m a p p p p p p a p p p p p p p M a C D D D I ,.Z.8.I :.:.{ 8.d.D.p M i p 1 p L.:XP 9 Z p p p m p p p Z L J C a a p a a p p a a a f f f f a a g J I J Z H J Z Z H H H J K ) ' ` J J J K K J J J J H H H J J J J J I I J J J J J H D Z Z D J L A Z J A D A L L P I A A J J K J ` ,.P f p p i w 9 w w q 9 3 3 3 3 3 3 3 3 3 3 3 3 1 1 1 1 1 1 1 1 1 1 1 1 w w w w w w w w w w w i i w w i i i w w i w w w w w w w w w w w i i p m m V i i w i i m M 3 3 3 3 3 w w i p p p p i i i i p p i i i i i i Z = J -Xu.*.&.&.J ` -.{ I J H f f Z Z H J J J J J J H Z Z H H J D Z Z Z C C f f a a a f Z Z Z f C D Z p p p Z Z Z Z Z Z Z f a p p a p p y p f Z C C a p a a p p a a a a Z Z H H Z Z Z M M Z Z M a M Z Z Z Z Z Z H Z Z H H Z Z a Z H J J H J I I I r.Z I J D.J p i m Z t H D.T.<.J K K J D D C p p p p p p p p p w p p p p p p w 1 t H  .<. .Z 9 p p a a a p t 9 8 a y 6 y p t f C Z Z f f Z C a C Z Z Z C C Z Z f H Z f Z g J <.J u.' ` I 9 0 w 1 1 1 9 w w w w w w w i i i i i m m m p i i m M p p p p p p p p p a M M M a a M ",
"M M M M M m m m m m m m m m m m C a p p p p p p p p p p p p p C Z C C Z D I ,.Z.8.Z.,.` <.<.8.J.i 3 i p t M Z.oXP M p p M M m p p Z D a p C Z f p p p p a p f f Z u u H I K f a s I I g J ,.{ f H H J J ` ' :.<.9.' ` K J J I J J J J J J J J J J J J H H H H H D D D D D Z Z Z D D H H J J J L A J I A J f ,.{ f a p t w w w w w w 1 1 9 w 9 1 1 1 1 1 1 1 1 1 1 1 1 1 1 1 1 1 w w w w i i i i i i i i i i i i i i i i i i i i i w i i i 9 w p i i p p m p i w i i i w 9 9 i m w w i i p i i i i i i i i i i t a i p i p i 4 i a = <.-Xu.I.$.( ` ' ` I L H j j Z H H J J J H H Z Z Z Z Z Z H H C C Z Z Z Z Z Z a f Z f a a p a a a p p p p a a Z C C C f a p p p a a C Z Z Z Z Z Z C C f f f C Z Z f a f f C C f f f f f f C C H H L I ` I J Z f C Z Z Z Z Z Z Z H J Z Z Z Z f 8.D.,.I I D.P t p p i t H D.D.I U J J P H C p i p p p i p p p p p p p p i w w 9  .-.-.I a t t p p p p t t t t t D C p p y y y y a p a Z Z a C J J Z f Z Z a a Z H H H H H Z Z g <.u.` { P 0 p 9 3 1 1 w w 3 w n i i i i i i p p i p m m p p p p a a a a a a a a p a a M p a a M ",
"M M M M M M m m m m m m m m m m a a p p p p p p D C C C C M C D Z Z Z D H J ` ,.8.r.I J ,.D.f.r.M i i i t Z V.L.P Z p p m m m C p a p p a p p f f p a p a a a a a a f J I K J J Z J J H J ` ` I ' ' ' ' :.:.<.<.9.:.` ` H H J g J J J J J J J J H H H H H H H H D D D Z Z Z Z Z Z Z D H H J J L J P ` J J Z f.,.a a a t w w w w w w 1 3 9 w 9 9 1 1 1 1 1 1 1 1 1 1 1 1 1 1 1 1 w w w w i i i i i i i i i i i i w w i i i i i i i i p p i 9 w p i w 9 9 w w i i p p i i w 9 w i i i i i p p p p i i i i i i i i i t p i i i 1 p p t <.>Xu.j.) k ) _ L J D D H H J J J H H Z f f f f f f f Z f Z Z D Z Z Z Z Z Z Z Z H H Z C C Z f C f f f a a a f f f a a p p p a a f C Z Z C C f C C C Z Z H H D D Z D D D D Z a f f f C C Z Z Z J I I I L D Z H H J J H D D Z Z P I P J J I I H { { { w.J.I 9 p i i i L Z.D.U U H J P H C p p p p i i i p p p i i i i i w w w * 1 9 t t t p a p i t t t t p p f a p a a a f a a a f Z Z f C D D Z Z D Z f f Z Z Z g Z Z Z Z g <.<.' { P t p 9 3 1 1 w w 3 w n i i i i i i p p p p m m p p p p a a a a a a p p a p M M a p M M ",
"M M M M M M M M M M M M M M M M M a a p p p p p a p p p p f C Z Z Z J P L D J I -.-.I f H d.K.D.Z p i / / ^ 3.H.Z M m m p i p M M p p a p t p C C C p p p p p a p f J ` I J I :.J f f J J J I <.<.<.<.<.:.:.' ` <.:.:.` J H J H J J J J H H Z Z Z Z Z Z H H H H Z Z Z D Z Z Z Z Z Z Z D D H H H A J I Z J Z p.,.a p p i w w w 9 w w 3 9 w w w w 9 9 1 1 9 9 9 9 1 1 1 1 1 1 1 1 w w w w w i i i i i i i i i i i w w i i i i i i 9 i p p i 9 9 i w w i i w i p p i i i i i i p p i i i i p p p p p i i i i i p p i i M p i i 9 a t p ' >Xz.&.( k J J D D D D H H H H Z Z C f a p a a p p f f f C D D D D D D D D D D H D D D D D Z Z Z Z C C f f f f f a f a a a Z Z Z Z C f f f a f f C Z D H J H H H J P J H Z f f f Z Z Z H H Z J I ` I H Z Z P P P J H Z Z Z f J I P H J I ` P ` ` I Z.d.I t p i i i L D.f.H H H J L L C p p p i t t i i i i p p p p i i i p i t 9 9 t t 9 9 9 9 9 9 9 t p p C f f C Z J L L f Z H D D D D C C D D Z Z Z Z a f f f Z Z H H j ` <.{ :.L p p w 1 1 1 w w w w n i i i i i i p p p m p p p p p p a a a a a a M a a a M a a a a a ",
"M M M M M M M M M M M M M M M M M a a f f f f f a Z D Z Z Z Z f H H J I I J J I I I ` J H <.J.Z.M p i / 1 ^ 3.V.M a a M M p i p C p p p p p p C p p p M a a p p a H ` ` J H I :.I Z f H H f I 9.' ' $.$.:.' ` ` :.' <.:.J J I K H H Z Z Z Z Z Z Z Z Z H H H H J J H J J D H Z H Z Z Z Z Z Z Z H D A J Z J Z 8.<.a y 0 t i w 9 9 w w 9 9 w w w w w w w w w w w w w 1 3 1 1 1 1 w w w w i i i i i i i i i i i i i i i i i V m m m i i p M M m p i 9 i m M M p i i 9 9 w w i p p i p p i i i p p p a p i i i i p p p i Z M i i t i t a J %XU.1.$.K A A L L L L Z Z Z C C f C C C C C f f a f f C C C C C C C C C Z C C Z C C C C C D D D Z Z C Z f f f f C C C Z Z Z Z Z Z C f f f Z Z C C f C C C Z Z H J J J H Z Z Z Z Z Z Z H H Z H I I I L H D P P J H Z Z f f a Z H Z Z H I I ` I I I D.-.I t i i w i U D.w.a H H H J H M p p p i t t i i i i p p m p p i i p a p p a Z Z Z Z t t t t t p a a f f f Z D L L L Z P I H Z J J Z p Z D f f Z Z a Z Z Z H H H J J J ' ,.,.L p w w 1 1 1 w w w w i i i i i i i p p p p p p p p a M a a a a a M M a a a a a a a a a ",
"m m M M M M M M M M M M M M m M p d f C C C f f f Z D C d f Z C H D H L P L P I I f J :.-.<.I t i i i 3 1 M 3.V.P Z a a M a i t p C p p p C C a p p p p p p p a f J I I J H J ` I I J H f Z I ,.` ' :.:.:.:.$.' ` ` <.$.J H K K Z Z Z Z Z Z Z Z Z H H H H J J J H H H H H H H H Z f Z H Z H Z Z J J K A J A p.,.f y 0 i i w 9 w w w 9 w w w w w w w w w w w w w w w 1 1 1 1 w w w w w w i i i i i i i i i i i i i i i p p m M M M a M Z L P Z p i p p a p p i t p p p p p p p 0 p p p p p p p p a a p p p p i i M i L Z i p i i p Z g T.~.u.<.` _ I L F L D Z Z f f f C Z Z Z Z C C f f f f C C C C C C C C C C C C C C C C C C Z Z Z Z Z Z Z Z f f Z Z Z Z Z Z C C C Z Z Z Z Z Z Z Z Z C C C C A D A A J J J Z J D Z Z Z Z Z Z Z Z J I ` _ L A J D Z Z f f f f Z H Z Z H P I J Z H J { W.r.` t i i / i P D.t.a f f H H H a p p p t t t p p i i i i i i t t t 9 t t p p a Z Z H a a a a a Z Z Z p a a a C Z Z C H I P Z C D J Z a C Z f f Z f a Z H H H H H H g H ` 8.,.L p w w 1 1 9 w w w w i i i i i i i p p p p p p p a M Z a a a a a M a a a a a a a a a a ",
"m m M M M M M M M M M M M M M M d d C Z Z Z Z Z C d a a d Z _ 4.D Z C D J L I ` ` J I ` I H y = 1 / i 3 1 ^ 3.3.;.L a p a p p p p a p t p C C p p p p p p p p p f H J J J J I I I ` I J Z J I ` ' ` ` ` ' ' ` ` ` I ' ` g s H g H H H H J J J J H H H H J J J J H H H H H H H H H H H H H H H Z D A J A K J f.<.Z y 0 0 i w 9 w w w w w w w w w w w w w w w w w w w 1 1 1 1 w w w w w w i i i i i i i i i i i i i i i p p m M M M a p M Z L Z p Z M p p p p p p p p p p C L D p p p p p p p p p a a a a a p p i a i P L i p p t a Z f 1.Y.l.%.` ..` F Z Z D Z Z C C C C Z Z C Z C f a a p a a a C C C C C C C C D Z Z D D D D Z f f f f C Z Z Z f f f f C C C Z C C f f Z Z Z Z Z Z Z Z Z D H J L J J J J J J Z J J Z C Z Z Z Z Z Z Z J I _ I J D Z Z Z f f Z Z H H Z Z H P J Z J I f  .J.r.{ p i i i i L V.t.a a f H J j a p a p p p p a a a i i p p i t t 9 t p a a a p t p p a a M Z Z Z M M C f f f C Z Z C J J H C a f Z Z p f C f f C f a H H Z Z g f f s J ` d.,.L C 0 w 1 1 9 w w w w i i i i w i i p p p p p p a M Z Z a a a a a a a a a a a a a a a M ",
"m M M M M m m M M M M M M M M M p d C Z Z Z Z Z L Z Z P P _ 4.Y.L D Z H L J I I I -.I f a H :.D.1 / i / / L ~ ! P M p p p y y p p p p p p p p p C C p p p p p a f H J J J I I J I I ` I K J I I I I I I I ` ` ` ` I ` K s s f f J J J J J J J J H H H H H J H H H H H H H H H H H H H H H H H g f Z J A I J d.<.H p 9 0 i w 9 w w w w w w i i i w w w w w w w w w w w 1 1 w 3 w w w w i i i i i i i i i i i i i i p p p p m M M p a p p p M a p P Z p p M Z Z M p p p p L [ [ D p p M M C p p p a a a a a a a a a M r.;.i i i t p Z H K z.x.` ' ` P D C Z D Z Z C C C Z Z f f a f f f p p p p p Z Z C C C C C C D D Z D H L D D a a f f C C Z Z f f Z Z Z C C C Z Z C C Z Z Z Z C C Z D H L P I L J L I I L D Z J A f f Z A D Z Z Z Z Z J J J J Z Z Z f f f Z Z Z Z Z Z Z H H f  .,.a ` w.,. .p i i i i L t.w.H a f H J j u y a y y y u a a a t p a a a i t i i t i p p a a Z Z p a a Z Z a p p Z Z f f Z D H J L D D Z C f f Z C f f Z Z C f Z Z Z Z Z g f f f K ` g.<.L D 0 w 1 1 w i i w w i i w w w i i p p p p p p a M a a a a a a a a a a a a a a a a a M ",
"M M M M m m m m M M M M M M M M p d C Z D D Z Z J f Z P A p Z ..I L J P I P P I J { Z t I J.OX,X/ i i 3 i P ! ^ t t t a a y t p p i 0 p C p p p a p p p a C C Z Z J I K J K I J I I I ' ` I J I I K I I I ` ` ' I J I K f f J Z P P P J J H H H H H H H H Z Z Z H H H H H H H H H H H H H H H Z f Z K K ` ` D.8.L a 9 t i w w w w w w w w i i i w w w w w w w w w w w 1 1 w 3 w w w w i i i i p i i i i i i i i p p m M M M M M a Z Z a i p a a Z a i p M Z M p C C M p L [ I D C C C C Z C C a p p p p p a M Z H U J.t.p t i 9 t a K k l.Y.` <.A Z Z D D D M p p a C C Z f f a C C f a a a a f C C C C C C C C Z C C Z D D D C C f C f C C C C D Z D Z D Z D Z Z Z Z C f Z Z Z C C Z Z D J J L J J I I I J Z f J Z f f Z J J Z Z D J Z f f Z J Z Z C f f f f Z f Z H Z Z H H Z H ,.a r.Z.w.I = i i i i H w.t.H a f H H f u y a y y p p a a i t t i p i t t i p p p p p p a p p p a Z H H Z M a a p a a f Z H J L D D L J f f D D f f D Z f f H H H H H H H Z Z I ` Z.,.L L 9 9 1 1 w i i w w i i i w i i i p p M a p M M M a p a a a a a a a a p a M M a a a a ",
"M M M M M M M M p p a a p p p p D Z Z Z Z H Z Z Z Z Z Z Z Z Z Z D J L L H J I [ Z p Z Z.K.d.:.r.m w M i i L L H ! a a Z M p p p f p a p p p a a p p p p a f C C ` I J J J I K J I ` ` I I ` _ K I J H J ` ` ` J I ` I Z Z J H a H H H Z Z Z Z Z J H H P P J J J J J J H H H H H H Z Z Z H H H H J J I I I <.Z.d.r.Z 1 1 i i 9 w 1 1 w i i / w 3 1 3 w 3 w 3 i i i w w w w w w w i i i i i i m m i i i i p i 3 3 i V V i V M M p p D I L Z C M M p C C p Z C p C p f f f a a p p P C p f D Z a a p p a M C H H Z I :.K.:.Z 9 p 9 a y j l.XX$.<.) I I J Z Z Z Z M M M M M M M M M i p p M M M p p M M M M M M M M m m M M Z Z Z M m M M Z D Z D Z Z Z M M D Z m M M M M M M M M M f C Z D A A J J Z I ` I H H H Z Z Z f f f Z Z Z I J Z A g f f Z f f a p a M Z Z Z Z C Z D J J J H Z Z 4.J.w.C 0 m 1 p 9 M Z.t.I a f Z f a p p p p p p t t t t t t p p p p p i t 9 t t p a a a a a M a p p p a t t y a Z J L D Z L J J Z C f C C Z Z Z f a a Z H J Z f Z Z H H Z f 4.J.I L Q w w 9 < w p e w i 9 i p p i i i p m p a M Z M a a a M 9 M V.Z.Z i M a a a a a a a a ",
"M M M a M M M M p p a a M M M M Z Z Z H J P J H Z Z Z Z Z Z H H I J D J L L D f I -.f.9.J f ,.oXw 1 n i i P ! I V.L a a a p p C a a a a f f f a Z Z D D H J L J I I I I K J J I J I ` I J I I J J J H H P I I P P I I H Z H H f Z H J J J H H J H H J I J Z H J J J H H H H Z H H Z Z H J J J J K J I I J ,.Z.d.-.Z 1 1 i i 9 w 1 1 3 i i i 3 3 3 3 3 3 3 i i i i w w w w w w w i i i i i m m m i 3 i i V M B M i V V i i V i i i Z L Z C M C C C L H Z Z p p Z p a f f a a a p D Z C Z Z f f f Z Z D C Z Z Z f I <.T.<.Z 0 p 9 t j s >X.Xf.J K J K J Z M Z M M a M M M M M M M M M M M M M a a M M m M M M M M M M M M Z Z Z M M M M Z Z Z Z Z D D M M L L M M Z Z M M M M a a a f Z D A A L L Z P I P H H Z Z Z f a a f f Z Z f f f Z Z f f f H H Z C M M M Z Z Z C C Z H J J L D L 4.W.Z.D 0 p w m 9 a 6.r.I a f Z f a p p p t t p p p p p p p p p p p p i i t t p p p p p p p a p p t p p t a a f D L I L H L L J D C C C Z Z Z Z Z Z Z Z Z J H Z f Z Z H H L [ O.m p D w 9 9 < 9 p p w i 9 i i n i i i p M p M M M a a a a Z p p L P M p Z a a a a a a a a ",
"a a a a a a a a p a a M M M Z Z f f Z J P P J Z Z Z Z Z Z Z Z H D I ` I J Z L ` d.{ H f H { g.J.w 3 V i i L P L Z.H t t t t p p J L I I I I P L Z Z D H J J L J D J I I J Z A J g K ` I J J J J Z Z Z Z Z Z Z H Z P I H f Z Z a Z Z J P J H H H Z H P I J Z Z J J H H H H Z H H Z Z H J P I P J K K I J J :.Z.d. .Z 9 9 i i 9 i 1 w w i i i i w w i i i i i i i w w i i i i w w i i i i m m m M M m V V m M B B M M M m V m m p M D D M p p p p Z I L D Z p p Z p a f f a p p p f C D J Z p f H Z Z D C Z L L H I <./.<.Z 0 p i t H y ,XG.<.s ` g J J Z M M M M M M M M M M M a Z Z M a p p p a p p p M m m m M Z Z Z Z Z Z M M M M M M M M M M D L D Z P L Z Z H H H Z M a a a a a C Z D A A A J P P J H H Z f f a a a a f Z Z a a f J I J Z Z J J D Z Z Z Z Z Z C f f C D H J L D P [  Xw.D 0 p w p 9 i  .-.` a a Z a a p p p t t p p p p p i p p p t t t i i p p p p p p p p p p p t t p p p p p f Z H L J J L L J D C C f C f f Z H J J Z Z J H Z f f f Z J L C Z p w m n w w < w m p w p w i i p i i p m M a M M M a p a a M M p i i a M M a a a a a a a a ",
"p p p p p p a p a a M M M M M Z C Z Z H H Z Z f H H H Z Z Z Z H J I I J C Z ` 8.J J J H J ` 9.J.V i N i i L L M 3.a 9 i p p p 0 8 8 9 0 0 9 9 0 p f C Z Z Z Z Z L K I J A Z Z A Z J K K J J J J Z Z Z Z Z Z Z Z H I ` J Z Z Z f Z Z Z Z Z Z Z Z J H J J H Z Z J H H H H H Z H H Z Z H J I I P J J K I J H :.Z.w.I M i 9 i i 9 i 3 w i i i i i i i i i i i i i i w i i i i i i i i i p m m m M M M M M M m m m m M M M M M M M M Z D Z p p p C C D P J D D M p C f C Z Z f f C C p f D L D f C J f Z C C Z L I P J $..X<.Z p w w i a a T.G.J J ) s J J Z M M M M Z M M M M M a a M M p p p p p p p p p p m m m m M Z Z Z M M M M M M M M M M M M Z L D D P L Z Z Z Z M M a a a a a a C Z D A A A J J J H H Z Z a f a a a f f Z Z f f Z I ` _ J J H H Z Z Z Z Z Z Z C a p C Z J J L Z L D Q.4.Z 8 m i p 9 9 H  . .a a Z a p p p a p p p p p t t t p p t t t t i p p p p t t t t p t p t t t p p p p p f C D J J L J J D Z f a f f f a f Z J J H f Z Z Z Z f a f Z C 0 p p w m m 9 w < w m p w p p i i p p m m m M M M M M p p p a p M M p p M M p a a M M a a a a ",
"p p p p p p p p a a a a M a a a C Z Z Z Z Z Z Z Z H H H Z Z H J { J a p Z P P J H P { :.I J :.D.w 3 m w i P P H r.Z t a f p p t a y y p p y p C p p f f C Z Z Z ` I J H H J J J J J H H J J J J P J H H J P J J P I ` I H Z f f f f f f f Z H J I H f Z Z Z Z H H H H H Z Z H H f Z Z H J P J J J J J Z J <.Z.,.H a p t i 9 9 9 1 9 i i i i i i i i i i i i i i i i p p p p p p p p p p m m M M p p m M M M M M m m p M M M M M p C p p C L I I L L Z C L H C M f C Z Z C C C Z f f Z H H Z Z H H J D C C Z D Z g ) .X<.Z p w 9 t u H D.T.K ` j g J P Z M M M M Z Z M M a a M M p p p p p p p p m m m m m m m m M M M M m m m m m m m M M M M M M D Z Z L D M Z M a a a a a a a p a C Z A J J J J H H H Z Z f a f a a a f Z Z Z J A J K I I J J J J H D Z Z Z Z Z f a a f Z D J J H H p K.{ a 9 m m i w 9 a  . .a a a a p p p a p p t t t t t t p p t t t t i i t t t t t p p p p t t p p p a a f f Z D J L I I J H D Z f f f Z f a a f Z H Z Z a Z H Z f a a a p 0 i M p p m 9 w < w Z p i p p n n n m m M M M M M M M p p p p p a M M M M p p p p p p a a a a ",
"p p p p p p p p p p a p a p a a f Z Z Z Z Z H J f f Z H Z H J P J Z a Z L I P H r.P f J { ,.,.r.w 3 m 3 i I P M w.D p p a p p p p 0 9 0 9 6 y C a a a p a a p p P H s a f Z H H I H f H J J H Z J Z Z Z H J H Z Z J J Z f a a a a a a a Z H I ` I Z a a Z Z H H Z Z Z Z Z Z H H f f Z Z J J J J Z J J Z J 8.w.I Z a a i i 9 1 9 1 9 i i i i i i i i i i i i i i p p p p p p p p p p p p p m m M p m M M Z Z Z M M M M M M M M M p C C C D I I I L L C C I I D C p a C C f f f f C a a Z H D Z Z H J D C C C C f H ` .X' f C w 9 p H a D.g.' K g J K P Z M M M M Z M M M a a M M p p p p a p p p m m m m m m m M M M M M p p m m M m m m M M M Z M D M M Z Z M Z M a a a a a M Z f f Z D A J J J H Z Z Z Z f a f f a f f Z Z Z Z J A Z A J g Z J ` I P H Z Z Z Z Z C a a f Z D J H I J f J.{ a 0 m m i i 9 p I I a a a a p p p a t t t 9 t t p p p t t t t t t t t t t p p p p p p t p a a a a M p f Z D D J P I H H D Z Z Z Z D Z f a a f f Z Z a f Z H Z a p y J D Z Z m p m w 9 < p D C p p p m m m m M M M M M M M M p p p p p p p a a p p M p p p p p a a a ",
"a a p p p p p p p p p a p p a a f Z H H H H J P Z Z Z Z Z H J J p Z L I L L I  .P I I J J ` ,.w.i 3 N 3 i P L a r.Z t p t 0 p p y 0 8 0 8 6 t Z p y t 0 0 y p p a a p a a f Z J J Z Z J J H f f a a a a f f Z Z Z f f a a a p p a f f Z Z H I ` H f a Z Z Z Z H Z Z Z Z Z Z Z Z f f Z Z H J J J J J J A I 8.-.a a a M p i 1 1 9 1 9 i i i p p i p p p p p p p p p p p p m m m M m m p p p p m m M D D D M M M M M M M M M M M M D D D D L I L Z D D a C P P C C p p f f f f f f Z a p Z D Z Z Z f Z D C Z D L Z ` ) .X` a D w w a J t J.f.:.K K I I J f M M M M Z M M a a M M M M M a p p a M M m m m M M M M M m M M M p p m M M M M M M M M M m Z M m M M M Z Z Z M a a a M Z C Z D H J J J J Z Z Z Z Z a a Z a f a f Z Z Z Z A A Z A Z f D I  .` P D Z Z Z Z Z f f f Z Z D D C ` J D J.,.t 0 m m w p 9 9 P P a a a a p p a a t t t t t i p p t t t t t t t t t t p p p p p p p i p a M a a a a f Z Z Z Z Z H Z Z Z C C f Z D Z Z Z Z f f f f Z Z Z H H f a y [ 4.L L L Z Z 9 9 < p L Z p p p m p m m M M M m M M M M p p i i p p p p i i p M p p p p p p p p ",
"a a a a a a a a p p p p a a a a f Z J J J Z Z Z J J J H Z Z Z Z I J Z Z J L J H Z { <.` I { :.I w 3 N 3 i I P a  .a t p p 0 p p y 0 9 0 0 6 t Z a p t 0 0 t p a y a f f f Z I ` Z Z H I J f a a a a Z f a a Z H H Z f Z Z Z Z Z f Z Z Z Z Z H J f f Z Z H Z Z H Z Z Z Z Z Z Z Z Z Z Z Z H J J J J J J J ` 9. .9 p a M p i 9 1 9 1 9 i i p p p p p p p m m m m M m p p p p m M M m m p p p p p p M Z Z M M M M Z p i p M M M M Z C D L L I [ L Z C C p p D Z p C p f C C C f C C C a a C Z C C D f Z D Z Z L L Z <.$..XK p D w w t a H OXoX<.` ` ` I J f a M M m M M M a a M M Z Z M a p p p M M M M M M M M M M M M Z M p p m Z D Z M M M M M M m Z M m M M M Z L H Z M a M Z Z Z Z D J J J J A Z f Z H f p a Z a a a f Z Z Z Z f A J J J Z I { ` I H C a M Z Z C f f C Z D D D p { D L D.4.8 0 i m 1 p t 9 L H a a a p p p a M t t p p p p t t t t t p t t t t p p p p a p p t i t p M Z a p a C D J J Z Z Z D f f a p p p f C Z Z H Z f a f f H Z Z H H Z a y I q.L L { F m < 9 < n L D p y a M m p m M M M m M M Z M M p i i 9 p a i i p a p a p p p p p p p ",
"p p p p p a a a p p a p p a C C H Z Z Z Z Z H H H H J J H Z Z H L L J D C C H I  .J { <.:.J d.I w V n 1 M ! H = r.M t p p p p i 0 0 0 9 0 0 p p p p p a a f f a p a f f a a M Z Z Z Z Z Z a a a Z Z f f f f f f Z Z Z f f f a a Z Z Z Z Z f a a J H Z Z Z Z H J Z Z H H H H Z Z a f f Z Z H J J K t f { T.8.I y a a M p i 9 9 i 1 9 i p a a a M p p p p p p p p p p a M M M M a M M M p p p M Z Z M Z Z Z Z Z M M M M M M M Z L I I I L L L D C Z H I L D C C D D C f a f Z C f f f f f f C C C H Z Z D D Z L I g l.G.H I Z 9 i i H P P { d.<.K Z I I Z p p M M Z Z Z Z Z Z Z Z Z M M M M a a a m m m M M m m m m m m m M M M M M M M M M M M M m p i p M Z Z Z M M Z H H H Z Z I J J H D C Z A Z Z Z f a a a a a f Z Z H Z H H J A A J J J J I I P D Z M a M Z C p Z J f D L C D H D q.d.{ t 0 m m w 9 p p p Z H Z a p p p p a a p p p p p a a p p p t t t t t p p p p p p p p 9 i a a a a M Z D H H J D C a p C f f a f C Z D f f f a a f J I J Z Z J J Z a a p [ H.S.Q.I * w 9 * m { Z p C a M M Z M a a M M Z Z Z M m p p i 9 t i i p p p a p p a a a a p p ",
"p a p p p p p p a a p p p a C C Z f f f f Z Z Z H Z H J J H Z a C Z Z C f C J I I I ` <.D.f.F.P i n w w M P H i w.Z t a p p p 0 y 0 0 0 0 p p p a p a p a f f a p a a a a a a a a Z Z Z a a a a Z Z f f f f Z f f f f a a a a a f f Z Z Z Z Z f f f Z f Z Z Z Z Z Z H H H H Z Z f f Z Z Z Z H H s J g.D.Z.f a Z a a M p i 9 9 w 1 9 p a M M a M p p a M a M a a p p p a M M M Z M M M a p p p M Z Z M M M a p p M a a M M M M H L L H L L D C C 9 I 8.{ D p C C C f f a a f a p f f f f f f C C Z f C D D C D P ' G./.J P M 9 w 9 t a H I ` ` ` J I P Z a M M M Z Z Z Z Z L Z Z Z Z Z M M M a a m m M M M m m m m m m m M M M M Z M M M Z Z M m M p i i p m m p M H H H L L L H C C Z I P A Z C f Z Z f f a a a f f f Z H H H Z Z f Z J J g Z Z f f f a a a Z Z C p C Z C D L H D J D q.d.{ y 0 m m i 9 i p a P Z f a p p p p a p p p p p p p a p p p p t t t t p p p p p p p p t p a a a a a Z Z Z Z Z Z f p p f f f f f C C Z a a a p a f Z J H Z Z J J Z Z Z a I K.J.W.I < w w < D 6.I Z H f M p i p M Z Z M M M Z M M m p p p p p p p i i i p p a a a a p p ",
"a a a a a a a a a a a a a f f f f Z f f f f Z Z Z Z Z H J J f y p a f a a C H J J I J ` Q.Q.D.Z V i 3 i M L L H Z.H i p a a p 0 p y y y t p p p a p p p p f a a a a a a a a a a a a M M a a a a Z Z Z f Z f f f Z Z Z Z f f f f f f f f f f Z f a a f Z Z Z Z f Z Z H Z Z Z f f Z Z Z Z Z Z Z f Z J { { ` a f J M a p i w 9 9 w 9 i a M M M a a a M M M Z Z Z Z M M M M M M Z Z M M M M a p p a M Z Z M a p a M M a M M M a M Z L C C D H Z C C M I I C p J H p f C C f a p p p f f f a a a f f f f C D D D H J K f.G.J H p w w i 9 t H J g J ' I K H f a a M p H Z Z Z H L L L Z Z M M M a p p m m M M M m m m m m m m M Z Z M D M m m M Z m i i i w i p M M M M Z H L L L L H Z C Z J L Z d p f f f f f a a a Z Z f Z H H Z Z Z A J I I J f f a a a p a a M Z I I J Z Z Z Z J D J J d.Z.{ y 0 m m i 9 p Z P  .Z a a p p p p p p p p p p p p p p p p p p p p t p p p p p p t t a a a a a a a Z Z C C C f f f f a f f C C C C f a p y p a f Z Z Z Z Z J J H Z Z a Z Z.V.q.Z 9 9 9 9 L 6.I C C p i t i p M M a p p m M M M m m m p p p p p i i i p p p a a a p p ",
"a a a a a a a a f a a a f f f f Z Z Z Z Z Z Z Z Z Z Z Z H H Z a f C C f a a f Z H P f J oX X9.p w n i i m L I I Z.H i p a a p 0 y y y 0 0 t p y p p a p p a p a a a a a a a a a a a M M M a M Z Z Z Z f Z f f f Z Z Z Z f f Z f f f a a a a a f a f Z Z Z Z Z f Z Z Z Z Z f f f Z Z Z Z Z Z Z Z J s a s J J J H Z a p i 9 9 9 w 9 i M Z Z Z M a M M M Z Z Z Z Z L Z Z M M M M Z M Z Z Z Z M M M M Z Z Z Z Z H P M M M Z M a a M I C p D L D C C L H a p p L L f f Z H Z C a a C f f a p p p p a f f D H L D H J u ) G.` H p w w p t i Z J Z Z ` J J Z f p p p p H Z Z Z H L L L Z Z M M a p p p m M M M M M M m M M M M Z Z Z Z Z M p p p p i w i i i p m Z Z Z a a Z H H H Z M Z C C C f d Z A Z f f a a f a a Z Z Z Z Z Z Z Z A A J I I Z f d a a f f a a a a I [ J Z L D f L H L L Z.Z.-.y 0 p m w w Z I  .r.a a a p p p p p p p a a a a a p p p p a p p p p p p p p p p p p a a a a a a Z Z Z Z C f f C Z Z a f C C C C a p a p p a Z Z Z Z H Z Z H H Z f a C a 4.[ D w w 9 9 0 L { H p y t t 9 t 9 9 9 i M p m M M M m m m p p p p p p p p p p p p a a a a ",
"a a a a d d d d f f f f f f f Z Z Z Z Z Z Z Z Z Z H H Z Z H H Z Z Z Z Z C C f f P P f ` :XT.,.H < V N w m I { I -.Z t p p a p p p p p y y y y y p p p p p a a a p p p a a a a a a a a a a a M Z Z Z Z f Z f f f f f f a a a a a a a a a f f f Z Z Z Z Z f f f Z Z Z Z Z Z Z f f f f Z Z H H H H g J J I I ` J f Z a p t 9 9 w w 9 p C Z D D D a C Z Z D D D D D L L Z Z Z Z Z Z Z Z H L L H Z Z M C D D Z D L I C C C D C M M C I D C D L D D D p C L L D p p Z f Z D Z C f f C C C f p p a a p a f D D D L H H H <./.<.H 9 9 i p i i i C P J Z Z J H Z p p p M Z Z Z Z Z H H Z Z Z Z M M a M a M M M M M m M M M M M M Z D Z Z p m m p i w i i M M m m m M M M p a M Z Z M a p p p f f p p J { Z Z a a a f f f f Z H Z f a f f f d f f f a y y a f C C M a a p y Z p a J J C I D P I Z.Z.-.y i m m 9 i P 2.{ I a a p p p p p p p a a a a a a p p p a a a a a p p p p p p p p p a a a a a M Z Z Z C f f f C Z D a C C Z C f a a a y y f Z Z Z Z Z Z Z Z Z f f a Z a 4.[ Z t p 0 w p I { D 0 0 t p t 9 9 9 i M L m M D B M m m m p p p p p a a M p p p a a a a M ",
"d d d d f f f f f f f f f Z Z Z Z Z Z Z Z Z Z Z Z J J Z f H J H Z Z Z Z Z Z Z Z H J f :.%XD.:.I , V N w m ! 2.I I a t p p a p p a a a a a a a a p a a p a p p p t t t i a a a a p a a a a a M M Z f f Z Z Z Z Z Z Z Z Z Z Z Z Z f f Z Z Z H J J H Z f a a a f f f f Z Z Z Z Z Z f f Z Z H H H Z g K J I J :.I H H M p t 9 w i i 9 p Z Z D L H C D D D D D D D D L L H Z H H L L L L L L P L L Z C C Z C C C Z D C C C Z C a C Z L L L D J J L J I D D L D C p D f f C C C f f C Z C C a p p a a a f D Z Z D D Z K 1.Y.` Z 8 9 M i p i 9 f  .{ K J J P J M p M L L Z Z Z Z Z Z Z Z Z Z Z M M Z Z M M M M M M M M M M M M Z Z Z Z p M M m i w i p M M M m m M M M M a M Z Z Z a a f C D D C p Z P H Z a a f Z Z Z f Z H H Z f a a d y y a u y y a a a p f a a a a y p a f J J Z J D P I Z.Z.{ t 0 m m 1 i ! r.I Z a p p p p p p p a a a a a a a a p p a a a a a a p p p p p a a a a a a a M Z Z Z Z f a a a f C Z C C Z Z Z f a a a y y f Z a a f a a a a f Z Z f a p 8.{ L p i 1 w Z ! [ D t t a p t p P { ! Z a Z Z D D M m m m m a a a p a p p a a p p p p M M ",
"d d f f f f f f f f f Z Z Z Z Z Z Z H H H H H H Z P J Z Z J H f f C C Z Z Z f f f H J :. Xd.` Z < i n w m ! -.! H p p p p p p p a a a a a a a a p p p a a y y p p i i p a a a a p a a a M M M Z f f f Z f Z Z Z J J J J J H H H Z Z H J J J H H Z Z f a a a f f f f Z Z Z Z Z Z Z Z Z H H H Z Z J J a f Z 9.,.I L Z p t w i i i 0 p Z C Z P L Z H H J J H H D D H H H H H H L L P P L L L L H Z Z Z Z Z Z C f f Z f f C f p f Z D P P D C D L D { L p p D L D D C f f f f Z Z Z Z Z C f f p p a a Z D C C D D Z J $.f.g J i 9 D m M p 9 a { q.,.K J J J Z M Z P L L Z Z Z Z Z Z Z Z M M M Z Z Z M M M M M M M M M M m M M M M m m M M M p p p m m m M M M M Z Z M a M Z Z Z Z Z J H H L A C f Z Z Z a f Z H Z Z Z Z Z H J H f a d d u a a y a f a a p p a a a a Z f Z J D D D C Z P I A.Z.{ t 0 m m w i ! 6.! Z p p p p a a p a p p p p p p p p i p a a a a a a a a a a a a a a a a a a M Z M a C f f f f f Z Z Z Z Z Z Z f f a a y p f f p y f a a a a f Z Z f p a ,.I D p 9 1 9 Z [ { P p a J H L  .V.V.! a i D D D Z M M M Z M M M M a p p p M a p p p a M M ",
"d d d f f f f f f f f Z Z Z Z J H H J J J J J J H P J Z Z P Z y f f C C Z Z a a f I ` ,.K.8.` p 3 3 3 i M P { -.Z p p a p p p p p p p p a p a p a p y a a t t p a a p a a M a a a a Z Z Z Z Z H f f f f f Z Z Z P J J J J H H H P P P J H Z f a Z f a a a f f Z f f Z Z Z Z Z Z H H H H H Z Z f a K J I H 8.{ P L Z p t w i i i 0 p Z C Z I I H P L L L L J J H P P P P L H H H I P P L L H Z M J H L H L H Z Z C a p a p p a Z C I I C p Z L Z p D L D C Z L Z D C a f Z D D Z D Z Z f f p p a Z H H Z Z D D Z H $.<.s ` a < N D Z p 9 p I 8.f.K J H H H Z Z L P L L L L H Z Z M M M M M M M M M M M M M M M M M m p m m m p p m m m m m m m m D D Z Z M m M M a a M Z Z H H H D f a Z L P P P Z f f Z J J Z f J Z f H I I Z y d u y a a u a f a a a a a a a a C p Z J f Z P Z Z P I Z.Z. .0 9 m m w i ! w.-.P p p p p a a p a p p p p p p p p i p p a M a a p a a a a a a a p a a a M M M a p Z Z Z Z Z Z Z Z Z Z D Z Z Z f a p y a Z f y y f f f f a f Z Z a s f { D C w 9 i 9 D { 4.{ J H  .Z.Z.Z.r.L 9 t Z Z D Z M M M D D M M M M a a a a M a p p p a M M ",
"a a a a f f f f f f f C Z Z Z C Z Z Z H J J J J P  .I Z H J H P I Z p a H P H Z J I Z J.{ Z...L w i N 1 p ! ! I a 9 a a p p i i t a a a p a a Z f Z Z a p i p a p p a a a p a a Z Z f a f f Z Z C f f C D H J J Z C C C f f a a a C C f f C C p p a C C C C C Z f g Z f Z H H Z J H g f f Z H J Z f Z Z Z ,.d.I P L M i i p i 1 p Z Z f J I J J J I P P P ! I L Z P P L L ! P Z L ! ! L L P P H D H D H D Z Z Z M Z Z a i t p Z P H H Z p f H H Z Z C f f Z C Z f f Z Z H H Z Z Z H H f a a f f d C A P I L C f J ) l.) U t 9 M M Z i 9 I J 1.F.J J J Z D L L D ! P Z M M Z M M M M M M M M M m M m m M Z D Z M M M M m m m m m p M Z m i p M Z m M m p M m p M p Z H Z Z P P Z Z Z Z Z f f f f H Z Z Z H H J H J Z f f H H f p f f a a a a f f f f a a a a f f Z Z Z Z D D D D H I I r.D.U = a i i i w a I I P p p a a a a a p i t i a i t a M Z H M a a a a a a a a a a a a a H a a a a a M Z Z f f f Z Z Z Z H Z C C C C C Z C p p a p a p a f p a Z Z H Z f h f { { Z i i 9 1 Z.8...{ J I Z ! { L a M M M M H Z Z M M M M M M f p p p p f f f f f f f f a a ",
"a f f f f f f f a a a f f f f a Z Z Z Z Z Z H J J I P Z H J H P P Z a a H H Z Z Z I I d.4.Z.Z.P 1 3 V w M ! ! I M 9 a a p p p i t p a a t a a a M H H Z a a a a a a f Z Z Z Z Z Z Z f a a f f f D Z C C C Z Z Z f f C C C Z Z Z p f f f f C C p a f Z Z Z C C Z f f Z Z H J J Z f g Z H J J K I I f Z A H { d.,.P L p w i m m w p A D C J I K K J I P P P  .{ ! P I ! I P L L P P I P L P P P L D D D D D Z Z Z Z Z Z M a a Z H I J J H f f H Z Z Z Z Z f Z Z Z Z Z Z H H H H H Z J H Z a f Z f Z Z L I I L D g J ) l.$.H i 1 M Z C p 0 H g 1.F.s j H H L I L D L L M M M M M M M M M M M M M M M M M M Z D Z M M m p p p p m M m M Z M m M M M M D Z Z L L M M C f f H P J J J Z Z Z Z Z Z f f f f f f Z Z Z Z Z f a f Z H Z a f f f a a f f f a a a a a a f f A A A L L L L L H I I -.H.;.t t m i w 9 i Z H Z p p a a a a p p a a a M a a a H H H M a M Z Z Z a a a a a a a a H Z a a a a Z H Z Z f Z Z Z Z Z J Z D C M M C C C C p p p p p p f f f Z H H Z f y d [ 4.L i 3 1 - d.<.' ..I  .P L P Z p p M M M M Z H H M M a M C f a p p p f f f f f f f f a a ",
"f f C C C C C C Z Z Z Z Z C f f Z Z Z H H H H H H I H Z J P H P P H H H P H H J Z I { ,.Z.Z.J.[ 1 1 n i M ! ! ! M t a a y p p p t a M a a a a a a a M a a a a a f Z H J J J J J H Z Z Z f Z f f D Z C f C C f a f f f C Z Z C Z p p p a p C C f p f C Z Z f C f f f Z Z J J H f g H J I I I I I <.J J I P I { { -.P m 9 i m i 9 M L J Z J ` I I P I P J P ! ! ! I P ! ;.! Z Z I I P P P P L L P L L D D D D Z Z H Z Z Z Z H L P J Z J J Z Z J Z H H Z Z Z Z Z Z Z Z H H H H H H H J J Z Z Z Z Z J J L L L L J H J ) f.1.H a 1 M D p p 0 f J G.G.u s H J P I L Z Z Z M M M M M D M M M M M M M M M M M M Z D Z M M M m m m m m m M Z Z M Z D Z p m M M Z Q L M p D a f P I J Z J Z Z Z Z Z Z Z Z f f f f f Z f a f a a f Z Z f f f f f a a a a a a a a a a f f Z A A L L L L J J Z I I -.H.t.M 1 M i w w i i a Z p p a a a a p p a a Z H H a H H H M a H H H H H a a a a a a a a H M a a M M H H Z Z Z Z Z Z D Z J H D C a a a a Z C p p p p a f C f f Z H J H g y y ` Z.W i 3 3 * Z.8.` <.` [ I L P Z p p p i p i a Z H M M M M f f f a a a a f f f f f f C f f ",
"C C C C C C C Z D D D D Z Z C Z f Z J I I I J H H P Z Z P I J I I P H P I I I I I  .{ 8.Z.8.Z.[ w 1 i i M ! I  .Z t p p y a p a p M H H H H H H a a a a a M M Z H J J J H H J P I P J J H H Z f Z C f f C Z C C Z f f f a a a a p p a a p f f f p a a a a p a f Z H J Z Z H Z f I I I ` I K J J I J I ` I P J J { L p w i p i 1 C L J g J ` I I I I P P P P L L Z L I ;.{ P L P P L L ! ! L L P L L L D D D L L L H Z H P P P P Z a Z H Z H J H J H H Z Z Z Z H H H H Z H H H H H H H Z Z Z Z Z A A A A L L L J H ) 1.l.H H 9 M Z p 0 9 H 9.XXF.s j J J I P L M D D M M M M D L L L L D D Z M M M M M M Z Z Z Z M M Z Z Z M m p M Z Z M Z Z Z m p M m M L D M M H Z J I I H Z H Z Z Z Z H H H Z Z Z Z Z Z Z f a a a f f f f f f f f a a a a a a f f f f f Z Z Z D A L P L J J J H P I 2.D.w.Z t M i w i i t a P p p a a a a p p p a Z H H Z H H H M a H L H H Z M a M Z M M a a M M Z Z H H H H Z Z Z Z Z H D Z H Z C C a p a a C a p p p p p p C C Z Z J J H Z d 0 L H.P i 3 w = D.p.' 8.I P P L P L M M M p p 9 i M M M Z Z H f f f f f a f p f f f f f f f f ",
"C C C f C C Z Z C Z Z Z C C C C H J P I I P P J H J H H I I P ` I P H P { {  .`  .{ I d.Z.{ I I i 3 i i M P P ;.Z 9 p p y a p f a H H P P I I P H H H H H P I I ` I K J H H J I ` I I J J J H Z Z f f C Z Z Z Z C C f f p p a p p a a a p p f f f a p a p a f Z Z J J H f Z J I ` ` I I J H g f a Z J J P I I L Z p w i m m i 9 p J J f K ` I I I I I ` [ ! P L Z L P P I  .! L L H L ! ! L Z L L L L L H L L L H D D J I I I P Z a Z J H J P H J H H H H H H H H Z Z Z Z H H H H Z Z H H H Z Z J A J L L I I I H U 1.l.H Z 9 p p p p a <.T.%X$.j J J J L I L Z L L M M D L D M D D D D Z M M M Z Z Z Z Z Z Z Z Z Z Z M M m m p M Z Z M M M Z M Z L Z M Z Z L ! H I  .P Z Z Z Z Z Z H H H H H H Z Z Z H H Z Z f f f Z f a a a f Z f f a a a a a Z Z Z Z H H H H J P I I P L P I P P I 6.Z.;.a i m w w p p t a I a a p p p p a a p a Z H Z Z Z Z H Z a H H Z a a Z Z Z Z Z Z a a M Z H H H H H H H Z Z Z Z H Z Z Z C C p p p a M p p a p p p a a Z C Z H J J J Z g 0 A H.B i 3 w = d.y.<.f.J J P M H Z M Z H Z Z p i p p M Z Z Z f f C C f f a f f f f f f f f f ",
"f f C C C C f Z C Z H H Z Z Z D ` I J Z Z Z H J H J H J I P I { Z.-. . .-.{ I I { ` Z d.Z.[ Z L n 3 n 3 m I !  .Z t a p p f p f Z Z H H H P I P U P H P P  . .-.,.:.` I J J I I I I J J J H H g H Z C C C C f f f f f f f a a a p a p a p p p f C C a p a f Z J H J J H Z J ` :.I I J H Z f f f f J Z p D I L L p i w i m p w 9 a A J A K ) ` ` J H J ` [ [ Q P ! ! L M Z ! ! L H Z L P P L Z H L L L L A D L L H D H L I I P J P Z J I P P P Z J H H H H H H H Z Z H Z Z H H H H Z Z J J H H H J J P I ! [ [ ` I U 1.t.a a 9 w w p f P K..XT.u j H J H J I P L L D M M L L D M M M M M M M M M Z Z Z M M M Z Z D Z m i i i m M M Z Z M a M Z Z Z L H M Z Z P -.P {  .H f Z H Z Z Z H H Z H H H Z Z Z Z Z Z Z f Z Z Z Z f f f Z Z Z Z Z Z Z Z Z Z H H J J J J J J P I P L L I I ! P ! 6.3.P a p m i w i i 9 p H a a p p p p a a a Z H H Z Z Z Z H a a Z Z a a a Z Z Z Z Z Z a a Z Z H H H H H Z Z Z Z Z Z H Z Z C f p p p p p M p p C C p p a a Z C Z H J J J Z J 0 D H.V i w w - ` ..g.g.I I I M H Z M Z Z M Z Z M p p M Z M M C C C f f f f f a f f f C f f f ",
"a f f f f f C f C D J J H H L I I J Z f f f Z H Z J J J P J P ,.D.d.<.-.{ I P P ` I J ,.Y.,.` I w w n 3 m ! ! ! Z t a a p C p f Z Z Z Z Z H P J P P P I  .-.-.-.,.<.' ) I K K I K J H g g H H Z H Z C f f f a p f f f f a a p p p a a a a a p p a f f f f C D J H J H Z Z P I I J H H Z Z Z Z Z J L f a H Z p D m i i p p w 1 1 p A J J ` ..' ) J g H I ` I I I { I L Z Z H L H Z H Z Z Z H H Z D D D D D D D D J J J P P P H Z I J P I P I I Z H H H H Z Z H H Z Z H H J J H J J Z Z P I J J J K I I ` { [ ` I 1.I D.t.H t i 1 w p C { Q.D.<.a g H J H J L L Z D M M M Z D D M M M M M M Z M M M Z Z M M M M Z M m p i p m M M M M Z M Z L Z M M L Z Z H L P  . .` J Z f Z H H Z Z Z Z Z Z Z H Z Z Z Z Z Z Z Z Z Z Z Z Z Z Z Z H H H Z Z Z H H H H J J J J J J A L P L J J I ` -. . .-.! L Z p m i w i i t p Z a a p p p p a a a H H H Z Z Z a H a a Z Z a a Z Z Z Z Z Z Z a a f Z H J J H Z Z Z Z f f Z Z Z Z C f p p p p p p p C C C p p p a C C f H J P H Z ( y D H.i n i 1 * Z ..R.F.J ` I Z P H a Z Z p a Z M a a a M a a C C f a a f f f a a f f f f a a ",
"a a a a f f f f p C D H Z Z J P f Z Z H H H Z Z Z J J J J Z J ,.{ ` I I I P I  .I I ` ` oXw.d.[ 1 3 n 3 m { { ! Z t a a a C p a H H Z a a H H H P U I :.r.r.r.-.{ :.:.' ` I K K K J j g g H H H H Z C f f a a p C C f p a p p y p p a f f p p p p a f C C C Z Z J H f a Z J H f Z Z Z Z Z Z Z f Z f y f I C 0 C i w w p p w w i p A J J ' <.' ' ` K J I ` I I Q I P P I P Z Z H H H Z p p Z H H C C Z D D D Z C J L I I P J Z Z P H J I J I I H H H H Z Z Z Z H Z Z H J P P J J P H H I I I P I K I _ [ { ! I J D.$.T.f.H t p 1 p p p { K.` J K H J J J H J D M M Z L D Z Z D L L L L L D M M M M Z Z M m m M Z w i m M Z Z M M M M M Z L P L a M L Z H P I P I r.P f Z Z Z Z J Z Z Z Z Z Z Z Z H Z Z Z H H H H Z Z f Z Z H J H H H Z Z Z H H H H H J J J J H H P I _ I P I  .,.r.-.-.I L ! L i m i w i i p a Z a a p p p p a a a H H Z a Z f a Z a a Z f p a H Z Z Z Z Z a a a f Z H P P H Z a Z Z f f Z Z Z C Z C C p p p p p C C C f p p a C C f f H J J H Z ( h A H.w V i 1 y f <.@XP.A _ J Z L Z a Z Z M Z p a a Z Z Z Z Z Z C f a a a C C a a f f f f a a ",
"C Z Z p a f Z Z C a C J I J Z C f Z H Z Z Z Z J J Z f Z P I I P H [ D Z { I a ` I J  . .Z.rXr.9 V 3 N w m 2.! P a 9 t Z Z p p I C f p a f Z Z Z I I I ` -.-.-.{ :.{ ' ` ` I I I I J Z H J J H f f Z Z Z C D P [ f C Z Z a p a f p y 0 a a a f Z a a a f C Z Z Z Z Z f Z Z Z H J H f a a a f a a p a f L ` Z 0 p i i i i i w w w A A J _ ` ' <.u.) ' { ' ` ` [ Q r.r.4.{ [ I L L Z C a C Z D Z f D Z D P P D Z Z L L L J J J J I I I ` ` ` I I I J H Z Z Z H H H H H H H J P I I H J J P I ` I Z J J P _ { [ I J I J.XX$.I a 1 * 0 a L -.w.8.` J ` I J Z Z Z H P L P P P P L L D D D D Z M M M M m M Z Z Z M M m i p m M M M M m M M Z Z Z Z Z Z M L I I P P ! -.D Z Z Z H Z Z Z Z Z H H Z Z J P H J J J H H Z f Z Z H H J J H H f P I Z J ` I a I P J J J J I I P [ Z { ` f :.<.:.t.Z.H ! D i w n M i 1 p L H a a p p y p p p p ` P Z a f Z J J J Z a p a p f f f Z Z Z Z f f f Z I  .P f f Z Z f Z Z Z f f Z D p C Z C C D D C p p C D C p p f Z D Z Z Z Z H J J Z D C.V 3 i 1 0 A g.Y.p.` J H f f Z L L D C C p D I Z a C H J J Z Z D D f a C Z f a a p a f C ",
"a Z Z f f Z Z C p p f Z D L L L H J J H H H H J J H J J P P P P I I D Z J I I ` -.P Z.-.H D.-.p m 3 V w p { ! L H a p a Z f M C C C Z Z Z Z Z Z I I ` -.,.-.{ ` { { ' ` I J H Z J H Z g g Z Z Z Z C a p p f C Z p C f 0 t Z C y 0 p f H D f a C C Z Z C C C Z Z Z Z f f f Z Z Z f f f a a p a a J D J [ { Z 0 p i i i i i w w w Z A J J J _ ` ) ` ' <.<.` J D I H J J D Z D D J J P P P L L H H D Z Z F A Z D J I I I I I I ` ` { { {  .` ` `  .J J H H J J J J H H H D J J I I H P I P P I ` I f J _ [ Q I { <.:.G.OXU J a 9 9 p a H I  .{ ,.8.` I P H Z Z D H L L Q P P L L L L L L L L Z D Z D Z M m p i i i m M M M M Z M M Z Z Z Z Z M M M P L L P { { I H H J J P P J J H P P P J H H J P I I J H H H J P H H H J J J J J I P Z f ` d.r.J P P P P P P I I P Z ` J I 8.I ' :.t.t.L Q m m i n M i 1 M I I H a f a p p a M p P H f a f Z J P J H f a f C C Z Z f f f f f Z Z J I I H f f Z H Z Z Z Z f f f f a f C a p C Z C Z C Z D Z p a p D D Z H J J J J Z Z { 3.i 3 / w y f <.T.F.( f I H Z Z D D Z Z D J D f f J I L C Z f p f a p C J Z Z Z Z C C C C ",
"p f C f f f f p f D Z a f J I I I P J J J J J J J P I P J H H J D C I ` A J I f  .f D.8.Z  .-.p m 3 n w i I ! H a p t t f J D a C Z J J H Z Z Z I I ` { ,.-.{ ` { { { { ` I H Z Z H H Z f f f Z J Z f a C Z f p C Z f p y p f p I  .r.8.[ D Z H J H Z Z Z Z Z Z p p p p p p p p p a C p p p Z P I L P ..4.C 9 p i i m m i w w w 0 f A g A ` ` ( J s g I ` Z f D L J J H Z Z Z H P I  .` I J J P L D Z Z Z Z J I I I ` ` ` ' { { -.-.{ ` I I `  .J H H H H J J J H H Z H J P I I H I ` I I I ` ` J I [ ` I I [ ,.<.G.,XJ J M 9 w y a J -.-.P P ` I P J J H Z Z Z Z L Q ! Q L L L L L L L L L M M Z M m p p m m M Z Z M M M M Z Z M M Z Z Z H H H ! P P I -.-.I Z J P I I I I P P I I P J H H H J J J H Z H H J P J J J J J J J P I I P J P I ` I P I I I I I P J _ A { L I <.` <.` D.3.P P w M n m M w 9 H -.-.I P H H H Z p p M [ I H Z f Z Z Z H Z f f Z Z Z Z Z f a a a Z Z H I J D f a f Z Z Z f a f Z Z C p f C a p p a C C C a p C D D Z Z D C f Z H J H C f C Z.! 3 3 3 w 0 A <.P.Y.` f ` I J Z Z Z f Z J P J J J H Z Z Z J Z Z Z C C C Z a f C Z Z C f a ",
"C C C f f f a a H I I f p Z J Z I P D H J P J J J J J J J J P P J D I ` L J I ` r.H d.-. . . .p n i n w i L ! H I H M p f Z M t C J I I J H J P Z Z Z H P I I I { -.{ {  .` I P L J L J Z Z f f Z Z C Z Z D Z C D p a D p = 0 H `  .{ I C p p a H D Z C f f C Z a p p f f f a a p f f p p a H ` D C A ..4.C 9 p w i m i i w w w y A ( J ( y.y.' ` K I ` I Z L [ J J H Z Z f f f J P P P H H H H L A Z Z Z A I _ P I ` ' ' { { { {  . .I I I I I J J H H H H H H H H J J P I I I J I  .{  .` I I { ` I I ! I I J $.G.dXI I M 1 9 0 y P 8.r.Z y a Z Z H H H H H H Z L ! ! Q L P P D L L L L D M M D Z M m M M D D D Z M M M M Z Z M Z Z H H P P I P I { { ! I P P P J J J P I P J H H H Z Z Z H H Z Z H P P J H J P P J J J J P P J I ` ` P Z Z P I I P P P P P P ` ..P { ` J <.9.:.D.! { P 3 B i m m w 9 L -.-. .I f f P H t p I [ I J Z Z Z Z Z Z f f Z Z Z Z Z H Z Z f Z Z Z H J Z f p f Z f a f a a f f Z Z C Z Z C a a M M M p p p C D D H J Z C f f Z Z Z Z Z Z H.B 3 3 3 i - ` f.y.F.y.J J [ I J J H Z Z H Z Z Z H Z p a Z Z Z H L L D C a a a C C f f a a ",
"P H Z C C C C C Z P L a p C Z f J H Z Z J P J H J H Z H I  .:.-.,...J Z I D [ oXW.Z.3.H -.! H M w n n i i H ! H P L H P P L L P L I ` ` I ` { ,.[ ` I I ` { ,.4.[ [ [ I I I I P L J L L I P D C p f C f a a f f C y y Z f 9 9 f p p a y y p a p p a a p a p f C f C C Z Z C C f C C f f f f f C f d D 4.q.D 9 i w i i i w 3 w w Z _ ` J ( <.y.` f.F.F...f p L { Z J I I I I I I A Z Z f Z Z J D A A A A J P I _ I ` ` { { { { <. . . .` I I I I I P H H H H H Z J J J P I I I I I I I ` { {  .` ` I P I { [ P H I J.dX:.I p 4 9 a p Z  . .Z a Z Z Z H J J J P P L P Q Q P P P P D D L L L Z M M D D D Z M M M M Z Z M M M Z D L P P P P P P P P I  .-. .P P P  .I J C C J I P H Z Z Z H J P I I J J P I ` I P I P L J J J J P P I H H I {  .I P I I P J J J I I L ..J ` ` ` f.) <.t.L 3.Q w B 3 m m w 9 Z ! I P Z a a H H H P -.L J Z Z A J L L D J J J J J J J J J J J L J J J Z f f Z J Z f a a a f f a a C Z f f C C C p p p C C D C p p p f D D J Z f Z H I A D V.i 1 n 3 i - ..g.y.g.y.( J I I I ` ` L J J J a 0 f J J f a p p C Z D Z C p f f f f a f C D ",
"P D f f f f f C a f Z a f Z D C H Z Z H J J J J J Z Z H  .r.9.9.p.d.P Z ` Z J Q.F.J.3.L r.! a M 1 n w i i M ! Z Z H P I I I [ { I ` ` ` ` { 8.d.Z.d.,.{ { ,.,.,.L L D Z C C C C C C C D I [ I L C Z D Z a a p f C p p p Z L C 0 0 t y p p Z C a y y y y p p p p C C f f a p p a 0 y p D P L C a C Z L 4.Z.I i w w w i i w 9 w i [ <.y.<.<.f.g.f.%X#XT.<.{ q.d.4.I ` { ,.,...{ { A Z f f J J L J A L P P P _ ` ` `  .{ ..<.,.,.,. . . .` I I I I P J Z Z Z Z Z Z P P P I I I I I ` P H J I  .-.,.` { {  .Q L H H ` T.%X<.H t 1 i p p Z ` { I I { P P J J P P P P P P P P L L L L D L L L L D Z M M M M Z Z Z M M L L L L L L L P P P P P P P I I {  .I P P P P P ` P Z Z J P P H Z H J I  .{ {  .` P J P P J P ` L P L J J P P P ` I J P I I `  .I I I P I I I ` I I ,.Z -..X1.s 1.:.H 3.L n n 3 N m w 9 M H Z Z Z ;. .Z Z -.6.P ` I _ _ ` ` ` ` I ` ` ` ` I I I I _ _ ` ` I I I Z Z J I I J Z Z f Z Z Z a a p C f p p C a p t t p p C C p p a f Z D J Z a a H I L L ! 1 3 V / / 8 _ y.h.g.<._ ' J J ` { { ` I I { ` I I I J Z Z D H D C f C C p C C C a p p Z J ",
"H f p f Z C C C f C f Z Z D D D H J P P P J J J J H J P ` { { {  .{ I A I J Z I  .9. . .-.;.H p 4 n w i w p P a I { -.I J D Z p P I I I ` { 4.8.8.,.{ { ` J Z d m m p p p p p i p p p m D P [ [ I I P J Z Z C C C D f y a L Z 9 8 0 0 t p p a 0 p p p p p p p p a a a a a f C C y y p Z P I J Z Z D L [ q.{ m 9 w i n i 9 9 n m <.p.g.g.g.z.F.z.y.` g s J { I d I ` ` ` I J Z Z Z Z A J L I I L P P P P I  .{  .` ` ....,.<.<.f.,.-.{ ` I P P I I P J J J P P P I I ` ` ` I I I ` P J I I I  .-.' { { ` L D H H :./.D.1.H t 1 i t u J  .{ ` [ { I I P J J P I I ! Q L L L L L L Z Z Z Z Z Z D D m M M Z D L L P P Q Q Q Q Q Q P P P P P P P I ! I P H Z H L L H I I P J J J J J J J I ` -.-.{  .` P H P P Z H I J P P I I I I I I  .{ I H Z J I I I `  . . . . .[ I ,.I r.T.$.s 1.P H 2.M i w c n m w 9 p p p p I t.r.L P w.r.Z { {  . . .[ ` I ` ` { [ ` I I I I I I I I I I I J I I _ L D J ` P P J J H Z Z Z C p p p p i 0 t 0 p p p p Z Z Z f Z H Z Z f Z J D L M 3 3 V / 3 8 J f.g.u.y.<.<.` ` { ,...[ I `  .<.8.{ L Z J I  .{ ` P J L J D D H H Z C Z L I ",
"H C C H I L L J I L D J L H D Z J I ` ` I L L L L I I I I J D A I A A f f [ { f ,. .H I Z  .I t 4 n w i w i L i M ! { P L { { D D D D J I [ { { 8.w.d.d.4.` Z p w w p p p p i i w w w i p Z Q { [ I L H J J D Z f C C p 0 6 8 t t p p y p f C p J H H D Z C f a f C Z Z J I I [ I J Z C Z D H J C Z C L 4.{ M 9 w i m i w w n C d g A A g h h y g J ( I J Z J ` [ [ ` I J Z C f f Z L I P J J J P _ I P P  .....` `  .{ ..<.p.d.Z.d.r.{ I I I ` ,.-.{ :.,.<.r.r.{ { { { { {  .` P I ` { ` P J I ` J Z D I ` I J :./.<.f.P i 9 9 y f I I J H I  .L J Z Z D J I [ } Q L D L L L B M M M M M M D D L L L L L P Q ! Q ! { { { ! P L [ I I P L H L L Z Z Z Z Z Z L P J I ` I J D D J J J I [ { { ` I [ I I  .[ L A P L P I I _ I I I {  .` I { :.I a I I { -.,.-.{ [ { [ C ,.<.Z K J <.H H { i w < N w m w 9 i i 9 t L L P I ;.-.! H L J P I I I I J I I ` I L A A J J A Z Z Z J J I I I ` I Z C I ,.` I I I I I I P H f p p p i i p p p C p C D D a Z Z J J L J H D C Q w i 3 n i w * [ Y.g.<.F.G.8.8.,.,.,.{ I I I Z J J D L ` { I J `  .[ { { { ` I [ [ ` I I  .,.",
"[ _ Q _ Q I Q I L P P P P P L F P P P P P P I I _ I P L F L L L J g s Z _ ` ` J L -. .p * 1 t 9 w w i m p 1 p L p C D Z m m Z D D L L Z m p p m M Z D Z p w 0 9 1 1 1 1 1 1 1 1 9 1 1 w m L ! O.q.{ [ { 4.4.[ D e p C C p p p p p m D L L D C p p p p C Z C p i a C D L L L D D D Z C C D D D Z p L 6.S.C.W w < w n p w 9 9 w w +.Z 9 y Z A P _ f.` J A _ {  .I ` L D D Z Z ` ,.4.L f Z J D D P J P P P I _ [ { Z.Z.s.s.s.{ { Z.d.q.4.4.q.Z.D.J.[ _ _ _ J Z J { ,.<.{ ` I ` ' <.' <.{ I J I _ P A F L L J J J K z.u.d.Z.[ 8 > p 0 D A Z D d Z 4.F [ [ A Z P [ [ L L L L L L L L L L D D D L L W F L Q { { { [ Q { { Q Q I I Q Q Q I P L F L P I [ I L L P I {  .C C Z Z Z D G D Z L { 4.+.{ ..q.s.+. .[ [ [ [ { [ [ [ [ [ [ _ _ I ` [ I P I _ [ 4.{ _ P _ `  . ...A A 4.4.A A 4.q.D L L 9 w B 3 n n n w w w i V 1 B Q W Q 3.~ Z P P P I I I I I L I L L L H D Z D D Z Z D D A A P P L A Z D I ..q.r.,.{  .` I L Z C C p p f C D M M C C C Z Z C L L I I L D C Z M D N w w n w < m W.L d.<.d.d.8.Z.A.q.I L I { { [ I I P I I [  .P P P P L L L L I H D I 4.q.,.` ",
"L L L L L L L L Q I Q I P L F D F F F F L L P L P P L L L L P I g ` <.<.` f 9 - Z.I i 1 w i w 4 9 9 w m p 9 w Z w p e w w 9 9 9 & < < < & & * < # & < < < < < 9 1 1 1 1 1 1 1 1 1 < < 1 w m Z D { 6.Z.q.{ { C.J. .[ P L L I [ { I I ! ! I I L L C p 0 0 p Z L I I I I I L C p p p C D D Z M p m L 6.S.C.D 9 9 n e p p w 9 9 9 9 p p p p e d P ` [ I A A _  .{ { Z Z Z J Z C Z J { J C H L D D L L L P ` ..4.q.8.Z.A.Z.s.q.{ [ 4...q.A.K.J.q.A 0 I P L D p 0 p d { { ,.,.{ ` L Z ,.,.,.'  .{ { { ..+.{ ` _ ` ` ' f.d.4.P m m e 8 8 p D L A d C P ..{ _ J P ..{ P D D L W W L D M D D L L W W W W [ _ I L L P Q [ L L F F F F L P P I [ _ P P L L I I I I Q P F F C Z Z F P P [ _ [ _ { 4.6.+.6.s.{ [ P I [ I [ [ [ [ [ _ Q _ [ P  .` _ `  .{ { ..D Z Z A J J A Z P J _  .F p F q.L n m m , < N w n n n w w w n n w M D D L ! ! L L L L P I L L L D J L L L P I L L I [  .{ [ I P Z D L P L D L _ I I I I [ [ { [ [ [ { { { I I L { [ Q I L L F D W L L D m p w w n N n w w m m w , L.! p q.4._ [ [ I L D D Z D J Z C C p M C C Z L J L D D D D D P L L I { ,.[ I ",
"L L L L L L L L L L P I I P L A D D A A L L L P A D D D D A F J I ` ` K Z J { Z.! p 9 p M i 1 3 9 9 w n p 9 9 e w w 9 9 9 < , * & < < < < < 1 1 < < < < < < 1 w 1 1 1 1 1 1 < < 1 1 < < 1 w w w 9 p Z L L P Q [ 6.+.{ { { { P F q.6.+.{ { [ Q Q L L D F I [ { { [ ! [ Q P L L D L I I D C Z P O.S.6.W m w 8 9 9 e n p w 8 9 9 8 $ e C 0 8 p Z A 6.4.{ _ L A A A Z D J L L Z C C L C C L I L P ! +.{ { q.A.H.A.Z._ 4.4.+.6.4.+.6.q.I p e p Z L P p C p p e p p 0 p f A ` { { P Z L D D I [ { { 4.[ [ I L P _ ' <.F.Z.[ p w m n < 8 0 D I J Z Z Z I I L A I ..,.[ M M D D D D D Z m M D L L Q Q Q H J I I I I L A L J F D D D A J C D L I I P L L L L L P L A Z Z Z Z F P [ _ [ _ [ I [ { 4.4.+.,.Q L L I [ I _ ` [ [ [ ` [ ` [ ` I Z C J I _ I I I _ ` ` ` ` ` ` ..` _ J D D L [ L L D m w 1 w w n n n w 3 3 c n w n n n m M M M M M Z C Z C M M C C Z D D D L L L D Z C C Z F L D L { 4.O.Q Q [ { [ { { O.{ { { 6.6.C.V.C.4.{ ! W L L D Z m n p m m n w w w w i 9 w w 3 q n n w @ w L 8 F D [ C D p i m C p p p p p i p i i w p p p p p p p m p M m m C Z D C p ",
"0 0 0 0 0 0 0 0 p p C D L P I P I _ _ _ ` ` [ [ 4.4.+...........d.8.,.4.8.d.d.V.p 9 9 m M 3 < w 9 9 w n n w 9 9 w 9 9 9 9 9 < < < < 1 < < < < < 1 1 < < & & < < < < < < < , , < 1 1 < < < < < < e 9 0 C [ { L m C Z F [ +.6.4.+.Z C p p w w w i D D D F D M i 8 < 8 9 w p m C Z Z Z C p 0 p D { o.Z > @ < w 9 * n n p w 9 9 9 8 < 9 w 9 9 p p 0 D F L L A L P [ L D D D Z C Z Z m p m C Z C Z L e e p D [ +.6.4.6.Z.V.{ { [ L F w p C P { { Q A D P L F L [ [ L [ [ Q [ [ [ P D p 0 0 d F L L I [ { { { ,.p.A.J.D.{ f p p w q 8 p 0 f I Z Z J f Z I [ ` ` ..d.Z.L Z Z Z H P I ! P P ! ! ! { { { I _ [ {  ._ P J Z D J L P I P P 4.4.4... ._ P L L L J A A A P I J L L P I I _ _ P P P _ _ [ [ [ [ I I [ [ ` ` ` D D D D A A J J { K J ` ' _ I _ <.,.,.{ ` ` { <.p.{ P P I I [ { i M n w i 9 1 n N n n w 3 3 3 c n w 3 w w 3 3 i w w w w w w w w p p p p p p p p m w 8 < < 9 e m p m D F F C m C D D Z Z Z m m p 9 9 9 8 < < 9 9 w w w 9 9 9 < < q 9 2 < q w w n 2 3 3 2 3 w w 1 n . F Z F C [ L Z n p m m p w w w w w w w w 9 9 9 9 9 9 9 9 9 w 9 9 w w w 9 9 9 ",
"y y y y p p p p 9 0 y a f Z Z Z f f f f f f f a H H H H Z Z Z Z I L L I I D p * Z i w 9 w 9 3 3 w w v m m w 9 q < q q q < < < q < < < , , , , , , , < , , < < < , , , , , , , , , , , , , < , & * * > # # > < 9 9 9 9 w p m F Q L F D D D D D D D C p 9 < * # # # # # * < < 9 9 8 9 w w w 9 w w < < > # > < 9 w m m n w 9 w 9 8 w 8 < 8 w 9 w 9 8 9 9 p p C D A m p p w w p p p e w w w w 8 9 0 < * < 1 9 9 w p Z L D p w w 9 8 m C Z Z Z Z D D D L L D D L L C C p w 9 w w w 9 Z p w p C m p m Q Q { { 4.q.Z.D. .p 9 m C 9 < e e 6 a J f f Z p a Z L J D J ` { A.Z.,.I J Z C f I P L D Z C C C ` I Z a t p a a p a Z J P P J J J J J J J I [ { I ` I ` I `  .-.I I P J J L I I J I I I I I I I ` I I ` ` I J J _ ` ` ` [ { { { _ J A I P Z Z D Z Z Z Z f f f Z A Z J I D d L 6.L P n 9 w 9 , w N N N v 3 3 3 3 v q q w w 9 9 w w w w w w w w w w w w w w 9 9 9 9 9 w w w w 9 9 9 9 w w w 9 9 w < < < 9 9 9 9 < w 9 < < < 9 w w q q q q q 9 9 9 q q q q q q q 3 3 3 3 3 q w w 3 8 # 9 * w 8 @ e p m m w 9 w w w 9 9 9 w 9 9 9 8 < < < < 9 9 9 9 9 9 w w w 9 9 w ",
"6 6 6 6 8 8 8 8 0 0 0 0 0 0 0 0 8 8 6 6 6 = * * + + % % * * * * * * * # # # * , < n M i 3 9 w w v n m m m v w 9 2 9 9 q < < < < 3 1 1 < < < < < < 2 3 9 9 9 3 3 < < < < < < , , , , , < < < < < < 8 9 < @ @ * < < < < # @ . @ @ 9 9 w w w w w w m p w < , * , < < < < < < * , , < < , < < < , , @ , 9 q 2 2 w m m m n w w w w q w 8 8 w w < 8 m e e 9 9 9 8 8 * 9 9 9 9 9 9 9 < 9 9 9 8 < < 9 9 p w w < * # # > @ # # @ # , , < < 9 w 9 < , * < < < < < < < < * 8 < < 9 w n m m m p e p m p w w e p m m m p d f D C C C m w q 8 9 8 p A D f p 0 0 0 0 0 a C Z C p p C J I  .{ -.a p t 0 9 9 0 0 p p 0 8 = 8 0 0 p a p f p p 0 8 + + % * 0 d L [ P ` { ,.{  .[ [ L L J A J L P P L _ _ P L L P L A Z Z Z C d p p 0 0 y y p p a p 0 0 0 0 9 9 8 8 7 9 0 y 0 0 9 8 p 0 0 p p 8 9 C o.O.m < q 9 2 n N N N n c 3 3 3 2 2 3 w w w w w w w w w v w w w w w w q w 9 w w q w v v v w v w v w w w v w v m q 9 q 9 w w q 9 q 9 9 q q q q q q q q q q 9 q q q q q q q q 2 2 3 3 3 c v n n v w 9 e 9 > m < 9 < w v < < 9 v 9 q 9 q 9 w 9 q 9 q 9 w q w w w w q w v v v w v v ",
"p p i i i p p i w 0 9 9 9 1 1 9 w w w w w w w 0 9 9 0 w w p w w 1 9 p e 9 < < < . < B m w 3 c n n m N N n v v v v w q q q q q 2 2 < < 2 2 3 2 2 2 2 2 < < < , : < < < < < < < < < < < < 2 2 2 < , , < < < < > @ @ # , < < < > # @ @ @ # # # # # # > , , , > # # # # # # # # @ @ < # @ . @ # > , < 2 9 w v n n n n n v q w v c 9 q w w w w 9 w e w 9 9 w w 9 9 9 9 9 9 9 9 w 9 < < < < < 9 w w w # # > * < < 8 8 w w < < 9 < * < < < < * * , < 9 * * * < < , < 9 8 8 8 < < , > # < 9 9 9 9 w w q 9 9 w 9 8 8 8 8 C Z Z C m e q < 9 e p C Z p 0 p p p p p C Z Z D Z C C C p p e 0 p p p a p p p C w p p M M m p p p p w 0 8 * * * 0 0 0 8 1 8 9 0 p D L P L D Z Z C Z Z D A A D D D A D Z Z D C p p e 0 e e 0 8 8 9 9 9 9 9 8 8 8 8 9 9 8 9 p w < 8 9 9 w e w 9 8 e 9 * < 8 8 , # < 9 < > q c n R N N N N b c 3 q 2 2 3 3 q w w q q q q w c w q q c q q q q w c w v w q 2 2 q v v c q q q q q q v c q q q q q 2 < q 9 q 9 q 2 2 2 2 2 2 2 2 2 2 2 2 2 2 2 c c c 2 2 2 2 c n n n n 2 # q 9 . w n > 2 2 2 2 2 q q 9 q 9 q q c w c w c w q q q q q q 2 q q q q q q q ",
"9 9 9 9 9 < < < 9 9 < < < 9 9 9 < < < < 8 9 9 9 < 9 9 9 9 9 < < 9 9 < < 9 9 < < < < < < q c w q n N N N n v v v v q q q v v w 2 w w q q q q q 3 q 3 3 2 3 3 2 2 < < < < < < < < < < , , < < , : , > > # # , < < < , # # > , , , # # # # > > > > # # # # # # > , > > > > # > # # , < < 9 w w w w v v w q q v n N n n v q q v c q w e w q w m e < w w w w w 9 w w w w 9 < < w 9 < 9 < < < < < * # 9 < < < 9 9 < # < , * < w < # < < < < < 8 < , * 8 < < 9 9 , < w q 9 q q q q 9 q < q q < < q q < 2 q q 8 8 8 9 9 9 8 8 e v w q w 9 e 9 8 p w 8 C e C Z m w 8 w n m m p w w w w e p p p p p p w w p w w 9 < < < < < , * , < < 9 9 < 9 9 9 9 < < < 9 w w w 9 9 w p m m C D D C m m m m e w p m w < e 9 8 9 w 8 8 8 w w 9 9 8 8 < < < 9 8 < w D m < e w 8 < < 8 8 < > w w < , 8 w q < q v v c c c b b n N N N b c c q v v q 3 c v q q q c c c c w c q q q 2 2 q q q q q c c c c q q w q q v v c q c c c c c v v v c q 2 2 2 2 2 2 q 2 2 2 2 2 2 2 2 c 2 2 2 2 q 2 2 2 2 2 3 b n v c q n < < m 9 > e v q 2 v b q 2 q 2 2 2 2 q q q q q q 2 2 2 2 2 2 2 2 2 2 2 2 2 2 ",
"2 2 2 2 2 < < < 3 3 3 3 3 3 3 3 3 3 3 3 3 3 3 3 2 2 2 2 2 2 2 2 < < , < < < < < q 2 q q w v v v n m m N m n v w v v w w v w w w v v v w c c c c q q 3 3 2 < < < < < < < < < < < < < < < < < < < , , , , , , , , # # # # # # : : , , , , , , , , , , , , , , , , > > , < < < < , 9 q 9 9 w w w w w w c v v v n n N m m n n v v v w w w w w w w w w w w w w w w w 9 9 9 9 9 8 8 8 8 9 8 < < < < < < , & & , < < , < < < < < < < < < < < < 1 1 1 < < < < < < < < < < < 2 2 2 2 < < < < 2 2 2 2 < < < 2 < < < < < < < < < < < < < < 9 9 w w v v w w q 9 9 q w w w w w w w w w w w w 8 8 8 8 8 8 8 8 q 3 3 2 2 2 2 2 2 2 2 2 2 2 2 2 < < < 3 3 3 3 3 < < < < < < < < < < < < < < 2 2 < < < < < < < < < < < < < < < < < < < < < < < < 2 2 2 2 2 2 2 q 2 q q q q q q q q q q q c c c c c c b b N N N N N R R N N N N n n n m m m n v v q c c c c c c c c c c c c c c c c c c c c c c c c c c c c c c c b b b c c c c q c c c c c c c c c c c c c c c c 2 2 2 q q q c x 2 3 c b n n n n m n n v v w w w v b b b b b b b 2 2 2 2 2 2 2 2 2 2 2 2 2 2 2 2 q q q q q q q q ",
"2 2 2 2 2 2 2 3 2 2 2 2 2 3 2 3 c c c c c c c q c q c q c q c q 3 2 < < < < 3 3 q q w q w w w v v v v v v v w q w w v w v w w w 3 3 3 3 3 3 3 3 q q q 3 3 2 2 2 2 2 2 < 2 < 2 < < < < < < < < < , , , , , , , , , , , , , , , < # # # # # # # # # > > > > > > > < < < 8 q q q q q q q q 9 9 9 9 q q q q w w w v v v v v v v v v q q w w w w w w w 9 9 9 9 9 9 9 9 9 9 8 8 8 < < < < < < < , , * * * & & & , < < < < < < < < < < < < < < < < < < < < < < < < < < < < 2 2 2 2 < < < < 2 2 2 2 < < < < , < < < < < 9 9 8 8 < < < 8 < < q q q q q 2 2 < 2 2 2 2 2 2 2 < 2 < 2 q q q q q q q q 9 q q 2 2 2 2 2 2 2 2 2 2 2 2 2 2 2 2 2 3 3 3 3 3 3 3 2 2 2 2 2 2 2 2 2 2 < < < < < < 2 2 2 2 2 2 2 2 q q q 2 2 q q q q q q q q q q q q q c c c c c c c c c c c c c c c c c c c c c c b b b N N N N N N S R N m N N n m m N m N m m m n v v v v v b v c c c c c c c c c q c c c c c c b v b v b b b v c v b v b v c v q q q q c q c q 2 2 2 2 2 2 2 2 2 2 2 2 2 q q 3 2 3 3 w w w w q w w w w q q < 2 2 2 2 2 2 2 2 2 q q c q c q c q c q c q q q q q 2 2 2 2 2 2 2 2 ",
"x 2 x x c c c c 2 2 x 2 x 3 x x 2 2 2 2 2 2 2 2 2 2 2 2 2 2 x 2 3 < < < < < < 3 q 9 q q q 9 q q 9 q q 9 q 8 < < < < < < < < < < 3 3 3 3 3 3 9 9 < < < < < < < < < , , , , , , , , , , , , , , , , , , , , , , , , , , , , , , , , , , , , , , , > > > , , < < < , , , , < < < < q q < < < < 8 < < < q 9 q 9 q q w w q w w w w w q q q q w 9 9 9 9 9 9 < < < < < < < < , , * * * # > # # > # # > # # # # # # # & & & & & , , & & < < < < < < < < < < < < < < < < , , , , , , , , , , , , , , , , < < < < < < < < * * * * * * , , 2 2 q q c q c q 2 2 2 2 2 2 2 2 2 2 2 2 2 2 2 2 2 < 2 < 2 < 2 2 2 2 2 2 2 2 2 2 2 2 2 2 2 2 2 2 2 2 2 3 3 3 3 3 2 2 2 2 2 2 2 2 2 2 2 < < < < < 2 2 2 2 2 2 2 2 2 2 2 2 2 2 2 2 q q q q q 2 2 2 2 2 2 2 2 2 2 2 2 x c c c c 2 q x 2 x x c c c c b b b b b b b v v n N v v v v w w w w w w w w w v v v c c w q 9 c w v v c w v v c w c w c c c c 3 3 3 3 3 3 3 3 2 < 2 2 q 2 2 2 q q q q q q q q q q q q q 9 q 9 q q q q q 9 q q q 3 w w w w 9 9 9 9 9 9 9 q q 8 q q q q q q q q 2 2 2 2 2 q q q 2 2 q q 2 2 q q q q q q q 9 q 9 ",
"2 2 2 2 2 2 2 2 , , , , , , , , 2 2 2 2 2 2 2 2 2 2 2 2 2 2 2 2 2 < < < < < < 3 q q q q q < 2 < < < < < , , , , > > , , , < < < , , , , , , , , , , , , , , , , < < , , < , , , , , < < < < < , , , , , , , , , , , , , , , , , > > > > : : > > # # > > > > > > , , , , > , < < q q q < < < < < < < 2 2 q q 9 9 q q q q q < 2 < q q 2 < q < < < < < , , * * * * > > # # # # # # # # # # # # # > & # # # # # # # & & & * , & & & & # # # # & # # # # # # # # # # & & & , , & & & & & , , , , & & > > > > * * * * , < < < , * < < < < 2 2 2 2 2 2 2 2 2 < < < < < < < < < < < < < < < < < 2 < 2 2 2 2 2 2 , , , , 2 2 2 2 2 2 2 2 2 < 2 2 2 2 2 2 < < < < < < < < < < < < < < < < < < < < < < < < < < < < < < < < < < < < < < < 2 2 2 2 2 2 2 2 2 2 2 2 2 2 2 2 2 2 2 2 2 2 2 q q c c c c c c c c q q q 9 q q q q < < < < < 8 9 9 9 9 q q 2 < < < < < 2 < < < 2 < 2 3 3 3 3 3 3 3 q 9 3 3 3 3 3 3 2 < 2 < < < < , < , < , < , < , 2 < 2 < < < < < < < < < < < < < < < < < < < , , , , < < < < < , < < < < < , < , 2 < < < 2 < q 8 2 < 2 < < < < < < < < < < < < < ",
"w w w 3 3 3 3 3 w w w 3 3 3 3 3 3 3 3 3 w 3 w 3 3 3 3 3 3 3 3 3 w w w w w w w w 9 9 9 9 q 9 q 8 9 9 8 8 < 8 9 9 9 9 9 9 9 9 w w 1 3 3 9 9 9 9 9 w w w w w 9 9 9 w w w 3 9 9 9 9 9 9 9 9 9 9 9 9 1 1 1 1 1 1 1 1 1 1 3 3 1 1 1 3 9 9 8 8 8 8 9 9 9 9 9 9 9 9 9 9 w w 9 9 9 9 9 w 9 9 9 9 9 9 < < < < < < < < 9 9 8 8 8 < < < < < < < < < < < , < < < < * * * * * , , < < < < < < < < < < < < < < 1 < * < 1 w 1 < 1 1 1 1 1 1 1 1 1 1 1 1 1 1 1 1 1 1 1 1 1 1 1 1 1 1 1 1 1 1 1 1 1 1 w w w w 1 1 9 9 w w w w w w w w w w i i i i q q w w w w w w q q q w w w w c q w q 9 q 9 q 9 q 9 q q q 9 q q 3 3 3 3 3 3 3 3 3 3 3 3 3 3 3 3 3 3 3 3 3 3 3 3 3 3 3 3 3 3 3 3 < < < < 3 3 3 3 9 9 9 9 9 9 3 3 3 3 3 3 3 3 3 3 3 3 3 3 9 9 9 9 3 3 3 9 9 3 9 9 q 9 q q 9 9 9 9 3 3 q q q q w w w q q w w w w w 9 w w w 9 9 w w w w w w w 0 w w w w w w w w w w w w w w w w w w n i n i n n n i N m N V m m m m n n n n n p e w w w w w w w w w q 9 9 9 9 9 9 9 w w w w w w w w 1 1 1 1 1 1 1 1 8 8 9 9 w w w 8 9 9 9 9 9 9 9 9 w w w 9 9 9 9 9 q 9 9 w w w w w w w w w w w w w ",
"N M M M M M B B B B B M M M N N n n n n i i i i i i i i i i i i i i n n n n n n v v v v p p n n m m m m m m m m m m m m m m m m M M M M M M M M m m m m m m m n n n n i n n n n i i i i i i i i i i i n n n n n m m m m m m m m m m m m n n n n n n n p p p e e p e e e w w w p w w w w w w w w p p n n n n n n p p p p p n n n i i i i w w i i m p p p p p p p p p p p n n m m m m p p p p p p p i i p M M M m p p i i i i i i m m m m m m m m V V V V p p m p p i p p p p p i p p p p m p p p m m N m m m m m p p p p p p p m M M M M M M M M m m m m M M M M M M M m M m m m i i i n n n i i V V V m m V V m i i i i i i i i m m m m m m m m M M m m m m m m n n p p i i i i w w i w i i i i i i i i i i i i i i i i p n n n i i i i i i i i i i i i i i i i w w i i n n n n m m m m C C C C C m C D C m m C C C C C C C C C m m m m m m m m Z Z Z Z Z Z D D N M M M M M M M N M N M M M M M m m Z Z Z Z Z Z m m m m m m C C m m m m m n n n m m m m m m m m m m m m m m m m n n n m m m m m m m m m m m m m n p e w w w w w n p p p m n n m Z Z Z Z Z C C C ",
"p p p p p m m m m m m m m m m m M M M M M M M M p p m m m m m m n m N N N N m n Z C C C Z Z Z Z D D D D D D D D D D D D D D D D D M M M m m m m M M M M M M M Z M M M M M M M M M M M M M M M M M M M D D D D D M M Z M M M M B m m m m m m m m p p p p p n n n Z Z C Z C C Z m D D D D D D D D L L L L F F L L F F F F F L L L L L L L L L L L L L L P L L L L L L L L D L L L L L L L D D Z Z Z D L D M M M M Z M M M M M M M M m m M m m m m p p p p p p p p Z Z Z Z Z H Z Z Z Z Z H Z H Z Z m m m m m m m m m m M M M M M Z M M M m M M M M M M M m m m m m M M M M M m m m M M M M M M M M i i i i i p p p M M M M M M M M Z H H H H H H H L L L L L H H H D D D Z Z Z Z Z Z Z Z Z Z Z Z Z Z Z Z Z Z Z Z Z Z Z Z Z M M a a M a a a a M M M Z Z C Z Z Z Z Z M M Z Z Z Z D D L F L P P P P P Q L Q Q Q F F Q F L L L L L F F D D D D D D D D m m m m m m m m m p m m m m m m M M M M D Z D D D D D D D D D D C Z Z Z Z Z Z Z m C C M C m m m m m m m m m m m M M M m p p p p e p p p m m p p n p n p m p n p m p m m n p n p m m m m m C Z C m m m m m m m m ",
"Z Z M M a a a a a a M Z Z Z Z Z Z Z Z Z Z Z Z Z M a M M M M M M M Z D D D D Z Z D D D D D D D D Z D D D D L F D I I I I P L P L I I I P L L L L Z Z D D D L L L P P P L L L L L L L L L L L L L D D D L L L L L L L L L L L L L P P P L P P P P [ Q [ [ { { { { { { { { { { [ { [ [ [ [ [ { { { [ [ [ [ [ Q [ ! { ! [ Q P L L L I I Q Q Q Q I I I I I I I I I I I I I I I I L L [ [ I I L L D D L P ! L p 9 9 i I P L H L L P P I I I I I I I I P P P P P I I I P U U U P P U P I I I I I I I I [ [ [ ! ! I I I P P I I I I I I [ ` ! I ! I ! [ ! I Q I I P L L P P P P P L L L L L L L L L L L Z Z Z Z Z H H H L L L P P P P P P P P P P P P P I I I I I I I I P P I I I I I I ` ` ` [ ` ` [ [ ` ` I I I I ` ` I I I I P J H D J J J J J J P I I I I I I I I I I I I I I ` ` ` [ `  .{ { `  .` { [ { { { Q Q { [ [ [ [ [ ` _ I I I P L L L A D L L L L P L L P P P P P P ! I I P P I ! !  . . .[ [  .[ [ I I I [ [ [ [ [ [ [ [ [ [ [ [ [ ` [ [ { [ { [ [ [ [ [ ! ! I P L L D D D D D A F A D D C C C C Z C C C C C C Z Z Z Z Z C C C C Z D D D D D D D D D D D ",
"J K K K K K K K J J K K ` ` ) ` $.' ` ` ` K I K ` K K J J J J K I I I _ ` ` I I { ` ` ` ` ` ' ' { { ..<.,.,.8.8.,.,.<.<.<.,.<.<.' ' ' ' ` ` K J ` I K K K K I ` J J J J J J J J J J J J J A A Z I L J J J J L L A A A D A A J L J J J J J J A J J J J L P I _ I P I P I I I ` ` _ ` ` ` ` ` _ I _ ` ` ` I I I I I I P L P I I I I I L L L L I _ L P I I I I L J J J J J J P I I I J J P I P I { { [ C p p 0 y ` I L J I ` ` ` J I K ` ` ` ` ` ` ` ` ` ` ` ` ` ' ) ' ' ' :.<.<.<.K I ` ' ' ' ` I ` ` ' { { ` ` ` <.' ` ' { ' ' <.{ ,.,.,.{ { { ,.{ { ,.,.{ { { ..I [ { { { { { [ I { ..{  . . .`  .-.,.,.{ { { { { { { ,.,.,. .` `  .{ :.{ { { { {  . . .{ { -.-.{ I [ ,.` I ` I ` ` I I I I I I L L L I I I I I I I I P L I I ` J I ` K K ` ` K K J J J K I ` ` ` I I I I ` ` _ J K _ _ I I _ _ ` ` ` [  . . .{ {  . .` [  .{ { ' ' ' :.<.<.<.<.<.<.' ` ` ' <.<.{ ` ` [ { [ { ,.{ { [ [ [ { { <.<.<.<.' ` ) ..<...{ { { { {  . .{ ' { ' { ' ` ` _ `  .' { ' ' { ` ` { { { ` I I J H A A Z Z Z A J J J J K K ( ) ` ` ) ) ( K J g Z J P L A D A J I I I ` _ I I ` ",
"&.<.&.<.<.<.<.y.<.&.<.<.<.<.<.y.<.<.1.u.u.u.<.<.$.<.<.$.<.<.<.<.<.<.8.8.<.<.<.<.<.<.<.y.y.<.<.<.<.<.<.$.$.' ' ' ` ' ' ' $.$.$.$.<.<.<.$.<.u.g.z.u.f.g.g.f.u.<.<.y.u.f.f.f.f.f.f.y.y.f.f.g.g.g.g.f.d.d.g.g.A.A.D.A.A.Z.d.d.p.p.p.' ' ' <.<.<.<.<.<.<.<.<.<.' ' ' ....<.<.<.<.<.<.p.<.<.....<.<.f...<.<.<.<.<.<.<.p.<.<.<.<.<.<.<...,.<.8.<.,.{ ` <.<.,.....,.<.<.<.1.u.u.f.<.:.` ` ' <.Z.D.Z.,.I p L Z 7 - p ` g...<.<.<.<.<.u.f.u.u.f.f.f.f.f.f.u.u.f.f.f.f.f.f.y.y.<.<.<.<.<.<.<.<.' ` ` $.<.f.<.<.<.<.<.<.<.<.' ` ' <.y.<.<.' ..,.<.<.8.8.8.8.<.<.<.<.8.8.,.{ p.p.4...{ <.8.8...{ { { ` { ,.<.<.<.' ' <.<.<.<.<.<.<.' ' ' <.<.8.8.8.8.4.8.4.,.{ ,.,.,.,.-.,.r.<.8.p.,.` ..,.` { ` ` ` ` ' ' ` <.<.,.,...{ ` ` { ..<.p.8.,.` J <.<.<.$.' $.$.' <.<.<.<.u.<.' ) <.<.<.<.<.<.<.<.<.<.y.<.<.<.<.y.8.8.8.8.8.<.<.<.,.,.<.<.,.,.,.<.<.<.<.<.<.<.<.<.<.<.<.<.<.<.$.' f.p.p.f.<.<.' ..<.<.<.p.<.<.<.$.&.` ` &.u.u.<.` ' ' ..' ` ' ,.<.' ' ' ' ' $.<.y.<.<.y.<.<.&.&.$.<.<.' ' ' ' <.<.$.$.' ' ' ' $.$.<.&.&.$.$.$.` ` $.$.%.<.<.&.$.$.J _ ` ' ' ' <.<.' ` ` ..<.<.<.<.",
"G.G.G.G.G.Y.G.Y.F.F.F.F.F.F.z.z.G.Y.G.G.G.F.z.g.z.F.F.F.F.F.F.F.G.D.D.D.D.G.G.G.F.G.G.G.G.F.F.z.F.F.F.F.F.F.F.F.F.F.F.F.F.G.G.G.g.F.Y.T.Y.Y.G.F.Y.T.T.T.T.T.T.T.XXXXXXXX.X XR.R. X X X X X.X.X.X.X.X.X X(. X X X X X(.(.(.(.(.(.@XXX.X X(.T.T.Y.T.T.Y.Y.Y.Y.Y.Y.Y.Y.G.G.F.F.F.F.G.G.G.G.F.g.g.f.Y.Y.Y.G.F.F.F.G.g.g.g.g.g.g.F.F.g.g.g.g.g.F.Y.Y.g.f.f.f.f.g.g.z.l.l.f.f.g.l.F.G.G.G.F.D.g.<.I f I a 6 6 K G.T.f.Y.Y.G.F.F.z.l.g.g.g.g.g.g.g.g.g.z.z.F.F.F.F.g.g.G.F.F.F.z.g.g.g.f.f.f.f.u.u.u.u.f.u.<.<.<.<.u.f.F.g.g.g.g.g.g.z.y.<.<.$.' ' ' ` <.' ` ` ` <.<.u.' <.f.g.g.g.<.$.z.f.<.f.f.f.f.l.f.u.<.<.u.f.f.f.f.g.l.g.f.1.1.u.d.p.<.<.,.,.,.,.<.,.<.,.<.{ { ,.<.<.<.<.<.f.u.u.f.f.f.f.u.u.f.f.<.<.<.1.u.f.g.g.f.u.<.u.f.g.z.z.<.<.u.g.f.u.f.g.f.f.f.1.<.<.1.g.<.<.<.9.9.<.<.<.<.9.f.9.8.<.<.9.<.<.1.1.u.f.u.u.f.f.f.f.f.f.f.f.g.g.g.g.g.g.f.f.f.u.f.g.g.g.u.<.u.<.u.g.g.g.g.F.y.y.y.u.y.<.<.<.y.y.<.<.$.$.<.u.<.g.g.f.y.u.f.<.F.z.g.z.Y.Y.F.l.z.z.z.z.z.l.z.z.g.g.z.F.F.F.z.g.g.g.g.g.g.g.l.l.%.<.1.1.1.1.<.<.%.%.<.1.y.u.1.1.z.z.z.z.g.g.z.F.T.G.G.Y.T.Y.Y.Y.",
"%X%X%X%X%X%X%X%X>X>X>X>X>X>X-X-X%XXX.X/. X(. X.X X X X/.T.T.Y.Y.Q.Q.Q.Q.Q.Q.Q. X.X X(.T.T.T.(. X X(.(.(. X.X X XXX.X.X X X X.X.XXX.X(.T.T.T.T.T.(.T.Y.Y.Y.T.(.(.Y.Y.Y.Y.G.G.G.G.G.G.G.G.G.G.G.G.Y.G.F.z.z.z.z.z.z.z.z.z.F.z.F.F.g.g.g.z.F.F.Y.P.T.U.T.U.T.U.T.U.Y.Y.Y.Y.T.T.T.T.F.Y.T.(..X.X.X(.Y.Y.G.F.F.z.F.z.T.T.T.I.T.I.T.U.T.Y.F.x.F.P.Y.T..X.X#X#X%X#X.X.X X/.G.F.l.F.G.K. XY.d.` H Z Z Z g 7 u <.F.XX-X#Xz.f.1.g.G.T.T.Y.XXXX.X X X X X.XT.T.R.(.(.R.T.T.Y.Y.Y.Y.G.G.G.G.Y.Y.T.T.T.Y.F.g.g.g.F.F.F.F.z.g.<.` ` ` ` ` ` <.z.g.g.z.Y.(..X@XY.^.XX.XT.z.g.u.F.z.f.$.$.<.f.g.F.u.u.x.F.g.u.g.1.g.z.g.<.$.<.g.<.1.u.1.<.<.<.$.<.<.<.{ { { { ' 8.<.,.<.<.{ ` ` ) ) $.l.Y.z.g.z.F.z.F.z.F.x.F.F.Y.Y.G.F.z.l.g.l.u.u.u.1.u.g.F.Y. X/.(. XY.z.z.G.G.Y.T./.T.T.Y.G.T.T.T. X X XT.T.G.G.G.G.F.F.F.F.G.G.G.G.G.G.G.G.G.Y.Y.T.T.~.(./. X X(.(.(.(.(.(./.(.(.R.(..X%X-X.XT.Y.Y.G.x.F.Y..X).(.^.(..X%X;X$X%X#X).T.Y.(..X#X-X>X-X%X-X-X#X).%X>X;X(.^.%XeX-X-X-X-X-X>XwXrXwXrXdXsXzXsXsXdXrXrXeXrXrXrXrXrXcXcXcXcXvXvXvXvXcXcXcXcXvXbXcXcXsXsXrXwXwX>XwXwX>X;X%X-X>X;X#X.X",
" X(./.T.T.T.Y.Y.F.F.F.F.z.z.z.z.T.Y.Y.Y.T. XoX%X:X%X%XOXXX.X.X.XY.Y.K.J.J.J.Y.Y.OXXX X X X XXXXX.X X XT.T.Y.Y.Y.T.T.T.Y.Y.T.T.T.Y.XXqXxXvXsX%XT.Y.G.z.f.y.y.u.u.g.g.d.g.g.F.G.Y.F.F.F.G.G.Y.Y.Y.T.P.P.P.T.^.XX#X-X-X-X;X;X;X;X#XsXrXwX;X#X).T.P.P.P.F.x.F.x.z.l.z.x.P.U.).@X$X;XwX-X%X@X.X#X-X-X#X@X#X#X$X$X-X-X^.).#X$X-XwXrXsXwXwXwXwX-X@X(.I.Y.U.T.^.(.U.Y.G.G.T.T. X/.T.Y.G.F.,.H a f J J H 7 r $.^.#X-XrXwX.X(.(.(.XX#X#X%XT.T.T.Y.Y.Y.G.Y.F.F.G.G.G.G.F.F.Y.Y.Y.Y.Y.Y.Y.Y.T.T.T.T.T.T.T.T. X XXXXX@X%X%X%XqXwXzXcXvXcXxXzXbXcXcXzXzXsXwX>X.X.X@X).(.R.T.U.AXbXcXdXrXeXsXsXdX>X>XsXzXeXwXeXrXsXcXcXdXrXrXsXbXsX-X~.G.x.z.u.<.<.1.f.9.<.<.<.<.:.` ) ' ' ` J K x..XXX.X~.G.U.Y.P.T.T.T.T.T.U.~.^.XX;X>XdXzXcXxXbXcX#X$.h k $.g.f.g.F.Y.T.XX>XwX%XT.T.%X%XoXT.XXXXXXXXXXXXXXXX>X>X>X>X>X%X%X-X#X@X@X).(.^.~.U.Y.T.T.^..XXX#X#X#X@X#X#X%X%X%X%X%X>X>X%X%X-XwXzXvXcXcXcXcXzXzXcXtXeXeXeXrXsXcXvXDXAXZXAXDXAXvXrX;X-X;X$X-XwXwX-XrXwX;X].^.^.).].(.(.^.^.^.^.).@XXX(.U.I.T.^.XX$XwXwX>X-X-X-X-X-X;X%X%XXX.X.XXXXX#X#X#X%X%X%X%X$X#X@X#X@X#X$X%X$X-X;X&X-XqX;X#X).",
"` ` ) K J J J J J J K K J J J K I ` [ { ,.,.r.,.` ` _ K J K I I [ [ ` ` ` ` ` ` J J J J J J J J K K J J J J Z Z H H H J J J J K K g s s g J ` ' <.<.<.<.<.' ` ) ` K J J J K K _ ` ( K K J J A g t r r y s j J ) $.$.$.$.$.$.$.$.$.$.$.&.<.&.y.y.<.&.<.&.<.y.y.&.u.y.g.l.x.P.U.U.P.z.g.&.$.` $.$.u.u.u.y.u.u.l.z.@X).(.U.F.i.u.<.<.y.u.u.y.<.$.` &.&.$.$.$.$.$.$.u.f.f.g.g.g.f.f.9.J y Z ` J p = r %.#XwX>XwX%XG.z.F.F.f.` J K ' I K K J J J A A J J J K K K K K J J A A J J J J g g J K _ ` _ _ ` ` _ ` ' <.f.g.p.f.g.F.F.f.f.f.g.z.F.U.T.U.F.z.;X).Y.T.@X-X-X#Xl.z.Y.G.F.z.u.$.y.%.%.1.u.u.u.z.(.)..X@X#X#XXX(.>X$XT.u.1.1.$.J u f J j g f g J H f a s g g f u y T.XX1.) ) K K J J J J J J J K K K J k k k k k z.l.P.;XzXrXY.K u t 7 - 7 6 u J I K J g g g K ` g g s s s s g g H J J J j g j k ) ) ) ) K K K K %.%.1.u.u.l.l.z.f.f.g.g.g.g.g.g.g.F.G.F.g.g.F.Y.) ) $.u.i.u.u.y.z.x.F.P.Y.Y.T.Y.u.<.$.<.u.u.$.) J ( ) $.$.) ( k g s k $.l.x.l.&.) ) ( k j g j j g s u y u s g j j j g s s s s s k g s s s s g g s s s g k J J J k j k k J ( ( ( ( k J ) ] ] J k ",
"H H g g g g g g g g g g g g g g a f C C C f a a Z f C f C Z Z D f d f f f f d a f f f f Z g g g J J J J J J K K J K I I I I _ ) K ` ` K J J _ ` K _ ` ` ' ' ` ` {  .` _ _ J J A _ I J A f f d u g g j k k k k j s s s s g j k J k j k j k g g g s s g g k k J J J k J k J k J k k J ) ` $.] ` ] g g g s u y s s r y s s g k k k s h y y s k ( ` <.<.<.<.<.u.u.u.f.<.` J Z f f Z 9.H a J J y 6 6 $.$XsX%Xz.<.$.$.g J K J f s g K A A A J J A A A Z Z Z A A A J J J J J J J J J J _ ` ..,.,.{ _ P A A J P _ ` `  .J A Z f d d f J ` ` ' ` ) k g g <.<.<.z.F.f.) h g g s u u s j g s s s s s g J J s u u s k k g u u g k J ` 1.<.` K ) $.` K J ) <.F.z.g.f.f.f.g.g.F.>X.X) J ) J K K K K K K K J J J J J J J J J J y g J J J <.Y.%XOX XD.,.I f 6 % - a ` ,.` J Z Z K I I I I I I I I ` ` ` I I ` ` K K K ) ) ) ` ` k k k k k k k J g A A J J J J J g g g g g f s s g g g k k s y r y y s s g s s s s g g s h h k ) $.<.l.P.l.&.&.&.1.Y.#X(.u.( K $.) ) ) J k j j j J J K ) ) ) J J ` ) ) ) ) ) ` ) k k J J K K I K J J J J K ) ` ) J k k k k k k g g g g k k g g k ",
"Z H J J J J J J J J J J Z J Z Z A D D Z Z Z Z A Z Z D D D D D Z J J L L J J A Z J Z g f g J K I J J Z Z g g g g J J J J J J A Z f K <...K g s g J J A A J J J K _ _ ` { ` ` _ K J J J J J P P I J J I ` I J g f K K J J J J J J k k J J J J J J J J J J J J J J g k k k k k k k J J k g g s s s g g g s s s g g J J J J J J J J J J J J J J A J g A K ` ` ` _ K H Z Z Z H H J J ` Z f H y = f g.zX%X<.y t 6 6 s g s a f D J J Z Z Z A A J J J A A J J J J P _ _ I K I _ _ ` ` ` <..._ Z d a a d A I ` ....` P A I I ` { ' ` ..<.<.<.` J f s A K s g g g s f J I J K K J J J H s f J K J J J H g J K ) K J J J K K ` ) K K $.<.) $.<.u.<.` ` <.l.g.l.g.u.$.' <.u.xX,X<.g ` ` J ' ` ` K K I K K K ` ` I K K J J J K H s s g J J J 8.D. X%XwXyX,XXX' Z y y g I I J J J I I I I J J Z Z J J Z Z J J K K K J J J H j K K J J g g g g g g g g g g f f g f s s J J J Z K k g g g g g J J J J J J J J ( J J J K K ) ` ` ) ) ` $.) l &.T..XF.' J J K J g g j g g g g j k J J H H g g j j g g g j j J J J J K K K K K J J J J H H J J J J J J k J J J g g J J g g g s g J ",
"H H Z g J I I Z H H H H H H H H J L L L L L L L D D H L L L H D L L J H H H J J Z H J H Z f a a H H H H H Z Z Z Z Z Z Z H H H J g I { ` J f Z I J J J J J J J J Z Z Z J J I I I _ I _ I I I P P D P P H H J H a Z Z Z H J J P P I P J J J J J P Z J P L J A J J J J J J J J J J J J J J Z Z A A Z Z Z f Z Z Z D J J J J J J P P I J J J J P J J 8.4...{ ` I I J H H J J J J J J <.y f H % f %XdXg.J y a J J Z Z D D D D D D D D Z Z Z Z J L I I I L J Z Z f f f J J J J I I I I Z C f Z J ` { ,.D.s.{ ` ` { ..,.{ { ` ` I J J A f f C D J J D Z Z Z Z Z f f f f f f Z Z Z Z Z Z Z Z Z Z Z Z Z Z Z H H Z Z Z Z Z Z Z Z Z Z Z H J f.<.<.9.g.F.F.F.f.<.<.f.$.K G.zXG.H t I  .f p P Z Z Z Z H H H H H Z f Z Z Z Z f a f Z Z Z f f f f a a a Z P  .-.Z.w.{ P Z Z Z H H H Z g f f f f f f f f f f Z H Z Z Z Z Z Z Z Z Z Z Z Z f Z H J Z Z Z A J J A J Z J J I I J J J Z Z Z J J A Z Z J J L P L J J Z J J J K K K ` ` K ` <.1.%.l.T.T.K P P J H Z Z f a a a f Z Z Z Z H H D Z Z Z D J D D D D D D D H f Z Z H H J J J I I I K J H J I J J L I L L I I J J J A Z Z Z Z ",
"H H Z Z H I J Z H H H H Z Z Z Z Z Z Z Z Z Z Z Z D D D J H H D D L L H D D H J H Z H H H H f f f f Z Z Z H H H H Z Z Z Z Z Z Z H f Z J A g g Z J J A A Z Z A Z J Z Z Z Z Z J J J J J J J J A A A L L L D D L D Z C C C Z D H L H D D D Z A A F A I L F D D A L J L L P P P P L L P P L J L A F A L J F A A J L J L L L J F A F F L L F A L L F D L L L A D D D Z H H H H H H H H 8.a s a 0 D.%XJ f a f H H Z D P D D D D D D D D A J J J J J A A Z A I ` { ,.8.q.{ { { { ..,.,.,.8.4.,.{ ,.,.,.,.Z f p f C Z f d A J J J A Z Z Z A D D D D D D D Z Z Z D D D D D H L D D D Z Z Z H H D D D D D Z C Z D Z C C D D J H H D D Z D J Z K <.F.T. XY.G.F.' J ' g.F.F.D.0 9 0 p L I P D D D D D D D D D p C Z D D C M p C Z D D Z C C C a a p y y y y p Z Z Z H H H H H a Z J J H f Z H f f f f f f Z Z D D D D D D Z Z D D D D D D H J Z Z Z A J J J J J J J J J J J J Z Z D A A A D D F A L P I [ { { J K ` ' :.$.<.<.$.) $.g.G.G.$.r J L D D C C C C C C Z Z D D D D D D D Z Z Z D L L L L L L L L L J J J J J J J J Z Z g Z H J J J A L P I P P P P _ I I P P P P L ",
"D D Z Z D L J Z D D D D Z Z Z Z C C C C C C C C D D D D D D D D D D D D D D L H D Z Z Z H H Z Z a f C Z Z D H H D D D D D H H H J Z Z Z D J J J A Z Z Z Z Z Z Z A A D Z Z Z Z Z Z Z Z Z D D Z Z D Z Z Z D D L P Z Z Z Z Z D D D D D F A F L L L P A Z D F L L A D D F D D D D A F F F D D D Z Z P P P L L L L L L L L L L F F F L D D D F F D D Z Z Z Z Z D D D D H H D H H H H I  .6 t K.K.f p p Z P P D C D L D D D D D D D D L J L J L P P P I _ ` ` _ I P L J J J J A A A D Z Z Z Z Z C d a C f Z D J J Z Z C Z Z Z Z D D D D D Z C C C C C C C C C Z Z Z Z Z Z Z Z D D D L L L D D Z Z Z Z M C Z C Z Z D H D D L L D D L L Z Z K { 8.Z.D.F.8.<._ K ' ,.` f C P L p p D L m D D D D D D Z Z Z D D Z M m Z D Z Z D D D Z Z D D H D D Z C f a p a C D H H D Z H Z f f Z H J H Z Z Z f f Z Z H D D D D D D D D D D D D D L D D Z Z D D J A J J J D Z Z Z Z Z Z Z Z D D D F L L L L P P P L L L J J J K K K K K K <.F.z.) g g g L D M M M M Z Z D D L L D L L D D D L L L L L P L L L L L L L L L P P J J J J H J Z Z Z J J Z Z F L I I P P P P P L L L L F F F ",
"D Z Z Z D H D Z D D D D Z Z Z Z D D D D D D D D D D D D D D D D D D D D D D D L Z Z C Z Z H H Z Z Z Z Z Z Z Z C Z Z Z Z Z Z Z Z I J Z Z J J J Z A D Z Z Z Z Z Z A A D D Z Z Z Z Z Z D D D A A D L Z D L F D D P D D D D D D D D D F F L L L F F C C D L P L D Z D D D D D Z D D D D D D D D Z Z L L F A D D D D Z D D D F F L L D D D D D D D Z D D F F F F D D D Z Z Z Z Z Z Z I a f 9.D.J t Z L I L Z D L L Z D D D D D D D D D A A J L L L P C Z Z Z Z C C d Z Z Z Z Z C Z C Z Z D J L L J A A D Z Z Z D D Z Z D D D A Z D D Z Z C C Z C Z C Z C C C C C C m n p m M Z Z D D D Z Z Z Z C Z C Z Z Z Z Z Z D H D D L L L L L P ` J C f Z K [ { I { { A a a p p D D Z m n p m Z D Z Z Z Z M m p Z D D Z Z C Z Z Z Z D D D Z D D C Z Z D D D D Z J H D Z Z Z Z Z L H Z Z Z H H H H Z Z f f Z Z H D D D D D D D D D D D D D D D D D J D J J A J J Z Z Z Z f f f C Z Z Z D D F L P F L Q [ { [ [ [ { ' ` ` { <.8.f.J.F.g.,.J K ' :.H D D Z D Z D L L L L L D L D D D L Q Q Q W W W L L L L F F F L H H H H H Z Z Z Z Z Z H J J H Z D L I I P P P P D D D D Z Z D Z ",
"Z Z Z Z Z Z Z Z L H Z Z Z Z Z Z H H H H H H H H Z Z Z Z Z Z Z H D D D D D D H H Z Z Z Z Z Z Z Z H H Z Z Z Z a a a a a a a a a a Z Z Z Z Z Z Z f H H Z Z Z Z H H Z D D D Z Z Z Z Z Z D H D J J L L H L P L M M H L L L L D H D H D Z D D D D Z C C D L I L H D Z L J L J L J L J L J L H H D D D Z Z C C C C Z Z C C Z Z D D D L D D Z Z D D D Z D D D D D D D D D D D Z Z Z Z Z H J <.8.H a H H L L Z m Z P P Z D Z Z Z Z Z Z Z D D D Z Z C f f C C C C Z D D J D D D D J J J J Z Z Z Z C f C f J Z C a a f Z Z Z Z Z Z Z Z C C D D D D L D D C D D D Z Z C Z C Z M M M m p p p M M M M Z Z Z Z Z Z Z H Z Z H H H H L L L H L J A A A A A J J J P J A Z Z Z Z Z M p M P P M m Z M M m a p p i i 9 i m Z L Z m i M Z Z Z Z Z Z Z Z Z Z Z Z Z Z Z H Z Z Z Z Z H H p H I I H Z Z H H H Z Z f Z Z Z Z Z D Z Z Z Z Z D Z D H D Z Z Z J J J J J J H H H H J J J H Z Z Z Z D Z D L L I I I I I P I I I J J I ` { r.d.f.J.-.J J J I I a Z Z L H L H L H L H H H Z Z Z Z D L L P L L L D L L L L L D D D Z Z Z Z Z Z Z Z p a Z Z Z H H P Z J P I P L L J D D D Z D Z D Z ",
"H Z Z L H Z Z H L L H H H H H H H H H H H H H H Z Z Z Z D Z H H L L D D D D H H Z Z H Z Z Z Z Z Z Z H Z Z Z Z Z Z Z Z Z Z Z Z Z a f Z Z Z Z Z H H Z Z Z Z Z Z Z C C C Z Z Z Z Z Z Z Z Z D H J J p a Z H Z Z Z H H H H Z Z Z Z Z H H H H H H H Z I I I J Z Z Z J J J J J J J J J J J J H H Z Z Z Z C Z f f f f Z Z Z Z f f f f f C f f C Z D Z Z Z Z Z Z Z Z Z Z D D D D Z Z Z Z I r.` f Z H Z J M L P H Z H H Z Z Z Z Z Z Z Z Z D D D D Z Z Z Z I I L D Z Z Z Z f f C Z Z Z Z Z L L L J H H L I D H H H J H J H Z Z Z Z Z Z Z D D D D H J Z C a C C f C C Z Z Z Z Z M M a a a a Z Z Z Z Z Z H H H H H H Z Z H H P P P H Z Z Z Z A A J L L J D D A Z Z L P Z C Z L P P H H H Z a Z Z Z Z M a a a p i t p a Z H Z Z Z Z Z Z Z Z Z L H H Z Z H H H Z Z Z H H H H H H a p a Z H H f Z Z Z Z Z Z Z Z Z Z Z Z H H H H H H H H H H H H J J J J J J H H Z H J J J H Z Z Z Z Z H J L I I  .` I J J I ` { f.Z.D.D.Z.d.r.,.a p f C p 0 p a Z Z H H H H Z Z H H Z Z Z M M M H L P P L L H H P L L L L L L L Z Z H H H H H L Z H H H Z Z Z H Z J J P J J J J H H Z Z Z Z H H ",
"L Z D L D Z Z L D D D L L L L L H H H H H H H H H H Z Z H H H L L L L L D D D D Z L P P Z M Z H Z Z Z Z Z Z Z Z L L L L H H H H Z Z Z D Z D J L Z Z Z Z Z Z Z Z Z Z D D Z D Z Z Z Z D D D D D D p Z H Z Z Z H H Z Z Z Z Z Z Z f J J J J J J K I I I J H Z Z H J Z Z Z Z Z Z Z Z H H H Z Z Z g Z Z Z f f f f f f f f f s a a a a a a a f f Z Z Z Z Z Z Z H H H H Z D D D Z Z Z Z 8.a H I u Z ' a H P I P H Z Z Z H H j j j j j j Z D D J L L L I C C Z Z D D L J D D D D J H L L C D D D D D D L C C D D D D D D D D D D H H L H Z Z Z Z Z Z f a a a a a a a a a a a a Z Z Z H H Z Z Z Z Z H H H f H H H j H H H H H H H Z f Z H P P F D Z Z D D Z D L P D p p Z a a a t p Z H P H H H H H H Z Z H Z p t p a H I H H H Z Z Z Z Z a M M M M Z Z Z H H L L L H Z Z P Z t p H P H a Z Z Z Z Z Z Z Z Z Z Z H H H H H H H H H H H H P J L J J J J H D Z Z D D D D Z Z H H J J J I I I J K ` :.9.Z.F.J.8.8.r.-.I H f a Z p p Z Z D L H Z H M M M M M M M M M M M a a a H H P P P L H L P P P P L H L H L L L L L L P P ! ! P P H Z Z Z Z H J J H Z Z Z Z g g g g g H H ",
"L D D L L Z Z L D D D L L L L P L H L H L H L H L H H H H H L L P L L L D D D D H P ! I L Z Z L H L H H H Z Z Z H H H Z Z Z Z Z L H C C C D H H H J D D D D J J J D D D D Z D Z Z Z D Z D Z D Z -.r.<.I H H H f H H H H H H H Z Z g g g J J I K Z g f g J J H f H H H H H J J J g Z H J J J K I H Z g f s a a a a a a a a a a a u y a a f f Z f Z Z Z Z Z f f f Z D D D Z Z Z Z a ` H a I J s J H Z a Z Z Z Z Z H H j j j j j j Z D D D D Z Z C D D H H D D Z C D D D D D D D D D L L L D D C Z H H D D Z Z D L Z Z Z D D D Z Z H g Z f Z H H H Z f Z f f a a a Z f Z f Z f Z f Z H Z Z Z f Z f a a f f f H H J H H H Z f H H J Z A L L L F D D A D C C Z F A Z H H H U H a a H Z f Z Z Z f f f a H H H Z a p p P H H H Z Z Z Z L L L L L Z Z Z Z Z Z M M M Z Z t P V.Z. .Z Z H Z Z H H H Z Z a Z H Z H H H H H H H Z f Z H H H J L L L L J H D J J H H H H J J H J J K I K I K J ` ,.f.9.<.I J Z Z f a a Z D J D C L I D C Z C H H Z a a a Z Z Z M Z M Z M a a a Z Z H H H H H P P P H H H H H H H L H L H L L L H Z Z H H L Z Z H H H Z Z Z Z H H H H H H J J ",
"L L L D D D D D D D J D D L I { L L L L L L L L D D D J L L L L Q Q I L L D D D D D D D D D D D Z Z Z C C Z D D L D D D D D D D L D D D D D D H D L I J H Z Z Z Z Z D H Z Z Z Z D Z D Z D Z Z Z a a a f Z Z J J H H Z H H H J J J J P J P J J J H H H H J J J H H H H H J J J D D J J J H Z Z C I I J H Z f a a f f f f f f a a Z Z Z Z Z Z Z H f f C Z C Z Z Z f Z Z Z Z Z D D L J H Z Z Z Z Z D D D D Z Z Z H H H Z Z Z H H H Z Z Z D D D Z Z Z Z Z D Z Z Z Z Z Z Z Z Z Z Z Z Z Z Z Z Z Z Z Z C Z Z Z D Z C f C C Z Z Z Z Z Z Z Z C f f f C f Z Z C f f f C Z Z Z C f f f C Z C f f f C Z Z Z f f f f Z Z Z H J H H Z Z H J J J J H D D Z Z Z Z Z Z Z Z Z Z Z Z Z Z Z Z H D J Z Z D H H J J J D Z D Z Z Z Z Z f C Z D D D Z C L D D D D L L L C Z D D C C C Z C p p p p p C C D D Z C Z D L L J H H H D H D H P P I P P P I I H H H H H H J J Z H J P P J H Z Z H I ` I K J J Z.9.,.` I H Z Z H D D Z Z Z D Z Z Z Z Z D D D D Z M C M C Z Z Z f a f a f a f f Z Z Z D H J J J L J J J J J J L L J J J J J H H H H J J D H D D H D D D D D H H H D D D D D D H ",
"D D D D L L L L D L J D D L [ 4.D D D D D D L L D D D D L L L F L L L F D D D D D D D D D D D D D D D D Z D D D D D D D D D D D D D D D D Z D D C D D D Z Z Z Z H H H H H Z Z Z f f Z Z Z H Z H f f f Z Z H J P H H Z H H H J J P P P J J H H Z H H H H H H J J L L L L J J L L D D H H H D D D f Z Z Z H J L L Z Z Z C f f a a f f C C C C Z Z f f Z Z D D Z Z Z Z Z Z Z Z Z Z J J D Z Z Z Z Z D D D D Z Z Z Z Z Z Z Z Z Z Z Z Z Z Z Z D D Z Z Z Z D D Z Z Z Z Z Z D Z D D Z Z Z Z D D Z Z Z Z H Z Z D J H Z Z C C C C Z C C C Z Z C f f f f f C C C C f Z C C Z Z Z C C C C Z Z Z f f C Z Z C Z Z Z Z Z Z D D D D Z D J J J J J J H D D D Z Z Z Z Z Z Z Z Z Z D D Z Z Z Z Z Z Z Z D Z H D D D Z Z Z Z Z Z D Z C Z D J L L L L L D D D D D D C p C C M p p M C Z Z M m M Z D L D D L L L L L D I P P P J L L L J J J J H H J J J J J H H H H H H H J J J J H Z I P H Z Z P { 8.{  .I P H Z Z Z D D Z Z D D Z Z Z Z Z Z Z Z Z Z C Z Z Z Z Z Z C C C C C C C M M Z Z Z H L L I I L J L L L I I I H H H H H H H H H H J J H H H H H H D D D D H H D D D D D D D H ",
"D D D L L L L L L L J D D L [ { D D D D D D D D L L L L L L L L D D D D D D L L L L L L D D D D L L D D D D L L D D D D D D D D D D D D Z Z Z Z C C C Z Z Z Z C Z Z Z Z f f f f a a f f Z Z H H Z f f f f f Z Z H H Z H H H J J P J J H H H H H H H H H H H H H L J L L J J L L D D D D D D D D f f C Z D D H J D D D Z C f f f f f C C C C C C f Z Z H H D Z C D Z Z Z Z Z Z Z D D Z Z Z Z Z Z Z Z D Z Z Z D D Z D D Z Z D Z Z Z Z Z Z D Z Z Z Z Z D D D D D D Z D D D D D Z Z Z Z Z D D Z Z C Z Z Z Z Z Z Z f f f f C f f f Z C C C C C C f a a a a f f f C C Z Z Z Z Z Z Z Z C Z C C C C Z Z D Z Z Z Z Z Z D Z Z D H L L L L J J J D D D D D D H H Z Z Z Z Z Z Z Z Z Z Z Z Z Z Z Z Z Z Z Z Z Z Z Z Z Z Z D D Z Z Z Z D D D D Z Z Z C M m p p p p p p p M D L L L D Z m m M Z L L L L L L D D L J H H D D J J Z Z Z Z Z Z Z Z H H H H H H H H J J J J J H H H H J P I I ` { -.I P J J H H H J Z Z Z D Z Z Z Z Z Z Z Z Z Z Z Z C C Z Z Z Z C C Z Z Z C C C C C f Z Z H L L P I L L L L L L L L Z Z Z H H H H J H H H H H H H H H H H H D D D H D D D D D D D D ",
"D D D L L L L L L L L J D L I [ D D D D D D D D L L L L L L L L D D D D D D D L D D D D D D D D L L D D D D L L D D D D D D D D D D D D H D D D D D f Z Z Z f a Z Z Z Z f f f f a a f f Z Z Z Z f f a a a a a f H H Z H H H J J H Z Z Z H H J P H H H H H H H H L J H H J L L L D D D D D D D D Z Z Z Z C C f f D D D D Z Z Z Z Z Z Z Z Z Z Z Z Z Z Z D H D Z Z Z Z Z Z Z Z Z Z Z Z Z Z Z Z Z D Z Z Z Z D D D D Z D D Z Z D D D Z Z Z Z D Z Z Z Z Z D D D D D Z Z D D D D D D Z Z H H D D Z C C Z C f f C C f a f f f f f f f f f C Z Z C C f a a p p a a f f f Z Z Z Z Z Z Z Z f Z Z Z Z C Z Z Z Z Z Z Z Z Z D Z D H J L J J J J J D D D D Z D D D Z Z D Z Z Z C C Z Z Z D H H D Z Z Z Z Z C C Z Z Z Z Z D D H D D Z C C M M M C C C C M m p i p p p m C Z D L D D D Z p p p m L D Z C C Z D D D Z Z C C C C Z H D D D D D D D H H H H H H H H H H H H H J J P Z J ` { { I J Z P P J J H H H H Z Z Z D Z Z Z Z Z Z Z Z Z Z Z Z Z C C C C C M C Z Z Z D D D D D f f Z Z D H H H L L L J J D Z Z H D H H H J J J H H H H H H H H H H H D D D D H D D D D D D D D ",
"D D D J L L L L L L L L L L L L D D L L L L L L P L L L L L L L D D D D D D D D D D D D D D D L D D D D D D D D D D D D D D D D D D D L D D D D L D C Z D Z Z C H H H Z Z Z Z Z Z Z Z Z Z Z f f Z Z Z Z f Z Z H H H Z H H H J J Z Z Z Z Z H J J J J H H H H H H D D J J J J D D H H H D D Z Z Z C C C C Z Z C Z Z Z Z D D D D D Z D D Z Z Z Z D D Z Z Z Z Z J J C C C C f Z Z Z Z Z Z Z Z Z Z D Z Z D Z Z Z D D Z Z Z D Z Z Z Z D D D D Z Z D D Z Z D D D D Z Z Z Z D D D D Z Z D D D Z D Z C Z D Z C C C C f f f f f f f C C f f Z Z Z C f f a a p f C C Z f f C Z Z Z Z Z C f a C Z Z Z Z Z Z Z Z Z D D H J J J J J J J J D D J D D D Z Z Z D Z Z Z Z Z Z Z Z f C Z Z D D H H Z Z Z Z Z C C C C Z Z Z Z Z D D L L D D Z Z Z Z D Z D D F D D C D D D D Z Z Z m p m C Z M m Z L D Z M m M Z D D D D Z Z Z Z D Z J J J J H H D H H H H H H H H H H H Z H H P I I I I P J H H Z Z Z Z Z Z Z Z Z Z D D Z Z Z Z Z Z Z Z Z Z Z Z Z Z D Z C p p p a C M C C C Z D D D C Z Z Z Z Z Z Z Z Z Z Z Z Z Z Z J H H H H H Z Z H H H H H H H H D D D D D D D D H H D D D D H D ",
"H H J L L L L L L L L L L D D D L L L L L L L L L L L L D D D D L L L L D D D D D D D D D D L L D D D D D D D D D D D D D D D D D D D D D D D D D Z C Z D H H J J J H Z Z Z Z Z Z Z Z Z Z f f f Z Z Z H H H J J H H Z H H H J J J J H H Z Z Z Z J J H H H H H H D D L L J J D D L H D D Z C C C Z Z Z Z Z C C C f f C Z D D H H Z Z Z Z Z Z Z Z D Z Z C Z Z J L Z Z C C f Z Z Z Z Z Z Z Z Z Z Z Z Z D D Z Z Z Z Z Z Z D Z Z Z Z D D D D Z D D Z Z Z D D Z Z Z Z Z Z D Z D D Z Z D Z Z Z D Z Z Z Z Z C f f f f a f f f C f C C C Z Z C Z C f f a f C Z Z Z Z Z Z C C C f f f a p p C Z Z Z Z D J J J J J L L P I J J J J H D D Z H H D D Z Z D D Z Z Z Z Z Z Z Z Z Z D H D Z Z C Z Z Z Z Z Z Z Z f C f f C f C C Z C C C Z Z Z D Z Z D D F F D D m m m m Z Z Z m p m Z D Z D D L C C Z D D D D Z L D D Z Z Z Z D Z Z Z Z D Z Z Z Z Z Z Z Z Z Z Z H Z H H J P I I I J Z f f Z H H Z Z Z Z Z Z Z Z Z Z Z Z Z Z Z Z Z Z Z Z Z Z Z Z L D C M p p C C p p p a C C Z Z Z D D D Z Z Z Z f f f C Z Z D D H Z Z Z Z Z f f H H H H H H H H D D D D D D D D H H D D D D H H ",
"L L L L L L L L I L J D D J L L I L L D F L I I L L L L L L L L L L L L L L L L L L L L L D D D D D D D D D D Z D D D D D D D D D D D D D D D D D Z Z Z Z Z H J H H Z Z Z Z Z Z f f Z Z Z Z Z f f Z Z Z H H H H H H Z H H H J J J J J J H H Z Z J H H H H J J H D L L L J D D D H D D Z Z Z Z D Z Z Z C C f a p f f f C Z Z Z Z Z Z C C f f f f Z Z C C Z D J P J H Z C f f C Z Z Z Z Z Z Z Z Z Z Z Z D Z Z Z Z Z Z D D D D Z Z Z Z Z Z Z Z D Z Z Z Z D Z Z Z Z Z Z Z Z Z Z Z Z Z Z Z Z Z Z Z Z D Z f a f f a p f C C C Z Z Z C Z Z Z f f f f f f Z Z D D Z Z C C f f p a a a a p a Z D Z Z D J L L J J J J L L H D Z Z Z Z D D Z Z Z Z Z Z D D Z Z Z Z Z Z Z Z Z Z D H D Z Z C Z Z Z Z Z Z Z Z C C Z Z Z f C C p p p p C Z Z Z m m m m D D D Z m n e e m Z Z Z Z Z Z D Z Z Z C Z Z D D D D D Z D D Z Z Z Z Z Z Z Z D Z Z Z Z Z Z Z H H H H Z Z H H H J J P P I H Z Z Z H J H Z Z Z H H H H H H Z Z Z Z Z Z Z Z Z Z Z Z Z Z Z Z H H H Z Z C f f p p a a f f f f Z Z D D Z Z Z Z C C C Z Z Z Z D Z Z Z Z Z Z Z Z H H H H H H H H D D D H D D D D H H D D D H H H ",
"L L L L L L L L I L D D D L I I Q L L D D L I Q L L L L I I Q Q L L L L L L I I I I L L L D D D D D L L L D D Z D D D D D D D Z D D D D D D D D D D D Z C f Z H J J H Z Z Z H H a a a f f Z Z Z Z Z Z H J H H Z H H Z H H H J J H H J J J J H H H H H H J J J H D D L L L D D D D D D Z Z D D D a a a p a f f f f f f f C C Z Z Z Z C C Z f f f a f C Z D J J J I P J Z Z f C C Z Z Z Z Z Z Z Z Z Z D D Z Z Z Z Z Z D D D Z Z Z Z Z Z Z Z Z D Z Z Z Z Z Z Z Z Z Z Z Z Z Z Z Z Z Z Z Z Z Z Z Z Z L H D Z Z Z Z Z C C C C Z Z Z Z Z Z Z f f f C C f f C Z Z C f a C f p a p p y p p a Z D Z Z J L L J J H D D Z Z D Z Z Z Z D D H Z Z Z Z Z Z D D D D H Z Z Z D Z f C Z H H D Z Z Z Z Z Z Z Z Z H D Z Z D Z Z Z Z C C C C Z Z Z Z Z m m m Z D Z Z F Z n w w p n n n p p M Z Z M m L D Z Z C Z D D D D Z Z Z Z D Z D D D D D D D D Z Z Z H H H Z Z J J J J J J J J P H Z Z Z J P P J J H H H H Z Z Z Z Z Z Z Z Z Z Z Z Z Z Z Z Z Z H J L P J Z C p Z Z Z C C Z f f C C C Z Z Z Z Z L J J D D Z Z Z Z Z Z Z Z H H H J J H H H H H H D D D H H H D D H H D D D D H H ",
"L L L L L L L L D D D D D D D D L L L L L L L L L L L L L L L D L L L L F L L L L L D Z C C C C I I I L L I P Q L L L L L D D D Z Z Z Z C C C Z C D H Z Z C Z D Z Z H J J H Z f H Z Z f f f f Z H H Z Z Z Z Z Z Z Z Z f Z Z H H J J H H H H J H H H H H H H H H L L L J D D D D C D H H H D C C p p p p a p p p f f f C Z Z Z Z H D D Z Z D D H H Z Z C C C Z D Z Z Z Z Z Z D D C C Z Z Z Z Z Z a f C Z Z Z Z Z Z H J L L H D Z D D D D D Z Z Z Z Z Z Z Z Z Z Z Z Z Z Z Z Z Z Z Z Z D D D D Z Z D D D Z D D Z Z D Z Z Z Z C f f f f f C Z Z Z Z Z Z Z Z Z Z Z Z y 0 0 y a D D Z Z Z Z Z Z Z Z Z Z Z D D Z Z Z Z D D Z Z Z Z Z Z Z Z Z Z Z Z Z Z H D Z C f f f a f C Z J P I I I L J H D D Z D D Z C f f f f C C C C C C Z Z Z Z n m D D D C m n m m m m m n m m m M M M Z D L P D D D D D D D D D Z Z Z Z Z Z Z Z Z Z Z Z Z Z Z H Z Z Z Z Z Z Z Z H J J J J J J Z Z J P P J H Z Z Z Z H Z Z Z Z Z Z Z Z Z f f f C Z Z Z D Z Z C J Z Z a p a C Z Z C C C f C C Z p J J p y a D D D D D J L L Z f Z Z Z H H H H J H H H H H H H H D D D D D D D D F F F F L L L L ",
"L L L L L L L L L L L F J A A A L L L L L L L L L L L L L L L D F L L L L L L L D D D D L L L P Q Q I I I I Q Q Q Q P L L D D Z D D Z Z Z D D D Z D D D Z Z Z J I J Z Z f Z Z H f Z Z H H Z Z Z Z Z f f Z Z Z Z Z H J P P P J H J J H H H H J J H H H H H H H H L J J J D D D D C C C C a f p p a a a a a a p p f f f f C C Z Z D D H J J L J J H H Z C f a p p C C f f f f C C C C Z Z Z Z Z Z f Z Z D Z Z Z Z J J J D D H J J D D D D H Z Z Z H H H H D D D D Z Z Z Z Z Z Z Z Z H J J H D D Z J H H H H D D D Z Z Z Z Z Z Z Z C C C C Z Z Z Z C C C C f f Z Z Z a p p C D Z Z Z Z Z Z Z Z Z Z D D D D Z Z Z Z D D Z Z Z Z Z Z Z Z Z Z Z Z Z Z H D D D Z D J H J J L L L J D D D J P I P J Z Z C C f f f f C C C C C C Z Z Z Z L F m p w p m D m m m m m m C Z p m Z D D D Z Z C C C Z D D D D D Z Z Z D D Z D D Z Z Z Z Z Z Z H Z Z Z Z H H J Z Z Z Z Z Z Z Z Z Z H J J J H Z Z Z H H H Z Z Z Z Z Z Z Z Z Z Z Z Z Z D D D D Z f f C Z Z Z C C C f f f a a f f L 0 * f { [ Z p I J D D H J L L J J J J H H H H J J J J J J H H J L H H A H L L L F F A L L L L ",
"L L L L L L L L L L L L L J J H L L L L D D D D L L L L L L L D F F L L F L L L Z D D L P Q ! ! Q Q Q I Q Q Q Q Q Q I L L D D D D D D D D D D H D D H H D D J J I P H f a a Z J Z Z Z Z H Z Z Z Z Z f f f f Z Z J Z f a a f Z J H H H H H H H H H H H H H H J H L L J J D D H D D D C p p p M C f f f f f f f f f C C C C C f f Z D J P I P L J J J H Z Z f a a Z Z Z Z Z Z Z Z Z Z Z Z Z Z C C D H J J D Z Z Z J J D Z Z D J L D D H H H Z Z Z D D H H D D D D Z Z Z Z Z Z D H H J J J D D Z Z Z Z Z Z C C C C f C C Z Z Z Z D Z Z Z Z Z Z Z Z C C C C C C Z Z J D Z Z D D D Z Z Z D D Z Z Z Z H H J D H H D Z D D Z Z D D Z Z D D D D D D D D Z Z D D J J P I J J L L I I L L H L I I I J Z C C f C C f C Z Z Z Z Z Z Z Z Z Z D D Z m m m m m Z D D Z m C Z D m M Z D D Z M m D D Z Z Z C C C D D Z Z D Z Z D D D Z Z Z Z Z C Z Z Z Z H H J J H H Z Z f f f a Z Z Z H H J J H H H H H H H Z Z C C Z Z Z Z Z D Z D D H H D D D a f f Z Z Z f f f f f f f f a a a D { r.` C Z [ L J Z Z D L I I P P P J J J H H J J J J J J J J L L F F A L L L L L L L L L L L ",
"L L L L L L L L L L L L L H H H L L L D D D D D L L L L L L L D F F L L L L L L L L P I Q Q I I Q Q I I I Q Q Q L L L L L D D D D D D D D D L L D H D D D D J J H P I I H Z Z H P J Z f f f Z H H H Z Z Z Z Z Z H Z a y y a f H H H H H H H H H H H H H H H J J D D D D L H J J L L D Z C C D D C C C C C C C C C C C f f f f a f C D J L L L J J L J J J H D D Z Z Z Z Z Z D D Z Z Z Z Z Z Z Z H J J J D D D D f Z Z D D Z Z Z D D D D H Z Z Z D D Z Z Z Z Z Z Z Z Z D Z D H H Z Z Z Z Z Z Z C f f f f f f f f Z Z Z Z Z D J J J J H D D Z D Z D Z Z Z Z Z Z Z J Z Z Z D H D Z H H H D D D H H H H J J J D D H D D D D H H H H J J J J J J J L D D D J L L I I J J L L I I I I P L H D Z Z Z D C C f C Z Z D D D D D D D D D D n Z D L L D Z m D D D D m m m m Z D Z Z C Z Z Z D D D Z Z C C M D Z Z Z Z Z Z Z Z Z Z Z Z Z Z Z Z Z Z Z Z Z H H J H Z Z Z f f f f Z Z Z Z H J J H H J H J H Z Z C C C Z Z Z Z Z D D Z Z Z Z Z Z Z Z f a a a f Z Z Z Z Z Z Z Z f a L I Z a Z D C Z Z D J L L J H J J J J J J J H J J J J J J J J L L L F J L L J L L L L L L L L ",
"L L L L L L L F F F F F L L L L L L D D D D D D L L L L F L L L F F D D L L L L Q Q Q Q Q P L L I L L L L L L I L L D D D D D D D Z Z D D D L L D D Z Z D D D D Z P ` ` I P J P P J Z f f f Z H H H H H H H H H Z H P I I P Z Z Z Z Z Z Z Z Z Z H H H H H J H H D D D D H H H H L L L H D D D D Z Z Z Z Z C Z Z Z C C C f f a f a f f C Z D H J J J J J J J J D f f f C Z Z Z Z D D D Z Z Z Z Z Z Z D D D D H H Z Z D D D D Z Z H H H H D D D D Z Z Z Z Z Z Z Z Z Z D D Z D D D D D D Z Z Z Z Z J J H D D D Z D J H H H H H J H L P J J J J D D H D D Z D D D H Z Z Z D D D D D D H H H D D D D H J J J J D D D D D D D H D D D D D D D D D H H P P P P L L L L L L L L J H D D P L J Z Z Z D J Z Z Z Z Z Z D D D D D D D D D D L L D D D L L Q D D D D Z m m m D D Z Z Z D D D C Z Z Z D D L L D Z Z Z Z Z Z Z C Z Z Z D D D D H H H H Z Z Z Z H H Z Z Z Z Z Z f f f f Z H J J H H H H H H Z Z Z Z Z Z Z Z Z Z Z Z Z Z f f f p Z f a a a f Z Z Z H H H H H Z Z Z C p y C I L a Z H J L J J D D H H H H J J H J H H J J J J H H F L L F L L L L L L L L L L L L ",
"L L L L L L L F L L L L L L L L L L D D D D D D L L L D D D D L F F L L L L L L L L L L L D D D L L L D D L L L L L D D D D Z Z D D D D D D D L D D Z Z D H D Z Z H J J H H J P Z Z H H J J Z D H H H H H H H H Z J I I I I J Z Z Z Z Z Z Z Z Z H H H H H H H H L D L L D D D D Z Z D D D Z C C Z Z Z Z Z Z Z Z Z Z C C C f f f f a f f f Z Z D D Z Z Z Z Z Z Z Z Z Z Z D D D D Z Z Z Z D D Z Z Z Z Z Z Z D H J I I J D Z D H L H Z H H D D D D D Z Z Z D D D D D D D D Z Z D Z D D Z Z Z D D H J J J J J J J J J J J J H D D D L J L J J J D D D D Z Z D D D D H H J J H D D D D H H H D D D D H H J D D D D Z D D D D H D D D D D J J J J L L J J L J J D D Z D D D D D D D D J J J L L J D Z D D D D D D L L H H H H D D D D L D D Z C Z D L D D D D D D Z D Z D D L L L D D D D D D D L L L D Z Z Z Z Z Z Z Z Z Z Z D J H J J J J J J H Z Z Z Z Z Z Z Z Z Z a f f f Z Z H J H H H H H Z Z Z D D D D D D D D Z Z Z f f f f C a a Z H H H Z Z Z Z Z Z Z Z Z Z Z D I ` J p C [ I I P J D D J L H H H H J J J J H H J J J J H H L L L L L L L L L L L L L L L L ",
"F L L L L L L L L L L L L L L L D D D D D D D D L L D D D D D L L L L L L L L L D D D D D D D D D D D D D D D D D D D D D D D D L D D D D D J J L D Z Z J J H D H Z Z Z Z Z Z H H H J P I J J J H H H H H H H H J H Z Z f Z J P J J J H H H H H H H H H H H H H L J L J D D D D C C C Z Z Z C C Z Z Z Z Z Z Z Z Z Z C C C C C C C f C C Z Z Z Z Z Z Z Z Z D D H P P L J H D Z Z Z Z Z Z Z Z Z Z Z D D Z Z Z H J { [ I H Z Z J J Z Z Z Z D Z D D J J J J D D H D J J J D Z Z Z Z H Z Z Z Z D J J D D D D D Z D D H H H D D D D D H H H D H Z Z Z D D Z Z Z Z Z D D H J J J D D D H J J J D D D D D D D D Z Z Z Z H H H H J J J J J J J L L L P P H J J J J D D D D D D H H J L L H J J J J L J H J J J J J J L L D D H H D D D D C Z D L D D D D L L P P I L L P D D L L L D D D L L L L D D D Z D D D D D D D D H H H J H H H J J J J J J J H Z Z Z Z Z Z Z Z Z a a f f Z Z Z Z H H Z Z Z Z Z f Z Z Z Z Z Z D D Z Z Z Z C Z D H Z H J P I J H Z f f f f Z Z Z Z I C f D J f a a L I I P J D J J J J J J J J J J J J J J J J H J L L L L L L L L L L L L L L L L ",
"F L L L L L L L L L L L L L L L D D D L L L L L L L D D D D D L L L L L L L L L I I L L L L L L D D D Z Z D D D D D D D D D L L L L L H J J L L L H Z D J J J H P P P I I I J H I I I J J J P I H H H H H H H H H H H J J J J J J J J J J J J J H H H H H H H H L L L J D D D D Z Z Z Z Z D D D Z Z Z Z Z C Z C Z Z Z C C C C C C Z Z H D D Z C Z Z Z D J P I ` I I L H D C f f f f f f C C Z Z D D D Z Z Z D J [ [ I I J D Z C Z H Z H D Z Z Z J J J J J J J J J J J H Z Z Z Z Z Z C f Z Z H J D D D Z Z Z D Z D D D Z Z D D D D D Z Z Z Z Z Z J H Z Z Z H H J C Z Z J J D D H H J J J D D D D D Z Z Z Z Z Z Z J H H H H J J J Z D D D H H J J P I I ` ` ` I I [ [ I I L J H D L H Z C Z D L P I I L J L J L L H H H L H H J J L L L L P I ! [ I I [ [ ! I I I Q L D Z Z D L L D D D D D D D F J J J J J J J J L L J J H D D Z Z Z H J J H Z Z Z Z H H Z Z Z f a a f f Z Z Z Z Z Z Z Z Z f f f a p f f f Z Z Z Z Z Z Z H J I I  .` I P J H H Z f f Z Z Z Z H H J L D f Z I I D C H I I I J Z C P P P P J J J J J J P P P P J J L L L L L L L L L L L L L L L L ",
"F L L L F F F F L L A A D D D D A A A A D A F L L L L A D Z D D L L L L L J F D A A A A D Z Z Z A A D D D D Z Z 0 _ p C [ Z L D D A L J Z Z Z J D D D A A A A L J J J A J J P I J J J J J A J J J J K K J J Z Z H J J J J J A A J J J J J J Z Z I J J A A A J J D D D D D Z Z Z A A D D D Z Z C C Z A J J A Z C Z Z Z Z Z Z Z Z Z Z D D D D D D Z D J L J A Z C f f C C Z Z Z D A A A A D D A A Z Z Z Z Z Z Z Z f P  . ._ I D d C g Z g Z Z Z Z J J J J J J J J A A J J Z Z Z f C g Z Z J J Z Z Z Z J J J J J J f f Z J J Z Z J J Z Z J Z Z Z a Z Z D J J Z Z Z Z J J Z D L L D Z I C I J p I J J Z f s Z Z Z g D J J J J K L J Z J P J P `  .` ` I ` I J I I Z A f Z J D f f Z Z f f f D J D f _ J Z I I Z Z J D J A J A Z Z C C F P P P Q [ P L Q { [ Q P P P I L F F P P D C C D C F L Z F D P Z J I A J ` Z J Z Z Z Z I I f J I J Z Z J J f J C Z J f f f a f f f f f Z Z Z Z Z f f Z f a Z y a f Z Z Z Z Z f J J Z J J J I Z f y a a a D a f f f Z Z D J J f Z Z Z Z J J f Z f Z ` { I J P J J L P L A Z J J Z C J I J A J I F L L D L I P F L P L D C D L ",
"P P P P L L L L L L A A A A D D D D D D D D A A D A L L F F L P A D A J J A A A Z Z C C C Z Z A Z Z Z Z Z Z Z Z [ D _ p a I Z Z P A Z A I I P Z L L J J J J L L Z Z Z Z Z Z Z Z J J A A Z Z D D J J J J J J J J J J H H J J K K L L J L J J J J J J J J J J J L J L F F A F A A D D D D D D D Z D D A A A A D Z D D A J J J J J A A D D D D Z Z L L L J D Z C d Z Z D D D D Z D C C Z Z Z Z Z Z f f f f C C C f C D L I ` { {  .D Z Z Z Z Z Z Z Z g Z Z Z Z g g Z J J J J Z Z Z f f g Z A J J J Z Z A A A A D D I J Z J Z f Z Z Z p f f f J I I J J J Z Z Z D J J J J Z C Z Z C D J D I J Z J J Z K J J I K J { a f g Z J Z Z Z ` ` I J J J J D J Z Z f f Z A Z J Z Z Z Z Z Z A J L L J Z Z A J f f Z J I _ I J Z D J D Z Z Z D Z F F D D F F Z L D Z Z C C D I F L P _ [ I L F L F Z A D Z F P Z f ` { J J I f J J J Z C Z Z Z a f f f Z A J J C f Z D f f Z Z Z Z f a a f Z Z f D J Z f C Z Z I I J f a a f f J Z p f I I Z a 6 p f J f f  .{ I I L J Z f f Z P P J Z Z J J J I I J Z Z J I ` I J A J J J J J Z J I I J J J I D Z D F L L Z C C D F L L I [ [ ",
"L J J J J A A A A A D D Z D A D Z Z Z Z Z Z Z A f C Z Z Z Z Z A Z Z D A J J J J J D Z C Z A L I I I I J J A Z Z I y [ L y I J Z f D P J A Z A J D D Z Z Z Z Z Z J I I ` ` ` I I I I I I J L L L J K K K I ` ` ` H g g g g g J J D D Z Z Z Z Z Z L L L L J J D Z Z Z Z Z Z C Z Z C C C Z Z Z Z Z D Z f f f f C C Z Z Z Z Z Z Z Z J J H Z Z Z Z Z Z Z Z C Z Z A J J J J J A Z Z Z Z Z Z Z Z f f C f f Z Z Z Z f f p p a f Z I I A J J J J J A Z Z J J J J J J J J J J J J J J J A L L J J J J D D Z Z Z Z Z Z Z Z Z C Z J J L I ` I I _ I I J Z Z J J J Z C Z J I Z J J J A J I ` J L 4.,.I I J J J ' K J ` K I F.f.:.J H g J ` <.I J J L I I I ` I J J J J J L I Z J J A Z J J Z Z C Z J D Z Z I Z I P f f J A a Z D J D Z Z J L L L F D D F A Z C C C L L Z Z F C Z D P I _  .{ I L L L L A A P ` I { ,.A D ` I I J f Z _ I D Z ` ` _ _ L D Z D Z Z Z Z f f f d C J J Z C C f a a Z J Z a f A f a Z Z Z Z A A Z Z C f Z Z Z f a J I L ` P P ,.[ Z Z Z H Z A J P Z Z Z Z Z Z Z A a Z J f f I ` I I J D D J L J Z Z J J J A J J J _ _ L A I _ I _ I I P A A P J C ",
"A A A D D D D D D D D Z Z Z D D A A Z Z D D A A L P I P L L J P J A J J J J J J J J Z C f Z D J ` ` ` ` I I I P p J J ,.J a { { I ` { { I P I  .` I I I I I I I ` `  .{ { { [ [ I I I I I I I I K K K K I ` ` ` ` ` ` ` ` K K K I I I I I I I P L J J J J J A A P P P P P I I I I I I I _ _ _ _ I I I J J J L L D D Z Z Z f f f f f f f f f f Z f f f f f Z J J J J A J A Z Z Z J J D Z Z f f f Z Z Z Z Z Z Z f Z Z Z Z A A Z f J J J D A Z Z Z J J J J L L I P Z Z J J J A A A I I L J J J J J J J J J J J D D L I I L Z f f Z f C f Z A D Z Z Z Z D J J J J Z I P J A Z Z Z Z J I K.Z.I ` J I J $.J g ` J K T.` I ` <.<.K g g J Z Z J D f d d Z Z Z D J Z f Z Z J I J J J J Z J f f J I J Z Z Z J P Z Z P ` [ L I I I ` _ I I P L L L L P L F L L D C Z A P I _ I L D D A L P _ I [ I I I A J Z Z { d.I Z Z p a J I I J f f { Z f Z J J Z Z J J I L J J J Z C Z J J Z Z Z C f I Z J I J J I Z f D J Z Z Z Z a f f Z J C f Z D Z Z f Z A I 8.{ P J H H A Z Z f D Z Z I I J A J Z L I D Z Z Z a Z Z Z Z D J J Z I J C f Z I J Z D P D C L L J _ D J J Z A I I L ",
"P J J J J J J J J J H H H J J J J H H H J J J J I I I I P J P P I I I I I I I I {  . . .` `  . .I I I I ` `  .{  .r.H { -.a J -.8. .J J  .-.I D I I I I I I I I J J J J J J K K I I I I I I I I K K K K K K K I ` ` ' ' ` ` I K I I I I I I I I H H H H J J I I I I I I I I I I I I I I P P P P P P P P P J J J I I P P P P P P Z Z Z Z f f f f H H H H H Z Z Z H H H Z Z Z Z Z H H H H H Z Z Z Z H H J J Z Z Z f f Z Z Z f Z Z Z Z H Z Z H H H Z Z Z Z H H H H J J J J J J J J H H H H J P I I J J J J J J J K J I I J f Z I ` :.:.I H I I K ` I I ` :.<.,.` J I I I ` <.8.8.<.,.` J.d.J :.` P J ' J K <.I ` .Xf.:.` ' :.' ` ' I ` { ,.,.:.{ { J ` J H I I J I ` { { I J J J I { I J H f f Z H ` ` ` ` J f Z I I J J I ` ` J Z P L L I I I L L D ` { I I { ` Z I P P I [ :.,.-. .` ,.I I ,.`  .r.` ,.9.` ` ,.{ ` I H H J H f Z I I I I I J H H f J J H ` ` J J I H f Z H J ` :.` f a J I I I I I J H Z H K ` ` :.H H I H J J Z J ` :.:.J K f.9.J H H I ` ` ` I I J g H J J Z f J H Z H J I ` { J J J Z H I ` ` <.{ ` I I J I I H I { ,.8.{ I L { -.-.` I P I I ",
"` ` ` ` ` ` ` ` I I I I I I ` ` I I I P I I I I I I I I I I I I { { { { {  .[ ` P I I I ` ` I I -.-.{ { { { { { ,.I I I Z.w.0 f  .I J P `  .I J ` I I I I I I I ` ` I I I ` ` ` ` ` ` ` ` ` ` ` ' ' ` ` ` ` ` ` K I ` ` ' ` ` I ` ` ` ` ` ` ` ` ` ` I I I I I I H H H H J J J J J H H H H H H H J J P P J J J J I I I I `  .{ -. . . .` ` I I P P I I I I I I P H H J J J J J J I I I I I ` ` ` I I I I I I P J Z Z Z f a a f J H J J J J J P P P I I I I I I I  . .` ` ` `  . . .` ` I I I I I I I I I I ` ` ` J I I P ` 9.J.Q.K.Q.F.D.Y.Z.` I D.Z.Z.D.F.F.Z.9.I I :.Z.J.Y.Y.Y.K.9.D.8.I f.D.` ` ' :.g.T.9.<.%XF.F.G./..XT.9.I I <.Z.F.J.Y.T.T.D.K.9.` f.K.F.J.D.D.f.<.` I <.D.J.T.K.d.:.9.J. XOX.XoXOXT.8.` ` K.J.D.F.J.J.D.f.[ ` [ [ ` I I I { w.Z.8.q.Z.w.[ f J  .8.Z.D.Z.Z.8.8.D.I ` J.D.D.K.d.D.J.Z.D.T.T. Xf.:.I I { ,.J F.D.Z.d.9.8.' J 8.J.D.f.F.F.Z.D.` J I 9.D.f.<.f.D.Z.8.d.J.F.D.Q.I J I :.8.9.d.D.d.:.9.d.P H ` ` 9.D.Z.Z.<.<.Z.<.f H I <.w.Z.Z.Z.8.:.I g g H J Z Z H I ,.9.9.d.Z.d.9.:.I ` 9.D.D.f.Z.D.D.<.I ` d.K.D.J.K.D.J.D.w.J.J.J.D.r.I P I ",
"{ { { { { {  . .{ {  . .{ { { -.-.{ { { { :.-.-.8.8.w.8.8.r.8.8.-.,.,.,.,.,.-.{ w.w.d.Z.f.f.d.d.8.r.<.,.-.{ { { ` I -.` Z.W.I a Z I r.8.,.{ ,.8.r.r.r.r.r.r.8.8.<.<.<.<.<.,.<.<.:.,.,.,.,.,.,.,.,.<.<.<.,.:.:.{ :.:.,.,.,.<.<.<.8.8.8.8.<.8.<.<.8.<.<.,.:.` I I `  . . .{ { { { :.-.:.-.-.-.-.,.-.-.-.-.-.,.,.r. . .` ` `  .:.-.,.r.r.8.r.,.:.{ ` `  .{ { { {  .I I ` ` I ` ` `  . . . . .{ { {  . .`  .` ` I I -. .` ` I I I  .` ` ` ` ` [ [ [ { { { { { { { { { { {  .[ [  . .4.,.-.{  .[ I I ` ` ` ` ` ` ' ' 9.<.:.:.d.F.F.Z.I <.<.Z..XY.:.` Q.K.D.f.d.Z.F.Y.:.<.f.D.f.:.` ` D.Z.F.Z.` 9.Q.,.{ ` <.K.Y.,.<..XQ.F.8.:.9.D.d.` ` d.D.<.` { :.` Z.T.9.I d.Y.D.d.9.9.Z.Z.,.` 9.T.` <.<.I I 9.F.F.8.<.8.f.D.d.:.I F.D.9.,.:.<.d.Z. .[ [ [ I I [ 4.W.Z. .L I ,.A.W. .8.Z.D.w.{ ` ` 8.Z.W.`  .Q.D.d.J I F.OXY.f.<.` 9.F.OXY.Z J F.J.` { { { 9.D.g.:.{ J.D.{ { ` ` f.8.I { Y. Xg.{ <.{ K.D.` :.:.,.Y.9.<.d.T.Y.9.` ` <.9. X.X` J w.K.{ { I { 9.F.T.9.{ 9.D.D.w.,.,.<.D.F.Z.:.I { <.{ ` f.J.D.9.:.` I D.Z.<.:.d.J.G.f.d.8.D.T.F.:.,.F.:XZ.8.d.8.J..XZ.8.,.d.K.J.r.{ 8.",
" . . . . . .` ` { { { { { -.-.,.w.w.w.w.9.w.d.d.8.8.8.r.,.-.:.-.,.,.,.r.r.r.r.r.-.-.-.{ {  . . .` ` ` { :.,.,.,.r.D.r.-. .J.:X{ 0 a J  .,.-.{  .-.-.{ { -.-.,.,.{ :.:.,.,.:.{ { <.,.,.,.<.<.<.<.:.:.,.,.,.:.' ` ` ` I I I I ` ` { { { { ' ' ' ' <.<.9.d.d.9.<.,.:.:.-.-.-.,.,.,.,.,.<.r.8.8.8.w.-.{  . . .-.,.8.r.,.-.{  . .{ { I  .{ ,.r.,.,.:.<.,.,.-.{  .` ` -.-.{ { { { { {  . .` ` I I I P ` I I I P P P P ` I I -.r.-. .` ,.,.,.,.-.{ { { I I I I I I I I I I P L J L L L I I ` [  .{  . .` ` ` ` { { :.:.` ` ` <.F.Y.f.I ` :.I ` J.D.{ :.K.D.<.J Z I d.Y.I ,.D.J.f.` ` { J d.T.T.I I T.<.` H I d.:.s J D.:.` f a I 9.<.J J 8.d.I f H I J { F.:.f ,.D.` f a Z :.f.<.I { J.H ` I J :.J.D.I I J H H { 9.:.H F.Z.<.I J I d.J.I I I I J D [ d.[ Z C I [ L L { P -.d.8.I H P ` I d.Q.I I K.,.H I I d.J.,.I ` I J J D.D.I f. X<.H I J J :.F.f.I ` T.K.:.` I { Y.T.` J d.D.` H ` ` :XoX` I ` :.Q.Z.,.8.Y.T.8.` <.,.,.Q.OXf.8.T..Xd.f.<.<.,.D..XQ.` f.T.K.8.` ` <.` Z.D.,.I ` { I ` D.K.8.I ` <.,.<.,.{ :.Z.J.9.J :.J ` J.Q.Z.8.D.:X-.` r.,.Y.oXw.{ I -.K.K.,.I  .",
"t t t p p a a a Z a a p p a a Z a a a a a a a a p a a a p p a p a a a a a a a a a a a a M M M Z Z Z Z Z Z M a p p p p p p M L I P Z a p a Z Z Z H Z Z Z Z Z Z Z a a a a p p p p a a a a a a a a a a a a a a a a a Z Z Z Z Z Z Z H H H H L L L P I I I I I P P P I P P P P P P P H H H H H H H H H H H H H H H H P P P P L H H H Z Z Z H H H H H P P P H Z Z M a p p p p p p p p a a a a a a a a Z Z Z Z Z Z Z Z Z Z Z Z M M M M M M M Z Z Z H H H H Z Z Z Z M M Z Z M M M M a M p p p p p p p p a a a a a a a a p Z Z H ! I H H Z a Z Z  . .a p -.P Z Z a p H r.a H I I Z a M H Z P r. .H H P r.Z a t. .H H Z Z.I a Z Z a I -.a I r.P p H P a H Z w.I Z -.-.a Z H Z Z Z.P I H r.D.r.P a P r.w.-.r.r.r.w.w.r.! P w.I H H H Z I w.Z p p Z a i M ! a a p a a a a a Z I  .Z p Z H a a P w.a a r.H a p a P I a t i p a p P P a H I t a t Z Z t H  .Z t -.Z 9 p 9 t H P p p H H p t t t P H p Z Z a  .I Z  .r.Z p H H Z H P D.I H J. .a a H H Z P  .! Z -.Z.t.r.w.w. .r.w.r.P Z Z H Z H r.I p H P a a p a t p I H t Z p a t p ! H p L P p p a t H I p p t 9 Z Z t t t ",
"a a a a a a a a a a a p a a a a a a a a a p p p a a a a a a a a p a a a a a a a a a a a M M Z Z a a a a a p p p M M a a p p p a Z a p p a M a a M M M M M M M M H H H H Z Z Z Z a a a a a a a a M a M a M a M a M a M Z M Z Z Z a a M a M a M a M a M a M a a a a a a p a a a a a a a a a a a a a a a a a a a a a a a a p p p p p p p p p p p p p p p p p p p p M M M M M M M M a a a a a a a a a a a a a a a a p p p p a p a p a a a a a a a a a p p p p p p p a a a a p p p p p p p p p p p p a a a a a a a a a Z Z H ;. .Z a Z a Z Z I  .Z Z -.P Z Z M a P r.a H I I H a M Z p Z -.I Z Z H -.P Z -.H p a p -.Z t p p i H I p a I H t M a i Z a  .Z t P P p a a p p r.M Z i H P  .P a Z I I a H Z Z Z H Z a p  .H a a p p H ;.H a a Z M a P 6.M a M Z Z Z M p p P ! H a a M a a H -.p p -.H a p a I  .L a Z Z i p I  .Z P  .M H p Z Z a P  .a a r.L p Z a Z I ;.Z Z  .I Z M a M  .I Z H Z M  .I a P -.H a Z Z p a L r.Z t r.P H Z Z Z a H ! I p P { P Z H H H M H H a a Z Z a a  .L t a a i M M H a Z 3.! p a M H M H -.P a P  .a a Z a P  .a a a a I I a a a ",
"Z M M a M a p p p p a a M p p p p p p p p p p p p a a p p p p p p p p a a a a a a a a a M M M M a a M M M a p p a M Z Z M M a a M a p a M M M p M M M M M M M M M a M a a a a a M a M a M a M a M a M a M a M a M a M a M a M a a a p p p p p p p p a a p p p p p p p p p p p p p p p p p p p p a p p p p p p p p p p i p i i i p p p p i i i i i i i i i p p p p p p p p p p p t i i i i i i i p p p p p p p p p p p p p p p p m m m m m m m m m p p p m m m m p p p p p p p p p p p p p p p p a a a a a a a a a a p a ! I Z p a p M Z I  .M M { H M a a p L -.p Z L P Z p i t p Z ! H p p p P  .Z P a 9 i i I M 9 i p i Z P i i P L p p t 1 p Z I M 9 H H i p p t i  .p a 9 a 1 H P a p L P p a p p a Z Z Z a { H M M M a P 2.M p p M m p D { L Z m p p M Z L i H ! P M p p p Z P 2.a a -.L a p a P  .L a a p p a ! I M H ! P Z t p a Z ! { M M 3.L a H a Z I ;.M Z  .! Z M Z Z -.! Z Z a M ! ! M L  .L a M i i a L -.a 9 -.I Z p a a a P { ! Z I { P M p p M Z H Z a a Z Z p Z r.;.Z Z M a H M H a a ! I a i p Z Z H { P Z P -.Z M Z M I { M M M Z  .{ Z M a ",
"p a p p p a a a p p p a p p p i p a p p p p p p p p p p p p p p p p p p p p m a p p p p p p p p p p p p m p m p i i p a M M M M p p p a M M m p m a m a m a m a M M M a M a m p m a m a m a m m m m m m M M m m m p p p p p p m M a M a p p p p m a m a m a m a M M M M M M M M a a a a M M M M M M M M M M M M M M M a m a m a m p m p p p p p p p p p p p p p p p p p p p p p p p p p p p p p p p p p p p p p p p p p m p m m p p p p m m M M m m m m m m m M p p p p p p p p p p p p p p p p p p p p p p p p m p w t M H Z H p p Z Z P P i i P Z p p p i M I p a Z Z Z M p i Z Z Q Z p i 9 m ! Z Z i 9 p p Q M i i p p Z L m i L L M M a p M L  .Z i L L p p p i p ! M Z m Z i L P a i Z P L p p M Z Z Z M i L M p p i i Z ! i i m D Z p i M { P Z m m Z L P p Z P I L M a Z P ! -.Z M ! H M M Z Q { P Z Z M D H P H i a P P L a M Z D P Q p M { Z p M p m Z ! p m P L p i a M I P M m p Z ! ! M Z I P L L M D L ! 2.Z p { ! D M M M Z P { I i M P P D p p M { ! L M Z L P L i P ! L L Z m Z ! { D a P { Q P M L L P ! L Z P  .Z a M M I ! M p M M ! ! M M p ",
"p p p p p p p p p p p i i i i p p p p p p p p p p p p p p p p p i i p i i i i p i i i i i i i i i i i i i i i i i p m p i i i i i i i i p p p p i p i i i i i i p p p p p p p p m p V p V p V V m m m m V V V m m p m m p p p p m p m p p p p p i i i i p p p p p p p p p p m m p p p p p p p p m m m p m p m p m p m p m p V p p p p p V p V p m p m p p p i i p p V p m p V p i i i i p i i i i i i i i i i i i i i i i i i i i i i i i i p p i i i i i i i i i i i i i i p p i i i i i i i i i i i i i i i i i p i 9 m M M L M M M M D Z w i M p i i i w p Z w i i M M Z D Z D M B p i p 1 w L M V w 3 i i M i w w i i m M i w p M M D L D L M L m i M Z p i i i i D i M M M D Z M p i i m M M Z B M M p i 1 M i w i w w m D i p M L D m w i D L L Q Q L D M i i M D L D D L Z L P m p Z M i i i M L D M L L L Z M p w i M M Q L L D M M M 9 m P M p M i V M P i V L D i i p p Z D m i p M P M i i Z L P Q Q ! P Q ! M i B M 3.{ } ! ! ! } P M M L ! } ! ! { L Z m p M L W L i Z Q ! } ! ! ! P Q D p M P ! ! Q ! Q L L M m Z P M p p M L L M m M p L L M M p ",
"i i i i i i i w i w 3 1 1 9 i i w 9 w 9 3 1 3 1 w 9 w 9 w 9 w w w w w w 3 3 3 1 w w w w w w w w w w w w w w w w i i i i w w w i i i w w w w i i i i w i i i w i 1 1 1 1 1 1 1 1 i i i i i i i i w i w w i w w w w w w w i i i i i i i i i i i i i i i i i i i i i i i i i i i i i i i i i i i i i i i i i i w i w w w w w w w i w i w i i i i i w i w i i i i i w w w w w w w w w w w w w w 3 1 w w w w w w w w w w w w w w w w i w w w w 3 w w w w w w w w 1 1 1 1 1 1 1 1 1 3 1 1 1 1 1 1 1 1 1 1 1 1 1 1 1 1 < w w 1 w 1 1 i m i i < 1 3 * 3 3 4 < < 4 < 4 1 < < < < 1 9 w w 3 < 1 4 < 1 * < m w 1 < < < < < < < < < < 1 1 1 1 4 1 1 w i w 1 < 1 < < w i 1 4 1 < 1 w < 1 3 1 i 1 4 1 1 < < w m p i w 3 1 w w i w 1 w 1 1 i m 1 1 w i w 1 4 1 1 w i i p i 1 1 w 1 1 9 i i i i 1 w w 1 1 i w 1 1 < 1 i 1 w i i i i i i i i i w m m m m i w 3 1 w m w w i 3 i i M w i M p w i w 1 i i 3 4 1 w i i 1 < 1 i p p m m w w i 1 1 3 1 w 1 w 3 4 1 1 & 1 < < 1 w w w w 1 < < 1 w i i 1 < < < 1 w w w w 1 1 1 4 < 1 i i m p i i 3 1 w i p i w 1 i p p w i i 1 p m 9 i i ",
"w w 3 1 1 4 < < < < < * < < < 4 < < < < 4 4 4 * < < < < 4 4 4 4 < < < < < 4 4 4 < < < < 4 4 4 , < < < , 4 4 < < 4 < < < < < 1 1 < < < < < < < 1 1 < < < 1 1 1 < 1 1 1 1 1 1 1 1 < < < < < < < < < < < < < < < < < < < < < < < < 1 < 1 1 1 1 1 1 1 1 1 1 3 3 w w 1 1 1 1 1 1 1 1 1 1 1 1 1 1 1 1 1 1 1 1 1 < < < < < < < < < < < < < < 1 1 1 1 1 < < < < 1 1 3 1 3 1 3 3 3 3 3 3 w w w w w w 3 3 3 1 3 1 3 1 3 1 3 1 3 1 3 1 1 1 1 1 1 1 4 4 < < 4 < 4 4 4 4 1 1 < < < < < < < < 4 4 4 4 * * * * < < < < < < < < & < < < < 4 # < 1 < < o # , O < & # # & & & # & & & # # # # o o & o & O # 4 & < 1 < , , , & , O # & # # , # # & < # # & # # # X O # # # & < , & , & < < # & < & & # # , < < < < # # # # # # , < & & & & & # & 4 & & & & & & & < < & # # # & & , 1 1 < * , 4 , & & < 4 < < 4 1 < i 3 w i 3 1 w 3 < 1 1 3 w w < 1 , < < < 1 1 < 3 < w < 1 1 < 3 1 1 < 1 1 < < 1 , < < < < & , 1 , 1 1 < , < & & < < # & < < < < 1 < < 1 1 < 1 w < 1 1 < , & , & & & & & , < , & # w < 4 1 < & 4 , < & < 1 < < 1 1 & # & & # & < < & 4 < & < 1 < < < 1 & < 1 & 1 < ",
"< < < , & & # # # # # # # # & & & & & & & # # # & & & & & & & & , , & & # # # # # # # # O o o o o o X . . . X X . o o o X . . . o o # # O o X o o o o o O O O O X X X o o o O O # # # # O O O O # # # # # # # # o o # # # # # # o o o # # # # # X X X X o # # # # # # # # # O O # # # # # # # # # # # # # # # # # # # # # # # # # # # # # # # O # # # # # # # # # # O # # # # O # # # # # # O O & & & & & & & & , , , , & & # # # & & & & & & & & & & & & & * * < < 4 4 & & & & & & & & & & & & , , , , & & , , < < & # < < < 1 # # < & < < # < , & & < < < & & , , 4 < < < 4 < , & 1 & # < < i , < # , , & , o # , & # , # # , & # # & # & < < & < , & # & , , & & < < , 4 1 & , < < & & < < & < < < 1 < < , , < < < 1 < < < < < < < < < < < < < < 1 1 1 1 1 < , 1 3 < < 1 w 3 < 1 < 3 3 < 3 1 1 4 < 3 < < 1 < < 1 < , < < & 1 1 3 < < 1 < & < 1 3 < 1 1 & 1 , & & < , # < < # < , < < 4 1 3 , 4 1 1 < 1 < < w 3 < 1 1 1 < & < < < 1 < & 4 1 < # < 1 < < 1 < , 1 < < < < < < < < # < w 1 4 < 4 3 # & < < & < < 1 < 1 1 , < < & # < 4 & < < & & , < # & , # < & "
};
